/* XPM */
static char * lutin2_xpm[] = {
"128 128 1161 2",
"  	c #0000FF",
". 	c #108A16",
"+ 	c #FFFFFF",
"@ 	c #128C16",
"# 	c #018415",
"$ 	c #007D14",
"% 	c #007F14",
"& 	c #007E14",
"* 	c #0F8916",
"= 	c #128B16",
"- 	c #068114",
"; 	c #57A41B",
"> 	c #AAC822",
", 	c #A0BF20",
"' 	c #A9C220",
") 	c #97BC1F",
"! 	c #168D17",
"~ 	c #088715",
"{ 	c #0F9C16",
"] 	c #008F12",
"^ 	c #8DC11E",
"/ 	c #FFF42A",
"( 	c #FFF428",
"_ 	c #FFFF2A",
": 	c #FFFF29",
"< 	c #FFEC28",
"[ 	c #FFE226",
"} 	c #1AA017",
"| 	c #009715",
"1 	c #145117",
"2 	c #003A15",
"3 	c #80951E",
"4 	c #FFF529",
"5 	c #C3B522",
"6 	c #6F681D",
"7 	c #7C771E",
"8 	c #716D1E",
"9 	c #8C861F",
"0 	c #FEE726",
"a 	c #E5D625",
"b 	c #1E5718",
"c 	c #084816",
"d 	c #1C111B",
"e 	c #000019",
"f 	c #877820",
"g 	c #938C21",
"h 	c #000016",
"i 	c #000318",
"j 	c #000017",
"k 	c #1C241A",
"l 	c #FFF427",
"m 	c #EFDB27",
"n 	c #26191C",
"o 	c #0F051A",
"p 	c #190E18",
"q 	c #190D18",
"r 	c #121511",
"s 	c #121612",
"t 	c #00000F",
"u 	c #777019",
"v 	c #FFF926",
"w 	c #8F861B",
"x 	c #00020F",
"y 	c #020710",
"z 	c #2F3114",
"A 	c #EFDC23",
"B 	c #D8C721",
"C 	c #1B1E13",
"D 	c #070B11",
"E 	c #111611",
"F 	c #181E18",
"G 	c #182018",
"H 	c #181F18",
"I 	c #060005",
"J 	c #060006",
"K 	c #000002",
"L 	c #715A10",
"M 	c #FFFF23",
"N 	c #8A7114",
"O 	c #000003",
"P 	c #261609",
"Q 	c #F2CE1F",
"R 	c #D8B71B",
"S 	c #100207",
"T 	c #000005",
"U 	c #050004",
"V 	c #191E19",
"W 	c #1B261B",
"X 	c #1A221A",
"Y 	c #09350C",
"Z 	c #09250A",
"` 	c #092A0B",
" .	c #032309",
"..	c #4A6411",
"+.	c #B1C71C",
"@.	c #5A7313",
"#.	c #03230A",
"$.	c #1C3C0D",
"%.	c #99AB19",
"&.	c #899D17",
"*.	c #0F2F0C",
"=.	c #092A0A",
"-.	c #09290B",
";.	c #131A13",
">.	c #141714",
",.	c #131813",
"'.	c #096A0E",
").	c #096D0E",
"!.	c #09780F",
"~.	c #09770F",
"{.	c #0B780F",
"].	c #006D0E",
"^.	c #005B0C",
"/.	c #006A0E",
"(.	c #06740F",
"_.	c #00600C",
":.	c #00630D",
"<.	c #08760F",
"[.	c #0A7C0F",
"}.	c #09750F",
"|.	c #070908",
"1.	c #070007",
"2.	c #070006",
"3.	c #0B7310",
"4.	c #0B7411",
"5.	c #0B7710",
"6.	c #0B7210",
"7.	c #09260B",
"8.	c #09160A",
"9.	c #091D0A",
"0.	c #091409",
"a.	c #0A6C0E",
"b.	c #0A6B0E",
"c.	c #0F8715",
"d.	c #118F17",
"e.	c #108B16",
"f.	c #108C16",
"g.	c #0B7410",
"h.	c #0A6F0E",
"i.	c #0A710F",
"j.	c #0A740F",
"k.	c #096C0E",
"l.	c #0B7110",
"m.	c #0B7010",
"n.	c #118D17",
"o.	c #0B7511",
"p.	c #0B700F",
"q.	c #096B0E",
"r.	c #0D7912",
"s.	c #09690E",
"t.	c #0A6D0F",
"u.	c #119017",
"v.	c #0D7B12",
"w.	c #0A6E0F",
"x.	c #0B7311",
"y.	c #0F8915",
"z.	c #108815",
"A.	c #0F8C16",
"B.	c #108916",
"C.	c #0E8F16",
"D.	c #0F8415",
"E.	c #0F8615",
"F.	c #0D9217",
"G.	c #157E15",
"H.	c #32360F",
"I.	c #32350F",
"J.	c #31380F",
"K.	c #362C0E",
"L.	c #1C6C14",
"M.	c #0B9617",
"N.	c #0C7B12",
"O.	c #08670D",
"P.	c #118C17",
"Q.	c #118816",
"R.	c #0B9717",
"S.	c #06A218",
"T.	c #138316",
"U.	c #3F180C",
"V.	c #3F160C",
"W.	c #3D1A0C",
"X.	c #45090B",
"Y.	c #1E6813",
"Z.	c #04A818",
"`.	c #0C9417",
" +	c #0D7B13",
".+	c #08650D",
"++	c #1B6F14",
"@+	c #303A0F",
"#+	c #2C4510",
"$+	c #2B4810",
"%+	c #2E4010",
"&+	c #39240D",
"*+	c #39250D",
"=+	c #3B210D",
"-+	c #31390F",
";+	c #2A4910",
">+	c #2F3D0F",
",+	c #275111",
"'+	c #0F8D16",
")+	c #0F8B16",
"!+	c #0E7F13",
"~+	c #0F8314",
"{+	c #118716",
"]+	c #089D18",
"^+	c #099A17",
"/+	c #02AE19",
"(+	c #1E6814",
"_+	c #46040A",
":+	c #3F170C",
"<+	c #42190E",
"[+	c #3A1608",
"}+	c #1C0A00",
"|+	c #1D0A00",
"1+	c #1B0800",
"2+	c #321F07",
"3+	c #3B2A0F",
"4+	c #3C1C0C",
"5+	c #3F150C",
"6+	c #44090A",
"7+	c #352F0E",
"8+	c #07A117",
"9+	c #089D17",
"0+	c #099B17",
"a+	c #0A9A17",
"b+	c #0D9317",
"c+	c #2B4710",
"d+	c #275011",
"e+	c #255711",
"f+	c #3C1F0D",
"g+	c #2F1C06",
"h+	c #47331B",
"i+	c #9E876D",
"j+	c #9F876D",
"k+	c #9C856A",
"l+	c #9D866B",
"m+	c #A38C71",
"n+	c #503C23",
"o+	c #2E1A06",
"p+	c #3B200D",
"q+	c #362D0E",
"r+	c #275211",
"s+	c #294E11",
"t+	c #128415",
"u+	c #0E8F17",
"v+	c #118E17",
"w+	c #0E8014",
"x+	c #08680D",
"y+	c #00B219",
"z+	c #2A4B11",
"A+	c #4C040C",
"B+	c #310700",
"C+	c #200000",
"D+	c #2B0A00",
"E+	c #3C2C0F",
"F+	c #251200",
"G+	c #564129",
"H+	c #FFECCF",
"I+	c #FFE8CA",
"J+	c #FFE9CB",
"K+	c #FFF8DA",
"L+	c #533E26",
"M+	c #020000",
"N+	c #1C0900",
"O+	c #180500",
"P+	c #2B1800",
"Q+	c #422B0F",
"R+	c #2D1902",
"S+	c #180100",
"T+	c #3C2A0F",
"U+	c #3A220D",
"V+	c #40140C",
"W+	c #40150C",
"X+	c #42100C",
"Y+	c #3E170C",
"Z+	c #0E7E14",
"`+	c #08640D",
" @	c #225D12",
".@	c #303B0F",
"+@	c #2F0F06",
"@@	c #614C32",
"#@	c #968B72",
"$@	c #6B553C",
"%@	c #2D1907",
"&@	c #281500",
"*@	c #523D25",
"=@	c #EAD1B4",
"-@	c #EBD1B4",
";@	c #E6CDB0",
">@	c #E7CEB1",
",@	c #EDD3B6",
"'@	c #A0896E",
")@	c #7F6952",
"!@	c #8A7459",
"~@	c #968166",
"{@	c #5F4A31",
"]@	c #1F1407",
"^@	c #5B462D",
"/@	c #968B70",
"(@	c #715B42",
"_@	c #301C07",
":@	c #38270D",
"<@	c #148015",
"[@	c #0F8515",
"}@	c #0C7912",
"|@	c #4A060C",
"1@	c #2D1000",
"2@	c #000000",
"3@	c #9C866A",
"4@	c #C4AC90",
"5@	c #1A0700",
"6@	c #0A0000",
"7@	c #3C2811",
"8@	c #EBD2B5",
"9@	c #ECD2B5",
"0@	c #E4CBAE",
"a@	c #FCE2C5",
"b@	c #FFECCD",
"c@	c #FFFFEB",
"d@	c #998167",
"e@	c #8E785D",
"f@	c #BCA58A",
"g@	c #060000",
"h@	c #200D00",
"i@	c #1E0B00",
"j@	c #220F00",
"k@	c #39280E",
"l@	c #0E8E16",
"m@	c #06A318",
"n@	c #2D4210",
"o@	c #350F08",
"p@	c #5E4930",
"q@	c #6E6152",
"r@	c #8F795E",
"s@	c #ADA792",
"t@	c #7D674D",
"u@	c #4A351C",
"v@	c #725D45",
"w@	c #887157",
"x@	c #E9D0B3",
"y@	c #8B745A",
"z@	c #010000",
"A@	c #826C52",
"B@	c #FFF7D8",
"C@	c #C3AC90",
"D@	c #6A553F",
"E@	c #776148",
"F@	c #7C664C",
"G@	c #725C43",
"H@	c #3C240E",
"I@	c #35230A",
"J@	c #225F12",
"K@	c #1E6913",
"L@	c #138315",
"M@	c #0F8E16",
"N@	c #210000",
"O@	c #AE977C",
"P@	c #877057",
"Q@	c #160300",
"R@	c #0D0000",
"S@	c #5E472D",
"T@	c #FFF4D2",
"U@	c #FCE0BF",
"V@	c #FBE1C3",
"W@	c #F8DFC1",
"X@	c #E5CCAF",
"Y@	c #E6CDB1",
"Z@	c #E4C9A9",
"`@	c #E3C7A7",
" #	c #F1D7B8",
".#	c #FFFFE3",
"+#	c #8A7258",
"@#	c #766147",
"##	c #EED4B7",
"$#	c #FFE7C9",
"%#	c #FEE5C7",
"&#	c #FFF5D6",
"*#	c #1B0700",
"=#	c #3D140A",
"-#	c #43120D",
";#	c #197314",
">#	c #1A7114",
",#	c #1A7314",
"'#	c #187614",
")#	c #177814",
"!#	c #230300",
"~#	c #FFF9DE",
"{#	c #A58D73",
"]#	c #4B3729",
"^#	c #614C33",
"/#	c #503B27",
"(#	c #867159",
"_#	c #F8E4CE",
":#	c #E6D2BB",
"<#	c #BCA489",
"[#	c #C0A88D",
"}#	c #E8CFB2",
"|#	c #E6CCAF",
"1#	c #EAD6BE",
"2#	c #ECD9C2",
"3#	c #CFB9A0",
"4#	c #C5B39C",
"5#	c #8E775D",
"6#	c #3C362F",
"7#	c #998368",
"8#	c #F9E2C4",
"9#	c #F0D7B9",
"0#	c #DAC1A5",
"a#	c #665037",
"b#	c #5A452D",
"c#	c #3E2710",
"d#	c #381D0A",
"e#	c #0C9517",
"f#	c #3E180C",
"g#	c #3C1E0C",
"h#	c #0F8D17",
"i#	c #089F18",
"j#	c #34300E",
"k#	c #41110B",
"l#	c #3A230D",
"m#	c #1E0C00",
"n#	c #FFE5C7",
"o#	c #ECD3B6",
"p#	c #F5DBBD",
"q#	c #F3D9BC",
"r#	c #F1D4B2",
"s#	c #F7E4CF",
"t#	c #E3E1E0",
"u#	c #231000",
"v#	c #38250E",
"w#	c #DEC5A8",
"x#	c #F1D7BA",
"y#	c #E6CDAF",
"z#	c #E4C9AA",
"A#	c #FAF6F0",
"B#	c #7E7366",
"C#	c #988268",
"D#	c #FFF9D8",
"E#	c #EDD4B7",
"F#	c #F7DDBF",
"G#	c #F6DCBF",
"H#	c #FAE1C3",
"I#	c #EFD6B8",
"J#	c #4B341D",
"K#	c #2C1200",
"L#	c #157D15",
"M#	c #0AA119",
"N#	c #02890D",
"O#	c #008104",
"P#	c #088710",
"Q#	c #118B18",
"R#	c #0C9317",
"S#	c #157F15",
"T#	c #3A240D",
"U#	c #177915",
"V#	c #118616",
"W#	c #33320E",
"X#	c #3D1B0C",
"Y#	c #E8CFB1",
"Z#	c #E5C9A7",
"`#	c #EEDBC6",
" $	c #E3E0DD",
".$	c #2E1B05",
"+$	c #432F18",
"@$	c #DFC6A9",
"#$	c #F0D6B9",
"$$	c #F9F3ED",
"%$	c #84786A",
"&$	c #050000",
"*$	c #978167",
"=$	c #FFEACB",
"-$	c #E2C9AC",
";$	c #CEB69A",
">$	c #D2BA9D",
",$	c #EED5B8",
"'$	c #4A331C",
")$	c #2D1300",
"!$	c #1C6C13",
"~$	c #0F8514",
"{$	c #238C22",
"]$	c #2D962F",
"^$	c #1B8E1E",
"/$	c #0E8913",
"($	c #0D9418",
"_$	c #147E14",
":$	c #2F1B03",
"<$	c #311704",
"[$	c #39240C",
"}$	c #3A250E",
"|$	c #3A260E",
"1$	c #321E06",
"2$	c #110000",
"3$	c #E3C7A6",
"4$	c #EDDAC5",
"5$	c #E1DEDB",
"6$	c #241000",
"7$	c #DFC5A8",
"8$	c #F9F3EC",
"9$	c #7E7163",
"0$	c #927B61",
"a$	c #F9DFC2",
"b$	c #C6AE92",
"c$	c #453118",
"d$	c #F4DBBD",
"e$	c #F5DCBF",
"f$	c #4A361E",
"g$	c #311D06",
"h$	c #180400",
"i$	c #AC9479",
"j$	c #FFF1E2",
"k$	c #6EA759",
"l$	c #007F00",
"m$	c #099216",
"n$	c #017907",
"o$	c #3E2B11",
"p$	c #442815",
"q$	c #3B220D",
"r$	c #3A210C",
"s$	c #38250C",
"t$	c #3E2A12",
"u$	c #271408",
"v$	c #FEE6C8",
"w$	c #E4E1DE",
"x$	c #392711",
"y$	c #4C3922",
"z$	c #F0D5B8",
"A$	c #8A7F71",
"B$	c #110B0B",
"C$	c #9B856C",
"D$	c #FEE7C7",
"E$	c #FAE0C3",
"F$	c #C5AD91",
"G$	c #3F2B12",
"H$	c #E2CAAD",
"I$	c #48341C",
"J$	c #402812",
"K$	c #2E1507",
"L$	c #B69A81",
"M$	c #FFF1E5",
"N$	c #70A85B",
"O$	c #ECD0B9",
"P$	c #D9BEA3",
"Q$	c #402C13",
"R$	c #291500",
"S$	c #37230B",
"T$	c #2A1501",
"U$	c #AD967B",
"V$	c #EED5B9",
"W$	c #EDDAC6",
"X$	c #FEFEFF",
"Y$	c #F3F2F2",
"Z$	c #F3F1EE",
"`$	c #E7CEB3",
" %	c #E6CBAC",
".%	c #F9F4EE",
"+%	c #F8F8F8",
"@%	c #F0F0F1",
"#%	c #EDDFCF",
"$%	c #E4C7A5",
"%%	c #2C1801",
"&%	c #402B13",
"*%	c #331F07",
"=%	c #BAA387",
"-%	c #ECD2B6",
";%	c #E6CBAF",
">%	c #FFDCD0",
",%	c #6FA85B",
"'%	c #FFE5CC",
")%	c #EAD1B3",
"!%	c #422E15",
"~%	c #281400",
"{%	c #271300",
"]%	c #BDA58A",
"^%	c #FFF0D2",
"/%	c #E8D0B5",
"(%	c #F9F4ED",
"_%	c #F8ECDD",
":%	c #E0C3A0",
"<%	c #2E1A03",
"[%	c #311D05",
"}%	c #2A1600",
"|%	c #2C1902",
"1%	c #CCB498",
"2%	c #FFEDCF",
"3%	c #EDD2B6",
"4%	c #FFD8CC",
"5%	c #6FA85A",
"6%	c #D1B99D",
"7%	c #CFB69A",
"8%	c #4F3A22",
"9%	c #B59D82",
"0%	c #E7CFB3",
"a%	c #EAD4BC",
"b%	c #EAD4BB",
"c%	c #E9D3B9",
"d%	c #E8D1B6",
"e%	c #E5CCAE",
"f%	c #E1C8AC",
"g%	c #CBB397",
"h%	c #CCB497",
"i%	c #CCB397",
"j%	c #CBB396",
"k%	c #E1C8AB",
"l%	c #FED6C3",
"m%	c #6BA758",
"n%	c #268E1F",
"o%	c #1E8E20",
"p%	c #0E8813",
"q%	c #FBE1C4",
"r%	c #4A351D",
"s%	c #B1997E",
"t%	c #FEE4C7",
"u%	c #E6CEB1",
"v%	c #E6CFB2",
"w%	c #E6CFB3",
"x%	c #E5CDAF",
"y%	c #E4C8A8",
"z%	c #E4C8A9",
"A%	c #E5CBAC",
"B%	c #E4CDB0",
"C%	c #E9D2B4",
"D%	c #F8E0C2",
"E%	c #F7DFC2",
"F%	c #F7DDC0",
"G%	c #F7DEC0",
"H%	c #F8DEC1",
"I%	c #FFD4C3",
"J%	c #3A9835",
"K%	c #007800",
"L%	c #078710",
"M%	c #128B18",
"N%	c #BFA78B",
"O%	c #AE9781",
"P%	c #D9C0A4",
"Q%	c #ECD5B8",
"R%	c #E5C6A9",
"S%	c #E5BEA1",
"T%	c #E5C1A4",
"U%	c #E5BFA2",
"V%	c #E5C4A7",
"W%	c #E5C8AB",
"X%	c #E5C0A3",
"Y%	c #FFD6C4",
"Z%	c #66A554",
"`%	c #FFE6C6",
" &	c #E3CEB1",
".&	c #E3B396",
"+&	c #E3B79A",
"@&	c #E3B598",
"#&	c #E6D0B3",
"$&	c #E7CEB2",
"%&	c #E2C5A4",
"&&	c #E7D2B6",
"*&	c #E3B699",
"=&	c #E3B99C",
"-&	c #EDCFB5",
";&	c #E6C9AC",
">&	c #E5C5A8",
",&	c #E6C8AB",
"'&	c #F0E1CE",
")&	c #F5EBE0",
"!&	c #EDDCC7",
"~&	c #E6CAAD",
"{&	c #E5C7AA",
"]&	c #E7D1B5",
"^&	c #E5CDAE",
"/&	c #E2C4A2",
"(&	c #E2C5A3",
"_&	c #DDBB94",
":&	c #F7EFE5",
"<&	c #F4E9DB",
"[&	c #E1C3A1",
"}&	c #E4CAAB",
"|&	c #F3E6D8",
"1&	c #F1E3D2",
"2&	c #FBF6F1",
"3&	c #F2E5D5",
"4&	c #EFDECC",
"5&	c #E1C4A1",
"6&	c #EAD5BD",
"7&	c #F4E9DC",
"8&	c #F7EEE4",
"9&	c #F9F2EB",
"0&	c #F3E8DB",
"a&	c #EDDBC6",
"b&	c #E1C9AC",
"c&	c #E7CDB0",
"d&	c #E6CEB2",
"e&	c #E5CBAD",
"f&	c #E0BF9A",
"g&	c #EEDCC9",
"h&	c #DDBC94",
"i&	c #E9D0B2",
"j&	c #D7C0A6",
"k&	c #D5BFA4",
"l&	c #E5C9AA",
"m&	c #E9D2B9",
"n&	c #F8F1E9",
"o&	c #ECDAC5",
"p&	c #E3C8A7",
"q&	c #E3CBAE",
"r&	c #E2C9AD",
"s&	c #D9C2A7",
"t&	c #D8C1A7",
"u&	c #E9CFB2",
"v&	c #D6C1A6",
"w&	c #D8C1A6",
"x&	c #E5CDB0",
"y&	c #D8C2A7",
"z&	c #E3CAAD",
"A&	c #E1C9AD",
"B&	c #D7C1A6",
"C&	c #D6C1A5",
"D&	c #E0C8AC",
"E&	c #D8C0A6",
"F&	c #E5C8AF",
"G&	c #E8CEB1",
"H&	c #EACFB3",
"I&	c #EBCFB3",
"J&	c #D6BFA5",
"K&	c #DFC5AB",
"L&	c #E3C7AD",
"M&	c #DEC4AA",
"N&	c #D8C2A6",
"O&	c #DAC3A8",
"P&	c #DBC3A8",
"Q&	c #DAC3A7",
"R&	c #DCC5AA",
"S&	c #E4CCAF",
"T&	c #F5D4B9",
"U&	c #CFC1A1",
"V&	c #1B6A2E",
"W&	c #226D32",
"X&	c #2B7137",
"Y&	c #2A7137",
"Z&	c #E2C5AD",
"`&	c #DAC2A8",
" *	c #D6C0A5",
".*	c #DDC5AA",
"+*	c #F5D5BA",
"@*	c #D7C6A7",
"#*	c #2E733A",
"$*	c #216D31",
"%*	c #2C7239",
"&*	c #256F34",
"**	c #156729",
"=*	c #17682A",
"-*	c #0A6122",
";*	c #DAC6A8",
">*	c #EFD0B6",
",*	c #E3CAAE",
"'*	c #E4CBAF",
")*	c #F4D4B9",
"!*	c #D6C5A6",
"~*	c #297036",
"{*	c #296F36",
"]*	c #1E6B2F",
"^*	c #35763E",
"/*	c #DFCAAC",
"(*	c #F3D3B8",
"_*	c #2D763A",
":*	c #307A3D",
"<*	c #2F793C",
"[*	c #30793D",
"}*	c #2E773B",
"|*	c #DEC9AB",
"1*	c #F1D2B7",
"2*	c #2D753A",
"3*	c #0B6223",
"4*	c #246D33",
"5*	c #2C7038",
"6*	c #276C34",
"7*	c #2F783C",
"8*	c #348141",
"9*	c #337F40",
"0*	c #348041",
"a*	c #317B3E",
"b*	c #1C6A2E",
"c*	c #37773F",
"d*	c #FDD8BF",
"e*	c #FFE2CC",
"f*	c #EACFB2",
"g*	c #E3CCAE",
"h*	c #ECD0B4",
"i*	c #FFE5CF",
"j*	c #F3D3B9",
"k*	c #2F733A",
"l*	c #206C30",
"m*	c #35763F",
"n*	c #8FA378",
"o*	c #93A47A",
"p*	c #92A47A",
"q*	c #3E7E45",
"r*	c #257335",
"s*	c #327E3F",
"t*	c #327D3F",
"u*	c #337E40",
"v*	c #246E33",
"w*	c #7A986A",
"x*	c #859D71",
"y*	c #D9C7A8",
"z*	c #EFD1B6",
"A*	c #D4C4A4",
"B*	c #839C70",
"C*	c #789769",
"D*	c #2C7238",
"E*	c #266F34",
"F*	c #2E783B",
"G*	c #166629",
"H*	c #417B46",
"I*	c #FFDCC4",
"J*	c #FFE0C9",
"K*	c #FFDEC7",
"L*	c #FFDEC9",
"M*	c #558E55",
"N*	c #1E7632",
"O*	c #287036",
"P*	c #055F1F",
"Q*	c #076021",
"R*	c #E5CCB0",
"S*	c #FFE8D3",
"T*	c #EDD1B5",
"U*	c #E2CBAE",
"V*	c #E2CBAD",
"W*	c #EFD2B6",
"X*	c #FFEBD7",
"Y*	c #D7C5A6",
"Z*	c #005B1B",
"`*	c #297137",
" =	c #2B7238",
".=	c #276E34",
"+=	c #358242",
"@=	c #2F7A3C",
"#=	c #2A7037",
"$=	c #2C7339",
"%=	c #1D6F30",
"&=	c #428048",
"*=	c #EDD0B4",
"==	c #ECCFB4",
"-=	c #4F8A51",
";=	c #207533",
">=	c #276F35",
",=	c #869E72",
"'=	c #98A67E",
")=	c #D2C3A3",
"!=	c #F0D2B6",
"~=	c #CDC1A0",
"{=	c #96A67D",
"]=	c #819B6F",
"^=	c #307B3D",
"/=	c #2F773C",
"(=	c #368343",
"_=	c #247A38",
":=	c #48894E",
"<=	c #3A8144",
"[=	c #056922",
"}=	c #19722F",
"|=	c #16702D",
"1=	c #257737",
"2=	c #367F42",
"3=	c #286E35",
"4=	c #2B7138",
"5=	c #0D6324",
"6=	c #005816",
"7=	c #C5BD9B",
"8=	c #FFDAC1",
"9=	c #FFE9D5",
"0=	c #B4B591",
"a=	c #00520F",
"b=	c #116527",
"c=	c #296E36",
"d=	c #317C3E",
"e=	c #358042",
"f=	c #358142",
"g=	c #2B7338",
"h=	c #1F7232",
"i=	c #44824A",
"j=	c #E9CEB2",
"k=	c #EACEB3",
"l=	c #80A070",
"m=	c #60915B",
"n=	c #6C9763",
"o=	c #749B6A",
"p=	c #287939",
"q=	c #2C7539",
"r=	c #2C7439",
"s=	c #216C31",
"t=	c #8BA075",
"u=	c #B8B792",
"v=	c #A9AF89",
"w=	c #BAB794",
"x=	c #829C70",
"y=	c #286D35",
"z=	c #378444",
"A=	c #276B34",
"B=	c #2A6F37",
"C=	c #246C32",
"D=	c #015C1C",
"E=	c #2B7038",
"F=	c #EED0B4",
"G=	c #F9D5BC",
"H=	c #FED8BF",
"I=	c #FFE7D4",
"J=	c #99AC7F",
"K=	c #106E29",
"L=	c #327C3F",
"M=	c #2B7037",
"N=	c #18682B",
"O=	c #106527",
"P=	c #126528",
"Q=	c #126427",
"R=	c #106526",
"S=	c #1A692C",
"T=	c #2C7138",
"U=	c #277236",
"V=	c #33773E",
"W=	c #457E48",
"X=	c #618B5A",
"Y=	c #ECCFB3",
"Z=	c #FDD8C1",
"`=	c #8CA577",
" -	c #14702C",
".-	c #2A7237",
"+-	c #2B7339",
"@-	c #297037",
"#-	c #1C7432",
"$-	c #5B915A",
"%-	c #FDD7BE",
"&-	c #DCC4A9",
"*-	c #D5BFA5",
"=-	c #F4CCB7",
"--	c #869F73",
";-	c #16712E",
">-	c #338040",
",-	c #327F3F",
"'-	c #1D7432",
")-	c #5A8F58",
"!-	c #DEC6AB",
"~-	c #F6CFB9",
"{-	c #88A174",
"]-	c #598F58",
"^-	c #F2D2B7",
"/-	c #FFDAC3",
"(-	c #8DA678",
"_-	c #DEC6AA",
":-	c #87A074",
"<-	c #D5C0A5",
"[-	c #F4CDB7",
"}-	c #869F74",
"|-	c #286F35",
"1-	c #1B7330",
"2-	c #5E915B",
"3-	c #FFDDC6",
"4-	c #FAD6BD",
"5-	c #FBD7BD",
"6-	c #FCD7BE",
"7-	c #FFE6D3",
"8-	c #98AB7F",
"9-	c #106E2A",
"0-	c #266B33",
"a-	c #2E763B",
"b-	c #2C7B3C",
"c-	c #3D8145",
"d-	c #678E5E",
"e-	c #668E5D",
"f-	c #6A9662",
"g-	c #719A68",
"h-	c #4E8A51",
"i-	c #297939",
"j-	c #276D34",
"k-	c #378143",
"l-	c #2B793A",
"m-	c #0E6225",
"n-	c #126628",
"o-	c #1A7230",
"p-	c #17712D",
"q-	c #267837",
"r-	c #317A3E",
"s-	c #347F41",
"t-	c #30783D",
"u-	c #266C33",
"v-	c #1F7438",
"w-	c #1E7237",
"x-	c #1D7136",
"y-	c #1D7236",
"z-	c #1C7136",
"A-	c #1A6F34",
"B-	c #1A6F35",
"C-	c #1E7236",
"D-	c #1E7337",
"E-	c #21753A",
"F-	c #1B7333",
"G-	c #14702B",
"H-	c #16712D",
"I-	c #16722D",
"J-	c #0E6325",
"K-	c #486A35",
"L-	c #466935",
"M-	c #4A6C37",
"N-	c #51713A",
"O-	c #4F7039",
"P-	c #507139",
"Q-	c #496B36",
"R-	c #476935",
"S-	c #3F612C",
"T-	c #60824F",
"U-	c #83A676",
"V-	c #7B9D6D",
"W-	c #7B9E6D",
"X-	c #729365",
"Y-	c #709163",
"Z-	c #7E5C32",
"`-	c #7F5D33",
" ;	c #7D5B32",
".;	c #78572E",
"+;	c #856236",
"@;	c #987140",
"#;	c #946F3E",
"$;	c #96703E",
"%;	c #815E34",
"&;	c #795730",
"*;	c #7F5C33",
"=;	c #69481A",
"-;	c #BB9675",
";;	c #FFEEDA",
">;	c #FFD9C2",
",;	c #FFDAC2",
"';	c #F5D0B9",
");	c #F3CEB7",
"!;	c #735F33",
"~;	c #725E32",
"{;	c #766134",
"];	c #776335",
"^;	c #7D6839",
"/;	c #88703E",
"(;	c #866F3D",
"_;	c #87703D",
":;	c #7B6637",
"<;	c #786335",
"[;	c #756034",
"};	c #725E33",
"|;	c #604D1E",
"1;	c #A8926D",
"2;	c #F9DFC5",
"3;	c #E7CEB0",
"4;	c #6D5A2F",
"5;	c #7C6738",
"6;	c #8C7441",
"7;	c #87703E",
"8;	c #8B733F",
"9;	c #786336",
"0;	c #6D5B31",
"a;	c #756134",
"b;	c #745F33",
"c;	c #7E6839",
"d;	c #89723F",
"e;	c #88713E",
"f;	c #746034",
"g;	c #6E5C30",
"h;	c #7E6939",
"i;	c #8A7240",
"j;	c #8A7340",
"k;	c #7A6637",
"l;	c #5B481C",
"m;	c #A7916D",
"n;	c #7F6A39",
"o;	c #89713F",
"p;	c #5F4C1E",
"q;	c #A9936D",
"r;	c #715D32",
"s;	c #816A3A",
"t;	c #745F29",
"u;	c #B49C74",
"v;	c #FCE2C9",
"w;	c #826B3A",
"x;	c #876F3D",
"y;	c #77612B",
"z;	c #B29A72",
"A;	c #F3DAC0",
"B;	c #EDD4B8",
"C;	c #836E3F",
"D;	c #766338",
"E;	c #907B52",
"F;	c #8B7441",
"G;	c #786433",
"H;	c #655225",
"I;	c #5D4A1B",
"J;	c #7D6838",
"K;	c #705C31",
"L;	c #836C3B",
"M;	c #8B7440",
"N;	c #8C7541",
"O;	c #7A6335",
"P;	c #7C6638",
"Q;	c #806A3A",
"R;	c #836D3C",
"S;	c #826C3B",
"T;	c #816B3A",
"U;	c #7A6536",
"V;	c #7D6636",
"W;	c #161E17",
"X;	c #7C6535",
"Y;	c #715E32",
"Z;	c #8C7341",
"`;	c #6D592F",
" >	c #806837",
".>	c #192018",
"+>	c #151D17",
"@>	c #7B6435",
"#>	c #715D31",
"$>	c #856D3D",
"%>	c #826B3B",
"&>	c #846D3C",
"*>	c #856E3D",
"=>	c #796536",
"->	c #7F6737",
";>	c #836A37",
">>	c #7A6435",
",>	c #796335",
"'>	c #766132",
")>	c #816A39",
"!>	c #927842",
"~>	c #8F7540",
"{>	c #8F7640",
"]>	c #89713E",
"^>	c #907640",
"/>	c #907740",
"(>	c #7E6737",
"_>	c #776134",
":>	c #876D3A",
"<>	c #6A5930",
"[>	c #6A5830",
"}>	c #67562E",
"|>	c #705E34",
"1>	c #7E693B",
"2>	c #7B6739",
"3>	c #7A6639",
"4>	c #7C683A",
"5>	c #917740",
"6>	c #8C733F",
"7>	c #8E7540",
"8>	c #796539",
"9>	c #7C6839",
"0>	c #6D5B32",
"a>	c #68562F",
"b>	c #171F18",
"c>	c #111A15",
"d>	c #0E1815",
"e>	c #141C17",
"f>	c #131C16",
"g>	c #0F1A15",
"h>	c #131B16",
"i>	c #181D18",
"j>	c #191B18",
"k>	c #191D18",
"l>	c #182118",
"m>	c #181B18",
"n>	c #191618",
"o>	c #181C18",
"p>	c #181918",
"q>	c #191218",
"r>	c #191018",
"                                                                                        . . . . . . . . . . . . . . . . . . . . . . . . . . . . . . . . . . . .                                                                                                 ",
"                                                                                        . . . . . . . . . . . . . . . . . . . . . . . . . . . . . . . . . . . .                                                                                                 ",
"                                                                                        . . . . . . . . . . . . . . . . . . . . . . . . . . . . . . . . . . . .                                     +     + +                                                   ",
"                                                                                        . . . . . . . . . . . . . . . . . . . . . . . . . . . . . . . . . . . .                                         + +     +                                               ",
"                                                                                        . . . . . . . . . . . . . . . . . . . . . . . . . . . . . . . . . . . .                                         + + +                                                   ",
"                                                                                        . . . . . . . . . . . . . . . . . . . . . . . . . . . . . . . . . . . .                                     +     +     +     +                                         ",
"                                                                                        . . . @ # $ % % % % % & % * = . . . . . . . . . . . . . . . . . . . . .                                 +                                                               ",
"                                                                                        . . . - ; > , , , , , ' ) ! ~ . . . . . . . . . . . . . . . . . . . . .                               + + + +     +     + + + + +                                       ",
"                                                                                        { { { ] ^ / ( _ : : : < [ } | { { { { { { { { { { { { { { { { { { { { {                               + + + +   + + +   + + + + +                                       ",
"                                                                                        1 1 1 2 3 4 5 6 7 8 9 0 a b c 1 1 1 1 1 1 1 1 1 1 1 1 1 1 1 1 1 1 1 1 1                                                                                                 ",
"                                                                                        d d d e f _ g h i j k l m n o d d d d d d d d d d d d d d d d d p q q q                                                                                                 ",
"                                                                                        r s s t u v w x s y z A B C D s s s s s s s s s s s s s s s E s F G H H                               +     +   + + +   + +   +                                         ",
"                                                                                        I J J K L M N K J O P Q R S T J J J J J J J J J J J J J J J U J V W X X                                   + +     + +     +                                             ",
"                                                                                        Y Z `  ...+.@. .` #.$.%.&.*.#.` ` ` ` ` ` ` ` ` ` ` ` ` ` ` =.-.;.>.,.;.                                    +     + +                                                   ",
"                                                                                    '.).!.~.~.{.].^./.{.~.{.(._.:.<.{.~.~.~.~.~.~.~.~.~.~.~.~.~.~.~.[.}.|.1.1.2.                                          +     +                                               ",
"                                                                                    3.4.3.3.3.3.3.3.3.3.3.3.3.3.3.3.3.3.3.3.3.3.3.3.3.3.3.3.3.3.3.3.5.6.7.8.9.0.                                                                                                ",
"                                                                            a.a.b.b.c.d.e.e.e.e.e.e.e.e.e.e.e.e.e.e.e.e.e.e.e.e.e.e.e.e.e.e.e.e.e.e.f.e.g.h.i.i.j.k.                                                                                            ",
"                                                                            l.l.m.m.c.n.. . . . . . . . . . . . . . . . . . . . . . . . . . . . . . e.. o.p.6.6.l.l.                                                                                            ",
"                                                                        q.m.. e.. . . . . . . . . . . . . . . . . . . . . . . . . . . . . . . . . . . . . . . . . d.r.s.t.                                                                                      ",
"                                                                        k.6.e.f.e.e.. . . . . . . . . . . . . . . . . . . . . . . . . . . . . . . . . . e.e.e.e.e.u.v.'.w.                                                                                      ",
"                                                                    q.x.y.z.. . . . . . . . . . . . . . . . . A.A.A.A.A.A.A.A.e.. . . . . . . . . . . . . . . . . . B.c.f.                                                                                      ",
"                                                                    s.x.d.f.. . . . . . . . . . . . . . . . e.C.C.C.C.C.C.C.C.A.B.. . . . . . . . . . . . . . . . . e.d.B.                                                                                      ",
"                                                                    D.E.. . . . . . . . . . . . . . . . . F.G.H.I.J.J.J.J.J.K.L.M.. . . . . . . . . . . . . . . . . . u.N.O.w.                                                                                  ",
"                                                                    n.P.. . . . . . . . . . . . . Q.C.R.M.S.T.U.V.W.W.W.W.W.X.Y.Z.M.M.M.M.M.R.`.B.. . . . . . . . . . u. +.+'.                                                                                  ",
"                                                                    . . . . . . . . . . . . . . . `.++@+#+$+%+&+&+*+*+*+*+*+=+-+;+#+#+#+#+#+>+,+'+)+. . . . . . . . . f.E.!+~+                                                                                  ",
"                                                                    . . . . . . . . . . . {+`.]+^+/+(+_+:+<+[+}+}+|+|+|+1+2+3+4+5+:+:+:+:+:+6+7+8+9+0+a+A.B.. . . . . B.f.d.d.                                                                                  ",
"                                                                    . . . . . . . . . . . b+Y.c+d+e+%+f+*+g+h+i+j+k+k+l+m+n+o+*+*+*+*+*+*+*+p+q+r+,+s+,+t+u+. . . . . . . v+w+x+                                                                                ",
"                                                                    . . . . . . . . . Q.M.y+z+A+B+C+D+E+*+F+G+H+H+I+I+J+K+L+M+N+O+P+Q+R+S+F+T+U+V+W+X+Y+G.b+. . . . . . . d.Z+`+s.                                                                              ",
"                                                                    . . . . . . . . . C.Y. @.@+@@@#@$@%@*+&@*@=@-@;@;@>@,@'@)@!@~@{@]@^@/@(@_@*+*+*+=+:@<@F.. . . . . . . P.[@}@v.                                                                              ",
"                                                                    . . . . . . . . . M.H.|@1@2@3@+ 4@5@2+6@7@8@9@;@;@;@0@a@b@J+c@d@2@e@+ f@g@h@i@j@p+k@l@m@'+Q.. . . . . B.f.d.d.                                                                              ",
"                                                                    . . . . . . . . . `.n@o@p@q@r@s@t@h@u@v@w@x@x@;@;@;@;@;@;@;@J+y@z@A@B@C@D@E@F@G@H@I@J@K@L@M@. . . . . . . . .                                                                               ",
"                                                                    . . B.)+R.M.e.B.`.S.#+N@O@+ P@2@Q@R@S@T@U@V@W@>@X@;@Y@Z@`@ #.#+#2@@#I+##$#%#&#8@&@*#=#-#;#R.. . . . . . . . .                                                                               ",
"                                                                    . . A.{+>#,#B.A.'#)#.@!#'@~#{#]#^#/#(#_#:#<#[#0@}#;@|#1#2#3#4#5#6#7#8#;@;@;@9#0#a#b#c#d#'#e#. . . . . . . . .                                                                               ",
"                                                                    . . `.G.f#g#h#i#j#k#l#m#'@n#o#p#q#r#s#+ t#u#v#w#x#y#z#A#+ B#2@C#D#E#0@;@0@x@F#G#H#I#J#K#L#M#N#O#P#Q#. . . . .                                                                               ",
"                                                                    . . R#S#p+T#U#V#W#X#*+i@'@$#>@}#Y#Z#`#+  $.$+$@$#$y#z#$$+ %$&$*$=$>@;@;@}#-$;$>$,$y#'$)$!$~${$]$^$/$. . . . .                                                                               ",
"                                                                        ($_$:$<$[$}$*+|$1$2$k+I+;@;@;@3$4$+ 5$6$[$7$x#y#z#8$+ 9$2@0$=$;@;@;@a$b$j@c$d$e$f$P+g$h$i$j$k$l$. . .                                                                                   ",
"                                                                        m$n$o$p$q$r$&+s$t$u$m+v$;@;@;@3$4$+ w$x$y$@$z$y#z#8$+ A$B$C$D$;@;@;@E$F$i@G$H$0@I$P+J$K$L$M$N$l$. . .                                                                                   ",
"                                                                            O$P$Q$R$S$T$U$V$-$}#;@;@;@3$W$+ X$Y$Z$`$ %y#z#.%+ +%@%#%$%;@;@;@a$F$%%2+&%&%*%P+=%-%;%>%,%l$. . .                                                                                   ",
"                                                                            '%)%!%~%S${%]%^%-@0@;@;@;@3$4$+ + + + /%z#y#z#(%+ + + _%:%;@;@;@a$F$<%[%}%}%[%|%1%2%3%4%5%l$. . .                                                                                   ",
"                                                                            y#X@6%7%8%O+9%a@;@;@;@;@;@|#0%a%a%a%b%Y@y#;@|#c%a%a%a%d%e%;@;@;@x@f%g%h%1%1%i%j%k%l%m%n%o%p%.                                                                                       ",
"                                                                            X@>@q%%#r%z@s%t%u%v%v%v%v%w%x%y%y%y%z%;@;@;@Y@z#y%y%y%A%u%u%v%v%B%C%D%E%F%F%G%H%x@I%J%K%L%M%.                                                                                       ",
"                                                                                >@>@N%O%P%Q%R%S%T%T%T%U%V%u%;@;@;@;@;@;@;@;@;@;@;@;@v%W%S%T%T%T%X%T%;@u%;@;@;@Y%Z%                                                                                              ",
"                                                                                ;@X@W@`%o# &X%.&+&+&+&@&S%#&;@;@;@;@;@;@;@;@$&y%%&z#&&V%.&+&+&+&*&=&;@u%;@;@;@-&                                                                                                ",
"                                                                                    ;@;@;@u%;&>&R%R%R%R%,&u%;@;@;@;@;@;@;@;@Z@'&)&!&Z@~&>&R%R%R%R%{&;@;@;@;@;@                                                                                                  ",
"                                                                                    ;@;@;@;@v%#&#&#&#&]&^&/&(&(&(&(&(&(&(&(&_&:&+ <&[&u%#&#&#&#&#&v%;@;@;@;@                                                                                                    ",
"                                                                                      ;@;@;@;@;@;@;@;@}&b%|&|&|&|&|&|&|&|&|&1&2&+ 3&(&;@;@;@;@;@;@;@;@;@;@;@                                                                                                    ",
"                                                                                        ;@;@;@;@;@;@;@(&4&+ + + + + + + + + + + + <&5&;@;@;@;@;@;@;@Y#Y#;@;@                                                                                                    ",
"                                                                                        ;@;@;@;@;@;@;@z#6&7&8&+ + + + + + + + 9&0&a&y%;@;@;@;@;@;@;@b&b&c&>@                                                                                                    ",
"                                                                                        ;@;@;@;@;@;@;@d&e&f&`$+ + + + + + + + g&h&z#$&;@;@;@;@;@i&;@j&k&                                                                                                        ",
"                                                                                        ;@;@;@;@;@;@;@;@;@l&m&n&n&n&n&n&n&n&n&o&p&;@;@;@;@;@;@X@q&r&s&t&                                                                                                        ",
"                                                                                            ;@;@;@;@;@;@;@Y@|#y%y%y%y%y%y%y%y%e&u%;@;@;@;@;@u&X@v&w&s&s&                                                                                                        ",
"                                                                                            ;@;@;@;@;@;@;@;@;@;@;@;@;@;@;@;@;@;@;@;@;@;@;@x&X@H$y&s&s&s&                                                                                                        ",
"                                                                                                ;@;@;@;@;@;@;@;@;@;@;@;@;@;@;@;@;@;@;@;@u&z&v&s&s&s&                                                                                                            ",
"                                                                                                  ;@;@;@;@;@;@;@;@;@;@;@;@;@;@;@;@;@;@;@c&A&B&s&s&C&                                                                                                            ",
"                                                                                                          ;@;@;@;@;@c&;@;@;@;@;@;@;@Y#D&E&s&y&s&C&F&                                                                                                            ",
"                                                                                                          G&H&I&u&;@;@;@;@;@;@;@;@;@Y#D&J&s&s&s&K&L&                                                                                                            ",
"                                                                                                                  M&N&O&O&O&O&O&O&O&P&Q&B&R&;@S&T&U&V&W&X&Y&                                                                                                    ",
"                                                                                                                  Z&`&j&j&j&j&j&j&j&j&w& *.*u&>@+*@*#*$*Y&Y&                                                                                                    ",
"                                                                                              Y&Y&Y&Y&%*&***=*-*$*;*>*q&q&q&q&q&q&q&q&q&,*'*;@;@)*!*#*$*Y&Y&Y&Y&Y&Y&Y&Y&                                                                                        ",
"                                                                                            ~*{*{*{*{*{*~*Y&Y&]*^*/*(*G&G&G&G&G&G&G&G&G&G&>@;@;@)*!*#*$*Y&Y&Y&Y&~*{*{*{*~*                                                                                      ",
"                                                                            Y&Y&Y&Y&Y&Y&Y&~*_*:*<*<*<*[*}*~*Y&]*^*|*1*;@;@;@;@;@;@;@;@;@;@;@;@;@)*!*#*$*Y&Y&Y&~*_*:*<*:*2*~*                                                                                    ",
"                                                                            3*-*-*-*4*5*{*6*7*8*9*9*9*0*a*~*Y&b*c*d*e*f*g*;@;@;@;@;@;@;@;@;@q&h*i*j*k*l*Y&Y&Y&~*:*8*9*8*}*6*~*                                                                                  ",
"                                                            Y&Y&Y&Y&Y&Y&$*m*n*o*p*o*q*r*}*}*a*s*t*t*t*u*:*~*Y&v*k*w*x*y*z*;@;@;@;@;@;@;@;@;@1*A*B*C*D*E*Y&Y&Y&~*<*9*t*s*:*F*2*~*                                                                                ",
"                                                          Y&Y&~*{*{*{*{*G*H*I*J*K*L*M*N*9*9*s*t*t*t*t*u*:*~*Y&D*O*P*Q*R*S*T*U*;@;@;@;@;@V*W*X*Y*Z*-*`* =Y&Y&{*.=7*9*t*t*u*+=@=6*~*                                                                              ",
"                                                          Y&#=$=}*_*_*_*%=&=;@*=H&==-=;=t*t*t*t*t*t*t*u*:*~*Y&Y&Y&>=~*,='=)=!=;@;@;@;@;@1*~={=]=&*O*Y&Y&Y&Y&2*_*^=u*t*t*t*u*^=_*2*                                                                              ",
"                                                      Y&Y&~*6*/=(=8*8*8*_=:=;@*=I&-&<=[=}=}=}=|=1=2=t*u*:*3=~*Y&Y&4=Y&5=6=7=S*8=8=8=8=8=9=0=a=b= =Y&Y&Y&{*c=d=e=s*t*t*t*t*t*s*f=a*.={*                                                                          ",
"                                                      Y&#=g=2*}*:*<*<*<*h=i=;@*=j=k=l=m=n=n=n=o=-=p=t*u*a*q=r=Y&Y&Y&Y&~*s=t=u=v=v=v=v=v=w=x=V&Y&Y&Y&Y&Y&q=2*d=u*t*t*t*t*t*t*t*u*a*q=q=                                                                          ",
"                                                      ~*y=F*z=F*A=3=B=C=D=E=;@F=;@x&G=H=d*H=H=I=J=K=t*t*t*0*L=~*~*~*~*~*M=N=O=P=Q=Q=Q=P=R=S=T=~*~*~*c=~*t*0*t*t*t*t*t*t*t*t*t*t*t*0*t*~*~*                                                                      ",
"                                                      g= =<*0*<* =$=U=V=W=X=;@Y=;@;@;@;@'*q&0@Z=`= -t*t*t*u*a*$=$=$=$=$=r=.-#=g=r=+-r= =@-.-r=$=$=$=$=$=d=u*t*t*t*t*t*t*t*t*t*t*t*u*d=r=$=                                                                      ",
"                                                  Y&{*<*0*t*t*t*s*s*#-$-%-1*;@;@;@;@;@>@&-*-B&=---;-t*t*t*t*t*s*s*s*s*s*9*r=3=<*>-s*>-7*y=q=9*s*s*s*s*s*t*t*t*t*t*t*t*t*t*t*t*t*t*t*t*,-s* =~*                                                                  ",
"                                                  Y&{*<*9*t*t*t*t*t*'-)-T&H&;@;@;@;@;@>@!-y&O&~-{-;-t*t*t*t*t*t*t*t*t*t*u*r=3=<*9*t*9*7*y=q=u*t*t*t*t*t*t*t*t*t*t*t*t*t*t*t*t*t*t*t*t*s*t* =~*                                                                  ",
"                                                  Y&{*<*9*t*t*t*t*t*'-]-^-G&;@;@;@;@;@;@;@;@;@/-(- -t*t*t*t*t*t*t*t*t*t*9*r=3=<*9*t*9*7*y=q=u*t*t*t*t*t*t*t*t*t*t*t*t*t*t*t*t*t*t*t*t*s*t* =~*                                                                  ",
"                                                  Y&{*<*9*t*t*t*t*t*'-]-^-G&;@;@;@;@;@;@;@;@;@/-(- -t*t*t*t*t*t*t*t*t*t*u*r=3=<*9*t*9*7*y=q=u*t*t*t*t*t*t*t*t*t*t*t*t*t*t*t*t*t*t*t*t*s*t* =~*                                                                  ",
"                                                  Y&{*<*9*t*t*t*t*t*'-]-^-G&;@;@;@;@;@>@_-y&O&~-:-;-t*t*t*t*t*t*t*t*t*r=Y&Y&{*<*9*t*9*7*y=q=u*t*t*t*t*t*t*t*t*t*t*t*t*t*t*t*t*t*t*t*t*s*t* =~*                                                                  ",
"                                                  Y&{*<*9*t*t*t*t*t*'-]-^-G&;@;@;@;@;@>@&-<-B&[-}-;-t*t*t*t*t*t*t*t*t*.-|-#=c=<*9*t*9*7*y=q=9*t*t*t*t*t*t*t*t*t*t*t*t*s*t*t*t*t*t*t*t*s*t* =~*                                                                  ",
"                                                  Y&{*<*9*t*t*t*t*t*'-]-^-G&;@;@;@;@;@;@X@0@'*Z=`= -t*t*t*t*t*t*t*t*t* ={*7*a*d=t*t*9*7*{*.-g=q=s*t*t*t*t*t*t*t*t*9*}*~*7*9*t*t*t*t*t*s*t* =~*                                                                  ",
"                                                  Y&{*<*9*t*t*t*t*t*1-2-3-d*4-4-4-4-4-4-5-6-6-7-8-9-t*t*t*t*t*t*t*t*t* ={*d=f=u*t*t*9*/=y=~*|-.-s*t*t*t*t*t*t*t*t*9*q=0-a-9*t*t*t*t*t*s*t* =~*                                                                  ",
"                                                  Y&{*<*9*t*t*t*t*t*b-c-d-e-f-f-f-f-f-f-f-f-f-g-h-i-t*t*t*t*t*t*t*t*t*g=~*r=r=:*u*t*s*a*:*}*|-g=s*t*t*t*t*t*t*t*t*9*_*j-}*9*t*t*t*t*t*s*t* =~*                                                                  ",
"                                                  Y&{*:*+=u*L=u*9*9*k-l-m-n-o-o-o-o-o-o-o-o-o-p-q-2=t*t*t*t*t*t*t*t*t*.-.={*y=7*9*t*t*s*8*r-3=g=s*t*t*t*t*t*t*t*t*9*_*j-}*9*t*t*t*t*t*s*t* =~*                                                                  ",
"                                                      r=_*:*s-:*2*_*}*2*~* =t*t*t*t*t*t*t*t*t*t*t*t*t*t*t*t*t*t*t*t*t*<*7*g=3=<*9*t*t*t*9*[*3=g=s*t*t*t*t*t*t*t*t*9*_*j-}*9*t*t*t*t*t*s*t* =~*                                                                  ",
"                                                      ~*6*F*z=F*6*{*{*~*~* =9*9*9*9*t*t*t*t*t*t*t*t*t*t*t*t*t*t*t*t*t*9*e=g=0-7*9*t*t*t*9*t-u-Y&s*t*t*t*t*t*t*t*t*9*_*j-}*9*t*t*t*t*t*s*t* =~*                                                                  ",
"                                                        ~*q=[*q=~*Y&Y&Y&~* =}*}*}*}*L=t*t*t*t*t*t*t*t*t*t*t*t*t*t*t*t*t*u*7*2*^=u*t*t*t*u*a*2*F*s*t*t*t*t*t*t*t*t*9*_*j-}*9*t*t*t*t*t*s*t* =~*                                                                  ",
"                                                          ~*3=~*Y&Y&Y&Y&Y&Y&{*{*{*{*L=e=t*t*t*t*t*t*t*t*t*t*t*t*t*t*t*t*t*u*s-s*t*t*t*t*t*s*s-9*t*t*t*t*t*t*t*t*t*9*_*j-}*9*t*t*t*t*t*s*t* =~*                                                                  ",
"                                                            Y&Y&Y&Y&Y&Y&Y&Y&Y&Y&Y&Y&}*<*d=s*t*t*t*t*t*t*t*t*t*t*t*t*t*t*t*t*t*t*t*t*t*t*t*t*t*t*t*t*t*t*t*t*t*t*t*9*_*j-}*9*t*t*t*t*t*s*t* =~*                                                                  ",
"                                                                                    ~*3=:*9*t*t*t*t*t*t*t*t*t*t*t*t*t*t*t*t*t*t*t*t*t*t*t*t*t*t*t*t*t*t*t*t*t*t*t*9*_*j-}*9*t*t*t*t*t*s*t* =~*                                                                  ",
"                                                                                    Y&~*:*9*t*t*t*t*t*t*t*t*t*t*t*t*t*t*t*t*t*t*t*t*t*t*t*t*t*t*t*t*t*t*t*t*t*t*t*9*_*j-}*9*t*t*t*t*t*s*t* =~*                                                                  ",
"                                                                                    Y&~*:*9*t*t*t*t*t*t*t*t*t*t*t*t*t*t*t*t*t*t*t*t*t*t*t*t*t*t*t*t*t*t*t*t*t*t*t*9*_*j-}*9*t*t*t*t*t*s*t* =~*                                                                  ",
"                                                                                    Y&~*:*9*t*t*t*t*t*t*t*t*t*t*t*t*t*t*t*t*t*t*t*t*t*t*t*t*t*t*t*t*t*t*t*t*t*t*t*9*_*j-}*9*t*t*t*t*t*s*t* =~*                                                                  ",
"                                                                                    Y&~*:*9*t*t*t*t*t*t*t*t*t*t*t*t*t*t*t*t*t*t*t*t*t*t*t*t*t*t*t*t*t*t*t*t*t*t*t*9*_*j-}*9*t*t*t*t*t*s*t* =~*                                                                  ",
"                                                                                    Y&~*:*9*t*t*t*t*t*t*t*t*t*t*t*t*t*t*t*t*t*t*t*t*t*t*t*t*t*t*t*t*t*t*t*t*t*t*t*9*_*j-}*9*t*t*t*t*t*s*t* =~*                                                                  ",
"                                                                                    Y&~*:*9*t*t*t*t*t*t*t*t*t*t*t*t*t*t*t*t*t*t*t*t*t*t*t*t*t*t*t*t*t*t*t*t*t*t*t*9*_*j-}*9*t*t*t*t*t*s*t* =~*                                                                  ",
"                                                                                    Y&~*:*9*t*t*t*t*t*t*t*t*t*t*t*t*t*t*t*t*t*t*t*t*t*t*t*t*t*t*t*t*t*t*t*t*t*t*t*9*_*j-}*9*t*t*t*t*t*s*t* =~*                                                                  ",
"                                                                                    Y&~*:*9*t*t*t*t*t*t*t*t*t*t*t*t*t*t*t*t*t*t*t*t*t*t*t*t*t*t*t*t*t*t*t*t*t*t*t*9*_*j-}*9*t*t*t*t*t*s*t* =~*                                                                  ",
"                                                                                    Y&~*:*9*t*t*t*t*t*t*t*t*t*t*t*t*t*t*t*t*t*t*t*t*t*t*t*t*t*t*t*t*t*t*t*t*t*t*t*9*_*j-}*9*t*t*t*t*t*s*t* =~*                                                                  ",
"                                                                                    Y&~*:*9*t*t*t*t*t*t*t*t*t*t*t*t*t*t*t*t*t*t*t*t*t*t*t*t*t*t*t*t*t*t*t*t*t*t*t*9*_*j-}*9*t*t*t*t*t*s*t* =~*                                                                  ",
"                                                                                    Y&~*:*9*t*t*t*t*t*t*t*t*t*t*t*t*t*t*t*t*t*t*t*t*t*t*t*t*t*t*t*t*t*t*t*t*t*t*t*9*_*j-}*9*t*t*t*t*t*s*t* =~*                                                                  ",
"                                                                                    Y&~*:*9*t*t*t*t*t*t*t*t*t*t*t*t*t*t*t*t*t*t*t*t*t*t*t*t*t*t*t*t*t*t*t*t*t*t*t*9*_*j-}*9*t*t*t*t*t*s*t* =~*                                                                  ",
"                                                                                    Y&~*d=f=9*9*9*9*9*9*9*9*9*9*9*9*9*9*9*9*9*9*9*9*9*9*9*9*9*9*9*9*9*9*9*9*9*9*9*f=}*j-}*9*t*t*t*t*t*s*t* =~*                                                                  ",
"                                                                                    Y&Y&2*F*}*}*}*}*}*}*}*}*}*}*}*}*}*}*}*}*}*}*}*}*}*}*}*}*}*}*}*}*}*}*}*}*}*}*}*F*g=3=}*9*t*t*t*t*t*s*t* =~*                                                                  ",
"                                                                                    v-v-w-x-y-y-y-w-z-A-B-B-B-B-B-B-B-B-B-B-B-B-B-B-B-B-B-B-B-B-B-B-B-B-B-B-x-C-y-x-D-E-F-G-H-H-H-H-H-I-H-O=J-                                                                  ",
"                                                                                    K-K-K-K-K-K-K-L-M-N-O-O-O-O-O-O-O-O-O-O-O-O-O-O-O-O-O-O-O-O-O-O-O-O-O-P-Q-R-K-K-K-S-T-U-V-V-V-V-V-W-V-X-Y-                                                                  ",
"                                                                                    Z-Z-Z-Z-Z-`- ;.;+;@;#;#;#;#;#;#;#;#;#;#;#;#;#;#;#;#;#;#;#;#;#;#;#;#;#;$;%;&;Z-*;Z-=;-;;;>;>;>;>;>;,;>;';);                                                                  ",
"                                                                                    !;!;!;!;!;~;{;];^;/;(;(;(;(;(;(;(;(;(;(;(;(;(;(;(;(;(;(;(;(;(;(;(;(;(;_;:;<;[;};!;|;1;2;;@;@;@;@;@3;x&O&w&                                                                  ",
"                                                                                    !;!;!;!;~;4;5;6;7;(;(;(;(;(;(;(;(;(;(;(;(;(;(;(;(;(;(;(;(;(;(;(;(;(;(;(;/;8;9;0;};|;1;2;;@;@;@;@;@3;x&O&w&                                                                  ",
"                                                                                    !;!;!;!;a;b;c;d;(;(;(;(;(;(;(;(;(;(;(;(;(;(;(;(;(;(;(;(;(;(;(;(;(;(;(;(;(;e;:;f;f;|;1;2;;@;@;@;@;@3;x&O&w&                                                                  ",
"                                                                                    !;!;};g;h;i;(;(;(;(;(;(;(;(;(;(;(;(;(;(;(;(;(;(;(;(;(;(;(;(;(;(;(;(;(;(;(;(;(;j;k;l;m;2;;@;@;@;@;@3;x&O&w&                                                                  ",
"                                                                                    !;!;f;~;n;o;(;(;(;(;(;(;(;(;(;(;(;(;(;(;(;(;(;(;(;(;(;(;(;(;(;(;(;(;(;(;(;(;(;d;5;p;q;2;;@;@;@;@;@3;x&O&w&                                                                  ",
"                                                                                    !;r;s;7;(;(;(;(;(;(;(;(;(;(;(;(;(;(;(;(;(;(;(;(;(;(;(;(;(;(;(;(;(;(;(;(;(;(;(;(;(;t;u;v;x@X@;@;@;@3;x&O&w&                                                                  ",
"                                                                                    !;r;w;d;(;(;(;(;(;(;(;(;(;(;(;(;(;(;(;(;(;(;(;(;(;(;(;(;(;(;(;(;(;(;(;(;(;(;(;(;x;y;z;A;B;B;0@;@;@3;x&O&w&                                                                  ",
"                                                                                    !;r;s;e;(;(;(;(;(;(;(;(;(;(;(;(;(;(;(;(;(;(;(;(;(;(;(;(;(;(;(;(;(;(;(;(;(;(;(;(;(;_;C;D;E;                                                                                  ",
"                                                                                    !;r;s;e;(;(;(;(;(;(;(;(;(;(;(;(;(;(;(;(;(;(;(;(;(;(;(;(;(;(;(;(;(;(;(;(;(;(;(;(;(;F;G;H;I;                                                                                  ",
"                                                                                    !;r;s;e;(;(;(;(;(;(;(;(;(;(;(;(;(;(;(;        (;(;(;(;(;(;(;(;(;(;(;(;(;(;(;(;(;(;d;J;K;f;                                                                                  ",
"                                                                                    !;r;s;e;(;(;(;(;(;(;(;(;(;(;(;(;(;(;(;          (;(;(;(;(;(;(;(;(;(;(;(;(;(;(;(;(;d;J;K;!;                                                                                  ",
"                                                                                    !;r;s;e;(;(;(;(;(;(;(;(;(;(;(;(;(;(;(;        (;(;(;(;(;(;(;(;(;(;(;(;(;(;(;(;(;(;d;J;K;!;                                                                                  ",
"                                                                                    !;r;s;e;(;(;(;(;(;(;(;(;(;(;(;(;(;(;(;        (;(;(;(;(;(;(;(;(;(;(;(;(;(;(;(;(;(;d;J;K;!;                                                                                  ",
"                                                                                    !;r;s;e;(;(;(;(;(;(;(;(;(;(;(;(;(;(;(;        (;(;(;(;(;(;(;(;(;(;(;(;(;(;(;(;(;(;d;J;K;!;                                                                                  ",
"                                                                                    !;r;s;e;(;(;(;(;(;(;(;(;(;(;(;(;(;(;(;        (;(;(;(;(;(;(;(;(;(;(;(;(;(;(;(;(;(;d;J;K;!;                                                                                  ",
"                                                                                    !;r;s;e;(;(;(;(;(;(;(;(;(;(;(;(;(;(;(;        (;(;(;(;(;(;(;(;(;(;(;(;(;(;(;(;(;(;d;J;K;!;                                                                                  ",
"                                                                                    !;r;L;M;7;(;(;(;(;(;(;(;(;(;(;(;(;(;(;        (;(;(;(;(;(;(;(;(;(;(;(;(;(;(;(;(;/;N;h;K;!;                                                                                  ",
"                                                                                    O;~;P;Q;R;7;(;(;(;(;(;(;(;(;(;(;(;(;(;        (;(;(;(;(;(;(;(;(;(;(;(;(;(;(;(;7;S;T;U;r;V;                                                                                  ",
"                                                                    H H H H H W;    X;!;Y;4;h;Z;e;e;7;(;(;(;(;(;(;(;(;(;(;        (;(;(;(;(;(;(;(;(;(;(;(;(;/;e;e;6;:;`;~;!; >    .>H H H H H                                                                   ",
"                                                                    H H H H H +>    @>!;!;#>5;$>S;%>&>x;(;(;(;(;(;(;(;(;(;        (;(;(;(;(;(;(;(;(;(;(;(;(;L;%>S;*>=>#>!;!;->    H H H H H H                                                                   ",
"                                                                    H H     H +>    ;>>>>>@>>>,>,>'>)>!>~>~>~>~>~>{>{>_;*>        (;(;(;*>]>^>~>~>~>~>~>~>/>(>_>,>,>>>@>>>>>:>    H H     H H                                                                   ",
"                                                                    H H     H +>    r;<><><>[>[>[>}>|>1>2>2>2>2>2>3>4>5>e;          (;*>6>7>8>2>2>2>2>2>2>9>0>a>[>[>[><><><>[;    H H     H H                                                                   ",
"                                                                    H H             .>.>.>.>.>.>.>.>.>.>.>.>.>.>.>b>c>                      d>.>.>.>.>.>.>.>.>.>.>.>.>.>.>.>.>            H H                                                                   ",
"                                                                    H H             e>e>e>e>e>e>e>e>e>f>f>f>f>f>f>e>g>                      h>f>f>f>f>f>f>f>e>e>e>e>e>e>e>e>e>            H H                                                                   ",
"                                                                    H H H H H H H H H H H H F i>i>i>i>i>i>i>i>i>i>i>j>                      k>i>i>i>i>i>i>i>H H H H H H H H H H H H H H H H H                                                                   ",
"                                                                    H H H H H H H H H H l>m>n>o>m>m>m>m>m>m>m>m>m>p>q>                      r>m>m>m>m>m>m>p>n>H H H H H H H H H H H H H H H H                                                                   "};
