/* XPM */
static char * lutin5_xpm[] = {
"128 128 1372 2",
"  	c #0000FF",
". 	c #108A16",
"+ 	c #FFFFFF",
"@ 	c #0E8916",
"# 	c #0C8816",
"$ 	c #0C8916",
"% 	c #118B16",
"& 	c #0B8816",
"* 	c #068615",
"= 	c #078715",
"- 	c #118A16",
"; 	c #037F14",
"> 	c #6AAB1C",
", 	c #D3D825",
"' 	c #C6CD22",
") 	c #C7CD22",
"! 	c #D2D123",
"~ 	c #BCC921",
"{ 	c #188D17",
"] 	c #058615",
"^ 	c #0F9616",
"/ 	c #008912",
"( 	c #89BC1E",
"_ 	c #FFF22A",
": 	c #FFED27",
"< 	c #FFFD28",
"[ 	c #FFFA28",
"} 	c #FFFC28",
"| 	c #FFF728",
"1 	c #FFE928",
"2 	c #F8DF25",
"3 	c #1A9A17",
"4 	c #019115",
"5 	c #164017",
"6 	c #002615",
"7 	c #818D1E",
"8 	c #FFF829",
"9 	c #B6AA22",
"0 	c #4A461B",
"a 	c #5B5A1C",
"b 	c #4C4C1B",
"c 	c #706D1D",
"d 	c #FEE926",
"e 	c #E6D625",
"f 	c #204718",
"g 	c #093716",
"h 	c #1B151B",
"i 	c #1B141B",
"j 	c #000019",
"k 	c #877920",
"l 	c #FFFF2A",
"m 	c #968E21",
"n 	c #000017",
"o 	c #000919",
"p 	c #000018",
"q 	c #21291B",
"r 	c #FFF327",
"s 	c #EFDB27",
"t 	c #261D1C",
"u 	c #0F081A",
"v 	c #1C141B",
"w 	c #191118",
"x 	c #191018",
"y 	c #0F100F",
"z 	c #0F140F",
"A 	c #0F130F",
"B 	c #00000D",
"C 	c #736C17",
"D 	c #FFF725",
"E 	c #8B821A",
"F 	c #00010D",
"G 	c #01050E",
"H 	c #2D2E12",
"I 	c #EAD721",
"J 	c #D3C21F",
"K 	c #191B10",
"L 	c #05080E",
"M 	c #0F120F",
"N 	c #171E17",
"O 	c #192019",
"P 	c #181F18",
"Q 	c #060005",
"R 	c #060006",
"S 	c #000002",
"T 	c #735911",
"U 	c #FFFF24",
"V 	c #8E7114",
"W 	c #000003",
"X 	c #271409",
"Y 	c #F8D11F",
"Z 	c #DDB91B",
"` 	c #110007",
" .	c #000004",
"..	c #050004",
"+.	c #191E19",
"@.	c #1C261C",
"#.	c #1A221A",
"$.	c #09450D",
"%.	c #09340B",
"&.	c #09390C",
"*.	c #05340A",
"=.	c #3C6711",
"-.	c #8BB319",
";.	c #487212",
">.	c #05340B",
",.	c #18470D",
"'.	c #789E17",
").	c #6C9215",
"!.	c #0E3D0C",
"~.	c #093B0B",
"{.	c #09380C",
"].	c #101911",
"^.	c #111211",
"/.	c #111511",
"(.	c #111711",
"_.	c #096A0E",
":.	c #09780F",
"<.	c #097C0F",
"[.	c #097B0F",
"}.	c #0B7C0F",
"|.	c #006C0D",
"1.	c #00540B",
"2.	c #00690D",
"3.	c #05760E",
"4.	c #005B0B",
"5.	c #005E0C",
"6.	c #08790F",
"7.	c #09800F",
"8.	c #060507",
"9.	c #0C7711",
"0.	c #0D7912",
"a.	c #0C7812",
"b.	c #0C7B12",
"c.	c #0C7712",
"d.	c #0A360C",
"e.	c #09290B",
"f.	c #092F0B",
"g.	c #09270A",
"h.	c #0A570E",
"i.	c #096B0E",
"j.	c #09690E",
"k.	c #108916",
"l.	c #129218",
"m.	c #118E17",
"n.	c #118F17",
"o.	c #0B7B10",
"p.	c #09770E",
"q.	c #09790F",
"r.	c #097A0F",
"s.	c #09740F",
"t.	c #0B7511",
"u.	c #0B7411",
"v.	c #0F8715",
"w.	c #118C17",
"x.	c #108B16",
"y.	c #0B7310",
"z.	c #0C7611",
"A.	c #0B7110",
"B.	c #08690D",
"C.	c #0B6F10",
"D.	c #108C17",
"E.	c #108D17",
"F.	c #108C16",
"G.	c #08670D",
"H.	c #0A700F",
"I.	c #0C7411",
"J.	c #0D7C13",
"K.	c #0A6E0F",
"L.	c #0B7210",
"M.	c #0B7311",
"N.	c #0E9017",
"O.	c #0D9117",
"P.	c #0F8C16",
"Q.	c #096C0E",
"R.	c #108D16",
"S.	c #128516",
"T.	c #118816",
"U.	c #0F8515",
"V.	c #108816",
"W.	c #0F8D16",
"X.	c #0B9617",
"Y.	c #157E15",
"Z.	c #38290E",
"`.	c #38280E",
" +	c #372B0E",
".+	c #3C1D0D",
"++	c #1D6913",
"@+	c #099B17",
"#+	c #119017",
"$+	c #0C7A12",
"%+	c #08660D",
"&+	c #0B9717",
"*+	c #167C15",
"=+	c #3D1C0C",
"-+	c #3D1B0C",
";+	c #3C1F0C",
">+	c #420F0B",
",+	c #1F6413",
"'+	c #099C17",
")+	c #0D7D13",
"!+	c #09680E",
"~+	c #0A6D0F",
"{+	c #1E6913",
"]+	c #38270D",
"^+	c #33340E",
"/+	c #33350F",
"(+	c #34310E",
"_+	c #38240C",
":+	c #39250D",
"<+	c #3A230D",
"[+	c #352E0E",
"}+	c #32360E",
"|+	c #362A0D",
"1+	c #2D4310",
"2+	c #0E8F16",
"3+	c #118916",
"4+	c #0C9417",
"5+	c #0C9317",
"6+	c #05A518",
"7+	c #1F6513",
"8+	c #44090B",
"9+	c #3F1C0D",
"0+	c #3A1B0A",
"a+	c #291600",
"b+	c #2A1600",
"c+	c #291500",
"d+	c #35210A",
"e+	c #3A280E",
"f+	c #3E1A0C",
"g+	c #420E0B",
"h+	c #35310E",
"i+	c #0A9917",
"j+	c #0B9517",
"k+	c #0C9617",
"l+	c #225E12",
"m+	c #33340F",
"n+	c #2E400F",
"o+	c #2D4410",
"p+	c #32350F",
"q+	c #3B210D",
"r+	c #2D1903",
"s+	c #4B371F",
"t+	c #BBA388",
"u+	c #BCA388",
"v+	c #B8A185",
"w+	c #B9A186",
"x+	c #C2A98E",
"y+	c #57422A",
"z+	c #2A1603",
"A+	c #3A220D",
"B+	c #372A0E",
"C+	c #2E410F",
"D+	c #303D0F",
"E+	c #2D410F",
"F+	c #138315",
"G+	c #0E7F14",
"H+	c #0C9517",
"I+	c #01AF19",
"J+	c #2A4D11",
"K+	c #4A080D",
"L+	c #310C00",
"M+	c #210000",
"N+	c #2C0E00",
"O+	c #3C2B0F",
"P+	c #261300",
"Q+	c #554028",
"R+	c #FFE6C9",
"S+	c #FBE2C4",
"T+	c #FDE3C5",
"U+	c #FFF1D3",
"V+	c #533F26",
"W+	c #060000",
"X+	c #1F0C00",
"Y+	c #1B0800",
"Z+	c #2D1901",
"`+	c #412B0F",
" @	c #2E1A03",
".@	c #1B0400",
"+@	c #271400",
"@@	c #3B290F",
"#@	c #3E180C",
"$@	c #40140C",
"%@	c #147F15",
"&@	c #0D9317",
"*@	c #0E7E14",
"=@	c #08650D",
"-@	c #2A4A10",
";@	c #2A0E05",
">@	c #6D583E",
",@	c #B2AB91",
"'@	c #7A644A",
")@	c #291605",
"!@	c #281500",
"~@	c #523D25",
"{@	c #EAD1B4",
"]@	c #EBD1B4",
"^@	c #E6CDB0",
"/@	c #EBD2B5",
"(@	c #B39C80",
"_@	c #9B846C",
":@	c #A38C71",
"<@	c #B29D82",
"[@	c #6B553C",
"}@	c #170E05",
"|@	c #665137",
"1@	c #B2AB8E",
"2@	c #826C52",
"3@	c #2D1905",
"4@	c #148015",
"5@	c #0D9217",
"6@	c #0F8615",
"7@	c #0D7E13",
"8@	c #0E7F13",
"9@	c #31370F",
"0@	c #4A080C",
"a@	c #2A0E00",
"b@	c #000000",
"c@	c #9A8469",
"d@	c #C5AD91",
"e@	c #1A0800",
"f@	c #311E06",
"g@	c #39250E",
"h@	c #ECD2B5",
"i@	c #E4CBAE",
"j@	c #FAE0C3",
"k@	c #FFE9CB",
"l@	c #FFFFE8",
"m@	c #978066",
"n@	c #8D775C",
"o@	c #B9A287",
"p@	c #020000",
"q@	c #1C0900",
"r@	c #1A0700",
"s@	c #1F0B00",
"t@	c #3B200C",
"u@	c #39290E",
"v@	c #0E9016",
"w@	c #05A519",
"x@	c #2D4210",
"y@	c #310C06",
"z@	c #6E583F",
"A@	c #908774",
"B@	c #90795F",
"C@	c #8B8170",
"D@	c #6D573E",
"E@	c #210E00",
"F@	c #503B23",
"G@	c #917B62",
"H@	c #9E876C",
"I@	c #E8CFB2",
"J@	c #8B745A",
"K@	c #010000",
"L@	c #FFF3D5",
"M@	c #CCB498",
"N@	c #88715A",
"O@	c #917B60",
"P@	c #988166",
"Q@	c #8A7359",
"R@	c #3C250F",
"S@	c #342209",
"T@	c #275111",
"U@	c #245812",
"V@	c #099A17",
"W@	c #0A9A17",
"X@	c #04A719",
"Y@	c #2B4610",
"Z@	c #B19A7E",
"`@	c #846D54",
" #	c #0D0000",
".#	c #5A4329",
"+#	c #FFF8D5",
"@#	c #FCDFBC",
"##	c #E1C5A3",
"$#	c #E1C5A4",
"%#	c #E6CDAF",
"&#	c #E6CDB1",
"*#	c #E6CEB1",
"=#	c #E3C7A7",
"-#	c #E2C5A4",
";#	c #FFE6C3",
">#	c #7B6247",
",#	c #735D43",
"'#	c #FFE8CA",
")#	c #EFD6B8",
"!#	c #FFECCD",
"~#	c #FFFADB",
"{#	c #EFD5B9",
"]#	c #220F00",
"^#	c #140100",
"/#	c #3E1109",
"(#	c #450F0D",
"_#	c #197314",
":#	c #0E8E16",
"<#	c #128616",
"[#	c #215F12",
"}#	c #216112",
"|#	c #1E6813",
"1#	c #206313",
"2#	c #32360F",
"3#	c #220400",
"4#	c #A0896E",
"5#	c #FFF5D9",
"6#	c #6E5947",
"7#	c #7F694F",
"8#	c #715A43",
"9#	c #9D8971",
"0#	c #FAEAD9",
"a#	c #F1E2D1",
"b#	c #F0E1D0",
"c#	c #F0E0CE",
"d#	c #E6CEB2",
"e#	c #E6CCAE",
"f#	c #E5CBAE",
"g#	c #EEDCC8",
"h#	c #FFF2E0",
"i#	c #B5A28C",
"j#	c #5C5042",
"k#	c #AB9378",
"l#	c #F5DDBF",
"m#	c #EED5B7",
"n#	c #DDC4A8",
"o#	c #846E54",
"p#	c #79634A",
"q#	c #402913",
"r#	c #351B08",
"s#	c #187614",
"t#	c #0B9417",
"u#	c #167D15",
"v#	c #420F0C",
"w#	c #3F160C",
"x#	c #06A418",
"y#	c #45070A",
"z#	c #3B200D",
"A#	c #1D0D00",
"B#	c #FFE3C5",
"C#	c #F3DABC",
"D#	c #FFEBCB",
"E#	c #FFE7C9",
"F#	c #FEE0BC",
"G#	c #FFF6E3",
"H#	c #E7CFB5",
"I#	c #E5CAAA",
"J#	c #E2C6A7",
"K#	c #FFF7E8",
"L#	c #FFE4BC",
"M#	c #F6DCBF",
"N#	c #E2C9AC",
"O#	c #FDE3C6",
"P#	c #FFEFD1",
"Q#	c #FEE4C6",
"R#	c #4D351E",
"S#	c #2B1000",
"T#	c #09A61A",
"U#	c #008809",
"V#	c #007D00",
"W#	c #04860D",
"X#	c #128B19",
"Y#	c #157F15",
"Z#	c #3A210D",
"`#	c #3A240D",
" $	c #197414",
".$	c #34300E",
"+$	c #3C1E0C",
"@$	c #1E0B00",
"#$	c #EACEAE",
"$$	c #DECAB3",
"%$	c #BEB8B6",
"&$	c #D0CBC5",
"*$	c #FEFDFB",
"=$	c #E7CFB4",
"-$	c #E5CAAB",
";$	c #E8CEAF",
">$	c #CFC5B9",
",$	c #BAB6B6",
"'$	c #EBE9E7",
")$	c #F2E5D5",
"!$	c #E2C5A3",
"~$	c #DDC4A7",
"{$	c #AE977D",
"]$	c #B8A084",
"^$	c #ECD3B6",
"/$	c #E5CCAF",
"($	c #4A341C",
"_$	c #2C1400",
":$	c #136F10",
"<$	c #3D8E33",
"[$	c #55A750",
"}$	c #2B9229",
"|$	c #0B8710",
"1$	c #0D9518",
"2$	c #137D13",
"3$	c #2A0F00",
"4$	c #3C1A0B",
"5$	c #3F1B0D",
"6$	c #2C1901",
"7$	c #070000",
"8$	c #998267",
"9$	c #FFEACC",
"0$	c #FDE4C6",
"a$	c #B59C81",
"b$	c #493823",
"c$	c #E7CEB1",
"d$	c #F3DBBD",
"e$	c #584229",
"f$	c #B2AAA1",
"g$	c #FBE1C4",
"h$	c #C3AB8F",
"i$	c #0F0000",
"j$	c #36230A",
"k$	c #FCE2C5",
"l$	c #FEE4C7",
"m$	c #2A1800",
"n$	c #2E0F00",
"o$	c #110000",
"p$	c #B89380",
"q$	c #FFFCF5",
"r$	c #76AA60",
"s$	c #007E00",
"t$	c #068F12",
"u$	c #007B07",
"v$	c #554127",
"w$	c #593D29",
"x$	c #3B270F",
"y$	c #37230B",
"z$	c #36220B",
"A$	c #4D3920",
"B$	c #422E20",
"C$	c #AB9479",
"D$	c #FBE3C5",
"E$	c #FBE1C3",
"F$	c #BAA287",
"G$	c #1C0800",
"H$	c #5A4936",
"I$	c #F2D9BB",
"J$	c #67523A",
"K$	c #B9B2AA",
"L$	c #F9DFC2",
"M$	c #C6AE92",
"N$	c #261200",
"O$	c #422E15",
"P$	c #CDB599",
"Q$	c #CEB69A",
"R$	c #46321A",
"S$	c #503B22",
"T$	c #473220",
"U$	c #FFECDC",
"V$	c #6DA759",
"W$	c #007F00",
"X$	c #FFE1CB",
"Y$	c #E8CDB1",
"Z$	c #3A260D",
"`$	c #36220A",
" %	c #FCE2C4",
".%	c #B79F84",
"+%	c #50412F",
"@%	c #5E4933",
"#%	c #B6B0AA",
"$%	c #F3E7D8",
"%%	c #E2C4A2",
"&%	c #C4AC90",
"*%	c #251100",
"=%	c #231100",
"-%	c #FFE6C8",
";%	c #F2D2B9",
">%	c #FFDDD6",
",%	c #73A95E",
"'%	c #F7DBC1",
")%	c #E3CBAD",
"!%	c #513D24",
"~%	c #3B260F",
"{%	c #3A260E",
"]%	c #B8A085",
"^%	c #E8CFB1",
"/%	c #F9E0C2",
"(%	c #BDA58A",
"_%	c #2C170D",
":%	c #645440",
"<%	c #FDFBF9",
"[%	c #F1D8BA",
"}%	c #705B44",
"|%	c #200F0D",
"1%	c #BCB4AA",
"2%	c #F1E3D2",
"3%	c #E2C6A4",
"4%	c #F8DEC1",
"5%	c #C8B094",
"6%	c #3E2A13",
"7%	c #422E16",
"8%	c #422D15",
"9%	c #3D2A12",
"0%	c #CAB195",
"a%	c #FEE3C6",
"b%	c #DDCBAA",
"c%	c #ECD1BA",
"d%	c #66A554",
"e%	c #018002",
"f%	c #E5CDAF",
"g%	c #E4CCAF",
"h%	c #4E3921",
"i%	c #B39B80",
"j%	c #DFC6AA",
"k%	c #E1C8AC",
"l%	c #E7CFB3",
"m%	c #E4CCB0",
"n%	c #E5CDB0",
"o%	c #E0C8AB",
"p%	c #E0C7AA",
"q%	c #FFD5C3",
"r%	c #5AA24C",
"s%	c #098408",
"t%	c #138B18",
"u%	c #0F8A15",
"v%	c #F3D9BC",
"w%	c #F5DCBE",
"x%	c #564129",
"y%	c #160300",
"z%	c #B59D82",
"A%	c #F1D7B9",
"B%	c #EDD4B6",
"C%	c #E5CAAC",
"D%	c #EDD3B6",
"E%	c #F1D8B9",
"F%	c #E8CEB0",
"G%	c #E5CCAE",
"H%	c #EFD6B9",
"I%	c #F0D6B9",
"J%	c #FFD5C4",
"K%	c #3B9836",
"L%	c #007B00",
"M%	c #0C8913",
"N%	c #118B17",
"O%	c #D5BDA0",
"P%	c #CEB69C",
"Q%	c #E8D2B5",
"R%	c #E5C4A7",
"S%	c #E4BB9E",
"T%	c #E4BEA1",
"U%	c #E4BC9F",
"V%	c #E5C2A5",
"W%	c #E6CFB2",
"X%	c #E6CCAF",
"Y%	c #E6D0B3",
"Z%	c #E5C7AA",
"`%	c #E4BDA0",
" &	c #E4BFA2",
".&	c #FFD5C2",
"+&	c #F8DEBF",
"@&	c #E4CFB2",
"#&	c #E4B699",
"$&	c #E4B99C",
"%&	c #E4B79A",
"&&	c #E5BFA2",
"*&	c #E5CBAD",
"=&	c #E4CAAB",
"-&	c #E6D1B4",
";&	c #E5C5A8",
">&	c #E4B89B",
",&	c #E9CEB2",
"'&	c #E6CBAE",
")&	c #E6C9AC",
"!&	c #E6CAAD",
"~&	c #E3C8A7",
"{&	c #F2E6D7",
"]&	c #FAF4EE",
"^&	c #EFE0CD",
"/&	c #E7D0B4",
"(&	c #E3C6A5",
"_&	c #DEBE98",
":&	c #F7EEE4",
"<&	c #F3E8D9",
"[&	c #E2C4A1",
"}&	c #E4C9A9",
"|&	c #EBD6BE",
"1&	c #F6EEE4",
"2&	c #F5EBE0",
"3&	c #FCF9F5",
"4&	c #EFDECB",
"5&	c #F4E9DB",
"6&	c #E1C4A1",
"7&	c #E7CEB0",
"8&	c #E9D3BA",
"9&	c #F0E1CF",
"0&	c #F4E8DA",
"a&	c #EBD8C1",
"b&	c #E4C9AA",
"c&	c #DFC7AB",
"d&	c #DEC7AB",
"e&	c #DFBE98",
"f&	c #E7CEB3",
"g&	c #EEDDCA",
"h&	c #DDBC93",
"i&	c #E7CEB2",
"j&	c #EAD0B3",
"k&	c #E7CDB0",
"l&	c #D7C0A6",
"m&	c #D5BFA4",
"n&	c #E8D1B7",
"o&	c #F4E9DC",
"p&	c #EBD7C0",
"q&	c #E0C9AD",
"r&	c #D9C2A7",
"s&	c #E9D0B3",
"t&	c #D5C0A5",
"u&	c #E2CAAD",
"v&	c #E0C8AC",
"w&	c #D8C2A7",
"x&	c #EAD0B2",
"y&	c #D5BFA5",
"z&	c #D8C1A6",
"A&	c #E5CBAF",
"B&	c #D7C1A6",
"C&	c #D6C0A5",
"D&	c #E9D0B2",
"E&	c #D6BFA5",
"F&	c #E8C9B1",
"G&	c #E4C4A2",
"H&	c #F3D4BA",
"I&	c #F4D4B9",
"J&	c #EBCFB2",
"K&	c #E9D4BB",
"L&	c #E6CDB2",
"M&	c #E2C7A9",
"N&	c #E5CCB0",
"O&	c #DBC3A8",
"P&	c #DAC3A8",
"Q&	c #E2C7AD",
"R&	c #DFC6AB",
"S&	c #FFFCFB",
"T&	c #DAC7AF",
"U&	c #DAC3A9",
"V&	c #D8C0A4",
"W&	c #D8C0A5",
"X&	c #D6C0A6",
"Y&	c #DDC5AA",
"Z&	c #E8CEB1",
"`&	c #F6D5BA",
" *	c #CFC2A2",
".*	c #1F6C30",
"+*	c #236E33",
"@*	c #2A7137",
"#*	c #E4C8B0",
"$*	c #DEC3A8",
"%*	c #F8F4EE",
"&*	c #E1CFBA",
"**	c #D5BC9E",
"=*	c #DAC4AB",
"-*	c #D9C1A6",
";*	c #E9CEB1",
">*	c #F5D4B9",
",*	c #D6C5A6",
"'*	c #2E733A",
")*	c #216D31",
"!*	c #075A16",
"~*	c #C0D5C5",
"{*	c #94B89B",
"]*	c #88B08F",
"^*	c #CFDFD2",
"/*	c #003500",
"(*	c #61956A",
"_*	c #E6F0EB",
":*	c #116222",
"<*	c #0E6223",
"[*	c #1F6A2D",
"}*	c #D6C2A1",
"|*	c #F1D1B6",
"1*	c #EAD4BA",
"2*	c #E4CAAD",
"3*	c #E1C5A5",
"4*	c #F7F1EA",
"5*	c #F2E6D8",
"6*	c #266E34",
"7*	c #387A44",
"8*	c #337740",
"9*	c #367943",
"0*	c #3A7C46",
"a*	c #1C6628",
"b*	c #2B7238",
"c*	c #397B45",
"d*	c #115F1F",
"e*	c #347740",
"f*	c #E4ECE5",
"g*	c #FEFAF7",
"h*	c #FAF5F0",
"i*	c #FCF8F4",
"j*	c #ECD7C0",
"k*	c #EBD6BD",
"l*	c #EAD3BA",
"m*	c #2A7037",
"n*	c #296F36",
"o*	c #136621",
"p*	c #A7C7AD",
"q*	c #A4C4AA",
"r*	c #004C00",
"s*	c #5A9464",
"t*	c #DEEAE1",
"u*	c #D3E1D5",
"v*	c #C9DBCC",
"w*	c #D6E4D9",
"x*	c #E1EBE2",
"y*	c #FCF9F6",
"z*	c #E1C29F",
"A*	c #297036",
"B*	c #2E783B",
"C*	c #317D3E",
"D*	c #317B3E",
"E*	c #2D763A",
"F*	c #15672A",
"G*	c #146629",
"H*	c #156729",
"I*	c #146729",
"J*	c #2B7137",
"K*	c #286D35",
"L*	c #247131",
"M*	c #6AA374",
"N*	c #3A8346",
"O*	c #5A9460",
"P*	c #EAF3EC",
"Q*	c #ECD8C3",
"R*	c #EACFB2",
"S*	c #FFDFC8",
"T*	c #E9CFB3",
"U*	c #206D30",
"V*	c #307A3D",
"W*	c #348041",
"X*	c #337E40",
"Y*	c #348141",
"Z*	c #2E773B",
"`*	c #1F6B2F",
" =	c #397841",
".=	c #ADB18C",
"+=	c #B2B38E",
"@=	c #B0B38E",
"#=	c #448249",
"$=	c #237434",
"%=	c #30793D",
"&=	c #2F793C",
"*=	c #357E42",
"==	c #096318",
"-=	c #5C9866",
";=	c #EDF5F0",
">=	c #F0E2D2",
",=	c #CEC1A1",
"'=	c #618C5B",
")=	c #5C8957",
"!=	c #277035",
"~=	c #337F40",
"{=	c #327D3F",
"]=	c #327E3F",
"^=	c #2D773A",
"/=	c #176629",
"(=	c #417B46",
"_=	c #FFD9C0",
":=	c #FFDDC5",
"<=	c #FFDBC3",
"[=	c #FFDBC5",
"}=	c #548D55",
"|=	c #227735",
"1=	c #1E722C",
"2=	c #136A22",
"3=	c #146C23",
"4=	c #005100",
"5=	c #94BA9B",
"6=	c #F5F0C3",
"7=	c #F5E761",
"8=	c #F5E974",
"9=	c #F4E86F",
"0=	c #F5E973",
"a=	c #EFDFCD",
"b=	c #E2CBAD",
"c=	c #EFD1B6",
"d=	c #FFEAD6",
"e=	c #D8C6A7",
"f=	c #055F1F",
"g=	c #0F6326",
"h=	c #297137",
"i=	c #276E34",
"j=	c #2F783C",
"k=	c #276C34",
"l=	c #2C7439",
"m=	c #1F7131",
"n=	c #438149",
"o=	c #EDD0B4",
"p=	c #EACFB3",
"q=	c #ECCFB4",
"r=	c #4E8950",
"s=	c #156E29",
"t=	c #81AD88",
"u=	c #AAC8AF",
"v=	c #A0BFA6",
"w=	c #93B89A",
"x=	c #C6D6C9",
"y=	c #F6F7FF",
"z=	c #EDE593",
"A=	c #EDD300",
"B=	c #EDD705",
"C=	c #ECD601",
"D=	c #EDD601",
"E=	c #F4E86A",
"F=	c #C4BD9A",
"G=	c #749567",
"H=	c #6A9060",
"I=	c #276F35",
"J=	c #2F763C",
"K=	c #368443",
"L=	c #358142",
"M=	c #257A38",
"N=	c #488A4E",
"O=	c #EBCFB3",
"P=	c #EDCFB5",
"Q=	c #357E40",
"R=	c #005708",
"S=	c #C7DCD3",
"T=	c #FFFBFF",
"U=	c #ECEFFF",
"V=	c #EFE8A1",
"W=	c #EED807",
"X=	c #F1DD25",
"Y=	c #F6E327",
"Z=	c #F4E126",
"`=	c #EFDC25",
" -	c #EFDC26",
".-	c #F5E124",
"+-	c #F3DD02",
"@-	c #F5E86C",
"#-	c #FCFAE3",
"$-	c #FFE9DA",
"%-	c #FFD8BB",
"&-	c #FFDCC4",
"*-	c #FFECD9",
"=-	c #B8B793",
"--	c #00520F",
";-	c #126527",
">-	c #296E36",
",-	c #317C3E",
"'-	c #358042",
")-	c #1E7031",
"!-	c #E8CEB2",
"~-	c #97AA7E",
"{-	c #759966",
"]-	c #CFCEB7",
"^-	c #F3E7D9",
"/-	c #EBDFD1",
"(-	c #EADCCC",
"_-	c #EDE7E0",
":-	c #F0F5FF",
"<-	c #F1DB07",
"[-	c #EAD824",
"}-	c #DAC820",
"|-	c #E0CE21",
"1-	c #F0DD25",
"2-	c #DECC22",
"3-	c #DCC91F",
"4-	c #E8D100",
"5-	c #FCF7C2",
"6-	c #C6CEB8",
"7-	c #76905D",
"8-	c #8CA176",
"9-	c #99A77E",
"0-	c #6E9263",
"a-	c #1F6B30",
"b-	c #378544",
"c-	c #2D783A",
"d-	c #266A33",
"e-	c #276D34",
"f-	c #2B6F36",
"g-	c #226B31",
"h-	c #005716",
"i-	c #256D34",
"j-	c #EED0B5",
"k-	c #FFD8C0",
"l-	c #FFDEC8",
"m-	c #EFCEAF",
"n-	c #E4C7A4",
"o-	c #E6C9A7",
"p-	c #E4C29A",
"q-	c #EADCCA",
"r-	c #F1F9FF",
"s-	c #F5DF08",
"t-	c #E3D123",
"u-	c #BCAB18",
"v-	c #CAB91C",
"w-	c #F3E026",
"x-	c #EEDB25",
"y-	c #C6B51C",
"z-	c #BFAE17",
"A-	c #E7D314",
"B-	c #FFFBD0",
"C-	c #BED4CC",
"D-	c #377D49",
"E-	c #00510E",
"F-	c #096022",
"G-	c #096021",
"H-	c #0A6122",
"I-	c #076020",
"J-	c #2C7138",
"K-	c #2D753A",
"L-	c #2F7A3C",
"M-	c #257235",
"N-	c #3B7C43",
"O-	c #7E9A6D",
"P-	c #E3CAAE",
"Q-	c #E0C9AC",
"R-	c #E1C9AD",
"S-	c #DEC2A1",
"T-	c #E8DCCD",
"U-	c #F2F8FF",
"V-	c #F4DE08",
"W-	c #E5D323",
"X-	c #C3B21A",
"Y-	c #CFBE1D",
"Z-	c #F2DF26",
"`-	c #CCBB1D",
" ;	c #C6B519",
".;	c #E9D515",
"+;	c #FFFCD5",
"@;	c #4C8872",
"#;	c #015811",
"$;	c #327A3F",
"%;	c #327C3F",
"&;	c #1B7431",
"*;	c #60935D",
"=;	c #FFDAC1",
"-;	c #D3BEA3",
";;	c #D1B798",
">;	c #E2D6C9",
",;	c #F4F9FF",
"';	c #FFFCD4",
");	c #649785",
"!;	c #166925",
"~;	c #286C35",
"{;	c #2C7639",
"];	c #338040",
"^;	c #1D7432",
"/;	c #598F58",
"(;	c #F2D2B7",
"_;	c #DBC4A8",
":;	c #DCC5A9",
"<;	c #D9BD9D",
"[;	c #E5D9CB",
"};	c #F3F9FF",
"|;	c #156824",
"1;	c #2C7539",
"2;	c #E9CFB2",
"3;	c #E7C9A7",
"4;	c #EBDFD0",
"5;	c #F1F8FF",
"6;	c #E9DDCE",
"7;	c #DCC4AA",
"8;	c #D4B99A",
"9;	c #E4D8CA",
"0;	c #649685",
"a;	c #347F41",
"b;	c #D5BA9B",
"c;	c #649885",
"d;	c #337D40",
"e;	c #1C7432",
"f;	c #5A9059",
"g;	c #F8D5BB",
"h;	c #EDD1B4",
"i;	c #E7CDAF",
"j;	c #E9C9A8",
"k;	c #ECDFD0",
"l;	c #FFFBD4",
"m;	c #6BA28C",
"n;	c #196E28",
"o;	c #2B7438",
"p;	c #286E35",
"q;	c #5A8F58",
"r;	c #F6D4B9",
"s;	c #EBD0B3",
"t;	c #6CA38D",
"u;	c #286F35",
"v;	c #266C33",
"w;	c #307D3E",
"x;	c #367D41",
"y;	c #457D48",
"z;	c #457F49",
"A;	c #4B884F",
"B;	c #49874D",
"C;	c #418245",
"D;	c #CAD5C5",
"E;	c #82A982",
"F;	c #327A38",
"G;	c #2E7633",
"H;	c #9BBA9D",
"I;	c #FDFEFF",
"J;	c #659986",
"K;	c #2B7338",
"L;	c #368042",
"M;	c #2D793B",
"N;	c #16652A",
"O;	c #19692C",
"P;	c #217534",
"Q;	c #1F7432",
"R;	c #146E28",
"S;	c #C3D7CA",
"T;	c #5D9A6C",
"U;	c #005908",
"V;	c #005604",
"W;	c #7EAC89",
"X;	c #639684",
"Y;	c #156724",
"Z;	c #317A3E",
"`;	c #2C7339",
" >	c #307C3D",
".>	c #267634",
"+>	c #C6D6C8",
"@>	c #FFFDFF",
"#>	c #CFDCD1",
"$>	c #B8CEBC",
"%>	c #B7CDBB",
"&>	c #D6E0D8",
"*>	c #F3F5FF",
"=>	c #378444",
"->	c #317E3E",
";>	c #247533",
">>	c #DCE3DC",
",>	c #EBEEFF",
"'>	c #EFE795",
")>	c #F4DB00",
"!>	c #E4D006",
"~>	c #C0AD00",
"{>	c #CDB901",
"]>	c #F0DA07",
"^>	c #F2DC08",
"/>	c #CAB601",
"(>	c #C3B000",
"_>	c #E9D200",
":>	c #FFFCCE",
"<>	c #639688",
"[>	c #146723",
"}>	c #30783D",
"|>	c #2A7237",
"1>	c #2D793A",
"2>	c #6B9F74",
"3>	c #80AD88",
"4>	c #7AA882",
"5>	c #669C70",
"6>	c #B3CBB8",
"7>	c #F9FAFF",
"8>	c #EFECD1",
"9>	c #F3EA99",
"0>	c #E7E19E",
"a>	c #CFC88F",
"b>	c #D8D194",
"c>	c #EFE8A2",
"d>	c #F1EAA4",
"e>	c #EEE7A2",
"f>	c #D5CF93",
"g>	c #D1CB90",
"h>	c #EBE39A",
"i>	c #FFFDEF",
"j>	c #689C7A",
"k>	c #176C26",
"l>	c #347D41",
"m>	c #1F732D",
"n>	c #146A23",
"o>	c #156C24",
"p>	c #166C25",
"q>	c #005300",
"r>	c #90B697",
"s>	c #FFFEFF",
"t>	c #F4EAFF",
"u>	c #FCF2FF",
"v>	c #F9F0FF",
"w>	c #F6ECFF",
"x>	c #76A67A",
"y>	c #156C25",
"z>	c #227431",
"A>	c #5F9869",
"B>	c #96BC9C",
"C>	c #8EB494",
"D>	c #8FB696",
"E>	c #8BB192",
"F>	c #82A888",
"G>	c #85AC8C",
"H>	c #8FB595",
"I>	c #8DB494",
"J>	c #84AB8B",
"K>	c #83A989",
"L>	c #8CB393",
"M>	c #4E8E59",
"N>	c #378044",
"O>	c #237431",
"P>	c #10671F",
"Q>	c #126A21",
"R>	c #146B23",
"S>	c #176E26",
"T>	c #166D25",
"U>	c #166E26",
"V>	c #136B22",
"W>	c #10681F",
"X>	c #297736",
"Y>	c #367F43",
"Z>	c #1E7438",
"`>	c #1D7337",
" ,	c #1D7236",
".,	c #1D7237",
"+,	c #1C7136",
"@,	c #196F35",
"#,	c #1A7035",
"$,	c #1A6F35",
"%,	c #1C7236",
"&,	c #1E7337",
"*,	c #20753A",
"=,	c #1A7333",
"-,	c #126F2A",
";,	c #14702C",
">,	c #14712C",
",,	c #15702C",
"',	c #0E6526",
"),	c #0C6324",
"!,	c #526735",
"~,	c #516634",
"{,	c #566A37",
"],	c #5E713B",
"^,	c #5D703A",
"/,	c #546936",
"(,	c #475C29",
"_,	c #718657",
":,	c #A0B489",
"<,	c #95A97D",
"[,	c #96AA7D",
"},	c #94A97D",
"|,	c #8B9F76",
"1,	c #899D74",
"2,	c #7F5C32",
"3,	c #7F5D33",
"4,	c #7D5B32",
"5,	c #77562E",
"6,	c #856136",
"7,	c #997141",
"8,	c #956F3E",
"9,	c #96703E",
"0,	c #815D33",
"a,	c #79562F",
"b,	c #7E5B32",
"c,	c #7F5C33",
"d,	c #69471A",
"e,	c #BC9675",
"f,	c #FFEFDB",
"g,	c #FFDAC2",
"h,	c #FFDBC2",
"i,	c #F7D0BA",
"j,	c #F5CEB8",
"k,	c #735F33",
"l,	c #725E32",
"m,	c #776335",
"n,	c #7B6637",
"o,	c #7F693A",
"p,	c #88703E",
"q,	c #866F3D",
"r,	c #87703D",
"s,	c #7E6839",
"t,	c #766134",
"u,	c #725E33",
"v,	c #604D1E",
"w,	c #A8926D",
"x,	c #F9DFC5",
"y,	c #715E32",
"z,	c #6C592F",
"A,	c #7C6738",
"B,	c #8E7642",
"C,	c #88713E",
"D,	c #8C7540",
"E,	c #786336",
"F,	c #6C5A30",
"G,	c #776235",
"H,	c #7F6A3A",
"I,	c #87703E",
"J,	c #7D6838",
"K,	c #786436",
"L,	c #5F4C1E",
"M,	c #6D5A2F",
"N,	c #7F6A39",
"O,	c #8D7441",
"P,	c #8D7541",
"Q,	c #5A471B",
"R,	c #A7916C",
"S,	c #756134",
"T,	c #806A3A",
"U,	c #88713F",
"V,	c #624F20",
"W,	c #AA946E",
"X,	c #F8DFC5",
"Y,	c #715D32",
"Z,	c #826B3A",
"`,	c #89723F",
" '	c #766029",
".'	c #B79F77",
"+'	c #FFE9D1",
"@'	c #ECD3B7",
"#'	c #816A3A",
"$'	c #78622C",
"%'	c #AD956C",
"&'	c #F2D8BD",
"*'	c #685629",
"='	c #806B41",
"-'	c #8A7340",
";'	c #7B6636",
">'	c #6C582D",
",'	c #614E1F",
"''	c #705C31",
")'	c #756135",
"!'	c #725F33",
"~'	c #836C3B",
"{'	c #8C7440",
"]'	c #8D7641",
"^'	c #7F6939",
"/'	c #745F33",
"('	c #7B6435",
"_'	c #7A6537",
":'	c #826C3B",
"<'	c #816B3A",
"['	c #7D6738",
"}'	c #7E6737",
"|'	c #161D17",
"1'	c #7E6939",
"2'	c #89713E",
"3'	c #7A6637",
"4'	c #6B582E",
"5'	c #746033",
"6'	c #806737",
"7'	c #191F18",
"8'	c #151D17",
"9'	c #7E6838",
"0'	c #816B3B",
"a'	c #786335",
"b'	c #7F6737",
"c'	c #876C39",
"d'	c #7E6736",
"e'	c #7C6535",
"f'	c #786232",
"g'	c #846C3A",
"h'	c #977B44",
"i'	c #937942",
"j'	c #947942",
"k'	c #856E3D",
"l'	c #846E3C",
"m'	c #8A723E",
"n'	c #957A42",
"o'	c #806837",
"p'	c #796234",
"q'	c #7D6636",
"r'	c #8C703B",
"s'	c #161E17",
"t'	c #62532E",
"u'	c #5C4F2C",
"v'	c #5A4D2B",
"w'	c #61532F",
"x'	c #6D5C35",
"y'	c #6A5B34",
"z'	c #695A33",
"A'	c #8E753F",
"B'	c #8C733F",
"C'	c #907640",
"D'	c #665832",
"E'	c #6B5C34",
"F'	c #5F512E",
"G'	c #5B4D2B",
"H'	c #65552F",
"I'	c #101916",
"J'	c #101A16",
"K'	c #111A16",
"L'	c #101915",
"M'	c #0F1815",
"N'	c #0D1715",
"O'	c #061212",
"P'	c #041011",
"Q'	c #0F1915",
"R'	c #171F18",
"S'	c #171E18",
"                                                                                        . . . . . . . . . . . . . . . . . . . . . . . . . . . . . . . . . . . .                                                                                                 ",
"                                                                                        . . . . . . . . . . . . . . . . . . . . . . . . . . . . . . . . . . . .                                                                                                 ",
"                                                                                        . . . . . . . . . . . . . . . . . . . . . . . . . . . . . . . . . . . .                                     +     + +                                                   ",
"                                                                                        . . . . . . . . . . . . . . . . . . . . . . . . . . . . . . . . . . . .                                         + +     +                                               ",
"                                                                                        . . . . . . . . . . . . . . . . . . . . . . . . . . . . . . . . . . . .                                         + + +                                                   ",
"                                                                                        . . . . @ # $ $ $ $ $ # $ . . . . . . . . . . . . . . . . . . . . . . .                                     +     +     +     +                                         ",
"                                                                                        . . . % & * = = = = = * = . - . . . . . . . . . . . . . . . . . . . . .                                 +                                                               ",
"                                                                                        . . . ; > , ' ) ) ) ) ! ~ { ] . . . . . . . . . . . . . . . . . . . . .                               + + + +     +     + + + + +                                       ",
"                                                                                        ^ ^ ^ / ( _ : < [ } | 1 2 3 4 ^ ^ ^ ^ ^ ^ ^ ^ ^ ^ ^ ^ ^ ^ ^ ^ ^ ^ ^ ^ ^                               + + + +     +     + + + + +                                       ",
"                                                                                        5 5 5 6 7 8 9 0 a b c d e f g 5 5 5 5 5 5 5 5 5 5 5 5 5 5 5 5 5 5 5 5 5                                                                                                 ",
"                                                                                        h i i j k l m n o p q r s t u i i i i i i i i i i i i i i i v i w x w w                               +           +           +                                         ",
"                                                                                        y z A B C D E F A G H I J K L A A A A A A A A A A A A A A A M A N O P P                               +   + +   + + +   + +   +                                         ",
"                                                                                        Q Q R S T U V S R W X Y Z `  .R R R R R R R R R R R R R R R ..R +.@.#.#.                                  + +     + +     +                                             ",
"                                                                                        $.%.&.*.=.-.;.*.&.>.,.'.).!.>.&.&.&.&.&.&.&.&.&.&.&.&.&.&.&.~.{.].^./.(.                                        + + +                                                   ",
"                                                                                    _._.:.<.[.}.|.1.2.}.[.}.3.4.5.6.}.[.[.[.[.[.[.[.[.[.[.[.[.[.[.[.7.:.8.R R Q                                           +     +                                               ",
"                                                                                    9.0.a.a.a.a.a.a.a.a.a.a.a.a.a.a.a.a.a.a.a.a.a.a.a.a.a.a.a.a.a.a.b.c.d.e.f.g.h.                                                                                              ",
"                                                                            i.i.j.j.k.l.m.m.m.m.m.m.m.m.m.m.m.m.m.m.m.m.m.m.m.m.m.m.m.m.m.m.m.m.m.m.n.m.o.p.q.r.s.j.                                                                                            ",
"                                                                            t.t.u.u.v.w.. . . . . . . . . . . . . . . . . . . . . . . . . . . . . . x.. 9.y.t.t.t.z.A.                                                                                          ",
"                                                                        B.C.D.E.D.D.. . . . . . . . . . . . . . . . . . . . . . . . . . . . . . . . . . F.D.D.D.D.l.0.G.i.                                                                                      ",
"                                                                        H.I.. x.. . . . . . . . . . . . . . . . . . . . . . . . . . . . . . . . . . . . . . . . . n.J.K.L.                                                                                      ",
"                                                                    j.M.F.. . . . . . . . . . . . . . . . k.x.N.N.N.N.N.N.N.O.P.k.. . . . . . . . . . . . . . . . . . . n.                                                                                      ",
"                                                                    Q.t.R.x.. . . . . . . . . . . . . . . . k.S.S.S.S.S.S.S.S.T.x.. . . . . . . . . . . . . . . . . x.m.U.                                                                                      ",
"                                                                    V.k.. . . . . . . . . . . . . . x.W.W.X.Y.Z.`. + + + + +.+++@+W.W.W.W.W.W.P.. . . . . . . . . . . #+$+%+K.                                                                                  ",
"                                                                    D.x.. . . . . . . . . . . . . . x.P.P.&+*+=+-+;+;+;+;+;+>+,+'+P.P.P.P.P.P.P.. . . . . . . . . . . n.)+!+~+                                                                                  ",
"                                                                    . . . . . . . . . . . . . x.x.&+{+]+^+/+(+_+_+_+_+_+_+:+<+[+}+^+^+^+^+^+|+1+2+P.x.x.. . . . . . . x.V.U.k.                                                                                  ",
"                                                                    . . . . . . . . . . . 3+2+4+5+6+7+8+-+9+0+a+a+b+b+b+c+d+e+;+f+-+-+-+-+-+g+h+i+j+5+5+x.k.. . . . . . x.m.F.                                                                                  ",
"                                                                    . . . . . . . . . . . k+l+m+n+o+p+q+:+r+s+t+u+v+v+w+x+y+z+:+:+:+:+:+:+:+A+B+C+n+D+E+F+N.. . . . . . . m.G+G.K.                                                                              ",
"                                                                    . . . . . . . . . 3+H+I+J+K+L+M+N+O+:+P+Q+R+R+S+S+T+U+V+W+X+Y+Z+`+ @.@+@@@<+#@#@$@-+%@&@. . . . . . . n.*@=@_.                                                                              ",
"                                                                    . . . . . . . . . N.l+-@/+;@>@,@'@)@:+!@~@{@]@^@^@^@/@(@_@:@<@[@}@|@1@2@3@:+:+:+q+]+4@5@. . . . . . . F.6@7@8@                                                                              ",
"                                                                    . . . . . . . . . X.9@0@a@b@c@+ d@e@f@W+g@/@h@^@^@^@i@j@k@R+l@m@b@n@+ o@p@q@r@s@t@u@v@w@W.T.. . . . . k.F.n.m.                                                                              ",
"                                                                    . . . . . . . . . 4+x@y@z@A@B@C@D@E@F@G@H@I@I@^@^@^@^@^@^@^@k@J@K@2@L@M@N@O@P@Q@R@S@T@U@4@N.. . . . . . . . .                                                                               ",
"                                                                    . . 3+P.V@W@x.T.&+X@Y@M+Z@+ `@b@ #W+.#+#@###$#%#&#^@*#=#-#-#;#>#b@,#'#)#!#k@~#{#]#^#/#(#_#&+. . . . . . . . .                                                                               ",
"                                                                    . . :#<#[#}#T.:#|#1#2#3#4#5#(@6#7#8#9#0#a#b#c#d#e#^@f#g#b#b#h#i#j#k#l#^@^@^@m#n#o#p#q#r#s#H+. . . . . . . . .                                                                               ",
"                                                                    . . t#u#v#w#O.x#|+y#z#A#4#B#C#D#E#F#G#+ + + + H#I#%#J#+ + + + K#L#M#N#^@i@{@T+O#P#Q#R#S#4@T#U#V#W#X#. . . . .                                                                               ",
"                                                                    . . 5+Y#Z#`#++ $.$+$:+@$4#E#^@^@^@#$$$%$&$+ *$=$-$^@;$>$,$'$+ )$!$^@^@^@/@~${$]$^$/$($_$[#:$<$[$}$|$. . . . .                                                                               ",
"                                                                        1$2$P+3$4$5$<+e+6$7$8$9$^@^@^@0$a$W+b$+ + =$-$c$d$e$b@f$+ )$!$^@^@^@g$h$i$j$k$l$s+m$n$o$p$q$r$s$. . .                                                                                   ",
"                                                                        t$u$v$w$x$y$:+z$A$B$C$D$^@^@^@E$F$G$H$+ + =$-$c$I$J$i$K$+ )$!$^@^@^@L$M$N$O$P$Q$R$6$S$T$]$U$V$W$. . .                                                                                   ",
"                                                                            X$Y$Z$X+`$c+w+k@I@/$^@^@^@ %.%i$+%+ + =$-$c$C#@%K@#%+ $%%%^@^@^@j@&%*%a++@+@c+=%M$-%;%>%,%s$. . .                                                                                   ",
"                                                                            '%)%!%~%{%N$]%E#^%/$^@^@^@/%(%_%:%<%<%=$-$c$[%}%|%1%<%2%3%^@^@^@4%5%6%7%8%8%7%9%0%a%b%c%d%e%. . .                                                                                   ",
"                                                                            f%^@g%/$h%i$i%O#^@*#*#*#*#c$/$j%k%l%l%^@^@^@^@N#j%m%l%*#%#^@*#*#c$n%o%o%p%p%p%p%/$q%r%s%t%u%.                                                                                       ",
"                                                                            ^@^@v%w%x%y%z%k$^@^@^@^@^@/$I@A%B%C%C%^@^@^@/$D%E%F%C%G%&#^@^@^@/$I@H%H%H%H%H%I%I@J%K%L%M%N%.                                                                                       ",
"                                                                                ^@c$O%P%o%Q%R%S%T%T%T%U%V%W%^@^@^@^@^@^@^@^@^@%#X%^@Y%Z%S%T%T%T%`% &^@*#^@^@^@.&                                                                                                ",
"                                                                                ^@^@v%+&{@@&V%#&$&$&$&%&&&W%^@^@^@^@^@^@^@^@&#*&=&f#-&;&#&$&$&$&>&S%^@*#^@^@^@,&                                                                                                ",
"                                                                                    ^@^@^@*#'&)&)&)&)&)&!&^@^@^@^@^@^@^@^@^@~&{&]&^&=#'&)&)&)&)&)&)&^@^@^@^@                                                                                                    ",
"                                                                                    ^@^@^@^@*#W%W%W%W%/&f%(&(&(&(&(&(&(&(&(&_&:&+ <&[&*#W%W%W%W%W%W%^@^@^@^@                                                                                                    ",
"                                                                                        ^@^@^@^@^@^@^@}&|&1&1&1&1&1&1&1&1&1&2&3&+ )$!$^@^@^@^@^@^@^@^@^@^@^@                                                                                                    ",
"                                                                                        ^@^@^@^@^@^@^@!$4&+ + + + + + + + + + + + 5&6&^@^@^@^@^@^@^@^%I@7&^@                                                                                                    ",
"                                                                                        ^@^@^@^@^@^@^@-$8&9&0&+ + + + + + + + 1&^&a&b&^@^@^@^@^@c$/$c&d&^@                                                                                                      ",
"                                                                                        ^@^@^@^@^@^@^@d#*&e&f&+ + + + + + + + g&h&b&i&^@^@^@^@^@j&k&l&m&                                                                                                        ",
"                                                                                          ^@^@^@^@^@^@^@^@C%n&o&o&o&o&o&o&o&o&p&}&^@^@^@^@^@^@/$q&o%r&r&                                                                                                        ",
"                                                                                            ^@^@^@^@^@^@^@*#G%!$!$!$!$!$!$!$!$-$i&^@^@^@^@k&s&/$t&l&r&r&                                                                                                        ",
"                                                                                              ^@^@^@^@^@^@^@^@^@^@^@^@^@^@^@^@^@^@^@^@^@k&/$u&v&w&r&r&w&                                                                                                        ",
"                                                                                                  ^@^@^@^@^@^@^@^@^@^@^@^@^@^@^@^@^@^@7&x&)%y&z&r&r&                                                                                                            ",
"                                                                                                  ^@^@}&*&*#^@^@^@^@^@^@^@^@^@^@^@^@^@/$A&v&B&r&r&C&                                                                                                            ",
"                                                                                                          G%^@^@%#b&k&c$c$c$c$c$c$c$D&v&E&z&z&z&C&F&                                                                                                            ",
"                                                                                                          G&H&I&J&K&L&M&i@N&/$/$/$/$7&c&l&r&O&P&Q&R&                                                                                                            ",
"                                                                                                        +         S&T&U&U&z&r&V&W&r&r&w&X&Y&Z&^@`& *.*+*@*@*                                                                                                    ",
"                                                                                                                  #*$*%*&***r&=*U&-*r&r&B&Y&;*k&>*,*'*)*@*@*                                                                                                    ",
"                                                                                            !*~*{*]*^*/*(*_*:*<*[*}*|*1*d#2*3*4*5*$#/$/$/$/$^@^@I&,*'*)*@*@*@*@*@*@*@*@*                                                                                        ",
"                                                                                            6*7*8*9*0*a*b*c*d*e*f*3&g*h*i*j*(&k*l*e#c$c$c$7&^@^@I&,*'*)*@*@*@*@*@*m*@*m*@*                                                                                      ",
"                                                                            @*@*@*@*@*@*@*n*o*p*q*r*s*t*u*v*w*x*+ + + + + y*|&z**&*#^@^@^@^@^@^@I&,*'*)*@*@*@*A*B*C*D*C*E*n*@*                                                                                  ",
"                                                                            F*G*H*I*6*J*A*K*L*M*N*O*P*+ + + + + + + + + + + 3&Q*~&^@^@^@^@^@g%R*S*T*'*U*@*@*@*A*V*W*X*Y*Z*K*A*                                                                                  ",
"                                                            @*@*@*@*@*@*`* =.=+=@=+=#=$=%=&=*===-=;=+ + + + + + + + + + + + + >=!$^@^@^@^@^@I&,='=)=b*!=@*@*@*A*&=~={=]=D*V*^=A*@*                                                                              ",
"                                                          @*@*A*n*n*n*n*/=(=_=:=<=[=}=|=1=2=3=4=5=+ 6=7=8=8=8=8=8=9=0=+ + + + a=3%^@^@^@b=c=d=e=f=g=h=b*@*@*n*i=j=~={={=X*Y*&=k=A*                                                                              ",
"                                                        @*@*A*l=&=j=j=j=m=n=^@o=p=q=r=s=t=u=v=w=x=y=z=A=B=B=B=B=B=C=D=E=+ + + a=3%^@^@^@>*F=G=H=I=A*@*@*@*m*^=j=D*]={={={=]=D*j=E*A*@*                                                                          ",
"                                                      @*@*A*k=J=K=L=L=L=M=N=^@o=O=P=Q=R=S=+ + + T=U=V=W=X=Y=Z=`=`= -.-+-@-#-+ $-%-&-&-&-*-=---;-b*@*@*@*n*>-,-'-]={={={={={=]=L=D*i=n*                                                                          ",
"                                                      @*m*l=j=Z*Z*Z*Z*Z*)-n=^@o=!-,&~-{-]-^-/-(-_-:-V=<-[-}-|-`=1-`=2-3-4-5-+ 6-7-8-8-8-9-0-a-@*@*@*@*@*E*Z*,-X*{={={={={={={=X*D*Z*E*                                                                          ",
"                                                      A*k=B*b-c-d-e-f-g-h-i-^@j-f%f%k-l-m-n-o-p-q-r-V=s-t-u-v-1-w-x-y-z-A-B-C-D-E-F-G-H-I-G*J-n*n*n*>-n*]='-{={={={={={={={={={=]='-]=n*n*                                                                      ",
"                                                      l=K-L-W*L-l=K-M-N-H=O-^@p=^@^@^@^@P-Q-R-S-T-U-V=V-W-X-Y-1-Z-x-`- ;.;+;@;#;$;K-E*l=A*b*E*K-K-K-K-K-,-X*{={={={={={={={={={={=X*,-E*K-                                                                      ",
"                                                  @*n*V*Y*X*%;X*~=~=&;*;X$=;^@f%^@^@^@c$O&-;E&;;>;,;V=V-W-X-Y-1-Z-x-`- ;.;';);!;Y*~=Y*%=~;{;W*~=~=~=~=~={={={={={={={={={={={={={={={=];~=b*A*                                                                  ",
"                                                  @*n*&=~={={={={={=^;/;(;Z&^@^@^@^@^@c$c&_;:;<;[;};V=V-W-X-Y-1-Z-x-`- ;.;';);|;~={=~=j=K*1;X*{={={={={={={={={={={={={={={={={={={={=]={=b*A*                                                                  ",
"                                                  @*n*&=~={={={={={=^;/;(;Z&^@^@^@^@^@^@Z&2;I@3;4;5;V=V-W-X-Y-1-Z-x-`- ;.;';);|;~={=~=j=K*1;X*{={={={={={={={={={={={={={={={={={={={=]={=b*A*                                                                  ",
"                                                  @*n*&=~={={={={={=^;/;(;Z&^@^@^@^@^@^@/$g%g%-#6;5;V=V-W-X-Y-1-Z-x-`- ;.;';);|;~={=~=j=K*1;X*{={={={={={={={={={={={={={={={={={={={=]={=b*A*                                                                  ",
"                                                  @*n*&=~={={={={={=^;/;(;Z&^@^@^@^@^@c$7;C&z&8;9;};V=V-W-X-Y-1-Z-x-`- ;.;';0;|;~={=~=j=K*1;a;]={={={={={={={={={={={=X*{={={={={={={=]={=b*A*                                                                  ",
"                                                  @*n*&=~={={={={={=^;/;(;Z&^@^@^@^@^@c$Y&B&r&b;9;};V=V-W-X-Y-1-Z-x-`- ;.;';c;|;~={=~=j=K*1;d;{={={={={={={={={={={={=,-{={={={={={={=]={=b*A*                                                                  ",
"                                                  @*n*&=~={={={={={=e;f;g;h;O=O=O=O=q=i;*&Z&O=j;k;5;V=V-W-X-Y-1-Z-x-`- ;.;l;m;n;{={=~=j=>-@*@*o;]={={={={={={={={=~=E*p;Z*~={={={={={=]={=b*A*                                                                  ",
"                                                  @*n*&=~={={={={={=^;q;r;s;,&,&,&,&2;k&%#,&O=j;k;5;V=V-W-X-Y-1-Z-x-`- ;.;l;t;n;{={=~=j=n*@*u;b*]={={={={={={={={=~=E*v;Z*~={={={={={=]={=b*A*                                                                  ",
"                                                  @*n*&=~={={={={={=w;x;y;z;A;A;A;B;C;D;i*E;F;G;H;I;V=V-W-X-Y-1-Z-x-`- ;.;';J;!;~={={=%;{=j=p;K;]={={={={={={={={=~=E*e-Z*~={={={={={=]={=b*A*                                                                  ",
"                                                  @*n*L-W*{={={=X*X*L;M;N;O;P;P;P;Q;R;S;+ T;U;V;W;+ V=V-W-X-Y-1-Z-x-`- ;.;';X;Y;~={={={=Y*Z;p;K;]={={={={={={={={=~=E*e-Z*~={={={={={=]={=b*A*                                                                  ",
"                                                      K;`;&=W*&=K;l=l=`;A*b*{={={= >.>+>@>#>$>%>&>*>V=V-W-X-Y-1-Z-x-`- ;.;';);|;~={={={=~=%=p;K;]={={={={={={={={=~=E*e-Z*~={={={={={=]={=b*A*                                                                  ",
"                                                      A*K*B*=>B*K*A*n*A*A*b*~=~=~=->;>>>+ + + + + ,>'>)>!>~>{>]>^>W=/>(>_>:><>[>~={={={=~=}>k=|>]={={={={={={={={=~=E*e-Z*~={={={={={=]={=b*A*                                                                  ",
"                                                          l=Z*l=m*@*@*@*@*@*E*E*E*1;1>2>3>4>4>5>6>7>8>9>0>a>b>c>d>e>f>g>h>i>j>k>]={={={=]=D*Z*&={={={={={={={={={=~=E*e-Z*~={={={={={=]={=b*A*                                                                  ",
"                                                          A*u;A*@*@*@*@*@*@*n*n*n*n*l>m>n>o>p>q>r>+ + + s>t>u>+ + + v>w>+ + x>y>{={={={={=]=a;~={={={={={={={={={=~=E*e-Z*~={={={={={=]={=b*A*                                                                  ",
"                                                                                    E*Z*D*X*{=z>A>B>C>D>E>F>G>C>H>I>J>K>L>B>M>.>{={={={={={={={={={={={={={={={={=~=E*e-Z*~={={={={={=]={=b*A*                                                                  ",
"                                                                                    n*i=V*~={=N>O>P>2=Q>R>S>T>2=Q>2=T>U>V>W>X>Y>{={={={={={={={={={={={={={={={={=~=E*e-Z*~={={={={={=]={=b*A*                                                                  ",
"                                                                                    @*A*V*~={={={={={={={={={={={={={={={={={={={={={={={={={={={={={={={={={={={=~=E*e-Z*~={={={={={=]={=b*A*                                                                  ",
"                                                                                    @*A*V*~={={={={={={={={={={={={={={={={={={={={={={={={={={={={={={={={={={={=~=E*e-Z*~={={={={={=]={=b*A*                                                                  ",
"                                                                                    @*A*V*~={={={={={={={={={={={={={={={={={={={={={={={={={={={={={={={={={={={=~=E*e-Z*~={={={={={=]={=b*A*                                                                  ",
"                                                                                    @*A*V*~={={={={={={={={={={={={={={={={={={={={={={={={={={={={={={={={={={={=~=E*e-Z*~={={={={={=]={=b*A*                                                                  ",
"                                                                                    @*A*V*~={={={={={={={={={={={={={={={={={={={={={={={={={={={={={={={={={={={=~=E*e-Z*~={={={={={=]={=b*A*                                                                  ",
"                                                                                    @*A*V*~={={={={={={={={={={={={={={={={={={={={={={={={={={={={={={={={={={={=~=E*e-Z*~={={={={={=]={=b*A*                                                                  ",
"                                                                                    @*A*V*~={={={={={={={={={={={={={={={={={={={={={={={={={={={={={={={={={={={=~=E*e-Z*~={={={={={=]={=b*A*                                                                  ",
"                                                                                    @*A*V*~={={={={={={={={={={={={={={={={={={={={={={={={={={={={={={={={={={={=~=E*e-Z*~={={={={={=]={=b*A*                                                                  ",
"                                                                                    @*A*V*~={={={={={={={={={={={={={={={={={={={={={={={={={={={={={={={={={={={=~=E*e-Z*~={={={={={=]={=b*A*                                                                  ",
"                                                                                    @*A*V*~={={={={={={={={={={={={={={={={={={={={={={={={={={={={={={={={={={={=~=E*e-Z*~={={={={={=]={=b*A*                                                                  ",
"                                                                                    @*A*V*~={={={={={={={={={={={={={={={={={={={={={={={={={={={={={={={={={={={=~=E*e-Z*~={={={={={=]={=b*A*                                                                  ",
"                                                                                    @*A*V*~={={={={={={={={={={={={={={={={={={={={={={={={={={={={={={={={={={={=~=E*e-Z*~={={={={={=]={=b*A*                                                                  ",
"                                                                                    @*A*D*Y*~=~=~=~=~=~=~=~=~=~=~=~=~=~=~=~=~=~=~=~=~=~=~=~=~=~=~=~=~=~=~=~=~=~=~=Y*^=e-Z*~={={={={={=]={=b*A*                                                                  ",
"                                                                                    @*@*l=E*K-K-K-K-K-K-K-K-K-K-K-K-K-K-K-K-K-K-K-K-K-K-K-K-K-K-K-K-K-K-K-K-K-K-K-E*K;p;Z*~={={={={={=]={=b*A*                                                                  ",
"                                                                                    Z>Z>`> ,.,.,.,`>+,@,#,#,#,#,#,#,#,#,#,#,#,#,#,#,#,#,#,#,#,#,#,#,#,#,#,$,%,`>., ,&,*,=,-,;,;,;,;,;,>,,,',),                                                                  ",
"                                                                                    !,!,!,!,!,!,!,~,{,],^,^,^,^,^,^,^,^,^,^,^,^,^,^,^,^,^,^,^,^,^,^,^,^,^,^,/,~,!,!,!,(,_,:,<,<,<,<,<,[,},|,1,                                                                  ",
"                                                                                    2,2,2,2,2,3,4,5,6,7,8,8,8,8,8,8,8,8,8,8,8,8,8,8,8,8,8,8,8,8,8,8,8,8,8,9,0,a,b,c,2,d,e,f,g,g,g,g,g,h,g,i,j,                                                                  ",
"                                                                                    k,k,k,k,k,l,m,n,o,p,q,q,q,q,q,q,q,q,q,q,q,q,q,q,q,q,q,q,q,q,q,q,q,q,q,r,s,n,t,u,k,v,w,x,^@^@^@^@^@7&n%P&z&                                                                  ",
"                                                                                    k,k,k,k,y,z,A,B,C,q,q,q,q,q,q,q,q,q,q,q,q,q,q,q,q,q,q,q,q,q,q,q,q,q,q,q,C,D,E,F,l,v,w,x,^@^@^@^@^@7&n%P&z&                                                                  ",
"                                                                                    k,k,k,l,G,E,H,C,q,q,q,q,q,q,q,q,q,q,q,q,q,q,q,q,q,q,q,q,q,q,q,q,q,q,q,q,q,I,J,K,t,L,w,x,^@^@^@^@^@7&n%P&z&                                                                  ",
"                                                                                    k,k,y,M,N,O,I,q,q,q,q,q,q,q,q,q,q,q,q,q,q,q,q,q,q,q,q,q,q,q,q,q,q,q,q,q,q,q,p,P,n,Q,R,x,^@^@^@^@^@7&n%P&z&                                                                  ",
"                                                                                    k,k,t,S,T,U,q,q,q,q,q,q,q,q,q,q,q,q,q,q,q,q,q,q,q,q,q,q,q,q,q,q,q,q,q,q,q,q,q,U,J,V,W,X,^@^@^@^@^@7&n%P&z&                                                                  ",
"                                                                                    k,Y,Z,`,q,q,q,q,q,q,q,q,q,q,q,q,q,q,q,q,q,q,q,q,q,q,q,q,q,q,q,q,q,q,q,q,q,q,q,q,r, '.'+'@'/$^@^@^@7&n%P&z&                                                                  ",
"                                                                                    k,Y,#'C,q,q,q,q,q,q,q,q,q,q,q,q,q,q,q,q,q,q,q,q,q,q,q,q,q,q,q,q,q,q,q,q,q,q,q,q,q,$'%'g%*#&'i@^@^@7&n%P&z&                                                                  ",
"                                                                                    k,Y,#'C,q,q,q,q,q,q,q,q,q,q,q,q,q,q,q,q,q,q,q,q,q,q,q,q,q,q,q,q,q,q,q,q,q,q,q,q,q,`,J,*'='                                                                                  ",
"                                                                                    k,Y,#'C,q,q,q,q,q,q,q,q,q,q,q,q,q,q,q,q,q,q,q,q,q,q,q,q,q,q,q,q,q,q,q,q,q,q,q,q,q,-';'>','                                                                                  ",
"                                                                                    k,Y,#'C,q,q,q,q,q,q,q,q,q,q,q,q,q,q,q,        q,q,q,q,q,q,q,q,q,q,q,q,q,q,q,q,q,q,`,J,'')'                                                                                  ",
"                                                                                    k,Y,#'C,q,q,q,q,q,q,q,q,q,q,q,q,q,q,q,          q,q,q,q,q,q,q,q,q,q,q,q,q,q,q,q,q,`,J,''k,                                                                                  ",
"                                                                                    k,Y,#'C,q,q,q,q,q,q,q,q,q,q,q,q,q,q,q,        q,q,q,q,q,q,q,q,q,q,q,q,q,q,q,q,q,q,`,J,''k,                                                                                  ",
"                                                                                    k,Y,#'C,q,q,q,q,q,q,q,q,q,q,q,q,q,q,q,        q,q,q,q,q,q,q,q,q,q,q,q,q,q,q,q,q,q,`,J,''k,                                                                                  ",
"                                                                                    k,Y,#'C,q,q,q,q,q,q,q,q,q,q,q,q,q,q,q,        q,q,q,q,q,q,q,q,q,q,q,q,q,q,q,q,q,q,`,J,''k,                                                                                  ",
"                                                                                    k,Y,#'C,q,q,q,q,q,q,q,q,q,q,q,q,q,q,q,        q,q,q,q,q,q,q,q,q,q,q,q,q,q,q,q,q,q,`,J,''k,                                                                                  ",
"                                                                                    !'Y,#'C,q,q,q,q,q,q,q,q,q,q,q,q,q,q,q,        q,q,q,q,q,q,q,q,q,q,q,q,q,q,q,q,q,q,`,J,''u,                                                                                  ",
"                                                                                    k,Y,~'{'I,q,q,q,q,q,q,q,q,q,q,q,q,q,q,        q,q,q,q,q,q,q,q,q,q,q,q,q,q,q,q,q,p,]'^'''/'                                                                                  ",
"                                                                                    ('l,_'A,:'I,q,q,q,q,q,q,q,q,q,q,q,q,q,        q,q,q,q,q,q,q,q,q,q,q,q,q,q,q,q,I,<'['K,Y,}'                                                                                  ",
"                                                                    P P P P P |'    ('k,Y,z,1'O,2'`,p,q,q,q,q,q,q,q,q,q,q,        q,q,q,q,q,q,q,q,q,q,q,q,q,C,`,2'P,3'4'Y,5'6'    7'P P P P P                                                                   ",
"                                                                    P P P P P 8'    ('k,k,y,_'#'^'9'0'I,q,q,q,q,q,q,q,q,q,        q,q,q,q,q,q,q,q,q,q,q,q,q,T,s,^'<'a'Y,k,k,b'    P P P P P P                                                                   ",
"                                                                    P P     P 8'    c'd'd'b'e'('('f'g'h'i'i'i'i'i'j'j'p,k'        q,q,q,l'm'n'i'i'i'i'i'i'n'o'p'('('q'b'd'd'r'    P P     P P                                                                   ",
"                                                                    P P     P s'    t'u'u'u'u'u'u'v'w'x'y'y'y'y'y'z'y'A'B'          q,l'C'p,D'y'y'y'y'y'y'E'F'G'u'u'u'u'u'u'H'    P P     P P                                                                   ",
"                                                                    P P             I'J'J'J'J'J'J'K'L'M'M'M'M'M'M'N'O'                      P'M'M'M'M'M'M'M'I'K'J'J'J'J'J'J'Q'            P P                                                                   ",
"                                                                    P P             R'R'R'R'R'R'R'R'R'S'S'S'S'S'S'P 8'                      P S'S'S'S'S'S'S'R'R'R'R'R'R'R'R'R'            P P                                                                   ",
"                                                                    P P P P P P P P P P P P P P P P P P P P P P P P 7'                      P P P P P P P P P P P P P P P P P P P P P P P P P                                                                   ",
"                                                                    P P P P P P P P P P P P P P P P P P P P P P P P P                       P P P P P P P P P P P P P P P P P P P P P P P P P                                                                   "};
