/* XPM */
static char * lutin4_xpm[] = {
"128 128 1479 2",
"  	c None",
". 	c #0000FF",
"+ 	c #108A16",
"@ 	c #FFFFFF",
"# 	c #118B16",
"$ 	c #098816",
"% 	c #028415",
"& 	c #038515",
"* 	c #028515",
"= 	c #048515",
"- 	c #0F8A16",
"; 	c #118A16",
"> 	c #0F8916",
", 	c #158C16",
"' 	c #1C8F17",
") 	c #1B8E17",
"! 	c #1C8E17",
"~ 	c #1A8E17",
"{ 	c #108D16",
"] 	c #018013",
"^ 	c #78B11D",
"/ 	c #F2E427",
"( 	c #E5DA24",
"_ 	c #EADE25",
": 	c #E9DD25",
"< 	c #EADD25",
"[ 	c #E8DC24",
"} 	c #F0DC25",
"| 	c #D6D323",
"1 	c #199117",
"2 	c #038915",
"3 	c #108C16",
"4 	c #007D13",
"5 	c #85B51D",
"6 	c #FFF029",
"7 	c #FEE226",
"8 	c #FFE526",
"9 	c #FFE426",
"0 	c #FFE627",
"a 	c #EFDC25",
"b 	c #1A9017",
"c 	c #028715",
"d 	c #172E18",
"e 	c #001116",
"f 	c #82841E",
"g 	c #FFFC29",
"h 	c #A89D21",
"i 	c #212118",
"j 	c #36391A",
"k 	c #242919",
"l 	c #51521C",
"m 	c #FFEB26",
"n 	c #E7D625",
"o 	c #213519",
"p 	c #0B2417",
"q 	c #1A181A",
"r 	c #1A1719",
"s 	c #000018",
"t 	c #85791F",
"u 	c #FFFF2A",
"v 	c #978F20",
"w 	c #000016",
"x 	c #050F18",
"y 	c #000017",
"z 	c #272E1A",
"A 	c #FFF027",
"B 	c #ECD926",
"C 	c #241F1A",
"D 	c #0E0B18",
"E 	c #1A171A",
"F 	c #191518",
"G 	c #0D090C",
"H 	c #0D100D",
"I 	c #0D0F0D",
"J 	c #00000A",
"K 	c #6F6715",
"L 	c #FFF524",
"M 	c #867D18",
"N 	c #00010A",
"O 	c #01030B",
"P 	c #2A2A10",
"Q 	c #E4D120",
"R 	c #CDBC1E",
"S 	c #16170E",
"T 	c #03050C",
"U 	c #0C0F0C",
"V 	c #171E17",
"W 	c #192019",
"X 	c #181F18",
"Y 	c #070006",
"Z 	c #000003",
"` 	c #735A11",
" .	c #FFFF24",
"..	c #8D7215",
"+.	c #000004",
"@.	c #27160A",
"#.	c #F6D11F",
"$.	c #DBB91C",
"%.	c #110207",
"&.	c #000005",
"*.	c #060005",
"=.	c #191E19",
"-.	c #1B261B",
";.	c #1A221A",
">.	c #0A6F0F",
",.	c #0A7B10",
"'.	c #0A540E",
").	c #0A440C",
"!.	c #0A480D",
"~.	c #06440C",
"{.	c #2E6910",
"].	c #67A016",
"^.	c #367111",
"/.	c #14520E",
"(.	c #599015",
"_.	c #518814",
":.	c #0D4B0D",
"<.	c #094A0C",
"[.	c #0A470D",
"}.	c #0E170F",
"|.	c #0F0E0F",
"1.	c #0F120F",
"2.	c #0F140F",
"3.	c #096A0E",
"4.	c #09680E",
"5.	c #09750E",
"6.	c #097A0F",
"7.	c #09780F",
"8.	c #0A7A0F",
"9.	c #006B0D",
"0.	c #00560B",
"a.	c #00680D",
"b.	c #05740E",
"c.	c #005C0C",
"d.	c #005F0C",
"e.	c #08770F",
"f.	c #097E0F",
"g.	c #09760F",
"h.	c #070307",
"i.	c #060006",
"j.	c #070005",
"k.	c #0A6E0F",
"l.	c #0A6D0F",
"m.	c #0D7A12",
"n.	c #0E7E13",
"o.	c #0D7C13",
"p.	c #0D7F13",
"q.	c #0D7B13",
"r.	c #0A440D",
"s.	c #0A390C",
"t.	c #0A3D0C",
"u.	c #0A370B",
"v.	c #0A610E",
"w.	c #0A7D10",
"x.	c #09690E",
"y.	c #108916",
"z.	c #129318",
"A.	c #118F17",
"B.	c #0B7D10",
"C.	c #09790E",
"D.	c #097C0F",
"E.	c #09710E",
"F.	c #09670E",
"G.	c #0C7912",
"H.	c #0C7A12",
"I.	c #0F8815",
"J.	c #118C17",
"K.	c #108B16",
"L.	c #0D7B12",
"M.	c #0C7811",
"N.	c #0D7C12",
"O.	c #0B7310",
"P.	c #08680D",
"Q.	c #0B6E0F",
"R.	c #118E17",
"S.	c #119017",
"T.	c #129518",
"U.	c #08650D",
"V.	c #0B7510",
"W.	c #0C7812",
"X.	c #0E7F13",
"Y.	c #0C7711",
"Z.	c #08670D",
"`.	c #0B7211",
" +	c #118D17",
".+	c #0F8C16",
"++	c #0C9517",
"@+	c #0C9417",
"#+	c #0B9617",
"$+	c #0E8E16",
"%+	c #118816",
"&+	c #0A700F",
"*+	c #118716",
"=+	c #177914",
"-+	c #187714",
";+	c #138415",
">+	c #0F8D16",
",+	c #0E8114",
"'+	c #0D9217",
")+	c #0D9117",
"!+	c #099C18",
"~+	c #148116",
"{+	c #3C1F0D",
"]+	c #3C1E0D",
"^+	c #3A210D",
"/+	c #41120C",
"(+	c #1E6813",
"_+	c #06A218",
":+	c #0E9017",
"<+	c #0A6C0F",
"[+	c #148115",
"}+	c #138215",
"|+	c #197414",
"1+	c #3B210D",
"2+	c #3B200D",
"3+	c #3A230D",
"4+	c #40160C",
"5+	c #215F12",
"6+	c #0D9116",
"7+	c #0D7E13",
"8+	c #0A6B0F",
"9+	c #0E8F16",
"0+	c #089D17",
"a+	c #1F6713",
"b+	c #3E190C",
"c+	c #38280D",
"d+	c #38290E",
"e+	c #37270C",
"f+	c #321E06",
"g+	c #321E07",
"h+	c #37230B",
"i+	c #3A250D",
"j+	c #38270D",
"k+	c #3C1D0C",
"l+	c #313A0F",
"m+	c #0C9316",
"n+	c #0D9016",
"o+	c #108816",
"p+	c #0A9917",
"q+	c #216113",
"r+	c #41100B",
"s+	c #3B1F0C",
"t+	c #3A260E",
"u+	c #39250D",
"v+	c #39260D",
"w+	c #3A220D",
"x+	c #3F140B",
"y+	c #34330F",
"z+	c #0A9A17",
"A+	c #265512",
"B+	c #342F0D",
"C+	c #322F0B",
"D+	c #352A0C",
"E+	c #3A240D",
"F+	c #2A1701",
"G+	c #4F3A22",
"H+	c #D7BFA2",
"I+	c #D8BFA2",
"J+	c #D3BB9F",
"K+	c #D4BC9F",
"L+	c #DFC6A9",
"M+	c #5C472E",
"N+	c #251100",
"O+	c #38240C",
"P+	c #37220A",
"Q+	c #34300E",
"R+	c #35300E",
"S+	c #362C0E",
"T+	c #34320E",
"U+	c #0E7E14",
"V+	c #06A318",
"W+	c #2A4B11",
"X+	c #450C0C",
"Y+	c #371707",
"Z+	c #310E00",
"`+	c #351906",
" @	c #3A280E",
".@	c #271400",
"+@	c #543F27",
"@@	c #F9E0C2",
"#@	c #FAE0C2",
"$@	c #F5DBBE",
"%@	c #F6DCBF",
"&@	c #FFE9CC",
"*@	c #5D4930",
"=@	c #180400",
"-@	c #2E1B03",
";@	c #2D1901",
">@	c #342008",
",@	c #3C270E",
"'@	c #352109",
")@	c #2D1800",
"!@	c #3A270E",
"~@	c #3D1C0C",
"{@	c #3F180C",
"]@	c #147F15",
"^@	c #0D9317",
"/@	c #0E7F14",
"(@	c #275111",
"_@	c #33330E",
":@	c #362E0E",
"<@	c #230B03",
"[@	c #7C674C",
"}@	c #D5D1B7",
"|@	c #8D765C",
"1@	c #241103",
"2@	c #281500",
"3@	c #523D25",
"4@	c #EAD1B4",
"5@	c #EBD1B4",
"6@	c #E6CDB0",
"7@	c #E9D0B3",
"8@	c #CAB296",
"9@	c #BDA58B",
"0@	c #C2AA8E",
"a@	c #D5C0A3",
"b@	c #7A634A",
"c@	c #0D0803",
"d@	c #735D43",
"e@	c #D5D1B4",
"f@	c #978166",
"g@	c #291503",
"h@	c #148015",
"i@	c #0F8314",
"j@	c #0F8415",
"k@	c #303A0F",
"l@	c #470C0C",
"m@	c #2D1300",
"n@	c #000000",
"o@	c #BDA58A",
"p@	c #1C0900",
"q@	c #331F07",
"r@	c #0D0000",
"s@	c #3E2A13",
"t@	c #EBD2B5",
"u@	c #ECD2B5",
"v@	c #E5CCAF",
"w@	c #F5DCBE",
"x@	c #FCE2C4",
"y@	c #FAE0C3",
"z@	c #FFFFE1",
"A@	c #947D63",
"B@	c #8A745A",
"C@	c #FFFFFB",
"D@	c #B69F84",
"E@	c #090000",
"F@	c #220F00",
"G@	c #210D00",
"H@	c #241100",
"I@	c #39280E",
"J@	c #07A118",
"K@	c #118916",
"L@	c #2D4210",
"M@	c #2D0804",
"N@	c #7D674D",
"O@	c #B2AC97",
"P@	c #90795F",
"Q@	c #695C4D",
"R@	c #5D482F",
"S@	c #574229",
"T@	c #B0997E",
"U@	c #B49D82",
"V@	c #E7CEB1",
"W@	c #E8CEB1",
"X@	c #FFE9CB",
"Y@	c #8B745A",
"Z@	c #010000",
"`@	c #826C52",
" #	c #FFF0D1",
".#	c #D4BB9F",
"+#	c #A58D74",
"@#	c #AB9479",
"##	c #B49D81",
"$#	c #A18A6F",
"%#	c #3C260F",
"&#	c #332008",
"*#	c #2D4310",
"=#	c #2B4710",
"-#	c #157D15",
";#	c #099B17",
">#	c #0A9817",
",#	c #04A819",
"'#	c #210000",
")#	c #AF977C",
"!#	c #836D53",
"~#	c #0E0000",
"{#	c #040000",
"]#	c #574127",
"^#	c #FFF2CF",
"/#	c #F8DAB8",
"(#	c #E1C4A2",
"_#	c #E1C5A3",
":#	c #E6CDAF",
"<#	c #E6CDB1",
"[#	c #E6CEB1",
"}#	c #E3C7A6",
"|#	c #E2C5A3",
"1#	c #FFE5C2",
"2#	c #7A6146",
"3#	c #725C43",
"4#	c #EED4B7",
"5#	c #FFE8C9",
"6#	c #FEE5C7",
"7#	c #FFF6D7",
"8#	c #EBD1B5",
"9#	c #200D00",
"0#	c #130000",
"a#	c #3D1309",
"b#	c #44120E",
"c#	c #197314",
"d#	c #0B9717",
"e#	c #0E8F17",
"f#	c #285011",
"g#	c #275211",
"h#	c #235B12",
"i#	c #210600",
"j#	c #A0896E",
"k#	c #FFF2D5",
"l#	c #C0A88C",
"m#	c #8B7561",
"n#	c #988167",
"o#	c #8D755B",
"p#	c #B19C86",
"q#	c #FBEFE2",
"r#	c #F4E9DC",
"s#	c #F4E9DB",
"t#	c #F3E7D9",
"u#	c #E7CEB2",
"v#	c #E5CBAD",
"w#	c #F0E2D1",
"x#	c #FFF5E8",
"y#	c #C4B29E",
"z#	c #7D6C5A",
"A#	c #B9A186",
"B#	c #F1D9BC",
"C#	c #ECD3B5",
"D#	c #DFC6AA",
"E#	c #9E876C",
"F#	c #937C62",
"G#	c #432C15",
"H#	c #331906",
"I#	c #187614",
"J#	c #0B9417",
"K#	c #167D15",
"L#	c #420E0C",
"M#	c #3F150C",
"N#	c #362A0D",
"O#	c #46060A",
"P#	c #1D0D00",
"Q#	c #FFE3C5",
"R#	c #F4DBBD",
"S#	c #FFEDCD",
"T#	c #FFE8CB",
"U#	c #FEE1BC",
"V#	c #FFF9E6",
"W#	c #E7CFB5",
"X#	c #E5CAAA",
"Y#	c #E1C6A6",
"Z#	c #FFF7E9",
"`#	c #FFE5BE",
" $	c #F6DDBF",
".$	c #E2C9AC",
"+$	c #E3CAAD",
"@$	c #FFF1D3",
"#$	c #FFE5C7",
"$$	c #4D351E",
"%$	c #2B1000",
"&$	c #138315",
"*$	c #08AA1B",
"=$	c #008806",
"-$	c #007A00",
";$	c #01850B",
">$	c #138C1A",
",$	c #0C9317",
"'$	c #157F15",
")$	c #235A12",
"!$	c #206213",
"~$	c #352E0E",
"{$	c #1E0B00",
"]$	c #FFE7C9",
"^$	c #EED3B3",
"/$	c #D6C1A9",
"($	c #9A918D",
"_$	c #B5AEA6",
":$	c #FEFDFC",
"<$	c #E7CFB4",
"[$	c #E5CAAB",
"}$	c #EAD0B2",
"|$	c #B8AB9D",
"1$	c #948D8D",
"2$	c #E0DDD9",
"3$	c #F2E5D5",
"4$	c #EED5B8",
"5$	c #D8BFA3",
"6$	c #8F7961",
"7$	c #ECD3B6",
"8$	c #4A341C",
"9$	c #2C1500",
"0$	c #175A0D",
"a$	c #579043",
"b$	c #7BB770",
"c$	c #3A9734",
"d$	c #09850C",
"e$	c #0E9519",
"f$	c #117C12",
"g$	c #1F0D00",
"h$	c #230900",
"i$	c #3E140A",
"j$	c #42140D",
"k$	c #3B290F",
"l$	c #281400",
"m$	c #968065",
"n$	c #FFEBCC",
"o$	c #FFE5C8",
"p$	c #B2997D",
"q$	c #3F2C16",
"r$	c #F4DCBE",
"s$	c #4F381E",
"t$	c #AEA59C",
"u$	c #FCE2C5",
"v$	c #C1A98D",
"w$	c #020000",
"x$	c #2D1A01",
"y$	c #FFEBCE",
"z$	c #4B3820",
"A$	c #2A1800",
"B$	c #2B0500",
"C$	c #0A0000",
"D$	c #C09284",
"E$	c #7CAC64",
"F$	c #007D00",
"G$	c #018B0D",
"H$	c #09800E",
"I$	c #766148",
"J$	c #755A44",
"K$	c #3D2911",
"L$	c #331F09",
"M$	c #634D34",
"N$	c #685342",
"O$	c #B7A084",
"P$	c #F7DEC1",
"Q$	c #FBE1C3",
"R$	c #BAA287",
"S$	c #1D0900",
"T$	c #5A4A37",
"U$	c #F2D9BB",
"V$	c #67523B",
"W$	c #100000",
"X$	c #B9B2AA",
"Y$	c #F9DFC2",
"Z$	c #C6AE92",
"`$	c #281502",
" %	c #402C13",
".%	c #AF987D",
"+%	c #432F17",
"@%	c #2D1A02",
"#%	c #685239",
"$%	c #6B5641",
"%%	c #FFE7D8",
"&%	c #6DA759",
"*%	c #007F00",
"=%	c #FFF3DD",
"-%	c #F7DDC0",
";%	c #160300",
">%	c #C5AD91",
",%	c #FFFEDF",
"'%	c #EFD6B9",
")%	c #FDE3C5",
"!%	c #B59D82",
"~%	c #060000",
"{%	c #4A3B29",
"]%	c #F3DABC",
"^%	c #59442E",
"/%	c #B4AFA9",
"(%	c #F3E8D9",
"_%	c #E2C4A2",
":%	c #FBE1C4",
"<%	c #C2AA8F",
"[%	c #0F0000",
"}%	c #200C00",
"|%	c #1C0A00",
"1%	c #D2BA9D",
"2%	c #FFFBDB",
"3%	c #FED9C3",
"4%	c #FFDFDD",
"5%	c #78AA61",
"6%	c #007E00",
"7%	c #EFD5B9",
"8%	c #E0C8AB",
"9%	c #675238",
"0%	c #3E2A12",
"a%	c #241000",
"b%	c #F7DDBF",
"c%	c #C3AB8F",
"d%	c #473124",
"e%	c #776550",
"f%	c #FAF5EF",
"g%	c #E7CFB3",
"h%	c #E5CBAC",
"i%	c #F0D7B9",
"j%	c #816B53",
"k%	c #3C2A24",
"l%	c #C2B8AB",
"m%	c #F0E0CD",
"n%	c #CDB498",
"o%	c #564129",
"p%	c #5A452C",
"q%	c #564128",
"r%	c #CBB397",
"s%	c #FADDC2",
"t%	c #C8C49B",
"u%	c #CAC6A0",
"v%	c #5AA14B",
"w%	c #038105",
"x%	c #49351D",
"y%	c #B1997E",
"z%	c #FEE4C7",
"A%	c #E6CFB2",
"B%	c #E5CDB0",
"C%	c #E9D1B3",
"D%	c #F2D8BA",
"E%	c #EED5B7",
"F%	c #EDD4B7",
"G%	c #F3D9BA",
"H%	c #E9CFB0",
"I%	c #E5CCAE",
"J%	c #E8D0B3",
"K%	c #F1D9BB",
"L%	c #F0D8BB",
"M%	c #F0D7BA",
"N%	c #F1D7BA",
"O%	c #E8CFB2",
"P%	c #FFD4C3",
"Q%	c #4D9D42",
"R%	c #007C00",
"S%	c #0B8812",
"T%	c #118B17",
"U%	c #644E36",
"V%	c #2B1812",
"W%	c #E6CCAF",
"X%	c #E6CBAE",
"Y%	c #E9D0B2",
"Z%	c #E7CDB0",
"`%	c #E8CDB0",
" &	c #FFD5C5",
".&	c #3D9837",
"+&	c #108A17",
"@&	c #E6D0B3",
"#&	c #E5C3A6",
"$&	c #E4B89B",
"%&	c #E4BB9E",
"&&	c #E4B99C",
"*&	c #E5C0A3",
"=&	c #E5CBAE",
"-&	c #E6D1B4",
";&	c #E5C6A9",
">&	c #E4BA9D",
",&	c #E4BC9F",
"'&	c #FCD4C0",
")&	c #E5CFB2",
"!&	c #E5C1A4",
"~&	c #E4BDA0",
"{&	c #E2C5A4",
"]&	c #F5EADE",
"^&	c #FDFBF9",
"/&	c #F1E3D2",
"(&	c #E2C6A4",
"_&	c #E1C3A1",
":&	c #F7EFE5",
"<&	c #F3E7D8",
"[&	c #E4C8A8",
"}&	c #ECD8C1",
"|&	c #FBF7F2",
"1&	c #FBF6F1",
"2&	c #FAF5F0",
"3&	c #FDFCFA",
"4&	c #EEDDC9",
"5&	c #E8D1B6",
"6&	c #ECD8C2",
"7&	c #F0E1D0",
"8&	c #F4E8DC",
"9&	c #EBD7BF",
"0&	c #EAD4BB",
"a&	c #DDC5AA",
"b&	c #DCC5A9",
"c&	c #E0C09B",
"d&	c #E8CFB5",
"e&	c #EEDECB",
"f&	c #DEBD96",
"g&	c #E4CAAB",
"h&	c #EAD0B3",
"i&	c #D7C1A6",
"j&	c #D5BFA4",
"k&	c #E8D0B5",
"l&	c #EAD4BC",
"m&	c #DEC7AB",
"n&	c #DEC6AA",
"o&	c #D9C2A7",
"p&	c #D5C0A5",
"q&	c #D7C0A6",
"r&	c #E4CCAF",
"s&	c #DFC8AC",
"t&	c #DFC7AB",
"u&	c #D8C2A7",
"v&	c #EBD0B3",
"w&	c #E3CBAD",
"x&	c #D4BFA4",
"y&	c #E7CEB0",
"z&	c #E4CBAE",
"A&	c #E2C9AD",
"B&	c #D8C1A6",
"C&	c #D6C1A5",
"D&	c #EAD1B2",
"E&	c #E0C8AC",
"F&	c #D5BEA4",
"G&	c #D6C0A5",
"H&	c #E9C9B2",
"I&	c #F3D2B7",
"J&	c #E5C9A9",
"K&	c #FED9C0",
"L&	c #F1D2B7",
"M&	c #E0C9AC",
"N&	c #E2CAAD",
"O&	c #E3CAAE",
"P&	c #E4CCAE",
"Q&	c #DEC6AB",
"R&	c #DAC3A8",
"S&	c #E6CAB0",
"T&	c #DBC4A8",
"U&	c #E1C4AC",
"V&	c #D7C0A5",
"W&	c #DCC4AA",
"X&	c #E9CFB2",
"Y&	c #F7D6BB",
"Z&	c #D2C3A3",
"`&	c #246F34",
" *	c #236E33",
".*	c #2A7137",
"+*	c #E1C6AC",
"@*	c #E1C7AD",
"#*	c #DBC3A8",
"$*	c #D9C3A7",
"%*	c #F4D4B9",
"&*	c #D6C5A6",
"**	c #2E733A",
"=*	c #216D31",
"-*	c #2C7239",
";*	c #206A2E",
">*	c #216B2F",
",*	c #0F5E1D",
"'*	c #8FB496",
")*	c #C9DACC",
"!*	c #02510B",
"~*	c #62976C",
"{*	c #DAE7DE",
"]*	c #19682A",
"^*	c #176525",
"/*	c #D8C6A7",
"(*	c #F3D3B9",
"_*	c #297036",
":*	c #2A7037",
"<*	c #276F34",
"[*	c #397B45",
"}*	c #387A44",
"|*	c #287035",
"1*	c #297136",
"2*	c #256E32",
"3*	c #206B2E",
"4*	c #226B2F",
"5*	c #226C30",
"6*	c #176729",
"7*	c #3F7D48",
"8*	c #E0CAAD",
"9*	c #2A7237",
"0*	c #246E33",
"a*	c #296F36",
"b*	c #10651F",
"c*	c #B7D3BC",
"d*	c #ABC9B1",
"e*	c #0C641B",
"f*	c #2A7838",
"g*	c #2F7B3C",
"h*	c #367E45",
"i*	c #2B723D",
"j*	c #166324",
"k*	c #438452",
"l*	c #F1F3EE",
"m*	c #EED3B9",
"n*	c #FAD7BD",
"o*	c #DBC8A9",
"p*	c #2F793C",
"q*	c #337E40",
"r*	c #327C3F",
"s*	c #2E773B",
"t*	c #277035",
"u*	c #297137",
"v*	c #2B7538",
"w*	c #488D54",
"x*	c #448950",
"y*	c #0D661D",
"z*	c #78AA81",
"A*	c #EDF4EE",
"B*	c #ECF3ED",
"C*	c #EBF2EC",
"D*	c #E9F0EA",
"E*	c #F0F5F1",
"F*	c #E9D0B5",
"G*	c #E3C8A8",
"H*	c #E5CAAC",
"I*	c #FAF6F1",
"J*	c #E3C7A8",
"K*	c #D9C6A8",
"L*	c #348041",
"M*	c #327E3F",
"N*	c #1C6A2D",
"O*	c #3C7A43",
"P*	c #CDC1A0",
"Q*	c #D3C3A3",
"R*	c #D0C2A2",
"S*	c #D2C2A3",
"T*	c #4A874D",
"U*	c #217534",
"V*	c #307B3D",
"W*	c #2F7A3C",
"X*	c #156B24",
"Y*	c #88B490",
"Z*	c #D9E7DC",
"`*	c #DFEBE2",
" =	c #F4F8F6",
".=	c #FFFEC4",
"+=	c #FFEE5E",
"@=	c #FFFFFE",
"#=	c #FBF8F4",
"$=	c #FCF8F4",
"%=	c #EFDFCC",
"&=	c #F9D6BC",
"*=	c #CABF9E",
"==	c #3E7B44",
"-=	c #3F7B44",
";=	c #2B7137",
">=	c #337F40",
",=	c #327D3F",
"'=	c #317C3E",
")=	c #2E783B",
"!=	c #18672A",
"~=	c #407B46",
"{=	c #F8D6BB",
"]=	c #FFD9C0",
"^=	c #FCD8BF",
"/=	c #FED8C0",
"(=	c #538C54",
"_=	c #217634",
":=	c #287735",
"<=	c #227430",
"[=	c #005C0D",
"}=	c #A8C4AD",
"|=	c #FEFDF5",
"1=	c #FBF7CB",
"2=	c #F5F8FB",
"3=	c #F8DAC3",
"4=	c #E7C9A8",
"5=	c #E4CDB0",
"6=	c #EBCFB3",
"7=	c #FFE1CA",
"8=	c #CEC1A0",
"9=	c #0D6325",
"0=	c #16672A",
"a=	c #2B7138",
"b=	c #286F35",
"c=	c #348141",
"d=	c #286E35",
"e=	c #2D753A",
"f=	c #317B3E",
"g=	c #307A3D",
"h=	c #207333",
"i=	c #44834A",
"j=	c #EDD0B4",
"k=	c #EACFB3",
"l=	c #ECCFB4",
"m=	c #4E8950",
"n=	c #126C26",
"o=	c #97BA9D",
"p=	c #CCDECF",
"q=	c #D3E4D6",
"r=	c #7DA982",
"s=	c #9AC4C8",
"t=	c #FFFFC8",
"u=	c #F7EE93",
"v=	c #FBF7CE",
"w=	c #F7ED91",
"x=	c #FEFCEC",
"y=	c #F3E458",
"z=	c #FAFAFA",
"A=	c #FEFFFF",
"B=	c #6D986D",
"C=	c #B3B089",
"D=	c #F6D5BA",
"E=	c #BBB894",
"F=	c #4E824E",
"G=	c #518450",
"H=	c #287036",
"I=	c #276C34",
"J=	c #2E763B",
"K=	c #368343",
"L=	c #247937",
"M=	c #48894E",
"N=	c #EDCFB5",
"O=	c #387F42",
"P=	c #00590B",
"Q=	c #C3D9CE",
"R=	c #B5D3BE",
"S=	c #005B30",
"T=	c #689A51",
"U=	c #FFF81E",
"V=	c #FFF88D",
"W=	c #F9F2BD",
"X=	c #EEDB20",
"Y=	c #FAF2AF",
"Z=	c #F3E55B",
"`=	c #F5E870",
" -	c #12672A",
".-	c #A5A77C",
"+-	c #FFEBD7",
"@-	c #FFDAC2",
"#-	c #FFEAD6",
"$-	c #B8B793",
"%-	c #005715",
"&-	c #17682B",
"*-	c #296E36",
"=-	c #307C3D",
"--	c #276E34",
";-	c #2C7539",
">-	c #2D763A",
",-	c #1D6E2F",
"'-	c #427F48",
")-	c #E8CEB2",
"!-	c #ADB38C",
"~-	c #95A77B",
"{-	c #D5CEB5",
"]-	c #EFE0CE",
"^-	c #ADB3A2",
"/-	c #86A134",
"(-	c #DBD900",
"_-	c #9DB011",
":-	c #7DA54D",
"<-	c #FFFDA9",
"[-	c #FAF5C1",
"}-	c #F5E86D",
"|-	c #F6EB81",
"1-	c #ECD600",
"2-	c #EDD707",
"3-	c #F4E44F",
"4-	c #F5E971",
"5-	c #FFFFF7",
"6-	c #B8D0BE",
"7-	c #779A6E",
"8-	c #698D5B",
"9-	c #719464",
"0-	c #7A986A",
"a-	c #5B8957",
"b-	c #226D32",
"c-	c #30793D",
"d-	c #378444",
"e-	c #2D773A",
"f-	c #266A33",
"g-	c #276D34",
"h-	c #2B6F37",
"i-	c #216A30",
"j-	c #005613",
"k-	c #226B32",
"l-	c #EED1B5",
"m-	c #E5CDAF",
"n-	c #FDD7BE",
"o-	c #FFDCC5",
"p-	c #EECEAF",
"q-	c #E5C8A6",
"r-	c #F7D3C5",
"s-	c #FFE3A7",
"t-	c #FFEA3C",
"u-	c #ACBB26",
"v-	c #97AB0E",
"w-	c #F7EA46",
"x-	c #F7ED8E",
"y-	c #ECD500",
"z-	c #EDD809",
"A-	c #EFDB1E",
"B-	c #F0DE34",
"C-	c #F3E98A",
"D-	c #EDD917",
"E-	c #EBE7C3",
"F-	c #549265",
"G-	c #004E07",
"H-	c #0D6224",
"I-	c #0C6123",
"J-	c #0D6124",
"K-	c #0B6223",
"L-	c #2C7038",
"M-	c #358042",
"N-	c #237334",
"O-	c #428148",
"P-	c #8A9F74",
"Q-	c #97A67D",
"R-	c #E9CEB2",
"S-	c #E1C9AD",
"T-	c #DFC8A8",
"U-	c #DBC2D2",
"V-	c #E4CD78",
"W-	c #FFE908",
"X-	c #FFE927",
"Y-	c #ECD716",
"Z-	c #EFD907",
"`-	c #F5E22A",
" ;	c #F0DC1D",
".;	c #EDDB33",
"+;	c #DED794",
"@;	c #EBDA34",
"#;	c #D9D5B4",
"$;	c #60986B",
"%;	c #105F1E",
"&;	c #2F783C",
"*;	c #2B7338",
"=;	c #2B7238",
"-;	c #358242",
";;	c #1B7431",
">;	c #61945D",
",;	c #FFE3CE",
"';	c #FFDCC3",
");	c #DAC2A8",
"!;	c #D2BDA3",
"~;	c #D0BABA",
"{;	c #E2CD66",
"];	c #F4E00F",
"^;	c #F1DE25",
"/;	c #E8D624",
"(;	c #E0CD21",
"_;	c #F3E029",
":;	c #EFDC21",
"<;	c #C2AF00",
"[;	c #E7D31C",
"};	c #E1DEC7",
"|;	c #61986B",
"1;	c #286C35",
"2;	c #2C7639",
"3;	c #338040",
"4;	c #1D7432",
"5;	c #598F58",
"6;	c #F2D2B7",
"7;	c #E1C8AC",
"8;	c #DDC6AA",
"9;	c #DBC3C1",
"0;	c #E6D169",
"a;	c #F2E00F",
"b;	c #EEDB25",
"c;	c #F8E427",
"d;	c #E1CF22",
"e;	c #C3B31A",
"f;	c #F3E025",
"g;	c #EEDC25",
"h;	c #DFCC23",
"i;	c #DAC818",
"j;	c #ECD707",
"k;	c #DEDBBD",
"l;	c #679A71",
"m;	c #0E5D1C",
"n;	c #286D35",
"o;	c #E8CDCA",
"p;	c #ECD56C",
"q;	c #F0DF0E",
"r;	c #ECD924",
"s;	c #DBC920",
"t;	c #F4E126",
"u;	c #E8D524",
"v;	c #C8B617",
"w;	c #F2DE25",
"x;	c #F3E881",
"y;	c #DFDDDA",
"z;	c #BBCEC2",
"A;	c #43834F",
"B;	c #1A6528",
"C;	c #E3CBAE",
"D;	c #E0C6C4",
"E;	c #E9D36E",
"F;	c #F1DD00",
"G;	c #F3DF12",
"H;	c #DBCA24",
"I;	c #CDBC1C",
"J;	c #F7E427",
"K;	c #F2DF26",
"L;	c #E9D624",
"M;	c #CDBB15",
"N;	c #EDDA27",
"O;	c #F5EFC5",
"P;	c #E2E2FF",
"Q;	c #347B4B",
"R;	c #10631D",
"S;	c #2B7038",
"T;	c #DBC3A9",
"U;	c #D4BEA4",
"V;	c #D2BBBB",
"W;	c #E2CC5A",
"X;	c #F6E73B",
"Y;	c #F8EA5F",
"Z;	c #DDCA16",
"`;	c #CFBE1D",
" >	c #CDBB1E",
".>	c #F0DC1F",
"+>	c #F6DF12",
"@>	c #E8DE9F",
"#>	c #47825A",
"$>	c #16652A",
"%>	c #347F41",
"&>	c #DFC6AB",
"*>	c #DBC4A9",
"=>	c #D8C0BF",
"->	c #E2CA48",
";>	c #FBF384",
">>	c #FEF9BF",
",>	c #DCC703",
"'>	c #D0BF1D",
")>	c #F5E227",
"!>	c #C9B81C",
"~>	c #E6D323",
"{>	c #F5DF24",
"]>	c #FBE10A",
"^>	c #3F7B1F",
"/>	c #106438",
"(>	c #2D7339",
"_>	c #2C7439",
":>	c #1B7331",
"<>	c #5C915A",
"[>	c #F3D3B8",
"}>	c #F5D4BA",
"|>	c #E9CDAE",
"1>	c #ECCFB2",
"2>	c #F5D3D3",
"3>	c #F1D770",
"4>	c #F0DD09",
"5>	c #F4E123",
"6>	c #DDCA1B",
"7>	c #CAB80E",
"8>	c #EEDC27",
"9>	c #CDBC1D",
"0>	c #C8B71B",
"a>	c #EFDA24",
"b>	c #F6E243",
"c>	c #5E8E4E",
"d>	c #247443",
"e>	c #1F7533",
"f>	c #568D56",
"g>	c #D9C7A8",
"h>	c #D8C7A7",
"i>	c #D6C6A5",
"j>	c #E4CEB3",
"k>	c #E0CCAF",
"l>	c #D2C2BB",
"m>	c #E3D167",
"n>	c #F2E00D",
"o>	c #F3DF1E",
"p>	c #E5D430",
"q>	c #C5B734",
"r>	c #D0BF1B",
"s>	c #EBD825",
"t>	c #CCBB17",
"u>	c #EAD617",
"v>	c #E2DEB7",
"w>	c #E5E2F4",
"x>	c #5A9365",
"y>	c #1D712C",
"z>	c #2F723A",
"A>	c #30753B",
"B>	c #377F42",
"C>	c #1F712C",
"D>	c #CDD9CE",
"E>	c #97B99C",
"F>	c #025C28",
"G>	c #93AE36",
"H>	c #FFEB1C",
"I>	c #EDD703",
"J>	c #FAEF83",
"K>	c #EDEAD0",
"L>	c #CCB90A",
"M>	c #F0DE24",
"N>	c #F4E026",
"O>	c #F3DC22",
"P>	c #CCBA1D",
"Q>	c #E9D82F",
"R>	c #F3E02D",
"S>	c #F5E8D2",
"T>	c #578D74",
"U>	c #136322",
"V>	c #347E41",
"W>	c #2E793C",
"X>	c #1F6A30",
"Y>	c #297939",
"Z>	c #0E6921",
"`>	c #CDDBD2",
" ,	c #9BBEA4",
".,	c #005823",
"+,	c #89A92E",
"@,	c #FFEE25",
"#,	c #F4DE26",
"$,	c #FBE530",
"%,	c #E7D537",
"&,	c #CDBC1B",
"*,	c #F1DF26",
"=,	c #E5D41B",
"-,	c #CDBD28",
";,	c #EAE8CD",
">,	c #F9E53C",
",,	c #EAE0B2",
"',	c #518971",
"),	c #146223",
"!,	c #2E793B",
"~,	c #358142",
"{,	c #186E27",
"],	c #B4CCB9",
"^,	c #FAFBFA",
"/,	c #5E9A89",
"(,	c #719701",
"_,	c #FFF78D",
":,	c #F2EBB6",
"<,	c #F6DE04",
"[,	c #E1CD16",
"},	c #FEE521",
"|,	c #D3CF26",
"1,	c #4D8A37",
"2,	c #DDD226",
"3,	c #FCE540",
"4,	c #F9E228",
"5,	c #649746",
"6,	c #1E6D42",
"7,	c #266D33",
"8,	c #368243",
"9,	c #2E7B3B",
"0,	c #43874E",
"a,	c #5B9766",
"b,	c #217754",
"c,	c #9FB118",
"d,	c #C5CA3C",
"e,	c #297B5F",
"f,	c #2F7B39",
"g,	c #6F9B36",
"h,	c #F9DF1F",
"i,	c #F5DE19",
"j,	c #E9D91C",
"k,	c #C8C822",
"l,	c #F5E01A",
"m,	c #F6DE0B",
"n,	c #5D912C",
"o,	c #1B7136",
"p,	c #257036",
"q,	c #2C7339",
"r,	c #267634",
"s,	c #056315",
"t,	c #74A283",
"u,	c #FFEDE0",
"v,	c #DCDAD4",
"w,	c #ACBD79",
"x,	c #B0BA06",
"y,	c #CAC809",
"z,	c #F4E134",
"A,	c #DEDBC0",
"B,	c #F1E5C6",
"C,	c #FFECC1",
"D,	c #F1E5C2",
"E,	c #F0E4C6",
"F,	c #C1CDCF",
"G,	c #438758",
"H,	c #23732F",
"I,	c #277735",
"J,	c #59935F",
"K,	c #6FA087",
"L,	c #4C8D73",
"M,	c #B1C293",
"N,	c #FFFFC2",
"O,	c #FFEFB3",
"P,	c #FFEDD8",
"Q,	c #D8DAF3",
"R,	c #5A957D",
"S,	c #5A957B",
"T,	c #5D967E",
"U,	c #5F977F",
"V,	c #73A17E",
"W,	c #3F8449",
"X,	c #2C7A39",
"Y,	c #367F42",
"Z,	c #267734",
"`,	c #196F28",
" '	c #116B1D",
".'	c #3A8250",
"+'	c #73A298",
"@'	c #679C8C",
"#'	c #70A08C",
"$'	c #5F9667",
"%'	c #1B702A",
"&'	c #1D712B",
"*'	c #1C712B",
"='	c #2E7B3C",
"-'	c #297837",
";'	c #176E26",
">'	c #1B7029",
",'	c #186F27",
"''	c #1E722D",
")'	c #337D3F",
"!'	c #337D40",
"~'	c #2B7339",
"{'	c #2A7238",
"]'	c #327F40",
"^'	c #227337",
"/'	c #237338",
"('	c #227237",
"_'	c #227136",
":'	c #217136",
"<'	c #1F7035",
"['	c #207036",
"}'	c #247339",
"|'	c #217436",
"1'	c #1F7532",
"2'	c #1F7633",
"3'	c #207533",
"4'	c #196A2C",
"5'	c #17682A",
"6'	c #5E6434",
"7'	c #5C6333",
"8'	c #636937",
"9'	c #6D713D",
"0'	c #6B703B",
"a'	c #6C703B",
"b'	c #616636",
"c'	c #505725",
"d'	c #848A5E",
"e'	c #BFC39E",
"f'	c #B1B68F",
"g'	c #B2B78F",
"h'	c #A7AB87",
"i'	c #A5A985",
"j'	c #7C5D32",
"k'	c #7D5D33",
"l'	c #7B5B32",
"m'	c #75572E",
"n'	c #836236",
"o'	c #967140",
"p'	c #926F3E",
"q'	c #93703E",
"r'	c #7F5E33",
"s'	c #77572F",
"t'	c #7C5C32",
"u'	c #67491B",
"v'	c #B89673",
"w'	c #FFEBD6",
"x'	c #FDD7BF",
"y'	c #FED8BF",
"z'	c #FCD7BF",
"A'	c #F1CEB7",
"B'	c #EFCCB5",
"C'	c #735F33",
"D'	c #715D32",
"E'	c #786436",
"F'	c #7F6939",
"G'	c #816B3B",
"H'	c #87703E",
"I'	c #866F3D",
"J'	c #806A3A",
"K'	c #776235",
"L'	c #715E32",
"M'	c #604D1E",
"N'	c #A8926D",
"O'	c #F9DFC5",
"P'	c #6B582E",
"Q'	c #7C6738",
"R'	c #8D7642",
"S'	c #88713E",
"T'	c #8C7440",
"U'	c #786335",
"V'	c #6B5930",
"W'	c #725E32",
"X'	c #7C6638",
"Y'	c #816B3A",
"Z'	c #5F4C1E",
"`'	c #6C5A2F",
" )	c #7F6A39",
".)	c #8E7542",
"+)	c #88703E",
"@)	c #856E3D",
"#)	c #8E7641",
"$)	c #7B6637",
"%)	c #59461B",
"&)	c #A6916C",
"*)	c #725E33",
"=)	c #786336",
"-)	c #796536",
";)	c #665222",
">)	c #AC956F",
",)	c #F8DEC4",
"')	c #836C3B",
"))	c #776129",
"!)	c #BAA17A",
"~)	c #FFEED7",
"{)	c #EFD6BA",
"])	c #816A3A",
"^)	c #7B652F",
"/)	c #A48D63",
"()	c #CEB797",
"_)	c #D9C1A2",
":)	c #F5DBC0",
"<)	c #8B7441",
"[)	c #786433",
"})	c #5D4B1D",
"|)	c #715D30",
"1)	c #89723F",
"2)	c #7D6838",
"3)	c #665325",
"4)	c #705C31",
"5)	c #756135",
"6)	c #746033",
"7)	c #8B7440",
"8)	c #8D7541",
"9)	c #7E6939",
"0)	c #756034",
"a)	c #151D17",
"b)	c #7B6435",
"c)	c #796436",
"d)	c #806737",
"e)	c #8D7441",
"f)	c #8A723F",
"g)	c #856F3D",
"h)	c #89713E",
"i)	c #8D7641",
"j)	c #6C582F",
"k)	c #7F6737",
"l)	c #7E6839",
"m)	c #87703D",
"n)	c #8B6F3A",
"o)	c #816937",
"p)	c #826938",
"q)	c #806736",
"r)	c #7E6635",
"s)	c #7E6636",
"t)	c #7A6433",
"u)	c #876E3B",
"v)	c #9B7E45",
"w)	c #977C43",
"x)	c #987C43",
"y)	c #8A723E",
"z)	c #846E3C",
"A)	c #846D3C",
"B)	c #8D743F",
"C)	c #997D43",
"D)	c #846A38",
"E)	c #7C6434",
"F)	c #806837",
"G)	c #826A38",
"H)	c #8F723C",
"I)	c #161E17",
"J)	c #524729",
"K)	c #4D4428",
"L)	c #4B4327",
"M)	c #51482A",
"N)	c #5A4F2F",
"O)	c #584E2E",
"P)	c #564C2D",
"Q)	c #88703D",
"R)	c #907640",
"S)	c #947942",
"T)	c #7E693A",
"U)	c #51492B",
"V)	c #594E2E",
"W)	c #4F4629",
"X)	c #4C4327",
"Y)	c #54492A",
"Z)	c #081413",
"`)	c #0A1514",
" !	c #061212",
".!	c #071212",
"+!	c #051112",
"@!	c #000C0F",
"#!	c #000B0F",
"$!	c #091413",
"%!	c #1A2019",
". . . . . . . . . . . . . . . . . . . . . . . . . . . . . . . . . . . . . . . . . . . . + + + + + + + + + + + + + + + + + + + + + + + + + + + + + + + + + + + + . . . . . . . . . . . . . . . . . . . . . . . . . . . . . . . . . . . . . . . . . . . . . . . . ",
". . . . . . . . . . . . . . . . . . . . . . . . . . . . . . . . . . . . . . . . . . . . + + + + + + + + + + + + + + + + + + + + + + + + + + + + + + + + + + + + . . . . . . . . . . . . . . . . . . . . @ @ @ . . . . . . . . . . . . . . . . . . . . . . . . . ",
". . . . . . . . . . . . . . . . . . . . . . . . . . . . . . . . . . . . . . . . . . . . + + + + + + + + + + + + + + + + + + + + + + + + + + + + + + + + + + + + . . . . . . . . . . . . . . . . . @ @ . . @ @ . . . . . . . . . . . . . . . . . . . . . . . . . ",
". . . . . . . . . . . . . . . . . . . . . . . . . . . . . . . . . . . . . . . . . . . . + + + + + + + + + + + + + + + + + + + + + + + + + + + + + + + + + + + + . . . . . . . . . . . . . . . . . . @ . . @ @ . @ @ . . . . . . . . . . . . . . . . . . . . . . ",
". . . . . . . . . . . . . . . . . . . . . . . . . . . . . . . . . . . . . . . . . . . . + + + + + + + + + + + + + + + + + + + + + + + + + + + + + + + + + + + + . . . . . . . . . . . . . . . . . . . . @ @ . . @ . . . . . . . . . . . . . . . . . . . . . . . ",
". . . . . . . . . . . . . . . . . . . . . . . . . . . . . . . . . . . . . . . . . . . . + + + + + + + + + + + + + + + + + + + + + + + + + + + + + + + + + + + + . . . . . . . . . . . . . . . . . @ @ . @ @ @ . @ @ . . @ . . . . . . . . . . . . . . . . . . . ",
". . . . . . . . . . . . . . . . . . . . . . . . . . . . . . . . . . . . . . . . . . . . + + + # $ % & & & & & * = - ; + + + + + + + + + + + + + + + + + + + + + . . . . . . . . . . . . . . . @ . . @ . . @ . . @ . . @ . . . . . . . . . . . . . . . . . . . . ",
". . . . . . . . . . . . . . . . . . . . . . . . . . . . . . . . . . . . . . . . . . . . + + + > , ' ) ) ) ) ) ! ~ + - + + + + + + + + + + + + + + + + + + + + + . . . . . . . . . . . . . . . . @ . . @ @   @ @ . . . . . . . . . . . . . . . . . . . . . . . . ",
". . . . . . . . . . . . . . . . . . . . . . . . . . . . . . . . . . . . . . . . . . . . { { { ] ^ / ( _ : < [ } | 1 2 { { { { { { { { { { { { { { { { { { { { { . . . . . . . . . . . . . @ @ @ @ @ @     @     @ @ @ @ @ @ @ . . . . . . . . . . . . . . . . . ",
". . . . . . . . . . . . . . . . . . . . . . . . . . . . . . . . . . . . . . . . . . . . 3 3 3 4 5 6 7 8 8 8 9 0 a b c 3 3 3 3 3 3 3 3 3 3 3 3 3 3 3 3 3 3 3 3 3 . . . . . . . . . . . . . @ @ @ @ @ @     @     @ @ @ @ @ @ @ . . . . . . . . . . . . . . . . . ",
". . . . . . . . . . . . . . . . . . . . . . . . . . . . . . . . . . . . . . . . . . . . d d d e f g h i j k l m n o p d d d d d d d d d d d d d d d d d d d d d . . . . . . . . . . . . . . . . . . . @ @   @ @ . . . . . . . . . . . . . . . . . . . . . . . . ",
". . . . . . . . . . . . . . . . . . . . . . . . . . . . . . . . . . . . . . . . . . . . q r r s t u v w x y z A B C D r r r r r r r r r r r r r r r E r F F F F . . . . . . . . . . . . . . . @ . . @ @   @ . @ @ . . @ . . . . . . . . . . . . . . . . . . . . ",
". . . . . . . . . . . . . . . . . . . . . . . . . . . . . . . . . . . . . . . . . . . . G H I J K L M N I O P Q R S T I I I I I I I I I I I I I I I U I V W X X . . . . . . . . . . . . . . @ @ . @ @ . @ @ . . @ @ . @ @ . . . . . . . . . . . . . . . . . . . ",
". . . . . . . . . . . . . . . . . . . . . . . . . . . . . . . . . . . . . . . . . . . . Y Y Y Z `  ...Z Y +.@.#.$.%.&.Y Y Y Y Y Y Y Y Y Y Y Y Y Y Y *.Y =.-.;.;.. . . . . . . . . . . . . . . . @   @ . . @ @ . . @ @ . . . . . . . . . . . . . . . . . . . . . ",
". . . . . . . . . . . . . . . . . . . . . . . . . . . . . . . . . . . . . . . . . . >.,.'.).!.~.{.].^.~.!.~./.(._.:.~.!.!.!.!.!.!.!.!.!.!.!.!.!.!.!.<.[.}.|.1.2.. . . . . . . . . . . . . . . . . @ @ . . @ . . @ . . . . . . . . . . . . . . . . . . . . . . . ",
". . . . . . . . . . . . . . . . . . . . . . . . . . . . . . . . . . . . . . . . . . 3.4.5.6.7.8.9.0.a.8.7.8.b.c.d.e.8.7.7.7.7.7.7.7.7.7.7.7.7.7.7.7.f.g.h.i.Y j.. . . . . . . . . . . . . . . . . . . . @ @ . . @ @ . . . . . . . . . . . . . . . . . . . . . . ",
". . . . . . . . . . . . . . . . . . . . . . . . . . . . . . . . . . . . . . k.k.l.l.m.n.o.o.o.o.o.o.o.o.o.o.o.o.o.o.o.o.o.o.o.o.o.o.o.o.o.o.o.o.o.o.p.q.r.s.t.u.v.w.. . . . . . . . . . . . . . . . . . @ @ @ . . @ . . . . . . . . . . . . . . . . . . . . . . ",
". . . . . . . . . . . . . . . . . . . . . . . . . . . . . . . . . . . . . . 3.x.4.4.y.z.A.A.A.A.A.A.A.A.A.A.A.A.A.A.A.A.A.A.A.A.A.A.A.A.A.A.A.A.A.A.A.A.B.C.6.D.E.F.. . . . . . . . . . . . . . . . . . . @ . . . . . . . . . . . . . . . . . . . . . . . . . . ",
". . . . . . . . . . . . . . . . . . . . . . . . . . . . . . . . . . . . . . G.H.G.G.I.J.+ + + + + + + + + + + + + + + + + + + + + + + + + + + + + + K.+ L.M.G.G.G.N.O.. . . . . . . . . . . . . . . . . . . . . . . . . . . . . . . . . . . . . . . . . . . . . ",
". . . . . . . . . . . . . . . . . . . . . . . . . . . . . . . . . . . . P.Q.R.S.A.A.K.+ + + + + + + + + + + + + + + + + + + + + + + + + + + + + + + + + R.A.R.R.R.T.m.U.3.. . . . . . . . . . . . . . . . . . . . . . . . . . . . . . . . . . . . . . . . . . . ",
". . . . . . . . . . . . . . . . . . . . . . . . . . . . . . . . . . . . V.W.+ K.+ + + + + + + + + + + + + + + + + + + + + + + + + + + + + + + + + + + + + + + + + R.X.O.Y.. . . . . . . . . . . . . . . . . . . . . . . . . . . . . . . . . . . . . . . . . . . ",
". . . . . . . . . . . . . . . . . . . . . . . . . . . . . . . . . . Z.`.S. ++ + + + + + + + + + + + + + + y..+++++@+@+@+@+@+#+$+%++ + + + + + + + + + + + + + + + y.3  +. . . . . . . . . . . . . . . . . . . . . . . . . . . . . . . . . . . . . . . . . . . . ",
". . . . . . . . . . . . . . . . . . . . . . . . . . . . . . . . . . &+W.3 + + + + + + + + + + + + + + + + .+*+=+=+=+=+=+=+=+-+;+>++ + + + + + + + + + + + + + + + + + R.,+. . . . . . . . . . . . . . . . . . . . . . . . . . . . . . . . . . . . . . . . . . . ",
". . . . . . . . . . . . . . . . . . . . . . . . . . . . . . . . . . K.K.+ + + + + + + + + + + + + y.>+'+)+!+~+{+]+^+^+^+^+^+/+(+_+)+)+)+)+)+'+:++ + + + + + + + + + + S.H.U.<+. . . . . . . . . . . . . . . . . . . . . . . . . . . . . . . . . . . . . . . . . ",
". . . . . . . . . . . . . . . . . . . . . . . . . . . . . . . . . . K.+ + + + + + + + + + + + + + K.*+[+}+.+|+1+2+3+3+3+3+3+4+5+6+}+}+}+}+}+}+;++ + + + + + + + + + + A.7+8+&+. . . . . . . . . . . . . . . . . . . . . . . . . . . . . . . . . . . . . . . . . ",
". . . . . . . . . . . . . . . . . . . . . . . . . . . . . . . . . . + + + + + + + + + + + y..+9+$+0+a+b+c+d+e+f+f+g+g+g+f+h+i+j+c+c+c+c+c+c+k+l+m+n+$+$++ + + + + + + + + o+ +. . . . . . . . . . . . . . . . . . . . . . . . . . . . . . . . . . . . . . . . . ",
". . . . . . . . . . . . . . . . . . . . . . . . . . . . . . . . . . + + + + + + + + + + + + + y.+ p+q+r+2+s+1+t+t+t+t+t+t+u+v+w+s+2+2+2+2+2+x+y+9+.++ + + + + + + + + + K.R.y.. . . . . . . . . . . . . . . . . . . . . . . . . . . . . . . . . . . . . . . . . ",
". . . . . . . . . . . . . . . . . . . . . . . . . . . . . . . . . . + + + + + + + + + + K.z+A+w+B+C+D+E+u+F+G+H+I+J+J+K+L+M+N+h+h+O+i+O+P+O+E+j+Q+R+S+T+[+)++ + + + + + + A.U+Z.k.. . . . . . . . . . . . . . . . . . . . . . . . . . . . . . . . . . . . . . . ",
". . . . . . . . . . . . . . . . . . . . . . . . . . . . . . . . . . + + + + + + + + + y.$+V+W+X+Y+Z+`+ @u+.@+@@@#@$@$@%@&@*@=@-@;@>@,@'@)@f+!@3+~@~@{@s+]@^@+ + + + + + + R./@4.<+. . . . . . . . . . . . . . . . . . . . . . . . . . . . . . . . . . . . . . . ",
". . . . . . . . . . . . . . . . . . . . . . . . . . . . . . . . . . + + + + + + + + + '+(@_@:@<@[@}@|@1@u+2@3@4@5@6@6@6@7@8@9@0@a@b@c@d@e@f@g@u+u+u+1+j+h@'++ + + + + + + K.o+i@j@. . . . . . . . . . . . . . . . . . . . . . . . . . . . . . . . . . . . . . . ",
". . . . . . . . . . . . . . . . . . . . . . . . . . . . . . . . . . + + + + + + + + + ++k@l@m@n@f@@ o@p@q@r@s@t@u@6@6@6@v@w@x@y@z@A@n@B@C@D@E@F@G@H@2+I@.+J@>+K@+ + + + + + K.R. +. . . . . . . . . . . . . . . . . . . . . . . . . . . . . . . . . . . . . . . ",
". . . . . . . . . . . . . . . . . . . . . . . . . . . . . . . . . . + + + + + + + + + @+L@M@N@O@P@Q@R@F@S@T@U@V@W@6@6@6@6@6@6@6@X@Y@Z@`@ #.#+#@###$#%#&#*#=#-#)++ + + + + + + + + . . . . . . . . . . . . . . . . . . . . . . . . . . . . . . . . . . . . . . . ",
". . . . . . . . . . . . . . . . . . . . . . . . . . . . . . . . . . + + K@.+;#;#K.%+>#,#=#'#)#@ !#n@~#{#]#^#/#(#_#:#<#6@[#}#|#|#1#2#n@3#X@4#5#6#7#8#9#0#a#b#c#d#+ + + + + + + + + . . . . . . . . . . . . . . . . . . . . . . . . . . . . . . . . . . . . . . . ",
". . . . . . . . . . . . . . . . . . . . . . . . . . . . . . . . . . + + e#;+f#g#*+:+h#(@T+i#j#k#l#m#n#o#p#q#r#s#t#u#v#:#v#w#s#s#x#y#z#A#B#6@6@6@C#D#E#F#G#H#I#+++ + + + + + + + + . . . . . . . . . . . . . . . . . . . . . . . . . . . . . . . . . . . . . . . ",
". . . . . . . . . . . . . . . . . . . . . . . . . . . . . . . . . . + + J#K#L#M#@+,#N#O#2+P#j#Q#R#S#T#U#V#@ @ @ @ W#X#:#Y#@ @ @ @ Z#`# $.$6@+$t@X@X@@$#$$$%$&$*$=$-$;$>$+ + + + + . . . . . . . . . . . . . . . . . . . . . . . . . . . . . . . . . . . . . . . ",
". . . . . . . . . . . . . . . . . . . . . . . . . . . . . . . . . . + + ,$'$w+3+)$!$~$s+u+{$j#]$6@6@6@^$/$($_$@ :$<$[$6@}$|$1$2$@ 3$|#6@6@6@4$5$6$E#7$V@8$9$g#0$a$b$c$d$+ + + + . . . . . . . . . . . . . . . . . . . . . . . . . . . . . . . . . . . . . . . . ",
". . . . . . . . . . . . . . . . . . . . . . . . . . . . . . . . . . . . e$f$g$h$i$j$3+k$l$n@m$n$6@6@6@o$p$n@q$@ @ <$[$V@r$s$n@t$@ 3$|#6@6@6@u$v$w$x$T#y$z$A$B$C$D$@ E$F$+ + + . . . . . . . . . . . . . . . . . . . . . . . . . . . . . . . . . . . . . . . . . ",
". . . . . . . . . . . . . . . . . . . . . . . . . . . . . . . . . . . . G$H$I$J$K$'@u+L$M$N$O$P$6@6@6@Q$R$S$T$@ @ <$[$V@U$V$W$X$@ 3$|#6@6@6@Y$Z$`$ %)#.%+%@%#%$%v$%%&%*%+ + + . . . . . . . . . . . . . . . . . . . . . . . . . . . . . . . . . . . . . . . . . ",
". . . . . . . . . . . . . . . . . . . . . . . . . . . . . . . . . . . . . . =%-%>@;%'@l$>%,%'%+$6@6@6@)%!%~%{%@ @ <$X#V@]%^%n@/%@ (%_%6@6@6@:%<%{$9#[%~#}%|%1%2%3%4%5%6%+ + + . . . . . . . . . . . . . . . . . . . . . . . . . . . . . . . . . . . . . . . . . ",
". . . . . . . . . . . . . . . . . . . . . . . . . . . . . . . . . . . . . . 7%8%9%+@0%a%!%u$6@6@6@6@6@b%c%d%e%f%f%g%h%V@i%j%k%l%f%m%}#6@6@6@$@n%o%p%R@R@p%q%r%s%t%u%v%w%+ + + . . . . . . . . . . . . . . . . . . . . . . . . . . . . . . . . . . . . . . . . . ",
". . . . . . . . . . . . . . . . . . . . . . . . . . . . . . . . . . . . . . v@6@R#-%x%{#y%z%[#A%[#[#[#B%C%D%E%[$[$6@6@6@v@F%G%H%[$I%<#[#A%[#B%J%K%L%M%i%M%N%O%P%Q%R%S%T%+ . . . . . . . . . . . . . . . . . . . . . . . . . . . . . . . . . . . . . . . . . . . ",
". . . . . . . . . . . . . . . . . . . . . . . . . . . . . . . . . . . . . . 6@6@7$F%U%V%R$y@W%X%X%X%X%X%W%7@O%W%W%6@6@6@6@O%Y%Z%W%6@6@W%X%X%X%W%`%W@O%O%O%O%6@ &.&F$+&+ . . . . . . . . . . . . . . . . . . . . . . . . . . . . . . . . . . . . . . . . . . . . ",
". . . . . . . . . . . . . . . . . . . . . . . . . . . . . . . . . . . . . . . . 6@6@v@v@6@@&#&$&%&%&%&&&*&A%6@6@6@6@6@6@6@6@<#=&h%I%-&;&$&%&%&%&>&,&6@[#6@6@6@'&. . . . . . . . . . . . . . . . . . . . . . . . . . . . . . . . . . . . . . . . . . . . . . . . ",
". . . . . . . . . . . . . . . . . . . . . . . . . . . . . . . . . . . . . . . . 6@6@C#E%O%)&#&&&,&,&,&>&!&A%6@6@6@6@6@6@6@6@6@[#u#[#@&;&&&,&,&,&%&~&6@[#6@6@6@Z%. . . . . . . . . . . . . . . . . . . . . . . . . . . . . . . . . . . . . . . . . . . . . . . . ",
". . . . . . . . . . . . . . . . . . . . . . . . . . . . . . . . . . . . . . . . . . 6@6@6@6@W%X%W%W%W%W%W%v@I%I%I%I%I%I%I%I%{&]&^&/&(&W%X%W%W%W%W%W%6@6@6@6@. . . . . . . . . . . . . . . . . . . . . . . . . . . . . . . . . . . . . . . . . . . . . . . . . . ",
". . . . . . . . . . . . . . . . . . . . . . . . . . . . . . . . . . . . . . . . . . 6@6@6@6@[#[#[#[#[#A%6@v#v#v#v#v#v#v#v#v#_&:&@ <&_%[#[#[#[#[#[#[#6@6@6@6@. . . . . . . . . . . . . . . . . . . . . . . . . . . . . . . . . . . . . . . . . . . . . . . . . . ",
". . . . . . . . . . . . . . . . . . . . . . . . . . . . . . . . . . . . . . . . . . . . 6@6@6@6@6@6@6@[&}&|&|&1&1&1&1&1&1&1&2&3&@ 3$|#6@6@6@6@6@6@6@6@6@6@6@. . . . . . . . . . . . . . . . . . . . . . . . . . . . . . . . . . . . . . . . . . . . . . . . . . ",
". . . . . . . . . . . . . . . . . . . . . . . . . . . . . . . . . . . . . . . . . . . . 6@6@6@6@6@6@6@(&4&@ @ @ @ @ @ @ @ @ @ @ @ (%_%6@6@6@6@6@6@6@V@W@V@6@. . . . . . . . . . . . . . . . . . . . . . . . . . . . . . . . . . . . . . . . . . . . . . . . . . ",
". . . . . . . . . . . . . . . . . . . . . . . . . . . . . . . . . . . . . . . . . . . . 6@6@6@6@6@6@6@v#5&6&7&@ @ @ @ @ @ @ @ 8&9&0&h%6@6@6@6@6@V@v@a&b&. . . . . . . . . . . . . . . . . . . . . . . . . . . . . . . . . . . . . . . . . . . . . . . . . . . . ",
". . . . . . . . . . . . . . . . . . . . . . . . . . . . . . . . . . . . . . . . . . . . 6@6@6@6@6@6@6@[#v#c&d&@ @ @ @ @ @ @ @ e&f&g&u#6@6@6@6@6@h&Z%i&j&. . . . . . . . . . . . . . . . . . . . . . . . . . . . . . . . . . . . . . . . . . . . . . . . . . . . ",
". . . . . . . . . . . . . . . . . . . . . . . . . . . . . . . . . . . . . . . . . . . . . . 6@6@6@6@6@6@6@v#k&w#w#w#w#w#w#w#w#l&g&6@6@6@6@6@V@v@m&n&o&o&. . . . . . . . . . . . . . . . . . . . . . . . . . . . . . . . . . . . . . . . . . . . . . . . . . . . ",
". . . . . . . . . . . . . . . . . . . . . . . . . . . . . . . . . . . . . . . . . . . . . . 6@6@6@6@6@6@6@[#I%{&{&{&{&{&{&{&{&[$u#6@6@6@6@Z%h&W%p&q&o&o&. . . . . . . . . . . . . . . . . . . . . . . . . . . . . . . . . . . . . . . . . . . . . . . . . . . . ",
". . . . . . . . . . . . . . . . . . . . . . . . . . . . . . . . . . . . . . . . . . . . . . . 6@6@6@6@6@6@6@6@6@6@6@6@6@6@6@6@6@6@6@6@6@Z%r&s&t&u&o&o&u&. . . . . . . . . . . . . . . . . . . . . . . . . . . . . . . . . . . . . . . . . . . . . . . . . . . . ",
". . . . . . . . . . . . . . . . . . . . . . . . . . . . . . . . . . . . . . . . . . . . . . . . . 6@6@6@6@6@6@6@6@6@6@6@6@6@6@6@6@6@6@V@v&w&x&q&o&o&. . . . . . . . . . . . . . . . . . . . . . . . . . . . . . . . . . . . . . . . . . . . . . . . . . . . . . ",
". . . . . . . . . . . . . . . . . . . . . . . . . . . . . . . . . . . . . . . . . . . . . . . . . 6@6@6@6@6@6@6@6@6@6@6@6@6@6@6@6@6@y&z&A&t&B&o&o&C&. . . . . . . . . . . . . . . . . . . . . . . . . . . . . . . . . . . . . . . . . . . . . . . . . . . . . . ",
". . . . . . . . . . . . . . . . . . . . . . . . . . . . . . . . . . . . . . . . . . . . . . . . . . . . . 6@6@6@6@V@W@W@W@W@W@W@W@W@D&E&F&q&i&i&G&H&. . . . . . . . . . . . . . . . . . . . . . . . . . . . . . . . . . . . . . . . . . . . . . . . . . . . . . ",
". . . . . . . . . . . . . . . . . . . . . . . . . . . . . . . . . . . . . . . . . . . . . . . . . . . . . I&J&K&L&M&N&O&O&O&O&O&O&O&P&Q&q&R&a&b&S&T&. . . . . . . . . . . . . . . . . . . . . . . . . . . . . . . . . . . . . . . . . . . . . . . . . . . . . . ",
". . . . . . . . . . . . . . . . . . . . . . . . . . . . . . . . . . . . . . . . . . . . . . . . . . . . . . . . . U&j&V&V&V&V&V&V&V&V&q&G&W&X&V@Y&Z&`& *.*.*. . . . . . . . . . . . . . . . . . . . . . . . . . . . . . . . . . . . . . . . . . . . . . . . . . ",
". . . . . . . . . . . . . . . . . . . . . . . . . . . . . . . . . . . . . . . . . . . . . . . . . . . . . . . . . +*@*#*#*#*#*#*#*#*#*#*$*Q&W@6@%*&***=*.*.*. . . . . . . . . . . . . . . . . . . . . . . . . . . . . . . . . . . . . . . . . . . . . . . . . . ",
". . . . . . . . . . . . . . . . . . . . . . . . . . . . . . . . . . . . . . . . . . . . . . -*;*>*,*'*)*!*~*{*]*^*/*(*6@6@6@6@6@6@6@6@6@6@6@6@6@%*&***=*.*.*.*.*.*_*:*_*.*. . . . . . . . . . . . . . . . . . . . . . . . . . . . . . . . . . . . . . . . . . . ",
". . . . . . . . . . . . . . . . . . . . . . . . . . . . . . . . . . . . . . . . . . . . . . <*[*}*|*1*2*3*4*5*6*7*8*L&6@v#:#V@6@6@6@6@6@6@6@6@6@%*&***=*.*.*.*.*.*9*9*9*.*. . . . . . . . . . . . . . . . . . . . . . . . . . . . . . . . . . . . . . . . . . . ",
". . . . . . . . . . . . . . . . . . . . . . . . . . . . . . . . . . . . . . 0*0*0*0*_*.*.*a*b*c*d*e*f*g*h*i*j*k*l*m*J&=&g%u#6@6@6@6@6@6@6@6@B%V@n*o***=*.*.*.*_*p*q*r*q*s*a*.*. . . . . . . . . . . . . . . . . . . . . . . . . . . . . . . . . . . . . . . . . ",
". . . . . . . . . . . . . . . . . . . . . . . . . . . . . . . . . . . . . . t*t*t*t*u*.*.*a*v*w*x*y*z*A*B*C*D*E*@ F*G*H*I*4&J*6@6@6@6@6@6@6@6@Z%Y&K***=*.*.*.*_*p*L*M*L*s*a*.*. . . . . . . . . . . . . . . . . . . . . . . . . . . . . . . . . . . . . . . . . ",
". . . . . . . . . . . . . . . . . . . . . . . . . . . . . . .*.*.*.*.*.*N*O*P*Q*R*S*T*U*V*W*X*Y*Z*`* =@ .=+=@ @ @=#=$=#=%=:#I%6@6@6@6@6@6@6@&=*===-=;=_*.*.*.*_*p*>=,=,='=,=)=a*.*. . . . . . . . . . . . . . . . . . . . . . . . . . . . . . . . . . . . . . . ",
". . . . . . . . . . . . . . . . . . . . . . . . . . . . . .*.*.*_*_*_*_*!=~={=]=^=/=(=_=:=<=[=}=@ @ @ @ |=1=@ @ @ @ 2=@ 3=4=5=6@6@6@6@6@r&6=7=8=9=0=.*a=.*.*:*b=p*>=,=,=M*c=p*d=:*. . . . . . . . . . . . . . . . . . . . . . . . . . . . . . . . . . . . . . . ",
". . . . . . . . . . . . . . . . . . . . . . . . . . . .*.*.*_*e=f=g=g=g=h=i=6@j=k=l=m=n=o=p=q=r=s=t=u=v=w=x=y=@ @ @ z=A=B=C=D=6@6@6@6@6@&=E=F=G=H=_*.*.*.*:*)=g='=M*,=,=,=M*'=g=)=_*.*. . . . . . . . . . . . . . . . . . . . . . . . . . . . . . . . . . . . . ",
". . . . . . . . . . . . . . . . . . . . . . . . . . . .*.*_*I=J=K=L*L*L*L=M=6@j=6=N=O=P=Q=@ R=S=T=U=V=W=X=@ Y=Z=`=@ @ @  -.-+-@-@-@-@-@-#-$-%-&-a=.*.*.*a**-=-L*,=,=,=,=,=,=,=L*V*--a*. . . . . . . . . . . . . . . . . . . . . . . . . . . . . . . . . . . . . ",
". . . . . . . . . . . . . . . . . . . . . . . . . . . .*_*;-g=s*e=>->->-,-'-6@j=W@)-!-~-{-]-^-/-(-_-:-<-[-}-|-1-2-3-4-5-6-7-8-9-9-9-9-9-0-a-b-.*.*.*:*.*)=c-'=,=,=,=,=,=,=,=,=,='=p*)=.*.*. . . . . . . . . . . . . . . . . . . . . . . . . . . . . . . . . . . ",
". . . . . . . . . . . . . . . . . . . . . . . . . . . _*I=)=d-e-f-g-h-i-j-k-6@l-B%m-n-o-p-q-r-s-t-u-v-w-x-y-z-A-B-C-D-E-@ F-G-H-I-J-I-H-K-0=L-a*a*a**-a*,=M-,=,=,=,=,=,=,=,=,=,=,=M-,=a*a*. . . . . . . . . . . . . . . . . . . . . . . . . . . . . . . . . . . ",
". . . . . . . . . . . . . . . . . . . . . . . . . . _*e=s*V*>=V*J=s*N-O-P-Q-6@R-6@6@6@V@S-m&T-U-V-W-X-Y-Z-`-a  ;.;+;@;#;@ $;%;e=&;s*&;e=a**;&;s*s*s*s*s*,=,=,=,=,=,=,=,=,=,=,=,=,=,=,=)=s*=;_*. . . . . . . . . . . . . . . . . . . . . . . . . . . . . . . . . ",
". . . . . . . . . . . . . . . . . . . . . . . . . .*a*g=-;q*r*q*>=>=;;>;,;';6@m-6@6@6@V@);!;F&~;{;];a ^;/;(;a _;:;<;[;};@ |;%;g=c=>=c=c-1;2;L*>=>=>=>=>=,=,=,=,=,=,=,=,=,=,=,=,=,=,=,=3;>==;_*. . . . . . . . . . . . . . . . . . . . . . . . . . . . . . . . . ",
". . . . . . . . . . . . . . . . . . . . . . . . . .*a*p*>=,=,=,=,=,=4;5;6;W@6@6@6@6@6@V@7;8;m&9;0;a;b;c;d;e;f;g;h;i;j;k;@ l;m;p*>=,=>=&;n;;-q*,=,=,=,=,=,=,=,=,=,=,=,=,=,=,=,=,=,=,=,=M*,==;_*. . . . . . . . . . . . . . . . . . . . . . . . . . . . . . . . . ",
". . . . . . . . . . . . . . . . . . . . . . . . . .*a*p*>=,=,=,=,=,=4;5;6;W@6@6@6@6@6@6@X&h&h&o;p;q;^;r;s;s;t;u;v;w;x;y;z;A;B;p*>=,=>=&;n;;-q*,=,=,=,=,=,=,=,=,=,=,=,=,=,=,=,=,=,=,=,=M*,==;_*. . . . . . . . . . . . . . . . . . . . . . . . . . . . . . . . . ",
". . . . . . . . . . . . . . . . . . . . . . . . . .*a*p*>=,=,=,=,=,=4;5;6;W@6@6@6@6@6@6@C;A&N&D;E;F;G;H;I;J;K;L;M;N;O;P;Q;R;S;p*>=,=>=&;n;;-q*,=,=,=,=,=,=,=,=,=,=,=,=,=,=,=,=,=,=,=,=M*,==;_*. . . . . . . . . . . . . . . . . . . . . . . . . . . . . . . . . ",
". . . . . . . . . . . . . . . . . . . . . . . . . .*a*p*>=,=,=,=,=,=4;5;6;W@6@6@6@6@6@V@T;U;G&V;W;X;Y;Z;`;K;K;L; >.>+>@>#>$>d=p*>=,=>=&;n;;-%>q*,=,=,=,=,=,=,=,=,=,=q*>=M*,=,=,=,=,=,=M*,==;_*. . . . . . . . . . . . . . . . . . . . . . . . . . . . . . . . . ",
". . . . . . . . . . . . . . . . . . . . . . . . . .*a*p*>=,=,=,=,=,=4;5;6;W@6@6@6@6@6@V@&>R&*>=>->;>>>,>'>)>K;L;!>~>{>]>^>/>(>g=>=,=>=&;n;_>'=f=,=,=,=,=,=,=,=,=,=,='=g='=,=,=,=,=,=,=M*,==;_*. . . . . . . . . . . . . . . . . . . . . . . . . . . . . . . . . ",
". . . . . . . . . . . . . . . . . . . . . . . . . .*a*p*>=,=,=,=,=,=:><>]=D=[>[>[>[>[>[>}>|>1>2>3>4>5>6>7>8>K;r;9>0>a>b>c>d>M*,=,=,=>=&;d=_*_**;M*,=,=,=,=,=,=,=,=>=>-I=s*>=,=,=,=,=,=M*,==;_*. . . . . . . . . . . . . . . . . . . . . . . . . . . . . . . . . ",
". . . . . . . . . . . . . . . . . . . . . . . . . .*a*p*>=,=,=,=,=,=e>f>N&g>h>h>h>h>h>h>i>j>k>l>m>n>o>p>q>r>^;K;s>t>u>v>w>x>y>,=,=,=>=&;:*9*_**;M*,=,=,=,=,=,=,=,=>=>-g-s*>=,=,=,=,=,=M*,==;_*. . . . . . . . . . . . . . . . . . . . . . . . . . . . . . . . . ",
". . . . . . . . . . . . . . . . . . . . . . . . . .*a*p*3;,=,=,=M*,=q*f=z>A>B>B>B>B>B>B>C>D>E>F>G>H>I>J>K>L>M>N>O>P>Q>R>S>T>U>p*>=,=,=,=>=c-d=*;M*,=,=,=,=,=,=,=,=>=>-g-s*>=,=,=,=,=,=M*,==;_*. . . . . . . . . . . . . . . . . . . . . . . . . . . . . . . . . ",
". . . . . . . . . . . . . . . . . . . . . . . . . .*a*p*>=,=,=,=,=,=V>W>X>b-Y>Y>Y>Y>Y>Y>Z>`> ,.,+,@,#,$,%,&,^;*,=,-,;,>,,,',),p*>=,=,=,=3;c-d=*;M*,=,=,=,=,=,=,=,=>=>-g-s*>=,=,=,=,=,=M*,==;_*. . . . . . . . . . . . . . . . . . . . . . . . . . . . . . . . . ",
". . . . . . . . . . . . . . . . . . . . . . . . . . . =;.*!,~,!,:*=;=;=;_*=;,=,=,=,=,=,={,],^,/,(,_,:,<,[,R },|,1,2,3,4,5,6,7,p*>=,=,=,=>=c-d=*;M*,=,=,=,=,=,=,=,=>=>-g-s*>=,=,=,=,=,=M*,==;_*. . . . . . . . . . . . . . . . . . . . . . . . . . . . . . . . . ",
". . . . . . . . . . . . . . . . . . . . . . . . . . . :*d=)=8,)=d=_*_*_*_*=;M*M*M*M*,=,=9,0,a,b,c,d,e,f,g,h,i,j,k,l,m,n,o,p,*-p*>=,=,=,=>=c-g-=;M*,=,=,=,=,=,=,=,=>=>-g-s*>=,=,=,=,=,=M*,==;_*. . . . . . . . . . . . . . . . . . . . . . . . . . . . . . . . . ",
". . . . . . . . . . . . . . . . . . . . . . . . . . . . . =;_>=;.*.*.*.*.*.*q,q,q,q,f=q*V>r,s,t,u,v,w,x,y,z,A,B,C,D,E,F,G,H,g='=,=,=,=,=,=r*g=f=,=,=,=,=,=,=,=,=,=>=>-g-s*>=,=,=,=,=,=M*,==;_*. . . . . . . . . . . . . . . . . . . . . . . . . . . . . . . . . ",
". . . . . . . . . . . . . . . . . . . . . . . . . . . . . :*a*:*.*.*.*.*.*.*_*_*_*_*r*L*,=,=I,J,K,L,M,N,O,P,Q,R,S,T,U,V,W,X,>=,=,=,=,=,=,=,=>=q*,=,=,=,=,=,=,=,=,=>=>-g-s*>=,=,=,=,=,=M*,==;_*. . . . . . . . . . . . . . . . . . . . . . . . . . . . . . . . . ",
". . . . . . . . . . . . . . . . . . . . . . . . . . . . . . . . . . . . . . . . . . _>;-f=q*Y,Z,`, '.'+'@'#'$'%'%'&'*'*'='V>,=,=,=,=,=,=,=,=,=,=,=,=,=,=,=,=,=,=,=>=>-g-s*>=,=,=,=,=,=M*,==;_*. . . . . . . . . . . . . . . . . . . . . . . . . . . . . . . . . ",
". . . . . . . . . . . . . . . . . . . . . . . . . . . . . . . . . . . . . . . . . . _*d=g=>=,=,=,=Y,-';'>',''')'!',=,=,=,=,=,=,=,=,=,=,=,=,=,=,=,=,=,=,=,=,=,=,=,=>=>-g-s*>=,=,=,=,=,=M*,==;_*. . . . . . . . . . . . . . . . . . . . . . . . . . . . . . . . . ",
". . . . . . . . . . . . . . . . . . . . . . . . . . . . . . . . . . . . . . . . . . .*_*g=>=,=,=,=,=,=,=,=,=,=,=,=,=,=,=,=,=,=,=,=,=,=,=,=,=,=,=,=,=,=,=,=,=,=,=,=>=>-g-s*>=,=,=,=,=,=M*,==;_*. . . . . . . . . . . . . . . . . . . . . . . . . . . . . . . . . ",
". . . . . . . . . . . . . . . . . . . . . . . . . . . . . . . . . . . . . . . . . . .*_*g=>=,=,=,=,=,=,=,=,=,=,=,=,=,=,=,=,=,=,=,=,=,=,=,=,=,=,=,=,=,=,=,=,=,=,=,=>=>-g-s*>=,=,=,=,=,=M*,==;_*. . . . . . . . . . . . . . . . . . . . . . . . . . . . . . . . . ",
". . . . . . . . . . . . . . . . . . . . . . . . . . . . . . . . . . . . . . . . . . .*_*g=>=,=,=,=,=,=,=,=,=,=,=,=,=,=,=,=,=,=,=,=,=,=,=,=,=,=,=,=,=,=,=,=,=,=,=,=>=>-g-s*>=,=,=,=,=,=M*,==;_*. . . . . . . . . . . . . . . . . . . . . . . . . . . . . . . . . ",
". . . . . . . . . . . . . . . . . . . . . . . . . . . . . . . . . . . . . . . . . . .*_*g=>=,=,=,=,=,=,=,=,=,=,=,=,=,=,=,=,=,=,=,=,=,=,=,=,=,=,=,=,=,=,=,=,=,=,=,=>=>-g-s*>=,=,=,=,=,=M*,==;_*. . . . . . . . . . . . . . . . . . . . . . . . . . . . . . . . . ",
". . . . . . . . . . . . . . . . . . . . . . . . . . . . . . . . . . . . . . . . . . .*_*g=>=,=,=,=,=,=,=,=,=,=,=,=,=,=,=,=,=,=,=,=,=,=,=,=,=,=,=,=,=,=,=,=,=,=,=,=>=>-g-s*>=,=,=,=,=,=M*,==;_*. . . . . . . . . . . . . . . . . . . . . . . . . . . . . . . . . ",
". . . . . . . . . . . . . . . . . . . . . . . . . . . . . . . . . . . . . . . . . . .*_*g=>=,=,=,=,=,=,=,=,=,=,=,=,=,=,=,=,=,=,=,=,=,=,=,=,=,=,=,=,=,=,=,=,=,=,=,=>=>-g-s*>=,=,=,=,=,=M*,==;_*. . . . . . . . . . . . . . . . . . . . . . . . . . . . . . . . . ",
". . . . . . . . . . . . . . . . . . . . . . . . . . . . . . . . . . . . . . . . . . .*_*g=>=,=,=,=,=,=,=,=,=,=,=,=,=,=,=,=,=,=,=,=,=,=,=,=,=,=,=,=,=,=,=,=,=,=,=,=>=>-g-s*>=,=,=,=,=,=M*,==;_*. . . . . . . . . . . . . . . . . . . . . . . . . . . . . . . . . ",
". . . . . . . . . . . . . . . . . . . . . . . . . . . . . . . . . . . . . . . . . . .*_*g=>=,=,=,=,=,=,=,=,=,=,=,=,=,=,=,=,=,=,=,=,=,=,=,=,=,=,=,=,=,=,=,=,=,=,=,=>=>-g-s*>=,=,=,=,=,=M*,==;_*. . . . . . . . . . . . . . . . . . . . . . . . . . . . . . . . . ",
". . . . . . . . . . . . . . . . . . . . . . . . . . . . . . . . . . . . . . . . . . .*_*g=>=,=,=,=,=,=,=,=,=,=,=,=,=,=,=,=,=,=,=,=,=,=,=,=,=,=,=,=,=,=,=,=,=,=,=,=>=>-g-s*>=,=,=,=,=,=M*,==;_*. . . . . . . . . . . . . . . . . . . . . . . . . . . . . . . . . ",
". . . . . . . . . . . . . . . . . . . . . . . . . . . . . . . . . . . . . . . . . . .*_*g=>=,=,=,=,=,=,=,=,=,=,=,=,=,=,=,=,=,=,=,=,=,=,=,=,=,=,=,=,=,=,=,=,=,=,=,=>=>-g-s*>=,=,=,=,=,=M*,==;_*. . . . . . . . . . . . . . . . . . . . . . . . . . . . . . . . . ",
". . . . . . . . . . . . . . . . . . . . . . . . . . . . . . . . . . . . . . . . . . .*_*g=>=,=,=,=,=,=,=,=,=,=,=,=,=,=,=,=,=,=,=,=,=,=,=,=,=,=,=,=,=,=,=,=,=,=,=,=>=>-g-s*>=,=,=,=,=,=M*,==;_*. . . . . . . . . . . . . . . . . . . . . . . . . . . . . . . . . ",
". . . . . . . . . . . . . . . . . . . . . . . . . . . . . . . . . . . . . . . . . . .*_*g=>=,=,=,=,=,=,=,=,=,=,=,=,=,=,=,=,=,=,=,=,=,=,=,=,=,=,=,=,=,=,=,=,=,=,=,=>=>-g-s*>=,=,=,=,=,=M*,==;_*. . . . . . . . . . . . . . . . . . . . . . . . . . . . . . . . . ",
". . . . . . . . . . . . . . . . . . . . . . . . . . . . . . . . . . . . . . . . . . .*_*g=3;,=,=,=,=,=,=,=,=,=,=,=,=,=,=,=,=,=,=,=,=,=,=,=,=,=,=,=,=,=,=,=,=,=,=,=3;>-g-s*>=,=,=,=,=,=M*,==;_*. . . . . . . . . . . . . . . . . . . . . . . . . . . . . . . . . ",
". . . . . . . . . . . . . . . . . . . . . . . . . . . . . . . . . . . . . . . . . . .*.**;~'*;*;*;*;*;*;*;*;*;*;*;*;*;*;*;*;*;*;*;*;*;*;*;*;*;*;*;*;*;*;*;*;*;*;*;~'{'a*s*]',=,=,=,=,=M*,==;_*. . . . . . . . . . . . . . . . . . . . . . . . . . . . . . . . . ",
". . . . . . . . . . . . . . . . . . . . . . . . . . . . . . . . . . . . . . . . . . ^'/'('_'('('('(':'<'['['['['['['['['['['['['['['['['['['['['['['['['['[':'('('_'('}'|'1'e>e>e>e>e>2'3'4'5'. . . . . . . . . . . . . . . . . . . . . . . . . . . . . . . . . ",
". . . . . . . . . . . . . . . . . . . . . . . . . . . . . . . . . . . . . . . . . . 6'6'6'6'6'6'6'7'8'9'0'0'0'0'0'0'0'0'0'0'0'0'0'0'0'0'0'0'0'0'0'0'0'0'0'a'b'7'6'6'6'c'd'e'f'f'f'f'f'g'f'h'i'. . . . . . . . . . . . . . . . . . . . . . . . . . . . . . . . . ",
". . . . . . . . . . . . . . . . . . . . . . . . . . . . . . . . . . . . . . . . . . j'j'j'j'j'k'l'm'n'o'p'p'p'p'p'p'p'p'p'p'p'p'p'p'p'p'p'p'p'p'p'p'p'p'p'q'r's't'k'j'u'v'w'x'x'x'x'x'y'z'A'B'. . . . . . . . . . . . . . . . . . . . . . . . . . . . . . . . . ",
". . . . . . . . . . . . . . . . . . . . . . . . . . . . . . . . . . . . . . . . . . C'C'C'C'C'D'E'F'G'H'I'I'I'I'I'I'I'I'I'I'I'I'I'I'I'I'I'I'I'I'I'I'I'I'I'I'J'F'K'L'C'M'N'O'6@6@6@6@6@y&B%R&B&. . . . . . . . . . . . . . . . . . . . . . . . . . . . . . . . . ",
". . . . . . . . . . . . . . . . . . . . . . . . . . . . . . . . . . . . . . . . . . C'C'C'C'D'P'Q'R'S'I'I'I'I'I'I'I'I'I'I'I'I'I'I'I'I'I'I'I'I'I'I'I'I'I'I'I'S'T'U'V'W'M'N'O'6@6@6@6@6@y&B%R&B&. . . . . . . . . . . . . . . . . . . . . . . . . . . . . . . . . ",
". . . . . . . . . . . . . . . . . . . . . . . . . . . . . . . . . . . . . . . . . . C'C'C'W'E'X'Y'S'I'I'I'I'I'I'I'I'I'I'I'I'I'I'I'I'I'I'I'I'I'I'I'I'I'I'I'I'I'H'F'Q'K'Z'N'O'6@6@6@6@6@y&B%R&B&. . . . . . . . . . . . . . . . . . . . . . . . . . . . . . . . . ",
". . . . . . . . . . . . . . . . . . . . . . . . . . . . . . . . . . . . . . . . . . C'C'D'`' ).)+)@)I'I'I'I'I'I'I'I'I'I'I'I'I'I'I'I'I'I'I'I'I'I'I'I'I'I'I'I'I'I'S'#)$)%)&)O'6@6@6@6@6@y&B%R&B&. . . . . . . . . . . . . . . . . . . . . . . . . . . . . . . . . ",
". . . . . . . . . . . . . . . . . . . . . . . . . . . . . . . . . . . . . . . . . . C'*)=)-)G'+)I'I'I'I'I'I'I'I'I'I'I'I'I'I'I'I'I'I'I'I'I'I'I'I'I'I'I'I'I'I'I'I'I'S'F';)>),)6@6@6@6@6@y&B%R&B&. . . . . . . . . . . . . . . . . . . . . . . . . . . . . . . . . ",
". . . . . . . . . . . . . . . . . . . . . . . . . . . . . . . . . . . . . . . . . . C'D'')T'H'I'I'I'I'I'I'I'I'I'I'I'I'I'I'I'I'I'I'I'I'I'I'I'I'I'I'I'I'I'I'I'I'I'I'I'+)))!)~){)z&6@6@6@y&B%R&B&. . . . . . . . . . . . . . . . . . . . . . . . . . . . . . . . . ",
". . . . . . . . . . . . . . . . . . . . . . . . . . . . . . . . . . . . . . . . . . C'D'])S'I'I'I'I'I'I'I'I'I'I'I'I'I'I'I'I'I'I'I'I'I'I'I'I'I'I'I'I'I'I'I'I'I'I'I'I'I'^)/)()_):)v@6@6@y&B%R&B&. . . . . . . . . . . . . . . . . . . . . . . . . . . . . . . . . ",
". . . . . . . . . . . . . . . . . . . . . . . . . . . . . . . . . . . . . . . . . . C'D'])S'I'I'I'I'I'I'I'I'I'I'I'I'I'I'I'I'I'I'I'I'I'I'I'I'I'I'I'I'I'I'I'I'I'I'I'I'I'<)[)})|). . . . . . . . . . . . . . . . . . . . . . . . . . . . . . . . . . . . . . . . . ",
". . . . . . . . . . . . . . . . . . . . . . . . . . . . . . . . . . . . . . . . . . C'D'])S'I'I'I'I'I'I'I'I'I'I'I'I'I'I'I'I'I'I'I'I'I'I'I'I'I'I'I'I'I'I'I'I'I'I'I'I'I'1)2)D'3). . . . . . . . . . . . . . . . . . . . . . . . . . . . . . . . . . . . . . . . . ",
". . . . . . . . . . . . . . . . . . . . . . . . . . . . . . . . . . . . . . . . . . C'D'])S'I'I'I'I'I'I'I'I'I'I'I'I'I'I'I'. . . . I'I'I'I'I'I'I'I'I'I'I'I'I'I'I'I'I'I'1)2)4)5). . . . . . . . . . . . . . . . . . . . . . . . . . . . . . . . . . . . . . . . . ",
". . . . . . . . . . . . . . . . . . . . . . . . . . . . . . . . . . . . . . . . . . C'D'])S'I'I'I'I'I'I'I'I'I'I'I'I'I'I'I'. . . . I'I'I'I'I'I'I'I'I'I'I'I'I'I'I'I'I'I'1)2)4)C'. . . . . . . . . . . . . . . . . . . . . . . . . . . . . . . . . . . . . . . . . ",
". . . . . . . . . . . . . . . . . . . . . . . . . . . . . . . . . . . . . . . . . . C'D'])S'I'I'I'I'I'I'I'I'I'I'I'I'I'I'I'. . . . I'I'I'I'I'I'I'I'I'I'I'I'I'I'I'I'I'I'1)2)4)C'. . . . . . . . . . . . . . . . . . . . . . . . . . . . . . . . . . . . . . . . . ",
". . . . . . . . . . . . . . . . . . . . . . . . . . . . . . . . . . . . . . . . . . C'D'])S'I'I'I'I'I'I'I'I'I'I'I'I'I'I'I'. . . . I'I'I'I'I'I'I'I'I'I'I'I'I'I'I'I'I'I'1)2)4)C'. . . . . . . . . . . . . . . . . . . . . . . . . . . . . . . . . . . . . . . . . ",
". . . . . . . . . . . . . . . . . . . . . . . . . . . . . . . . . . . . . . . . . . C'D'])S'I'I'I'I'I'I'I'I'I'I'I'I'I'I'I'. . . . I'I'I'I'I'I'I'I'I'I'I'I'I'I'I'I'I'I'1)2)4)C'. . . . . . . . . . . . . . . . . . . . . . . . . . . . . . . . . . . . . . . . . ",
". . . . . . . . . . . . . . . . . . . . . . . . . . . . . . . . . . . . . . . . . . C'D'])S'I'I'I'I'I'I'I'I'I'I'I'I'I'I'I'. . . . I'I'I'I'I'I'I'I'I'I'I'I'I'I'I'I'I'I'1)2)4)C'. . . . . . . . . . . . . . . . . . . . . . . . . . . . . . . . . . . . . . . . . ",
". . . . . . . . . . . . . . . . . . . . . . . . . . . . . . . . . . . . . . . . . . *)D'])S'I'I'I'I'I'I'I'I'I'I'I'I'I'I'I'. . . . I'I'I'I'I'I'I'I'I'I'I'I'I'I'I'I'I'I'1)2)4)*). . . . . . . . . . . . . . . . . . . . . . . . . . . . . . . . . . . . . . . . . ",
". . . . . . . . . . . . . . . . . . . . . . . . . . . . . . . . . . . . . . . . . . 6)D'')7)H'I'I'I'I'I'I'I'I'I'I'I'I'I'I'. . . . I'I'I'I'I'I'I'I'I'I'I'I'I'I'I'I'I'+)8)9)4)0). . . . . . . . . . . . . . . . . . . . . . . . . . . . . . . . . . . . . . . . . ",
". . . . . . . . . . . . . . . . . . . . . . . . . . . . . . . . . . X X X X X a). . b)*)=)c)Y'+)I'I'I'I'I'I'I'I'I'I'I'I'I'. . . . I'I'I'I'I'I'I'I'I'I'I'I'I'I'I'I'S'F'c)K'W'd). . X X X X X X . . . . . . . . . . . . . . . . . . . . . . . . . . . . . . . . . ",
". . . . . . . . . . . . . . . . . . . . . . . . . . . . . . . . . . X X X X X a). . b)C'D'`' )e)1)f)S'g)I'I'I'I'I'I'I'I'I'. . . . I'I'I'I'I'I'I'I'I'I'I'I'I'h)f)1)i)$)j)W'C'k). . X X X X X X . . . . . . . . . . . . . . . . . . . . . . . . . . . . . . . . . ",
". . . . . . . . . . . . . . . . . . . . . . . . . . . . . . . . . . X X . X X a). . b)C'C'W'E'l)Q'$)J'+)I'I'I'I'I'I'I'I'I'. . . . I'I'I'I'I'I'I'I'I'I'I'I'm)l)$)Q'l)K'W'C'C'k). . X X . . X X . . . . . . . . . . . . . . . . . . . . . . . . . . . . . . . . . ",
". . . . . . . . . . . . . . . . . . . . . . . . . . . . . . . . . . X X . . X a). . n)o)o)p)q)r)s)t)u)v)w)w)w)w)w)x)x)y)z). . . . I'I'I'A)B)C)w)w)w)w)w)w)C)D)E)s)r)F)G)o)o)H). . X X . . X X . . . . . . . . . . . . . . . . . . . . . . . . . . . . . . . . . ",
". . . . . . . . . . . . . . . . . . . . . . . . . . . . . . . . . . X X . . X I). . J)K)K)K)K)K)K)L)M)N)O)O)O)O)O)P)P)Q)R). . . . . I'z)S)T)U)O)O)O)O)O)O)V)W)X)K)K)K)K)K)K)Y). . X X . . X X . . . . . . . . . . . . . . . . . . . . . . . . . . . . . . . . . ",
". . . . . . . . . . . . . . . . . . . . . . . . . . . . . . . . . . X X . . . . . . Z)`)`)`)`)`)`)`)Z) !.!.!.!.!.!+!@!. . . . . . . . . . . #!.!.!.!.!.!.! !$!`)`)`)`)`)`)`)Z). . . . . . X X . . . . . . . . . . . . . . . . . . . . . . . . . . . . . . . . . ",
". . . . . . . . . . . . . . . . . . . . . . . . . . . . . . . . . . X X . . . . . . X X X X X X X X X X X X X X X X X . . . . . . . . . . . %!X X X X X X X X X X X X X X X X . . . . . . X X . . . . . . . . . . . . . . . . . . . . . . . . . . . . . . . . . ",
". . . . . . . . . . . . . . . . . . . . . . . . . . . . . . . . . . X X X X X X X X X X X X X X X X X X X X X X X X X . . . . . . . . . . . X X X X X X X X X X X X X X X X X X X X X X X X X . . . . . . . . . . . . . . . . . . . . . . . . . . . . . . . . . "};
