/* XPM */
static char * lutin3_xpm[] = {
"128 128 1418 2",
"  	c None",
". 	c #0000FF",
"+ 	c #108A16",
"@ 	c #FFFFFF",
"# 	c #118B16",
"$ 	c #0E8916",
"% 	c #028515",
"& 	c #038515",
"* 	c #028415",
"= 	c #0C8816",
"- 	c #0F8A16",
"; 	c #128B16",
"> 	c #1B8E17",
", 	c #1C8F17",
"' 	c #148B16",
") 	c #0F8916",
"! 	c #108D16",
"~ 	c #018514",
"{ 	c #349A19",
"] 	c #EADA25",
"^ 	c #E8DA24",
"/ 	c #E9DD25",
"( 	c #E4D924",
"_ 	c #F2E126",
": 	c #58A71B",
"< 	c #018214",
"[ 	c #108C16",
"} 	c #008314",
"| 	c #389A19",
"1 	c #FFE427",
"2 	c #FFE326",
"3 	c #FFE426",
"4 	c #FFE526",
"5 	c #FEE226",
"6 	c #FFEC28",
"7 	c #61A91B",
"8 	c #007F14",
"9 	c #172E18",
"0 	c #021B17",
"a 	c #3C4C1A",
"b 	c #FEEE26",
"c 	c #E6D324",
"d 	c #3B3F1A",
"e 	c #2C3219",
"f 	c #33381A",
"g 	c #2B3019",
"h 	c #C8BA22",
"i 	c #FFFC28",
"j 	c #60691C",
"k 	c #001516",
"l 	c #1A1719",
"m 	c #020119",
"n 	c #3F381B",
"o 	c #FFF527",
"p 	c #E4D325",
"q 	c #0B1518",
"r 	c #000517",
"s 	c #010C18",
"t 	c #000317",
"u 	c #C1B323",
"v 	c #FFFF29",
"w 	c #635A1D",
"x 	c #000018",
"y 	c #1A171A",
"z 	c #191619",
"A 	c #191418",
"B 	c #191518",
"C 	c #0D110D",
"D 	c #0D0F0D",
"E 	c #01030B",
"F 	c #2F2E10",
"G 	c #E7D520",
"H 	c #C8B81D",
"I 	c #13150E",
"J 	c #03060C",
"K 	c #0B0D0D",
"L 	c #03050C",
"M 	c #A99C1B",
"N 	c #FBEA23",
"O 	c #504C12",
"P 	c #00010A",
"Q 	c #0B0D0B",
"R 	c #141814",
"S 	c #192119",
"T 	c #181F18",
"U 	c #070006",
"V 	c #000004",
"W 	c #2C1B0A",
"X 	c #FBD51F",
"Y 	c #D5B41C",
"Z 	c #0E0008",
"` 	c #000005",
" .	c #050006",
"..	c #B39618",
"+.	c #FFF123",
"@.	c #513C0D",
"#.	c #000003",
"$.	c #040004",
"%.	c #131112",
"&.	c #1D271D",
"*.	c #1A221A",
"=.	c #1A231A",
"-.	c #0A7B10",
";.	c #0A630F",
">.	c #0A430C",
",.	c #0A480D",
"'.	c #06440C",
").	c #16530E",
"!.	c #5B9215",
"~.	c #4F8714",
"{.	c #0C4A0D",
"].	c #06450C",
"^.	c #09470D",
"/.	c #437C12",
"(.	c #659A16",
"_.	c #225E0F",
":.	c #09510D",
"<.	c #0C280E",
"[.	c #0F0D0F",
"}.	c #0F120F",
"|.	c #0F130F",
"1.	c #0F0C0E",
"2.	c #096C0E",
"3.	c #09660E",
"4.	c #09700E",
"5.	c #097A0F",
"6.	c #09780F",
"7.	c #0A7A0F",
"8.	c #04740E",
"9.	c #005B0C",
"0.	c #00600C",
"a.	c #08780F",
"b.	c #09790F",
"c.	c #00640C",
"d.	c #00580B",
"e.	c #006F0E",
"f.	c #098D10",
"g.	c #072C09",
"h.	c #060004",
"i.	c #070005",
"j.	c #0A6E0F",
"k.	c #096B0E",
"l.	c #0C7511",
"m.	c #0E7F13",
"n.	c #0D7C13",
"o.	c #0E8614",
"p.	c #0B570F",
"q.	c #09370B",
"r.	c #0A3D0C",
"s.	c #0A380C",
"t.	c #0A4F0D",
"u.	c #0A7E10",
"v.	c #09690E",
"w.	c #096A0E",
"x.	c #08630D",
"y.	c #129518",
"z.	c #118F17",
"A.	c #129118",
"B.	c #0C8213",
"C.	c #08770E",
"D.	c #097C0F",
"E.	c #09760F",
"F.	c #09680E",
"G.	c #0C7711",
"H.	c #0D7B12",
"I.	c #0C7912",
"J.	c #0E8214",
"K.	c #118D17",
"L.	c #118C17",
"M.	c #0E8014",
"N.	c #09670D",
"O.	c #0E8515",
"P.	c #129218",
"Q.	c #118E17",
"R.	c #108916",
"S.	c #09680D",
"T.	c #0B7511",
"U.	c #0C7611",
"V.	c #0F8515",
"W.	c #0C7510",
"X.	c #0F8816",
"Y.	c #108B16",
"Z.	c #0D9217",
"`.	c #0B9617",
" +	c #0C9417",
".+	c #0D9117",
"++	c #118916",
"@+	c #108D17",
"#+	c #119018",
"$+	c #0B7210",
"%+	c #0B7310",
"&+	c #0F8715",
"*+	c #157D15",
"=+	c #187714",
"-+	c #177914",
";+	c #157F15",
">+	c #0F8C16",
",+	c #0C9217",
"'+	c #0B9818",
")+	c #30390F",
"!+	c #40150C",
"~+	c #3A210D",
"{+	c #41120C",
"]+	c #2B4710",
"^+	c #08A018",
"/+	c #0F8B16",
"(+	c #0A6B0F",
"_+	c #138315",
":+	c #138215",
"<+	c #128315",
"[+	c #118816",
"}+	c #31370F",
"|+	c #3F180C",
"1+	c #3A230D",
"2+	c #40160C",
"3+	c #2D4310",
"4+	c #0E8F16",
"5+	c #0F8615",
"6+	c #0A7010",
"7+	c #0A6F0F",
"8+	c #0E8E16",
"9+	c #0B9517",
"0+	c #118615",
"a+	c #372B0D",
"b+	c #38280D",
"c+	c #38290E",
"d+	c #332008",
"e+	c #321D06",
"f+	c #321E07",
"g+	c #311D06",
"h+	c #352109",
"i+	c #3A260D",
"j+	c #39260D",
"k+	c #39240D",
"l+	c #157D14",
"m+	c #0A9917",
"n+	c #138115",
"o+	c #3D1B0D",
"p+	c #3B200D",
"q+	c #3B1F0C",
"r+	c #3A250D",
"s+	c #3A260E",
"t+	c #39250D",
"u+	c #3C1E0D",
"v+	c #3C1C0D",
"w+	c #187814",
"x+	c #0C9517",
"y+	c #0B9717",
"z+	c #1A7013",
"A+	c #38260D",
"B+	c #342F0E",
"C+	c #322E0C",
"D+	c #332D0C",
"E+	c #37230B",
"F+	c #301C04",
"G+	c #B39C80",
"H+	c #E5CCAF",
"I+	c #D3BB9F",
"J+	c #EAD3B6",
"K+	c #8D765C",
"L+	c #1E0A00",
"M+	c #352E0E",
"N+	c #34310E",
"O+	c #35300E",
"P+	c #3A220D",
"Q+	c #1F6512",
"R+	c #0B9817",
"S+	c #108716",
"T+	c #0A6C0F",
"U+	c #07A018",
"V+	c #1B6E13",
"W+	c #42110C",
"X+	c #3B1B0B",
"Y+	c #311101",
"Z+	c #321303",
"`+	c #2E1A02",
" @	c #CEB599",
".@	c #FFF0D1",
"+@	c #F5DBBE",
"@@	c #FFFADC",
"#@	c #9B846A",
"$@	c #0E0000",
"%@	c #2E1B03",
"&@	c #2D1A02",
"*@	c #311D05",
"=@	c #3B260E",
"-@	c #38240C",
";@	c #2E1A03",
">@	c #3C1E0C",
",@	c #3D1C0C",
"'@	c #3C1C0C",
")@	c #430B0B",
"!@	c #225E12",
"~@	c #099B17",
"{@	c #108816",
"]@	c #0A6D0F",
"^@	c #0A6A0F",
"/@	c #1D6A13",
"(@	c #34300E",
"_@	c #33340E",
":@	c #2C1503",
"<@	c #513C23",
"[@	c #D1B89C",
"}@	c #BAA287",
"|@	c #3D2911",
"1@	c #321F07",
"2@	c #2F1B03",
"3@	c #C2AA8E",
"4@	c #FAE0C2",
"5@	c #E6CDB0",
"6@	c #EBD3B5",
"7@	c #D6BDA1",
"8@	c #BCA48B",
"9@	c #D1B99C",
"0@	c #A58E73",
"a@	c #251203",
"b@	c #463219",
"c@	c #C7AF93",
"d@	c #C3AA8E",
"e@	c #442F17",
"f@	c #3F150C",
"g@	c #216112",
"h@	c #0A9A17",
"i@	c #0F8415",
"j@	c #099C17",
"k@	c #235C12",
"l@	c #48090C",
"m@	c #361606",
"n@	c #080000",
"o@	c #4B371E",
"p@	c #FFFFEF",
"q@	c #FFEACD",
"r@	c #402C14",
"s@	c #220F00",
"t@	c #150200",
"u@	c #BDA58A",
"v@	c #FDE2C4",
"w@	c #E3CAAD",
"x@	c #EFD6B8",
"y@	c #FDE3C4",
"z@	c #FAE0C3",
"A@	c #FFF5D7",
"B@	c #D2B99D",
"C@	c #1D0A00",
"D@	c #FFE9CB",
"E@	c #FBE0C3",
"F@	c #341F08",
"G@	c #130000",
"H@	c #200D00",
"I@	c #43160E",
"J@	c #1E6913",
"K@	c #03AC18",
"L@	c #300704",
"M@	c #5B462D",
"N@	c #B6A58B",
"O@	c #A28B70",
"P@	c #766046",
"Q@	c #6E593F",
"R@	c #36220B",
"S@	c #9E876D",
"T@	c #B19A7F",
"U@	c #DAC1A4",
"V@	c #EDD3B6",
"W@	c #49351C",
"X@	c #E8CFB2",
"Y@	c #EBD2B4",
"Z@	c #B0987D",
"`@	c #A79075",
" #	c #AB9479",
".#	c #B7A084",
"+#	c #2C1104",
"@#	c #31390F",
"##	c #2E4110",
"$#	c #1E6813",
"%#	c #079F18",
"&#	c #0D9016",
"*#	c #128516",
"=#	c #0D9317",
"-#	c #01B019",
";#	c #1D6B13",
">#	c #270000",
",#	c #735E44",
"'#	c #FFFFF2",
")#	c #D4BC9E",
"!#	c #000000",
"~#	c #1F0C00",
"{#	c #E2C6A5",
"]#	c #FFF0CE",
"^#	c #E7CAA8",
"/#	c #DFC2A0",
"(#	c #E5CAAC",
"_#	c #E7CEB2",
":#	c #E4C9AA",
"<#	c #E2C5A3",
"[#	c #F9DBB8",
"}#	c #B99E7E",
"|#	c #2F1C04",
"1#	c #E4CBAE",
"2#	c #FCE3C5",
"3#	c #FFE6C9",
"4#	c #FEE5C7",
"5#	c #FFFCDD",
"6#	c #5F4B31",
"7#	c #4C040C",
"8#	c #284F10",
"9#	c #089D18",
"0#	c #0E8E17",
"a#	c #2D4410",
"b#	c #197514",
"c#	c #099C18",
"d#	c #1C6D13",
"e#	c #285011",
"f#	c #2E400F",
"g#	c #250800",
"h#	c #6C573D",
"i#	c #FBE7C9",
"j#	c #D9C0A3",
"k#	c #957F64",
"l#	c #968065",
"m#	c #947D62",
"n#	c #998268",
"o#	c #EADECF",
"p#	c #FAEFE2",
"q#	c #F4E9DB",
"r#	c #EAD6BF",
"s#	c #E4C9A9",
"t#	c #ECD9C4",
"u#	c #FDF1E4",
"v#	c #E1D3C3",
"w#	c #8C755E",
"x#	c #9F886D",
"y#	c #E9D0B3",
"z#	c #EED5B8",
"A#	c #AF987C",
"B#	c #9C866F",
"C#	c #604B32",
"D#	c #310905",
"E#	c #255611",
"F#	c #099B18",
"G#	c #34330E",
"H#	c #4D0009",
"I#	c #1F6813",
"J#	c #00C51B",
"K#	c #255511",
"L#	c #4A000A",
"M#	c #3D1B0C",
"N#	c #211100",
"O#	c #F7DCBE",
"P#	c #EBD2B5",
"Q#	c #FFE9CC",
"R#	c #FFE6C7",
"S#	c #FFE8CC",
"T#	c #EFE1CF",
"U#	c #E1C5A3",
"V#	c #DDBE9B",
"W#	c #FFF6EB",
"X#	c #FFFFFE",
"Y#	c #FFE9C7",
"Z#	c #FFE5C7",
"`#	c #E5CDB0",
" $	c #FDE4C6",
".$	c #FFEBCA",
"+$	c #FFE8CB",
"@$	c #FFFFE8",
"#$	c #8C755B",
"$$	c #220000",
"%$	c #05B21C",
"&$	c #00900D",
"*$	c #007A00",
"=$	c #008203",
"-$	c #138B18",
";$	c #2F3F0F",
">$	c #41110B",
",$	c #2B4810",
"'$	c #1B6F14",
")$	c #F8DFC1",
"!$	c #E9CFB1",
"~$	c #AEA599",
"{$	c #9E958D",
"]$	c #EDEBE9",
"^$	c #EEDECB",
"/$	c #EFD4B4",
"($	c #CBB9A5",
"_$	c #918D8D",
":$	c #C6C1BA",
"<$	c #FAF4EE",
"[$	c #E5CAAB",
"}$	c #E6CCAF",
"|$	c #E8CEB1",
"1$	c #A68F74",
"2$	c #897261",
"3$	c #CFB79B",
"4$	c #FFF1D3",
"5$	c #806A50",
"6$	c #220500",
"7$	c #135B0D",
"8$	c #40792E",
"9$	c #7BB76E",
"0$	c #57A049",
"a$	c #098710",
"b$	c #0E9418",
"c$	c #1C2D00",
"d$	c #341203",
"e$	c #45130D",
"f$	c #3C1D0C",
"g$	c #3C2B0F",
"h$	c #2F1B04",
"i$	c #030000",
"j$	c #5B472D",
"k$	c #FBE2C3",
"l$	c #EED4B7",
"m$	c #311C01",
"n$	c #020000",
"o$	c #D0CCC6",
"p$	c #FFEDCF",
"q$	c #8D765A",
"r$	c #6B5D4C",
"s$	c #EBD0B3",
"t$	c #EDD4B7",
"u$	c #3E2A13",
"v$	c #BCA388",
"w$	c #8A7459",
"x$	c #1D0D00",
"y$	c #311201",
"z$	c #7E5046",
"A$	c #C9C49C",
"B$	c #008307",
"C$	c #0F8A15",
"D$	c #108A15",
"E$	c #008704",
"F$	c #556734",
"G$	c #7F6153",
"H$	c #4F3A22",
"I$	c #301D09",
"J$	c #301C09",
"K$	c #6C5744",
"L$	c #F2D9BB",
"M$	c #4E3B24",
"N$	c #261200",
"O$	c #D7D3CE",
"P$	c #FFE7C9",
"Q$	c #9B856B",
"R$	c #090000",
"S$	c #807465",
"T$	c #EAD0B3",
"U$	c #ECD3B6",
"V$	c #564129",
"W$	c #1B0800",
"X$	c #8A7359",
"Y$	c #BDB599",
"Z$	c #68533A",
"`$	c #554027",
" %	c #6A5644",
".%	c #FFE6D3",
"+%	c #AFBC89",
"@%	c #008409",
"#%	c #FFE0C6",
"$%	c #FFFFEA",
"%%	c #776248",
"&%	c #1E0900",
"*%	c #897359",
"=%	c #FFFFE4",
"-%	c #F6DCBF",
";%	c #3D2A14",
">%	c #100000",
",%	c #D5D4D1",
"'%	c #EFE0CE",
")%	c #E2C5A4",
"!%	c #FFEACC",
"~%	c #937D63",
"{%	c #746A5D",
"]%	c #FCF8F5",
"^%	c #E5CAAA",
"/%	c #47321A",
"(%	c #140100",
"_%	c #160300",
":%	c #0C0000",
"<%	c #1C0900",
"[%	c #050000",
"}%	c #8E785D",
"|%	c #FFFFE6",
"1%	c #FDDDC4",
"2%	c #FFDBD6",
"3%	c #C1C296",
"4%	c #008308",
"5%	c #F6D2BB",
"6%	c #FAE0C1",
"7%	c #917A60",
"8%	c #4D3A2A",
"9%	c #4A361D",
"0%	c #180900",
"a%	c #FFE7CA",
"b%	c #ECD2B5",
"c%	c #6D5941",
"d%	c #4E3924",
"e%	c #DAD2C8",
"f%	c #FAF5EF",
"g%	c #ECDAC5",
"h%	c #E3C7A7",
"i%	c #FAE2C4",
"j%	c #AA9479",
"k%	c #372A24",
"l%	c #958674",
"m%	c #F6ECE1",
"n%	c #E5CBAC",
"o%	c #E9CFB2",
"p%	c #755F45",
"q%	c #4E3A24",
"r%	c #5D482F",
"s%	c #463124",
"t%	c #9F896D",
"u%	c #FFE5CA",
"v%	c #D5C8A4",
"w%	c #CAC39B",
"x%	c #8EB271",
"y%	c #03850C",
"z%	c #E3CCAE",
"A%	c #FFF8D9",
"B%	c #8A755A",
"C%	c #E6CFB2",
"D%	c #E6CEB1",
"E%	c #F1D8BA",
"F%	c #E7CDAE",
"G%	c #E6CCAE",
"H%	c #E6CDB1",
"I%	c #E5CBAF",
"J%	c #EAD1B4",
"K%	c #F3D9BA",
"L%	c #ECD2B4",
"M%	c #EFD7B9",
"N%	c #F1D9BC",
"O%	c #F0D7BA",
"P%	c #F0D7B9",
"Q%	c #F2D8BA",
"R%	c #FFD6C7",
"S%	c #90B373",
"T%	c #007B00",
"U%	c #07870F",
"V%	c #118A17",
"W%	c #E7CEB1",
"X%	c #978166",
"Y%	c #181512",
"Z%	c #8B745A",
"`%	c #FCE5C8",
" &	c #E6CBAE",
".&	c #E9D0B2",
"+&	c #E8CDB0",
"@&	c #FFD8CA",
"#&	c #84AF6A",
"$&	c #007900",
"%&	c #118B17",
"&&	c #E4CCAF",
"*&	c #E5C8AB",
"=&	c #E4B99C",
"-&	c #E4BB9E",
";&	c #E4BA9D",
">&	c #E5CBAD",
",&	c #F3D2BC",
"'&	c #CBC59D",
")&	c #EFD5B7",
"!&	c #E5CEB1",
"~&	c #E4BC9F",
"{&	c #E3CCAD",
"]&	c #FFD6C5",
"^&	c #E5CCAE",
"/&	c #EDDCC8",
"(&	c #FDFBF9",
"_&	c #F8F1E9",
":&	c #E1C3A1",
"<&	c #FBF7F3",
"[&	c #E5CBAE",
"}&	c #F8F2EB",
"|&	c #FBF7F2",
"1&	c #FBF6F2",
"2&	c #FBF6F1",
"3&	c #FAF5F0",
"4&	c #FCF9F6",
"5&	c #EDDAC4",
"6&	c #F9F3EC",
"7&	c #EBD8C0",
"8&	c #ECD9C2",
"9&	c #E0C7AC",
"0&	c #DAC3A8",
"a&	c #E1C9AD",
"b&	c #E3C6A5",
"c&	c #E1C39F",
"d&	c #FDF9F6",
"e&	c #F9F1E9",
"f&	c #DFBF99",
"g&	c #E3C8A8",
"h&	c #DCC4AA",
"i&	c #D4BFA4",
"j&	c #EEDDCA",
"k&	c #F0E2D1",
"l&	c #EDDBC5",
"m&	c #E0C8AC",
"n&	c #DEC6AB",
"o&	c #DBC3A8",
"p&	c #D8C2A7",
"q&	c #E3C7A6",
"r&	c #E6CEB2",
"s&	c #E8CFB1",
"t&	c #D5BFA4",
"u&	c #D9C2A7",
"v&	c #DFC7AB",
"w&	c #D8C1A6",
"x&	c #D8C2A6",
"y&	c #E9D0B1",
"z&	c #D8C1A7",
"A&	c #D6BFA4",
"B&	c #E2C9AD",
"C&	c #D6C1A5",
"D&	c #D7C0A6",
"E&	c #D6C0A6",
"F&	c #D7C1A6",
"G&	c #DEC3AA",
"H&	c #FFD9C0",
"I&	c #FAD7BD",
"J&	c #FDD8BF",
"K&	c #F7D5BB",
"L&	c #E3CBAE",
"M&	c #E3CAAE",
"N&	c #DCC5A9",
"O&	c #DDC5AA",
"P&	c #F2CFB7",
"Q&	c #E4C7AE",
"R&	c #D3BEA3",
"S&	c #D7C0A5",
"T&	c #FBD8BE",
"U&	c #588754",
"V&	c #0F6426",
"W&	c #2A7137",
"X&	c #B9B392",
"Y&	c #ECCBB3",
"Z&	c #628C5B",
"`&	c #116527",
" *	c #297036",
".*	c #2A7037",
"+*	c #277035",
"@*	c #276F35",
"#*	c #076020",
"$*	c #9CAA81",
"%*	c #FFDCC3",
"&*	c #2A7237",
"**	c #2B7238",
"=*	c #226C2F",
"-*	c #216B2E",
";*	c #206B2E",
">*	c #216B36",
",*	c #106428",
"'*	c #A7AF87",
")*	c #FFDAC1",
"!*	c #266F34",
"~*	c #246E33",
"{*	c #2B7137",
"]*	c #296F36",
"^*	c #2C7539",
"/*	c #337D40",
"(*	c #327D3F",
"_*	c #317C3F",
":*	c #2B793F",
"<*	c #2C7A3F",
"[*	c #357E42",
"}*	c #2F7541",
"|*	c #2D733B",
"1*	c #2E7337",
"2*	c #0E6327",
"3*	c #A2AB85",
"4*	c #FFDCC2",
"5*	c #E9CFB3",
"6*	c #E5CDAF",
"7*	c #EBCFB3",
"8*	c #648D5C",
"9*	c #106527",
"0*	c #2D763A",
"a*	c #337E40",
"b*	c #327C3F",
"c*	c #317A3E",
"d*	c #287036",
"e*	c #347F41",
"f*	c #327E40",
"g*	c #2F7C40",
"h*	c #257532",
"i*	c #378044",
"j*	c #E4EEE6",
"k*	c #EFF4F0",
"l*	c #ECF3F0",
"m*	c #EBE24F",
"n*	c #417C0C",
"o*	c #8FA088",
"p*	c #FFDBC2",
"q*	c #E8CEB2",
"r*	c #FED9BF",
"s*	c #638C5C",
"t*	c #348041",
"u*	c #327E3F",
"v*	c #317C3E",
"w*	c #1C6A2E",
"x*	c #A3AC85",
"y*	c #E0CAAD",
"z*	c #CDC1A0",
"A*	c #E2CCB0",
"B*	c #7C9D6D",
"C*	c #17702E",
"D*	c #307B3D",
"E*	c #2F7A3C",
"F*	c #327D3E",
"G*	c #217542",
"H*	c #3E823B",
"I*	c #D2CA12",
"J*	c #DFD530",
"K*	c #FFF672",
"L*	c #FFFFF5",
"M*	c #FFF16B",
"N*	c #E1CE00",
"O*	c #F1F3CA",
"P*	c #75A698",
"Q*	c #829767",
"R*	c #FDDBC2",
"S*	c #E7CDB0",
"T*	c #EBCFB2",
"U*	c #EDD0B4",
"V*	c #5F8B5A",
"W*	c #35763E",
"X*	c #32753C",
"Y*	c #337F40",
"Z*	c #317B3E",
"`*	c #286F35",
" =	c #18672B",
".=	c #C3BB99",
"+=	c #FFE2CC",
"@=	c #F8D6BB",
"#=	c #FFE4D0",
"$=	c #92A97C",
"%=	c #14712D",
"&=	c #2C7A3A",
"*=	c #227430",
"==	c #227330",
"-=	c #166E38",
";=	c #478527",
">=	c #D8D12F",
",=	c #FFFFE2",
"'=	c #FFFFE7",
")=	c #619B6A",
"!=	c #30731F",
"~=	c #D5D145",
"{=	c #FCEF31",
"]=	c #739513",
"^=	c #D5E8E2",
"/=	c #66A488",
"(=	c #6F8C58",
"_=	c #FFE8D3",
":=	c #EFD1B6",
"<=	c #E4CCAE",
"[=	c #F9D6BC",
"}=	c #FFD9BF",
"|=	c #3E7B44",
"1=	c #005C1B",
"2=	c #256E34",
"3=	c #2C7239",
"4=	c #286E35",
"5=	c #2D753A",
"6=	c #297136",
"7=	c #307A3D",
"8=	c #217334",
"9=	c #B7B892",
"0=	c #FCD7BE",
"a=	c #FFDAC3",
"b=	c #89A476",
"c=	c #056318",
"d=	c #6CA075",
"e=	c #CCDECF",
"f=	c #D4E2D7",
"g=	c #9CBDA9",
"h=	c #4F8F55",
"i=	c #FFFFBB",
"j=	c #E9E05F",
"k=	c #4A8F68",
"l=	c #005E1B",
"m=	c #8EA40C",
"n=	c #EFD600",
"o=	c #FFF413",
"p=	c #3A781D",
"q=	c #B4D1DD",
"r=	c #97BB9D",
"s=	c #236829",
"t=	c #48814B",
"u=	c #99A77E",
"v=	c #F9D8BF",
"w=	c #EDD1B4",
"x=	c #E2CBAD",
"y=	c #658E5D",
"z=	c #508450",
"A=	c #276E34",
"B=	c #338040",
"C=	c #257938",
"D=	c #B9BA94",
"E=	c #FFDCC6",
"F=	c #7B9E6D",
"G=	c #004C00",
"H=	c #79AE8B",
"I=	c #DFE7E0",
"J=	c #2F7E46",
"K=	c #378674",
"L=	c #FFFFBF",
"M=	c #C2D8C2",
"N=	c #BBD4C3",
"O=	c #FFFEBA",
"P=	c #FFF9B9",
"Q=	c #8FAB50",
"R=	c #004900",
"S=	c #DEEBE9",
"T=	c #9FBFA3",
"U=	c #004600",
"V=	c #005411",
"W=	c #7F9A6D",
"X=	c #FFEEDB",
"Y=	c #FFDAC2",
"Z=	c #FFE1C9",
"`=	c #266E33",
" -	c #005D1C",
".-	c #276C34",
"+-	c #2E773B",
"@-	c #348141",
"#-	c #2B7338",
"$-	c #2F793C",
"%-	c #2F783C",
"&-	c #1D6E30",
"*-	c #B7B792",
"=-	c #EFD2B7",
"--	c #C3BE9A",
";-	c #90A374",
">-	c #BFBD9A",
",-	c #F3EDE6",
"'-	c #D0DCE1",
")-	c #7E9842",
"!-	c #C5CB21",
"~-	c #E3E078",
"{-	c #58987C",
"]-	c #7EAE8A",
"^-	c #347C65",
"/-	c #78A27E",
"(-	c #82AC87",
"_-	c #92B398",
":-	c #6D9B75",
"<-	c #0A5F1D",
"[-	c #4A804B",
"}-	c #7A996C",
"|-	c #719464",
"1-	c #749567",
"2-	c #6E9263",
"3-	c #30743A",
"4-	c #276D34",
"5-	c #358242",
"6-	c #286D35",
"7-	c #0C6023",
"8-	c #005514",
"9-	c #AEB08C",
"0-	c #F4D3B9",
"a-	c #FFDDC8",
"b-	c #F6D0B2",
"c-	c #E7D2B8",
"d-	c #F3DFD8",
"e-	c #FFDEBE",
"f-	c #FFE141",
"g-	c #E5D200",
"h-	c #A1C3A9",
"i-	c #83B6BA",
"j-	c #6DA698",
"k-	c #DEDE7C",
"l-	c #FFF682",
"m-	c #1E6510",
"n-	c #E8F1F8",
"o-	c #BED5C2",
"p-	c #EAEFEB",
"q-	c #B9CBBC",
"r-	c #035711",
"s-	c #1D6A2E",
"t-	c #0B6222",
"u-	c #0D6324",
"v-	c #0C6123",
"w-	c #0D6124",
"x-	c #2B7037",
"y-	c #358042",
"z-	c #2C7339",
"A-	c #2E783B",
"B-	c #2C763A",
"C-	c #2D773A",
"D-	c #7E9A6D",
"E-	c #8CA177",
"F-	c #CFC1A1",
"G-	c #F1D2B7",
"H-	c #E4CBAF",
"I-	c #DEC4A6",
"J-	c #DEC3A0",
"K-	c #DCC3B6",
"L-	c #E8CEB8",
"M-	c #E9E99A",
"N-	c #BED5BC",
"O-	c #FFFAA8",
"P-	c #A0B218",
"Q-	c #DDCE00",
"R-	c #F4DD00",
"S-	c #A2BE7E",
"T-	c #7CAF9F",
"U-	c #EEF2EF",
"V-	c #D8E6DA",
"W-	c #458751",
"X-	c #1F6F2D",
"Y-	c #2E763B",
"Z-	c #358142",
"`-	c #2D7D3D",
" ;	c #307E3E",
".;	c #E8D0B2",
"+;	c #FFE7D3",
"@;	c #EED1B5",
"#;	c #E2CBAE",
"$;	c #DFC6AB",
"%;	c #D2BCA3",
"&;	c #D5BFA6",
"*;	c #CFB593",
"=;	c #F2D4C9",
"-;	c #D1EAFF",
";;	c #0C6621",
">;	c #D3C900",
",;	c #ABBA2C",
"';	c #FBE223",
");	c #FDE015",
"!;	c #448D67",
"~;	c #A5C0AA",
"{;	c #86AF8D",
"];	c #036213",
"^;	c #3A8546",
"/;	c #286C35",
"(;	c #2D7B3C",
"_;	c #2F7C3D",
":;	c #CDC2A0",
"<;	c #DDC3A6",
"[;	c #E0C9AD",
"};	c #FBEFED",
"|;	c #EAF6FF",
"1;	c #90AD32",
"2;	c #E0D31E",
"3;	c #6D9B37",
"4;	c #759E33",
"5;	c #E2D41B",
"6;	c #4F9472",
"7;	c #CCD9CF",
"8;	c #91B697",
"9;	c #006011",
"0;	c #378244",
"a;	c #E5CCB0",
"b;	c #EAD1B3",
"c;	c #E7CBAB",
"d;	c #EFD9C7",
"e;	c #F8F4E4",
"f;	c #FFF49D",
"g;	c #FFF61C",
"h;	c #FFEC1B",
"i;	c #FFE722",
"j;	c #679734",
"k;	c #DED21A",
"l;	c #FFFFF9",
"m;	c #4D9272",
"n;	c #5F9566",
"o;	c #BDD1C1",
"p;	c #589562",
"q;	c #267834",
"r;	c #E7CEB0",
"s;	c #E3CBB0",
"t;	c #DFC4BA",
"u;	c #E5C479",
"v;	c #E2D000",
"w;	c #9AAF15",
"x;	c #A0B430",
"y;	c #EDDB27",
"z;	c #FFEC1F",
"A;	c #B1B80E",
"B;	c #B0CDA7",
"C;	c #95BEAB",
"D;	c #13681E",
"E;	c #96BA9C",
"F;	c #95B79B",
"G;	c #176A25",
"H;	c #E0C7AB",
"I;	c #D4BDA4",
"J;	c #D5BDA2",
"K;	c #D6C1B5",
"L;	c #FAE2B1",
"M;	c #F3E86D",
"N;	c #458F7C",
"O;	c #498529",
"P;	c #E8D71E",
"Q;	c #FEE525",
"R;	c #669E67",
"S;	c #00541A",
"T;	c #F5F8F3",
"U;	c #9EC3A4",
"V;	c #005907",
"W;	c #247032",
"X;	c #2B7038",
"Y;	c #2C7439",
"Z;	c #DAC2A8",
"`;	c #D8BEA0",
" >	c #E7D2BC",
".>	c #F4F6F8",
"+>	c #E1ECE6",
"@>	c #FFFDCC",
"#>	c #FFE94B",
"$>	c #EDD708",
"%>	c #EFDB1B",
"&>	c #7CAF9A",
"*>	c #BBD4BE",
"=>	c #95BB9B",
"->	c #2D7A39",
";>	c #297336",
">>	c #D9C8A8",
",>	c #FFDCC5",
"'>	c #F3D3B8",
")>	c #F5D4BA",
"!>	c #EDCFB2",
"~>	c #E8CCAE",
"{>	c #FFDDC7",
"]>	c #BDB8A0",
"^>	c #3D8128",
"/>	c #FFEC61",
"(>	c #F2E353",
"_>	c #EDD806",
":>	c #FEF7C3",
"<>	c #F2F6EE",
"[>	c #448952",
"}>	c #B6CCBA",
"|>	c #9DBFA3",
"1>	c #10641F",
"2>	c #296E36",
"3>	c #C0BC98",
"4>	c #E7CDB1",
"5>	c #D8C7A7",
"6>	c #D6C6A5",
"7>	c #DFCBAE",
"8>	c #E5CFB3",
"9>	c #E8CDB1",
"0>	c #AAAF84",
"a>	c #3C854D",
"b>	c #E3EFED",
"c>	c #FDFDF3",
"d>	c #F5E44B",
"e>	c #FADF0B",
"f>	c #548D2E",
"g>	c #00591E",
"h>	c #CAD8CC",
"i>	c #9CBEA2",
"j>	c #10651F",
"k>	c #30753B",
"l>	c #2F723A",
"m>	c #357C40",
"n>	c #388043",
"o>	c #377F42",
"p>	c #1D702A",
"q>	c #91B597",
"r>	c #D0DBD0",
"s>	c #1E702B",
"t>	c #20733B",
"u>	c #4D8933",
"v>	c #ECDC2D",
"w>	c #FFFEFC",
"x>	c #FFEA49",
"y>	c #61942E",
"z>	c #136C39",
"A>	c #D7E1D9",
"B>	c #9ABDA0",
"C>	c #236F33",
"D>	c #1F6A2F",
"E>	c #277637",
"F>	c #2A7A3A",
"G>	c #297939",
"H>	c #0C681E",
"I>	c #8BB495",
"J>	c #D5E1DA",
"K>	c #176F29",
"L>	c #1C723E",
"M>	c #4B8941",
"N>	c #E0D218",
"O>	c #F8E027",
"P>	c #EFEFE2",
"Q>	c #F5F5FF",
"R>	c #F0EFE7",
"S>	c #E3E7DF",
"T>	c #DEE5E1",
"U>	c #FAFCFA",
"V>	c #7FAD87",
"W>	c #116520",
"X>	c #327F3F",
"Y>	c #166D25",
"Z>	c #79A882",
"`>	c #A4C2AA",
" ,	c #418650",
".,	c #E9EBE5",
"+,	c #FFFEE8",
"@,	c #E7E7D2",
"#,	c #56935F",
"$,	c #E7EFEB",
"%,	c #71A686",
"&,	c #3D834D",
"*,	c #55925E",
"=,	c #4B8D56",
"-,	c #388145",
";,	c #2F7B3C",
">,	c #2E7B3B",
",,	c #3A8247",
"',	c #559460",
"),	c #51905C",
"!,	c #5E986A",
"~,	c #52926F",
"{,	c #4B8D67",
"],	c #277636",
"^,	c #4C8E56",
"/,	c #1D702C",
"(,	c #21722F",
"_,	c #2C7939",
":,	c #357F42",
"<,	c #357F41",
"[,	c #2B7939",
"},	c #1E702C",
"|,	c #267533",
"1,	c #307C3D",
"2,	c #1F712D",
"3,	c #1E712C",
"4,	c #21732F",
"5,	c #2D7A3B",
"6,	c #347E41",
"7,	c #2A7238",
"8,	c #2B7339",
"9,	c #227337",
"0,	c #237338",
"a,	c #227237",
"b,	c #227136",
"c,	c #227236",
"d,	c #207036",
"e,	c #1F7035",
"f,	c #217136",
"g,	c #227437",
"h,	c #1F7533",
"i,	c #1F7433",
"j,	c #207734",
"k,	c #1B6D2E",
"l,	c #17672A",
"m,	c #5E6434",
"n,	c #5D6433",
"o,	c #5E6535",
"p,	c #6A703B",
"q,	c #6C703B",
"r,	c #6B703B",
"s,	c #6D723D",
"t,	c #656A38",
"u,	c #5C6233",
"v,	c #565D2B",
"w,	c #696F40",
"x,	c #B3B790",
"y,	c #B4B892",
"z,	c #B1B68F",
"A,	c #B3B890",
"B,	c #AAAE89",
"C,	c #A4A885",
"D,	c #7C5D32",
"E,	c #7D5D33",
"F,	c #7C5C32",
"G,	c #785930",
"H,	c #7B5B32",
"I,	c #916F3E",
"J,	c #93703E",
"K,	c #926F3E",
"L,	c #967340",
"M,	c #866437",
"N,	c #75562E",
"O,	c #705125",
"P,	c #8E6D46",
"Q,	c #FFDBC3",
"R,	c #FDD7BF",
"S,	c #F5D1B9",
"T,	c #EECBB5",
"U,	c #735F33",
"V,	c #725E32",
"W,	c #756134",
"X,	c #7E6938",
"Y,	c #7F6939",
"Z,	c #866F3D",
"`,	c #87703E",
" '	c #826C3B",
".'	c #7F6839",
"+'	c #7A6537",
"@'	c #715E32",
"#'	c #685527",
"$'	c #836E44",
"%'	c #E9D0B4",
"&'	c #DEC6AA",
"*'	c #725E33",
"='	c #6D5930",
"-'	c #746034",
";'	c #8A733F",
">'	c #89713E",
",'	c #8D7540",
"''	c #806A39",
")'	c #6C5930",
"!'	c #715D32",
"~'	c #766134",
"{'	c #7C6738",
"]'	c #7E6839",
"^'	c #87703D",
"/'	c #88703E",
"('	c #7A6536",
"_'	c #685427",
":'	c #6D5A30",
"<'	c #786335",
"['	c #8C7540",
"}'	c #856F3D",
"|'	c #836C3B",
"1'	c #645024",
"2'	c #816C43",
"3'	c #766235",
"4'	c #836D3B",
"5'	c #6F5A2B",
"6'	c #897347",
"7'	c #705C31",
"8'	c #8D7541",
"9'	c #88713E",
"0'	c #7F6732",
"a'	c #978050",
"b'	c #F6DCC3",
"c'	c #F7DDC2",
"d'	c #7B6637",
"e'	c #89723F",
"f'	c #806935",
"g'	c #8F7849",
"h'	c #C7AF8F",
"i'	c #CEB696",
"j'	c #F0D7BB",
"k'	c #665325",
"l'	c #5F4C1E",
"m'	c #836D3C",
"n'	c #6D5A2D",
"o'	c #736034",
"p'	c #725F33",
"q'	c #715F33",
"r'	c #8C7541",
"s'	c #8B7440",
"t'	c #836937",
"u'	c #766234",
"v'	c #796436",
"w'	c #776234",
"x'	c #111A16",
"y'	c #826937",
"z'	c #8C7440",
"A'	c #856E3D",
"B'	c #8A723F",
"C'	c #6D5B30",
"D'	c #7D6838",
"E'	c #7C6637",
"F'	c #7D6738",
"G'	c #816B3A",
"H'	c #7B6537",
"I'	c #93753C",
"J'	c #816937",
"K'	c #806837",
"L'	c #7E6635",
"M'	c #7E6636",
"N'	c #7D6534",
"O'	c #967C43",
"P'	c #997D43",
"Q'	c #977C43",
"R'	c #9A7D44",
"S'	c #8F7640",
"T'	c #846D3C",
"U'	c #977B43",
"V'	c #987C43",
"W'	c #9B8045",
"X'	c #8B713C",
"Y'	c #7A6233",
"Z'	c #7F6736",
"`'	c #866D38",
" )	c #101916",
".)	c #564A2A",
"+)	c #4D4428",
"@)	c #4C4427",
"#)	c #4E4528",
"$)	c #584E2E",
"%)	c #594E2E",
"&)	c #4F472B",
"*)	c #766337",
"=)	c #967B42",
"-)	c #8C743F",
";)	c #8E7540",
">)	c #5B4F2E",
",)	c #554B2C",
"')	c #5A4F2F",
"))	c #53492B",
"!)	c #4B4327",
"~)	c #4F4628",
"{)	c #141C17",
"])	c #0A1514",
"^)	c #091514",
"/)	c #071212",
"()	c #061212",
"_)	c #000B0F",
":)	c #000C0F",
"<)	c #041011",
"[)	c #081413",
"})	c #091414",
"|)	c #1A2119",
"1)	c #162017",
"2)	c #192018",
"3)	c #182018",
"4)	c #181C18",
"5)	c #191218",
"6)	c #191118",
"7)	c #1A0A18",
"8)	c #181918",
"9)	c #182118",
". . . . . . . . . . . . . . . . . . . . . . . . . . . . . . . . . . . . . . . . . . . . . + + + + + + + + + + + + + + + + + + + + + + + + + + + + + + + + + + + + . . . . . . . . . . . . . . . . . . . . . . . . . . . . . . . . . . . . . . . . . . . . . . . ",
". . . . . . . . . . . . . . . . . . . . . . . . . . . . . . . . . . . . . . . . . . . . . + + + + + + + + + + + + + + + + + + + + + + + + + + + + + + + + + + + + . . . . . . . . . . . . . . . . . . . . @ @ . . . . . . . . . . . . . . . . . . . . . . . . . ",
". . . . . . . . . . . . . . . . . . . . . . . . . . . . . . . . . . . . . . . . . . . . . + + + + + + + + + + + + + + + + + + + + + + + + + + + + + + + + + + + + . . . . . . . . . . . . . . . . . @ . . @ @ . . . . . . . . . . . . . . . . . . . . . . . . . ",
". . . . . . . . . . . . . . . . . . . . . . . . . . . . . . . . . . . . . . . . . . . . . + + + + + + + + + + + + + + + + + + + + + + + + + + + + + + + + + + + + . . . . . . . . . . . . . . . . . . @ . @ @ . . @ . . . . . . . . . . . . . . . . . . . . . . ",
". . . . . . . . . . . . . . . . . . . . . . . . . . . . . . . . . . . . . . . . . . . . . + + + + + + + + + + + + + + + + + + + + + + + + + + + + + + + + + + + + . . . . . . . . . . . . . . . . . . . . @ @ . @ . . . . . . . . . . . . . . . . . . . . . . . ",
". . . . . . . . . . . . . . . . . . . . . . . . . . . . . . . . . . . . . . . . . . . . . + + + + + + + + + + + + + + + + + + + + + + + + + + + + + + + + + + + + . . . . . . . . . . . . . . . . . @ . . @ @ . . @ . . @ . . . . . . . . . . . . . . . . . . . ",
". . . . . . . . . . . . . . . . . . . . . . . . . . . . . . . . . . . . . . . . . . . . . + + # $ % & & & & & & * = # + + + + + + + + + + + + + + + + + + + + + + . . . . . . . . . . . . . . @ @ . . @ . @ @ . @ . . @ . . . . . . . . . . . . . . . . . . . . ",
". . . . . . . . . . . . . . . . . . . . . . . . . . . . . . . . . . . . . . . . . . . . . + + - ; > > > > > > > , ' ) + + + + + + + + + + + + + + + + + + + + + + . . . . . . . . . . . . . . . @ @ . . @     @ . . . . . . . . . . . . . . . . . . . . . . . . ",
". . . . . . . . . . . . . . . . . . . . . . . . . . . . . . . . . . . . . . . . . . . . . ! ! ~ { ] ^ / / / / ( _ : < ! ! ! ! ! ! ! ! ! ! ! ! ! ! ! ! ! ! ! ! ! ! . . . . . . . . . . . . @ @ @ @ @ @ @   @ @   @ @ @ @ @ @ @ . . . . . . . . . . . . . . . . . ",
". . . . . . . . . . . . . . . . . . . . . . . . . . . . . . . . . . . . . . . . . . . . . [ [ } | 1 2 3 4 4 4 5 6 7 8 [ [ [ [ [ [ [ [ [ [ [ [ [ [ [ [ [ [ [ [ [ [ . . . . . . . . . . . . @ @ @ @ @ @ @   @ @   @ @ @ @ @ @ @ . . . . . . . . . . . . . . . . . ",
". . . . . . . . . . . . . . . . . . . . . . . . . . . . . . . . . . . . . . . . . . . . . 9 9 0 a b c d e f g h i j k 9 9 9 9 9 9 9 9 9 9 9 9 9 9 9 9 9 9 9 9 9 9 . . . . . . . . . . . . . . . . . . . @     @ . . . . . . . . . . . . . . . . . . . . . . . . ",
". . . . . . . . . . . . . . . . . . . . . . . . . . . . . . . . . . . . . . . . . . . . . l l m n o p q r s t u v w x l l l l l l l l l l l l l l l l y z A B B B . . . . . . . . . . . . . . . @ . . @ . @ @ . @ . . @ . . . . . . . . . . . . . . . . . . . . ",
". . . . . . . . . . . . . . . . . . . . . . . . . . . . . . . . . . . . . . . . . . . . . C D E F G H I J K L M N O P D D D D D D D D D D D D D D D D Q R S T T T . . . . . . . . . . . . . @ @ . . @ . . @ @ . . @ . . @ . . . . . . . . . . . . . . . . . . . ",
". . . . . . . . . . . . . . . . . . . . . . . . . . . . . . . . . . . . . . . . . . . . . U U V W X Y Z `  .` ..+.@.#.U U U U U U U U U U U U U U U U $.%.&.*.*.=.. . . . . . . . . . . . . . . . @   @ . @ @ . . . @ . . . . . . . . . . . . . . . . . . . . . ",
". . . . . . . . . . . . . . . . . . . . . . . . . . . . . . . . . . . . . . . . . . . -.;.>.,.'.).!.~.{.].^.'./.(._.'.,.,.,.,.,.,.,.,.,.,.,.,.,.,.,.,.:.<.[.}.|.1.. . . . . . . . . . . . . . . . @ @ . . @ @ . @ . . . . . . . . . . . . . . . . . . . . . . . ",
". . . . . . . . . . . . . . . . . . . . . . . . . . . . . . . . . . . . . . . . . . 2.3.4.5.6.7.8.9.0.a.7.b.7.c.d.e.7.6.6.6.6.6.6.6.6.6.6.6.6.6.6.6.6.f.g.h.U i.U . . . . . . . . . . . . . . . . . . . . @ @ . @ @ . . . . . . . . . . . . . . . . . . . . . . ",
". . . . . . . . . . . . . . . . . . . . . . . . . . . . . . . . . . . . . . . j.j.k.l.m.n.n.n.n.n.n.n.n.n.n.n.n.n.n.n.n.n.n.n.n.n.n.n.n.n.n.n.n.n.n.n.o.p.q.r.s.t.u.. . . . . . . . . . . . . . . . . . . @ @ . . @ . . . . . . . . . . . . . . . . . . . . . . ",
". . . . . . . . . . . . . . . . . . . . . . . . . . . . . . . . . . . . . . k.v.w.x.n.y.z.z.z.z.z.z.z.z.z.z.z.z.z.z.z.z.z.z.z.z.z.z.z.z.z.z.z.z.z.z.z.A.B.C.5.D.E.F.w.. . . . . . . . . . . . . . . . . . @ . . . . . . . . . . . . . . . . . . . . . . . . . . ",
". . . . . . . . . . . . . . . . . . . . . . . . . . . . . . . . . . . . . . G.H.I.G.J.K.+ + + + + + + + + + + + + + + + + + + + + + + + + + + + + + + L.M.G.I.I.I.H.G.. . . . . . . . . . . . . . . . . . . . . . . . . . . . . . . . . . . . . . . . . . . . . ",
". . . . . . . . . . . . . . . . . . . . . . . . . . . . . . . . . . . . k.N.O.P.Q.z.[ R.+ + + + + + + + + + + + + + + + + + + + + + + + + + + + + + + R.K.z.Q.Q.Q.P.O.S.w.. . . . . . . . . . . . . . . . . . . . . . . . . . . . . . . . . . . . . . . . . . . ",
". . . . . . . . . . . . . . . . . . . . . . . . . . . . . . . . . . . . T.U.V.L.+ + + + + + + + + + + + + + + + + + + + + + + + + + + + + + + + + + + + + + + + + L.V.W.U.. . . . . . . . . . . . . . . . . . . . . . . . . . . . . . . . . . . . . . . . . . . ",
". . . . . . . . . . . . . . . . . . . . . . . . . . . . . . . . . . w.k.X.A.Y.+ + + + + + + + + + + + + + + R.Z.`. + + + + +`..++++ + + + + + + + + + + + + + + + + Y.@+#+. . . . . . . . . . . . . . . . . . . . . . . . . . . . . . . . . . . . . . . . . . . ",
". . . . . . . . . . . . . . . . . . . . . . . . . . . . . . . . . . $+%+&+K.+ + + + + + + + + + + + + + + + Y.*+=+-+-+-+-+-+=+;+>++ + + + + + + + + + + + + + + + + + L.R.. . . . . . . . . . . . . . . . . . . . . . . . . . . . . . . . . . . . . . . . . . . ",
". . . . . . . . . . . . . . . . . . . . . . . . . . . . . . . . . . Y.Y.+ + + + + + + + + + + + + R.Y..+Z.,+'+)+!+~+~+~+~+~+{+]+^+.+.+.+.+.+.+Z./+R.+ + + + + + + + + Q.V.w.(+. . . . . . . . . . . . . . . . . . . . . . . . . . . . . . . . . . . . . . . . . ",
". . . . . . . . . . . . . . . . . . . . . . . . . . . . . . . . . . Y.Y.+ + + + + + + + + + + + + Y.R._+:+<+[+}+|+1+1+1+1+1+2+3+4+:+:+:+:+:+:+:+++Y.+ + + + + + + + + K.5+6+7+. . . . . . . . . . . . . . . . . . . . . . . . . . . . . . . . . . . . . . . . . ",
". . . . . . . . . . . . . . . . . . . . . . . . . . . . . . . . . . + + + + + + + + + + + R.Y.8+8+9+0+a+1+b+c+d+e+f+f+f+g+h+i+j+b+b+b+b+b+b+j+k+l+m+8+4+>+R.+ + + + + + + R.Y.. . . . . . . . . . . . . . . . . . . . . . . . . . . . . . . . . . . . . . . . . ",
". . . . . . . . . . . . . . . . . . . . . . . . . . . . . . . . . . + + + + + + + + + + + + + R.+ .+n+1+o+p+q+r+s+s+s+s+s+t+j+1+q+p+p+p+p+p+u+v+w+x++ R.+ + + + + + + + + [ K.. . . . . . . . . . . . . . . . . . . . . . . . . . . . . . . . . . . . . . . . . ",
". . . . . . . . . . . . . . . . . . . . . . . . . . . . . . . . . . + + + + + + + + + + Y.y+z+A+B+C+D+t+t+E+F+G+H+I+I+I+J+K+L+E+E+E+t+t+E+E+t+t+M+N+O+P+Q+R++ + + + + + + [ S+2.T+. . . . . . . . . . . . . . . . . . . . . . . . . . . . . . . . . . . . . . . ",
". . . . . . . . . . . . . . . . . . . . . . . . . . . . . . . . . . + + + + + + + + + R.>+U+V+W+X+Y+Z+k+j+E+`+ @.@+@+@+@@@#@$@%@&@*@=@-@;@%@-@s+>@,@'@)@!@~@+ + + + + + + [ {@]@^@. . . . . . . . . . . . . . . . . . . . . . . . . . . . . . . . . . . . . . . ",
". . . . . . . . . . . . . . . . . . . . . . . . . . . . . . . . . . + + + + + + + + + y+/@(@_@:@<@[@}@|@1@E+2@3@4@5@5@5@6@7@8@3@9@0@a@b@c@d@e@F+t+t+t+f@g@h@+ + + + + + + + + i@i@. . . . . . . . . . . . . . . . . . . . . . . . . . . . . . . . . . . . . . . ",
". . . . . . . . . . . . . . . . . . . . . . . . . . . . . . . . . . + + + + + + + + + j@k@l@m@n@o@p@q@r@%@s@t@u@v@5@5@5@w@x@y@z@A@B@C@o@D@E@F@G@s@H@f+I@J@K@.+[++ + + + + + + K.K.. . . . . . . . . . . . . . . . . . . . . . . . . . . . . . . . . . . . . . . ",
". . . . . . . . . . . . . . . . . . . . . . . . . . . . . . . . . . + + + + + + + + + h@g@L@M@N@O@P@Q@R@E+S@T@U@V@5@5@5@5@5@5@5@4@3@H@W@X@Y@Z@`@ #.#M@+#@###$#9++ + + + + + + + + . . . . . . . . . . . . . . . . . . . . . . . . . . . . . . . . . . . . . . . ",
". . . . . . . . . . . . . . . . . . . . . . . . . . . . . . . . . . + + + R.`.%#&#*#=#-#;#>#,#'#)#!#!#G@~#{#]#^#/#(#_#5@_#:#<#<#[#}#!#|#1#x@2#3#4#5#6#!#Y+7#8#9#+ + + + + + + + + . . . . . . . . . . . . . . . . . . . . . . . . . . . . . . . . . . . . . . . ",
". . . . . . . . . . . . . . . . . . . . . . . . . . . . . . . . . . + + Y.0#g@a#b#c#d#e#f#g#h#i#j#k#l#m#n#o#p#q#q#r#:#5@s#t#q#q#u#v#w#x#5@y#5@5@5@z#A#B#C#D#E#F#+ + + + + + + + + . . . . . . . . . . . . . . . . . . . . . . . . . . . . . . . . . . . . . . . ",
". . . . . . . . . . . . . . . . . . . . . . . . . . . . . . . . . . + + Y.=#G#H#I#J#K#L#M#N#h#O#P#Q#D@R#S#@ @ @ @ T#U#5@V#W#@ @ @ X#Y#Z#5@H+`#H+ $.$+$@$#$$$!@%$&$*$=$-$+ + + + + . . . . . . . . . . . . . . . . . . . . . . . . . . . . . . . . . . . . . . . ",
". . . . . . . . . . . . . . . . . . . . . . . . . . . . . . . . . . + + Y.Z.;$>$,$'$f#,@t+s@h#)$5@5@5@!$5@~${$]$@ ^${#5@/$($_$:$@ <$[$}$5@5@|$y#1$2$3$4$5$6$f#7$8$9$0$a$+ + + + + . . . . . . . . . . . . . . . . . . . . . . . . . . . . . . . . . . . . . . . ",
". . . . . . . . . . . . . . . . . . . . . . . . . . . . . . . . . . . . Y.b$c$$$d$e$f$g$h$i$j$k$5@5@5@l$H+m$n$o$@ ^${#5@p$q$!#r$@ <$[$}$5@5@s$t$u$!#v$@ w$x$y$i$z$@ A$B$C$+ + . . . . . . . . . . . . . . . . . . . . . . . . . . . . . . . . . . . . . . . . . ",
". . . . . . . . . . . . . . . . . . . . . . . . . . . . . . . . . . . . D$E$F$G$H$I$t+J$<@K$k#L$5@5@5@V@H+M$N$O$@ ^${#5@P$Q$R$S$@ <$[$}$5@5@T$U$V$W$X$Y$Z$C@`$ %x#.%+%@%C$+ + . . . . . . . . . . . . . . . . . . . . . . . . . . . . . . . . . . . . . . . . . ",
". . . . . . . . . . . . . . . . . . . . . . . . . . . . . . . . . . . . . . #%$%%%n$|#&%*%=%-%1#5@5@5@l$H+;%>%,%@ '%)%5@!%~%!#{%@ ]%^%}$5@5@T$t$/%(%_%:%<%[%}%|%1%2%3%4%C$+ + . . . . . . . . . . . . . . . . . . . . . . . . . . . . . . . . . . . . . . . . . ",
". . . . . . . . . . . . . . . . . . . . . . . . . . . . . . . . . . . . . . 5%6%7%8%9%0%5$a%5@5@5@5@5@b%H+c%d%e%f%g%h%5@i%j%k%l%f%m%n%}$5@5@o%P#p%q%r%r%r%s%t%u%v%w%x%y%C$+ + . . . . . . . . . . . . . . . . . . . . . . . . . . . . . . . . . . . . . . . . . ",
". . . . . . . . . . . . . . . . . . . . . . . . . . . . . . . . . . . . . . z%H+U$A%B%!#%%Q#5@C%D%D%D%D%D%x@E%F%[$G%H%5@I%J%K%L%[$n%5@5@D%C%D%D%M%N%O%P%O%Q%P#R%S%T%U%V%+ . . . . . . . . . . . . . . . . . . . . . . . . . . . . . . . . . . . . . . . . . . . ",
". . . . . . . . . . . . . . . . . . . . . . . . . . . . . . . . . . . . . . 5@5@W%D@X%Y%Z%`%}$ & & & & & &X@.&5@}$5@5@5@5@W%.&W%}$}$5@5@ & & & &+&+&X@X@X@.&W%@&#&$&%&+ + . . . . . . . . . . . . . . . . . . . . . . . . . . . . . . . . . . . . . . . . . . . ",
". . . . . . . . . . . . . . . . . . . . . . . . . . . . . . . . . . . . . . . . 5@5@H+&&H+C%*&=&-&-&-&;&-& &D%5@5@5@5@5@5@5@H%}$n%>&D% &-&;&-&-&-&=&*&C%5@5@5@,&'&. . . . . . . . . . . . . . . . . . . . . . . . . . . . . . . . . . . . . . . . . . . . . . . ",
". . . . . . . . . . . . . . . . . . . . . . . . . . . . . . . . . . . . . . . . 5@H+T$)&J%!&*&;&~&~&~&-&~& &D%5@5@5@5@5@5@5@5@H%_#_#D% &~&-&~&~&~&;&*&C%5@5@5@{&]&. . . . . . . . . . . . . . . . . . . . . . . . . . . . . . . . . . . . . . . . . . . . . . . ",
". . . . . . . . . . . . . . . . . . . . . . . . . . . . . . . . . . . . . . . . . . 5@5@5@5@5@}$}$}$}$}$}$G%^&^&^&^&^&^&^&^&)%/&(&_&[$}$}$}$}$}$}$}$5@5@5@5@5@. . . . . . . . . . . . . . . . . . . . . . . . . . . . . . . . . . . . . . . . . . . . . . . . . ",
". . . . . . . . . . . . . . . . . . . . . . . . . . . . . . . . . . . . . . . . . . 5@5@5@5@5@D%D%D%D%D%D%>&>&>&>&>&>&>&>&>&:&^$@ <&[$}$D%D%D%D%D%D%5@5@5@5@. . . . . . . . . . . . . . . . . . . . . . . . . . . . . . . . . . . . . . . . . . . . . . . . . . ",
". . . . . . . . . . . . . . . . . . . . . . . . . . . . . . . . . . . . . . . . . . . . 5@5@5@5@5@5@5@[&H%}&|&1&2&2&2&2&2&2&3&4&@ <$[$}$5@5@5@5@5@5@5@5@5@5@5@. . . . . . . . . . . . . . . . . . . . . . . . . . . . . . . . . . . . . . . . . . . . . . . . . ",
". . . . . . . . . . . . . . . . . . . . . . . . . . . . . . . . . . . . . . . . . . . . . 5@5@5@5@5@5@n%H%@ @ @ @ @ @ @ @ @ @ @ @ ]%^%}$5@5@5@5@5@5@W%|$W%5@5@. . . . . . . . . . . . . . . . . . . . . . . . . . . . . . . . . . . . . . . . . . . . . . . . . ",
". . . . . . . . . . . . . . . . . . . . . . . . . . . . . . . . . . . . . . . . . . . . . 5@5@5@5@5@5@}$5@5&5&<&@ @ @ @ @ @ @ 6&7&8&}$5@5@5@5@5@5@W%9&0&a&. . . . . . . . . . . . . . . . . . . . . . . . . . . . . . . . . . . . . . . . . . . . . . . . . . . ",
". . . . . . . . . . . . . . . . . . . . . . . . . . . . . . . . . . . . . . . . . . . . . 5@5@5@5@5@5@5@5@b&c&d&@ @ @ @ @ @ @ e&f&g&H%5@5@5@5@5@|$T$h&i&. . . . . . . . . . . . . . . . . . . . . . . . . . . . . . . . . . . . . . . . . . . . . . . . . . . . ",
". . . . . . . . . . . . . . . . . . . . . . . . . . . . . . . . . . . . . . . . . . . . . . 5@5@5@5@5@5@5@5@G%j&k&k&k&k&k&k&k&l&n%5@5@5@5@5@5@5@m&n&o&p&. . . . . . . . . . . . . . . . . . . . . . . . . . . . . . . . . . . . . . . . . . . . . . . . . . . . ",
". . . . . . . . . . . . . . . . . . . . . . . . . . . . . . . . . . . . . . . . . . . . . . . 5@5@5@5@5@5@5@H%q&)%)%)%)%)%)%)%g&r&5@5@5@5@5@s&X@0&t&p&u&. . . . . . . . . . . . . . . . . . . . . . . . . . . . . . . . . . . . . . . . . . . . . . . . . . . . ",
". . . . . . . . . . . . . . . . . . . . . . . . . . . . . . . . . . . . . . . . . . . . . . . 5@5@5@5@5@5@5@5@5@5@5@5@5@5@5@5@5@5@5@5@5@5@5@m&v&0&w&u&x&. . . . . . . . . . . . . . . . . . . . . . . . . . . . . . . . . . . . . . . . . . . . . . . . . . . . ",
". . . . . . . . . . . . . . . . . . . . . . . . . . . . . . . . . . . . . . . . . . . . . . . . . 5@5@5@5@5@5@5@5@5@5@5@5@5@5@5@5@5@5@5@y&s&z&A&u&u&. . . . . . . . . . . . . . . . . . . . . . . . . . . . . . . . . . . . . . . . . . . . . . . . . . . . . . ",
". . . . . . . . . . . . . . . . . . . . . . . . . . . . . . . . . . . . . . . . . . . . . . . . . 5@5@5@5@5@5@5@5@5@5@5@5@5@5@5@5@5@5@5@B&a&0&w&u&C&. . . . . . . . . . . . . . . . . . . . . . . . . . . . . . . . . . . . . . . . . . . . . . . . . . . . . . ",
". . . . . . . . . . . . . . . . . . . . . . . . . . . . . . . . . . . . . . . . . . . . . . . . . . . . . &&5@5@5@W%s&|$|$|$|$|$|$|$.&5@D&E&F&F&F&G&. . . . . . . . . . . . . . . . . . . . . . . . . . . . . . . . . . . . . . . . . . . . . . . . . . . . . . ",
". . . . . . . . . . . . . . . . . . . . . . . . . . . . . . . . . . . . . . . . . . . . . . . . . . . . . H&I&J&K&L&B&M&M&M&M&M&M&M&L&B&u&p&N&O&N&P&. . . . . . . . . . . . . . . . . . . . . . . . . . . . . . . . . . . . . . . . . . . . . . . . . . . . . . ",
". . . . . . . . . . . . . . . . . . . . . . . . . . . . . . . . . . . . . . . . . . . . . . . . . . . . . . . . . Q&R&S&S&S&S&S&S&S&S&S&D&w&5@X@W%T&U&V&W&W&W&. . . . . . . . . . . . . . . . . . . . . . . . . . . . . . . . . . . . . . . . . . . . . . . . . ",
". . . . . . . . . . . . . . . . . . . . . . . . . . . . . . . . . . . . . . . . . . . . . . . . . . . . . . . . . X&Y&o&o&o&o&o&o&o&o&o&0&o&H+W%5@I&Z&`&W&W&W&. . . . . . . . . . . . . . . . . . . . . . . . . . . . . . . . . . . . . . . . . . . . . . . . . ",
". . . . . . . . . . . . . . . . . . . . . . . . . . . . . . . . . . . . . . . . . . . . . . .  *.*.*.*.* *+*@*W&#*$*%*5@5@5@5@5@5@5@5@5@5@5@5@5@5@I&Z&`&W&W&W&W&W& *.* *.*. . . . . . . . . . . . . . . . . . . . . . . . . . . . . . . . . . . . . . . . . . . ",
". . . . . . . . . . . . . . . . . . . . . . . . . . . . . . . . . . . . . . . . . . . . . . . &*&*&***W&=*-*;*>*,*'*)*5@5@5@5@5@5@5@5@5@5@5@5@5@5@I&Z&`&W&W&W&W&W&&*&*&*&*. . . . . . . . . . . . . . . . . . . . . . . . . . . . . . . . . . . . . . . . . . . ",
". . . . . . . . . . . . . . . . . . . . . . . . . . . . . . . . . . . . . . !*~*~*~*@*{*W&]*^*/*(*_*:*<*[*}*|*1*2*3*4*5*6*5@5@5@5@5@5@5@5@5@5@5@7*)*8*9*W&W&W&]*0*a*b*/*c*W&W&. . . . . . . . . . . . . . . . . . . . . . . . . . . . . . . . . . . . . . . . . ",
". . . . . . . . . . . . . . . . . . . . . . . . . . . . . . . . . . . . . . d*@*+*@* *W&W&]*^*e*f*g*h*i*j*k*l*m*n*o*p*|$5@5@5@5@5@5@5@5@5@5@5@5@q*r*s*`&W&W&W&]*0*t*u*e*v*W&W&. . . . . . . . . . . . . . . . . . . . . . . . . . . . . . . . . . . . . . . . . ",
". . . . . . . . . . . . . . . . . . . . . . . . . . . . . . W&W&W&W&W&W& *w*x*y*z*A*B*C*D*E*D*F*G*H*I*J*@ K*L*M*N*O*P*Q*R*S*5@5@5@5@5@5@5@5@T*U*V*W*X*@*W&W&W&]*0*Y*(*(*(*v*Z*&*.*. . . . . . . . . . . . . . . . . . . . . . . . . . . . . . . . . . . . . . . ",
". . . . . . . . . . . . . . . . . . . . . . . . . . . . . . W&W& * * * *`* =.=+=@=#=$=%=&=*===-=;=>=,='=)=!=~={=]=^=/=(=_=:=<=5@5@5@5@5@`#5@[=}=|=1=2=3=W&W&W&4=5=Y*(*(*(*Y*/*6=]*. . . . . . . . . . . . . . . . . . . . . . . . . . . . . . . . . . . . . . . ",
". . . . . . . . . . . . . . . . . . . . . . . . . . . . W&W& ***7=7=7=7=E*8=9=0=5@a=b=c=d=e=f=g=h=i=j=k=l=m=n=o=p=q=r=s=t=u=v=5@5@5@5@5@w=x=y=z=X*2=W&W&W& *5=D*Z*u*(*(*(*(*(*7=7=** *. . . . . . . . . . . . . . . . . . . . . . . . . . . . . . . . . . . . . ",
". . . . . . . . . . . . . . . . . . . . . . . . . . . . W&W&A=&*t*t*t*t*B=C=D=0=5@E=F=G=H=@ I=J=K=@ L=M=N=O=P=Q=R=S=T=U=V=W=X=Y=Y=Y=Y=Y=Z=I&`= -!*3=W&W& *.-+-@-a*(*(*(*(*(*(*a*Y*&*A=. . . . . . . . . . . . . . . . . . . . . . . . . . . . . . . . . . . . . ",
". . . . . . . . . . . . . . . . . . . . . . . . . . . .  *#-$-%-0*0*0*0*^*&-*-J&5@=---;->-,-'-)-!-~-{-]-@ @ @ ^-/-(-_-:-<-[-}-|-|-|-|-|-1-2-3-2=W&W&W& *5=$-D*u*(*(*(*(*(*(*(*(*(*$-$-#- *. . . . . . . . . . . . . . . . . . . . . . . . . . . . . . . . . . . ",
". . . . . . . . . . . . . . . . . . . . . . . . . . . . 4-#-5-b*4-4-4=6-7-8-9-Y=5@x=0-a-b-c-d-e-f-g-h-i-j-k-l-m-n-o-p-q-r-s-t-u-v-w-v-w-u-V&A=x-]*]*]*.-%-5-a*(*(*(*(*(*(*(*(*(*(*a*y-#-4-. . . . . . . . . . . . . . . . . . . . . . . . . . . . . . . . . . . ",
". . . . . . . . . . . . . . . . . . . . . . . . . .  *z-A-$-u*b*+-+-B-C-D-E-F-G-5@5@5@W%H-I-J-K-L-M-N-O-P-Q-R-S-T-U-V-W-X-^*]*z-%-+-%-+-.*W&+-%-+-+-+-Y-Z*u*(*(*(*(*(*(*(*(*(*(*(*(*(*$-A-z- *. . . . . . . . . . . . . . . . . . . . . . . . . . . . . . . . . ",
". . . . . . . . . . . . . . . . . . . . . . . . . . ]*0*Z-a*(*(*Y*Y*`- ;.;+;@;#;5@5@5@y&$;%;&;*;=;-;;;>;,;';);@ !;~;{;];^;$-/;0*@-Y*t*u*.*W&u*t*Y*Y*Y*Y*u*(*(*(*(*(*(*(*(*(*(*(*(*(*(*a*Z-0*]*W&. . . . . . . . . . . . . . . . . . . . . . . . . . . . . . . . ",
". . . . . . . . . . . . . . . . . . . . . . . . . . ]*5=Y*(*(*(*(*(*(;_;:;K&5@5@5@5@5@W%M&O&<;[;};|;1;2;3;4;5;,=6;7;8;9;0;A-6-5=Y*(*a*v*.*W&v*a*(*(*(*(*(*(*(*(*(*(*(*(*(*(*(*(*(*(*(*(*Y*5=]*. . . . . . . . . . . . . . . . . . . . . . . . . . . . . . . . . ",
". . . . . . . . . . . . . . . . . . . . . . . . . . ]*5=Y*(*(*(*(*(*(;_;:;K&5@5@5@5@5@a;W%b;c;d;e;f;g;h;i;j;k;l;m;n;o;p;q;$-6-5=Y*(*a*v*.*W&v*a*(*(*(*(*(*(*(*(*(*(*(*(*(*(*(*(*(*(*(*(*Y*5=]*. . . . . . . . . . . . . . . . . . . . . . . . . . . . . . . . . ",
". . . . . . . . . . . . . . . . . . . . . . . . . . ]*5=Y*(*(*(*(*(*(;_;:;K&5@5@5@5@5@r;H+B&s;t;u;v;w;x;y;z;A;B;C;D;E;F;G;0*4=5=Y*(*a*v*.*W&v*a*(*(*(*(*(*(*(*(*(*(*(*(*(*(*(*(*(*(*(*(*Y*5=]*. . . . . . . . . . . . . . . . . . . . . . . . . . . . . . . . . ",
". . . . . . . . . . . . . . . . . . . . . . . . . . ]*5=Y*(*(*(*(*(*(;_;:;K&5@5@5@5@5@s&H;I;J;K;L;M;N;O;P;Q;R;S;T;U;V;W;X; *4=Y;Y*(*a*v*.*W&(*e*(*(*(*(*(*(*(*(*(*(*(*a*a*(*(*(*(*(*(*(*Y*5=]*. . . . . . . . . . . . . . . . . . . . . . . . . . . . . . . . . ",
". . . . . . . . . . . . . . . . . . . . . . . . . . ]*5=Y*(*(*(*(*(*(;_;:;K&5@5@5@5@5@s&B&Z;`; >.>+>@>#>$>%>@ &>*>=>->;>]*****Y-Y*(*a*v*.*W&7=v*(*(*(*(*(*(*(*(*(*(*b*D*Z*(*(*(*(*(*(*(*Y*5=]*. . . . . . . . . . . . . . . . . . . . . . . . . . . . . . . . . ",
". . . . . . . . . . . . . . . . . . . . . . . . . . ]*5=Y*(*(*(*(*(*(;_;>>,>'>'>'>'>'>'>)>!>~>{>]>^>/>@ (>_>:><>[>}>|>1>4-+-@-a*(*(*a*v* * *W&W&Z*a*(*(*(*(*(*(*(*a*7=2>#-(*(*(*(*(*(*(*Y*5=]*. . . . . . . . . . . . . . . . . . . . . . . . . . . . . . . . . ",
". . . . . . . . . . . . . . . . . . . . . . . . . . ]*5=Y*(*(*(*(*(*(;_;3>4>5>5>5>5>5>5>6>7>8>9>0>a>b>c>@ d>e>f>g>h>i>j>4-Y-u*(*(*(*a*v*****W&W&Z*a*(*(*(*(*(*(*(*a*7=]*#-(*(*(*(*(*(*(*Y*5=]*. . . . . . . . . . . . . . . . . . . . . . . . . . . . . . . . . ",
". . . . . . . . . . . . . . . . . . . . . . . . . . ]*5=B=(*(*(*(*(*(*(*k>l>m>n>o>o>o>o>p>q>r>s>/*t>u>v>@ w>x>y>z>A>B>1>2>W& *5=Y*(*(*(*u*(*&* *Z*a*(*(*(*(*(*(*(*a*7=]*#-(*(*(*(*(*(*(*Y*5=]*. . . . . . . . . . . . . . . . . . . . . . . . . . . . . . . . . ",
". . . . . . . . . . . . . . . . . . . . . . . . . . ]*5=Y*(*(*(*(*(*(*(*C>D>E>F>G>G>G>G>H>I>J>K>L>M>N>O>P>Q>R>S>T>U>V>W>]*W&4=5=Y*(*(*(*X>u*&* *Z*a*(*(*(*(*(*(*(*a*7=]*#-(*(*(*(*(*(*(*Y*5=]*. . . . . . . . . . . . . . . . . . . . . . . . . . . . . . . . . ",
". . . . . . . . . . . . . . . . . . . . . . . . . . . . &*5=Y*Z*********W& *7=a*(*(*(*(*Y>Z>@ `> ,.,+,@,#,$,%,&,*,=,-,;,(*+-6-5=Y*(*(*(*u*(*&* *Z*a*(*(*(*(*(*(*(*a*7=]*#-(*(*(*(*(*(*(*Y*5=]*. . . . . . . . . . . . . . . . . . . . . . . . . . . . . . . . . ",
". . . . . . . . . . . . . . . . . . . . . . . . . . . . `*z-t*Z* * * * *W& *D*e*u*a*(*(*>,,,',),n>!,~,{,],^,>,/,==(,_,:,t*A-.-5=Y*(*(*(*u*(*W&`*Z*a*(*(*(*(*(*(*(*a*7=]*#-(*(*(*(*(*(*(*Y*5=]*. . . . . . . . . . . . . . . . . . . . . . . . . . . . . . . . . ",
". . . . . . . . . . . . . . . . . . . . . . . . . . . . . . Y;#-W&W&W&W&W&W&#-Y;z-**%-Y*<,[,},|,1,2,3,4,1,(,5,6,(*(*(*(*(*v*7=Z*(*(*(*(*(*(*D*7=(*(*(*(*(*(*(*(*(*a*7=]*#-(*(*(*(*(*(*(*Y*5=]*. . . . . . . . . . . . . . . . . . . . . . . . . . . . . . . . . ",
". . . . . . . . . . . . . . . . . . . . . . . . . . . . . . ]* *W&W&W&W&W&W& * * *6-+-@-a*(*(*(*(*(*(*(*(*(*(*(*(*(*(*(*(*u*Y*a*(*(*(*(*(*(*a*a*(*(*(*(*(*(*(*(*(*a*7=]*#-(*(*(*(*(*(*(*Y*5=]*. . . . . . . . . . . . . . . . . . . . . . . . . . . . . . . . . ",
". . . . . . . . . . . . . . . . . . . . . . . . . . . . . . . . . . . . . . . . . . #-Y;%-a*(*(*(*(*(*(*(*(*(*(*(*(*(*(*(*(*(*(*(*(*(*(*(*(*(*(*(*(*(*(*(*(*(*(*(*a*7=]*#-(*(*(*(*(*(*(*Y*5=]*. . . . . . . . . . . . . . . . . . . . . . . . . . . . . . . . . ",
". . . . . . . . . . . . . . . . . . . . . . . . . . . . . . . . . . . . . . . . . . . 6-^*Y*(*(*(*(*(*(*(*(*(*(*(*(*(*(*(*(*(*(*(*(*(*(*(*(*(*(*(*(*(*(*(*(*(*(*(*a*7=]*#-(*(*(*(*(*(*(*Y*5=]*. . . . . . . . . . . . . . . . . . . . . . . . . . . . . . . . . ",
". . . . . . . . . . . . . . . . . . . . . . . . . . . . . . . . . . . . . . . . . . W&]*0*Y*(*(*(*(*(*(*(*(*(*(*(*(*(*(*(*(*(*(*(*(*(*(*(*(*(*(*(*(*(*(*(*(*(*(*(*a*7=]*#-(*(*(*(*(*(*(*Y*5=]*. . . . . . . . . . . . . . . . . . . . . . . . . . . . . . . . . ",
". . . . . . . . . . . . . . . . . . . . . . . . . . . . . . . . . . . . . . . . . . W&]*0*Y*(*(*(*(*(*(*(*(*(*(*(*(*(*(*(*(*(*(*(*(*(*(*(*(*(*(*(*(*(*(*(*(*(*(*(*a*7=]*#-(*(*(*(*(*(*(*Y*5=]*. . . . . . . . . . . . . . . . . . . . . . . . . . . . . . . . . ",
". . . . . . . . . . . . . . . . . . . . . . . . . . . . . . . . . . . . . . . . . . W&]*0*Y*(*(*(*(*(*(*(*(*(*(*(*(*(*(*(*(*(*(*(*(*(*(*(*(*(*(*(*(*(*(*(*(*(*(*(*a*7=]*#-(*(*(*(*(*(*(*Y*5=]*. . . . . . . . . . . . . . . . . . . . . . . . . . . . . . . . . ",
". . . . . . . . . . . . . . . . . . . . . . . . . . . . . . . . . . . . . . . . . . W&]*0*Y*(*(*(*(*(*(*(*(*(*(*(*(*(*(*(*(*(*(*(*(*(*(*(*(*(*(*(*(*(*(*(*(*(*(*(*a*7=]*#-(*(*(*(*(*(*(*Y*5=]*. . . . . . . . . . . . . . . . . . . . . . . . . . . . . . . . . ",
". . . . . . . . . . . . . . . . . . . . . . . . . . . . . . . . . . . . . . . . . . W&]*0*Y*(*(*(*(*(*(*(*(*(*(*(*(*(*(*(*(*(*(*(*(*(*(*(*(*(*(*(*(*(*(*(*(*(*(*(*a*7=]*#-(*(*(*(*(*(*(*Y*5=]*. . . . . . . . . . . . . . . . . . . . . . . . . . . . . . . . . ",
". . . . . . . . . . . . . . . . . . . . . . . . . . . . . . . . . . . . . . . . . . W&]*0*Y*(*(*(*(*(*(*(*(*(*(*(*(*(*(*(*(*(*(*(*(*(*(*(*(*(*(*(*(*(*(*(*(*(*(*(*a*7=]*#-(*(*(*(*(*(*(*Y*5=]*. . . . . . . . . . . . . . . . . . . . . . . . . . . . . . . . . ",
". . . . . . . . . . . . . . . . . . . . . . . . . . . . . . . . . . . . . . . . . . W&]*0*Y*(*(*(*(*(*(*(*(*(*(*(*(*(*(*(*(*(*(*(*(*(*(*(*(*(*(*(*(*(*(*(*(*(*(*(*a*7=]*#-(*(*(*(*(*(*(*Y*5=]*. . . . . . . . . . . . . . . . . . . . . . . . . . . . . . . . . ",
". . . . . . . . . . . . . . . . . . . . . . . . . . . . . . . . . . . . . . . . . . W&]*0*Y*(*(*(*(*(*(*(*(*(*(*(*(*(*(*(*(*(*(*(*(*(*(*(*(*(*(*(*(*(*(*(*(*(*(*(*a*7=]*#-(*(*(*(*(*(*(*Y*5=]*. . . . . . . . . . . . . . . . . . . . . . . . . . . . . . . . . ",
". . . . . . . . . . . . . . . . . . . . . . . . . . . . . . . . . . . . . . . . . . W&]*0*Y*(*(*(*(*(*(*(*(*(*(*(*(*(*(*(*(*(*(*(*(*(*(*(*(*(*(*(*(*(*(*(*(*(*(*(*a*7=]*#-(*(*(*(*(*(*(*Y*5=]*. . . . . . . . . . . . . . . . . . . . . . . . . . . . . . . . . ",
". . . . . . . . . . . . . . . . . . . . . . . . . . . . . . . . . . . . . . . . . . W&]*0*Y*(*(*(*(*(*(*(*(*(*(*(*(*(*(*(*(*(*(*(*(*(*(*(*(*(*(*(*(*(*(*(*(*(*(*(*a*7=]*#-(*(*(*(*(*(*(*Y*5=]*. . . . . . . . . . . . . . . . . . . . . . . . . . . . . . . . . ",
". . . . . . . . . . . . . . . . . . . . . . . . . . . . . . . . . . . . . . . . . . W&]*0*Y*(*(*(*(*(*(*(*(*(*(*(*(*(*(*(*(*(*(*(*(*(*(*(*(*(*(*(*(*(*(*(*(*(*(*(*a*7=]*#-(*(*(*(*(*(*(*Y*5=]*. . . . . . . . . . . . . . . . . . . . . . . . . . . . . . . . . ",
". . . . . . . . . . . . . . . . . . . . . . . . . . . . . . . . . . . . . . . . . . W&]*0*Y*(*(*(*(*(*(*(*(*(*(*(*(*(*(*(*(*(*(*(*(*(*(*(*(*(*(*(*(*(*(*(*(*(*(*(*a*7=]*#-(*(*(*(*(*(*(*Y*5=]*. . . . . . . . . . . . . . . . . . . . . . . . . . . . . . . . . ",
". . . . . . . . . . . . . . . . . . . . . . . . . . . . . . . . . . . . . . . . . . W&]*0*B=(*(*(*(*(*(*(*(*(*(*(*(*(*(*(*(*(*(*(*(*(*(*(*(*(*(*(*(*(*(*(*(*(*(*(*a*7=]*#-(*(*(*(*(*(*(*Y*5=]*. . . . . . . . . . . . . . . . . . . . . . . . . . . . . . . . . ",
". . . . . . . . . . . . . . . . . . . . . . . . . . . . . . . . . . . . . . . . . . W&W&7,8,#-#-#-#-#-#-#-#-#-#-#-#-#-#-#-#-#-#-#-#-#-#-#-#-#-#-#-#-#-#-#-#-#-#-#-8,#- *#-(*(*(*(*(*(*(*Y*5=]*. . . . . . . . . . . . . . . . . . . . . . . . . . . . . . . . . ",
". . . . . . . . . . . . . . . . . . . . . . . . . . . . . . . . . . . . . . . . . . 9,0,a,b,a,a,a,a,c,d,d,d,d,d,d,d,d,d,d,d,d,d,d,d,d,d,d,d,d,d,d,d,d,d,d,e,f,a,a,c,a,0,g,h,i,h,h,h,h,h,j,k,l,. . . . . . . . . . . . . . . . . . . . . . . . . . . . . . . . . ",
". . . . . . . . . . . . . . . . . . . . . . . . . . . . . . . . . . . . . . . . . . m,m,m,m,m,m,m,n,o,p,q,r,r,r,r,r,r,r,r,r,r,r,r,r,r,r,r,r,r,r,r,r,r,r,r,s,t,u,m,m,m,v,w,x,y,z,z,z,z,z,A,B,C,. . . . . . . . . . . . . . . . . . . . . . . . . . . . . . . . . ",
". . . . . . . . . . . . . . . . . . . . . . . . . . . . . . . . . . . . . . . . . . D,D,D,D,D,E,F,G,H,I,J,K,K,K,K,K,K,K,K,K,K,K,K,K,K,K,K,K,K,K,K,K,K,K,K,L,M,N,H,E,D,O,P,)*Q,R,R,R,R,R,H&S,T,. . . . . . . . . . . . . . . . . . . . . . . . . . . . . . . . . ",
". . . . . . . . . . . . . . . . . . . . . . . . . . . . . . . . . . . . . . . . . . U,U,U,U,U,V,W,X,Y,Z,Z,Z,Z,Z,Z,Z,Z,Z,Z,Z,Z,Z,Z,Z,Z,Z,Z,Z,Z,Z,Z,Z,Z,Z,Z,`, '.'+'@'U,#'$'X@%'5@5@5@5@5@s&&'D&. . . . . . . . . . . . . . . . . . . . . . . . . . . . . . . . . ",
". . . . . . . . . . . . . . . . . . . . . . . . . . . . . . . . . . . . . . . . . . U,U,U,U,*'='-';'>'Z,Z,Z,Z,Z,Z,Z,Z,Z,Z,Z,Z,Z,Z,Z,Z,Z,Z,Z,Z,Z,Z,Z,Z,Z,Z,Z,`,,''')'!'#'$'X@%'5@5@5@5@5@s&&'D&. . . . . . . . . . . . . . . . . . . . . . . . . . . . . . . . . ",
". . . . . . . . . . . . . . . . . . . . . . . . . . . . . . . . . . . . . . . . . . U,U,U,*'~'{']'^'Z,Z,Z,Z,Z,Z,Z,Z,Z,Z,Z,Z,Z,Z,Z,Z,Z,Z,Z,Z,Z,Z,Z,Z,Z,Z,Z,Z,Z,/' '{'('_'$'X@%'5@5@5@5@5@s&&'D&. . . . . . . . . . . . . . . . . . . . . . . . . . . . . . . . . ",
". . . . . . . . . . . . . . . . . . . . . . . . . . . . . . . . . . . . . . . . . . U,U,V,:'<'['>'Z,Z,Z,Z,Z,Z,Z,Z,Z,Z,Z,Z,Z,Z,Z,Z,Z,Z,Z,Z,Z,Z,Z,Z,Z,Z,Z,Z,Z,Z,}'`,['|'1'2'X@%'5@5@5@5@5@s&&'D&. . . . . . . . . . . . . . . . . . . . . . . . . . . . . . . . . ",
". . . . . . . . . . . . . . . . . . . . . . . . . . . . . . . . . . . . . . . . . . U,V,3'+']'`,Z,Z,Z,Z,Z,Z,Z,Z,Z,Z,Z,Z,Z,Z,Z,Z,Z,Z,Z,Z,Z,Z,Z,Z,Z,Z,Z,Z,Z,Z,Z,Z,Z,`,4'5'6'X@%'5@5@5@5@5@s&&'D&. . . . . . . . . . . . . . . . . . . . . . . . . . . . . . . . . ",
". . . . . . . . . . . . . . . . . . . . . . . . . . . . . . . . . . . . . . . . . . U,7'{'8'9'Z,Z,Z,Z,Z,Z,Z,Z,Z,Z,Z,Z,Z,Z,Z,Z,Z,Z,Z,Z,Z,Z,Z,Z,Z,Z,Z,Z,Z,Z,Z,Z,Z,Z,Z,^'0'a'b'c'W%H+5@5@5@s&&'D&u&. . . . . . . . . . . . . . . . . . . . . . . . . . . . . . . . ",
". . . . . . . . . . . . . . . . . . . . . . . . . . . . . . . . . . . . . . . . . . U,7'd'e'Z,Z,Z,Z,Z,Z,Z,Z,Z,Z,Z,Z,Z,Z,Z,Z,Z,Z,Z,Z,Z,Z,Z,Z,Z,Z,Z,Z,Z,Z,Z,Z,Z,Z,Z,Z,Z,f'g'h'i'j'J%H+5@5@s&&'D&. . . . . . . . . . . . . . . . . . . . . . . . . . . . . . . . . ",
". . . . . . . . . . . . . . . . . . . . . . . . . . . . . . . . . . . . . . . . . . U,7'd'e'Z,Z,Z,Z,Z,Z,Z,Z,Z,Z,Z,Z,Z,Z,Z,Z,Z,Z,Z,Z,Z,Z,Z,Z,Z,Z,Z,Z,Z,Z,Z,Z,Z,Z,Z,Z,Z,e' 'k'l'. . . . . . . . . . . . . . . . . . . . . . . . . . . . . . . . . . . . . . . . . ",
". . . . . . . . . . . . . . . . . . . . . . . . . . . . . . . . . . . . . . . . . . U,7'd'e'Z,Z,Z,Z,Z,Z,Z,Z,Z,Z,Z,Z,Z,Z,Z,Z,Z,Z,Z,Z,Z,Z,Z,Z,Z,Z,Z,Z,Z,Z,Z,Z,Z,Z,Z,Z,Z,9'm'U,n'. . . . . . . . . . . . . . . . . . . . . . . . . . . . . . . . . . . . . . . . . ",
". . . . . . . . . . . . . . . . . . . . . . . . . . . . . . . . . . . . . . . . . . U,7'd'e'Z,Z,Z,Z,Z,Z,Z,Z,Z,Z,Z,Z,Z,Z,Z,Z,. . . . Z,Z,Z,Z,Z,Z,Z,Z,Z,Z,Z,Z,Z,Z,Z,Z,Z,9'm'U,o'. . . . . . . . . . . . . . . . . . . . . . . . . . . . . . . . . . . . . . . . . ",
". . . . . . . . . . . . . . . . . . . . . . . . . . . . . . . . . . . . . . . . . . U,7'd'e'Z,Z,Z,Z,Z,Z,Z,Z,Z,Z,Z,Z,Z,Z,Z,Z,. . . . Z,Z,Z,Z,Z,Z,Z,Z,Z,Z,Z,Z,Z,Z,Z,Z,Z,9'm'U,p'. . . . . . . . . . . . . . . . . . . . . . . . . . . . . . . . . . . . . . . . . ",
". . . . . . . . . . . . . . . . . . . . . . . . . . . . . . . . . . . . . . . . . . U,7'd'e'Z,Z,Z,Z,Z,Z,Z,Z,Z,Z,Z,Z,Z,Z,Z,Z,. . . . Z,Z,Z,Z,Z,Z,Z,Z,Z,Z,Z,Z,Z,Z,Z,Z,Z,9'm'U,p'. . . . . . . . . . . . . . . . . . . . . . . . . . . . . . . . . . . . . . . . . ",
". . . . . . . . . . . . . . . . . . . . . . . . . . . . . . . . . . . . . . . . . . U,7'd'e'Z,Z,Z,Z,Z,Z,Z,Z,Z,Z,Z,Z,Z,Z,Z,Z,. . . . Z,Z,Z,Z,Z,Z,Z,Z,Z,Z,Z,Z,Z,Z,Z,Z,Z,9'm'U,p'. . . . . . . . . . . . . . . . . . . . . . . . . . . . . . . . . . . . . . . . . ",
". . . . . . . . . . . . . . . . . . . . . . . . . . . . . . . . . . . . . . . . . . U,7'd'e'Z,Z,Z,Z,Z,Z,Z,Z,Z,Z,Z,Z,Z,Z,Z,Z,. . . . Z,Z,Z,Z,Z,Z,Z,Z,Z,Z,Z,Z,Z,Z,Z,Z,Z,9'm'U,p'. . . . . . . . . . . . . . . . . . . . . . . . . . . . . . . . . . . . . . . . . ",
". . . . . . . . . . . . . . . . . . . . . . . . . . . . . . . . . . . . . . . . . . U,7'd'e'Z,Z,Z,Z,Z,Z,Z,Z,Z,Z,Z,Z,Z,Z,Z,Z,. . . . Z,Z,Z,Z,Z,Z,Z,Z,Z,Z,Z,Z,Z,Z,Z,Z,Z,9'm'U,p'. . . . . . . . . . . . . . . . . . . . . . . . . . . . . . . . . . . . . . . . . ",
". . . . . . . . . . . . . . . . . . . . . . . . . . . . . . . . . . . . . . . . . . p'7'd'e'Z,Z,Z,Z,Z,Z,Z,Z,Z,Z,Z,Z,Z,Z,Z,Z,. . . . Z,Z,Z,Z,Z,Z,Z,Z,Z,Z,Z,Z,Z,Z,Z,Z,Z,9'm'U,q'. . . . . . . . . . . . . . . . . . . . . . . . . . . . . . . . . . . . . . . . . ",
". . . . . . . . . . . . . . . . . . . . . . . . . . . . . . . . . . . . . . . . . . <'7'{'r'9'Z,Z,Z,Z,Z,Z,Z,Z,Z,Z,Z,Z,Z,Z,Z,. . . . Z,Z,Z,Z,Z,Z,Z,Z,Z,Z,Z,Z,Z,Z,Z,Z,^'s'}'U,U,. . . . . . . . . . . . . . . . . . . . . . . . . . . . . . . . . . . . . . . . . ",
". . . . . . . . . . . . . . . . . . . . . . . . . . . . . . . . . . T T T T T T . . t'V,u'+']'`,Z,Z,Z,Z,Z,Z,Z,Z,Z,Z,Z,Z,Z,Z,. . . . Z,Z,Z,Z,Z,Z,Z,Z,Z,Z,Z,Z,Z,Z,Z,`,|'('v'U,w'. . x'T T T T T . . . . . . . . . . . . . . . . . . . . . . . . . . . . . . . . . ",
". . . . . . . . . . . . . . . . . . . . . . . . . . . . . . . . . . T T T T T T . . y'U,V,:'<'z'e'e'e'Z,Z,Z,Z,Z,Z,Z,Z,Z,Z,Z,. . . . Z,Z,Z,Z,Z,Z,Z,Z,Z,Z,Z,A'/'B'e'z'|'C'!'U,w'. . x'T T T T T T . . . . . . . . . . . . . . . . . . . . . . . . . . . . . . . . ",
". . . . . . . . . . . . . . . . . . . . . . . . . . . . . . . . . . T T T . T T . . y'U,U,*'~'D'{'E'F'}'^'Z,Z,Z,Z,Z,Z,Z,Z,Z,. . . . Z,Z,Z,Z,Z,Z,Z,Z,Z,Z,Z,9'G'H'{'D'('p'U,U,w'. . x'T T . T T . . . . . . . . . . . . . . . . . . . . . . . . . . . . . . . . . ",
". . . . . . . . . . . . . . . . . . . . . . . . . . . . . . . . . . T T . . T T . . I'J'J'y'K'L'M'N'K'O'P'Q'Q'Q'Q'Q'R'S'T'Z,. . . . Z,Z,A'/'U'V'Q'Q'Q'Q'Q'W'X'Y'M'L'Z'y'J'J'`'. .  )T . . T T . . . . . . . . . . . . . . . . . . . . . . . . . . . . . . . . . ",
". . . . . . . . . . . . . . . . . . . . . . . . . . . . . . . . . . T T . . . T . . .)+)+)+)+)+)+)@)#)$)%)$)$)$)$)$)&)*)=). . . . . Z,A'-);)>),)$)$)$)$)$)')))!)+)+)+)+)+)+)~). . {)T . . T T . . . . . . . . . . . . . . . . . . . . . . . . . . . . . . . . . ",
". . . . . . . . . . . . . . . . . . . . . . . . . . . . . . . . . . T T . . . . . . . ])])])])])])])^)/)()/)/)/)/)/)_). . . . . . . . . . . :)<)/)/)/)/)/)()[)])])])])])])])}). . . . . . T T . . . . . . . . . . . . . . . . . . . . . . . . . . . . . . . . . ",
". . . . . . . . . . . . . . . . . . . . . . . . . . . . . . . . . . T T . . . . . . T T T T T T T T T T T T T T T T |). . . . . . . . . . . 1)2)T T T T T T T T T T T T T T T . . . . . . T T . . . . . . . . . . . . . . . . . . . . . . . . . . . . . . . . . ",
". . . . . . . . . . . . . . . . . . . . . . . . . . . . . . . . . . T T T T T T T T T T T 3)4)5)A A A A A A A A A A 6). . . . . . . . . . . 7)A A A A A A 5)8)9)T T T T T T T T T T T T T T T T . . . . . . . . . . . . . . . . . . . . . . . . . . . . . . . . "};
