/* XPM */
static char * lutin1_xpm[] = {
"128 128 1134 2",
"  	c #0000FF",
". 	c #108A16",
"+ 	c #128B16",
"@ 	c #0B8816",
"# 	c #007E14",
"$ 	c #007F14",
"% 	c #007D14",
"& 	c #058615",
"* 	c #128C16",
"= 	c #068415",
"- 	c #289318",
"; 	c #A5C120",
"> 	c #A3C020",
", 	c #A0BF20",
"' 	c #AAC621",
") 	c #419C19",
"! 	c #068215",
"~ 	c #0F9C16",
"{ 	c #009313",
"] 	c #3AA919",
"^ 	c #FFE828",
"/ 	c #FFEC27",
"( 	c #FFFF29",
"_ 	c #FFEE28",
": 	c #FFF029",
"< 	c #66B61C",
"[ 	c #009113",
"} 	c #145117",
"| 	c #014216",
"1 	c #3A681A",
"2 	c #FBE826",
"3 	c #EBD724",
"4 	c #7F7A1E",
"5 	c #76721E",
"6 	c #7A761E",
"7 	c #75711E",
"8 	c #D7C723",
"9 	c #FFF428",
"0 	c #5F801C",
"a 	c #003D15",
"b 	c #1C111B",
"c 	c #03001A",
"d 	c #41341C",
"e 	c #FFF927",
"f 	c #E6D425",
"g 	c #000A18",
"h 	c #000017",
"i 	c #000118",
"j 	c #C0B323",
"k 	c #66571E",
"l 	c #000019",
"m 	c #1A0F19",
"n 	c #190D18",
"o 	c #121712",
"p 	c #121612",
"q 	c #010610",
"r 	c #353514",
"s 	c #F1E023",
"t 	c #D3C220",
"u 	c #181C12",
"v 	c #070D11",
"w 	c #0F1412",
"x 	c #060B11",
"y 	c #B4A61E",
"z 	c #FCF325",
"A 	c #575416",
"B 	c #00020F",
"C 	c #111511",
"D 	c #151B15",
"E 	c #192019",
"F 	c #181F18",
"G 	c #060006",
"H 	c #000003",
"I 	c #2B1B09",
"J 	c #F7D31F",
"K 	c #D2B21B",
"L 	c #0D0007",
"M 	c #000005",
"N 	c #040006",
"O 	c #B09418",
"P 	c #FFEE22",
"Q 	c #4F3B0D",
"R 	c #000002",
"S 	c #040003",
"T 	c #121112",
"U 	c #1D271D",
"V 	c #1A221A",
"W 	c #0A4C0D",
"X 	c #09220A",
"Y 	c #092A0B",
"Z 	c #03230A",
"` 	c #203E0D",
" .	c #9BAE19",
"..	c #859A17",
"+.	c #0D2D0C",
"@.	c #03240A",
"#.	c #08280B",
"$.	c #718815",
"%.	c #ADBE1B",
"&.	c #36520F",
"*.	c #032309",
"=.	c #082D0A",
"-.	c #0F1F10",
";.	c #151714",
">.	c #131813",
",.	c #131913",
"'.	c #0A6C0F",
").	c #096A0E",
"!.	c #09750F",
"~.	c #09780F",
"{.	c #09770F",
"].	c #0B780F",
"^.	c #05730F",
"/.	c #00600C",
"(.	c #00630D",
"_.	c #09760F",
":.	c #0A770F",
"<.	c #00660D",
"[.	c #005D0C",
"}.	c #02700E",
"|.	c #0A8B10",
"1.	c #082F09",
"2.	c #070005",
"3.	c #070007",
"4.	c #070006",
"5.	c #0B7110",
"6.	c #0B7411",
"7.	c #0B7310",
"8.	c #0B8111",
"9.	c #0A400C",
"0.	c #091409",
"a.	c #091D0A",
"b.	c #09170A",
"c.	c #092E0B",
"d.	c #096C0E",
"e.	c #0A6C0E",
"f.	c #08660D",
"g.	c #0D7C13",
"h.	c #119117",
"i.	c #108B16",
"j.	c #118F17",
"k.	c #0C7B12",
"l.	c #086D0E",
"m.	c #0A710F",
"n.	c #0A700F",
"o.	c #0A740F",
"p.	c #096F0F",
"q.	c #0A6B0E",
"r.	c #0D7E13",
"s.	c #118E17",
"t.	c #0C7C12",
"u.	c #0A6F0F",
"v.	c #0B7210",
"w.	c #0A6D0F",
"x.	c #0E8214",
"y.	c #118D17",
"z.	c #108916",
"A.	c #0A6E0F",
"B.	c #0A6D0E",
"C.	c #0E8414",
"D.	c #0F8414",
"E.	c #0F8B16",
"F.	c #0F8C16",
"G.	c #0F8715",
"H.	c #0F8815",
"I.	c #129018",
"J.	c #0E8E16",
"K.	c #0E8F16",
"L.	c #0F8D16",
"M.	c #0F8515",
"N.	c #0E8F17",
"O.	c #2A4910",
"P.	c #352F0E",
"Q.	c #31380F",
"R.	c #362C0E",
"S.	c #265411",
"T.	c #0C9517",
"U.	c #096B0E",
"V.	c #0B9517",
"W.	c #0B9617",
"X.	c #0A9717",
"Y.	c #099D18",
"Z.	c #32340E",
"`.	c #440D0B",
" +	c #3D1A0C",
".+	c #45090B",
"++	c #2C4410",
"@+	c #05A618",
"#+	c #0F8615",
"$+	c #128515",
"%+	c #2B4710",
"&+	c #2E4110",
"*+	c #2C4510",
"=+	c #2C4710",
"-+	c #3B220D",
";+	c #39250D",
">+	c #3B210D",
",+	c #35300E",
"'+	c #2B4910",
")+	c #2D4310",
"!+	c #2D4210",
"~+	c #157E15",
"{+	c #0D9217",
"]+	c #0E8114",
"^+	c #118816",
"/+	c #099C18",
"(+	c #099A17",
"_+	c #06A319",
":+	c #0D9016",
"<+	c #3D1B0C",
"[+	c #41110C",
"}+	c #3F180C",
"|+	c #40180D",
"1+	c #240D00",
"2+	c #190800",
"3+	c #1D0A00",
"4+	c #190600",
"5+	c #2A1600",
"6+	c #3D2B0F",
"7+	c #3B200D",
"8+	c #3F160C",
"9+	c #3F170C",
"0+	c #40150C",
"a+	c #40120C",
"b+	c #128415",
"c+	c #04A819",
"d+	c #089D18",
"e+	c #0D9117",
"f+	c #118716",
"g+	c #177914",
"h+	c #2A4A10",
"i+	c #275011",
"j+	c #265311",
"k+	c #294D10",
"l+	c #39260D",
"m+	c #3A230D",
"n+	c #38240C",
"o+	c #331F07",
"p+	c #877157",
"q+	c #A79075",
"r+	c #9C856A",
"s+	c #AA9579",
"t+	c #6F5A40",
"u+	c #291506",
"v+	c #39240D",
"w+	c #39230D",
"x+	c #265511",
"y+	c #1A7314",
"z+	c #0D9317",
"A+	c #108C16",
"B+	c #0A6B0F",
"C+	c #02AF19",
"D+	c #197314",
"E+	c #48090C",
"F+	c #3B1007",
"G+	c #200000",
"H+	c #240000",
"I+	c #3A270E",
"J+	c #37230B",
"K+	c #2D1901",
"L+	c #D8BFA3",
"M+	c #FFFEDF",
"N+	c #FFE8CA",
"O+	c #FFFFEC",
"P+	c #9A8369",
"Q+	c #000000",
"R+	c #1C0900",
"S+	c #220F00",
"T+	c #3D290F",
"U+	c #36220B",
"V+	c #1B0800",
"W+	c #3B280F",
"X+	c #3E180C",
"Y+	c #40130B",
"Z+	c #46020A",
"`+	c #245A11",
" @	c #099D17",
".@	c #108716",
"+@	c #09670E",
"@@	c #0D9116",
"#@	c #187714",
"$@	c #235A12",
"%@	c #2A4B10",
"&@	c #331706",
"*@	c #47331A",
"=@	c #937C62",
"-@	c #856F55",
";@	c #3B270F",
">@	c #352109",
",@	c #2F1B03",
"'@	c #C2AA8E",
")@	c #FAE0C2",
"!@	c #E6CDB0",
"~@	c #F3DBBE",
"{@	c #BCA589",
"]@	c #7B6552",
"^@	c #8A7459",
"/@	c #796349",
"(@	c #2D1A07",
"_@	c #402C14",
":@	c #8D775D",
"<@	c #8B745A",
"[@	c #402B13",
"}@	c #3F150C",
"|@	c #216112",
"1@	c #0A9A17",
"2@	c #0D7C12",
"3@	c #0D7A12",
"4@	c #4B020C",
"5@	c #361205",
"6@	c #040000",
"7@	c #4B371E",
"8@	c #FFFFFB",
"9@	c #FFF5D8",
"0@	c #412D14",
"a@	c #2D1A02",
"b@	c #200D00",
"c@	c #120000",
"d@	c #BDA589",
"e@	c #FDE3C5",
"f@	c #E2C9AC",
"g@	c #F3DABC",
"h@	c #FFEECD",
"i@	c #FFE9CB",
"j@	c #FFFFE0",
"k@	c #D9C0A3",
"l@	c #4C381E",
"m@	c #FFF2D4",
"n@	c #FFE9CC",
"o@	c #321E06",
"p@	c #100000",
"q@	c #43160E",
"r@	c #1E6A13",
"s@	c #02AE19",
"t@	c #370D08",
"u@	c #75634B",
"v@	c #806A4F",
"w@	c #B29A7F",
"x@	c #A0896F",
"y@	c #3A260E",
"z@	c #342008",
"A@	c #766046",
"B@	c #CFB79A",
"C@	c #F3D9BC",
"D@	c #49351C",
"E@	c #EAD1B4",
"F@	c #EAD0B3",
"G@	c #806A50",
"H@	c #776148",
"I@	c #7E684E",
"J@	c #351308",
"K@	c #1D6A13",
"L@	c #0D9017",
"M@	c #0C9317",
"N@	c #0A9917",
"O@	c #128616",
"P@	c #0E9017",
"Q@	c #04AA18",
"R@	c #1E6813",
"S@	c #270000",
"T@	c #735E44",
"U@	c #FFFFF2",
"V@	c #D6BDA0",
"W@	c #020000",
"X@	c #090000",
"Y@	c #271400",
"Z@	c #E4C9A9",
"`@	c #FFF2D1",
" #	c #FAE0C1",
".#	c #FCE3C2",
"+#	c #EDD4B6",
"@#	c #E3CAAD",
"##	c #E6CEB2",
"$#	c #E5CAAC",
"%#	c #E3C7A7",
"&#	c #EBD0B0",
"*#	c #FFFBD9",
"=#	c #CDB598",
"-#	c #070000",
";#	c #36230A",
">#	c #E4CBAE",
",#	c #EFD6B7",
"'#	c #FCE3C5",
")#	c #FFE6C9",
"!#	c #FEE5C7",
"~#	c #FFFBDC",
"{#	c #655036",
"]#	c #341404",
"^#	c #4B040C",
"/#	c #284F10",
"(#	c #1C6C13",
"_#	c #148115",
":#	c #177B14",
"<#	c #275311",
"[#	c #270300",
"}#	c #6C573D",
"|#	c #FDECCE",
"1#	c #D0B89B",
"2#	c #5D472E",
"3#	c #5E4A31",
"4#	c #5C462E",
"5#	c #624D34",
"6#	c #DDCAB4",
"7#	c #F7E3CD",
"8#	c #C8B298",
"9#	c #B59D87",
"0#	c #D9C0A4",
"a#	c #EBD2B5",
"b#	c #E5CBAD",
"c#	c #E9D2B8",
"d#	c #ECD9C2",
"e#	c #DDC8B0",
"f#	c #C4AC95",
"g#	c #AC957A",
"h#	c #503C2B",
"i#	c #6E593F",
"j#	c #E5CCAF",
"k#	c #F4DBBD",
"l#	c #887258",
"m#	c #55412F",
"n#	c #4A351D",
"o#	c #3A0F09",
"p#	c #255611",
"q#	c #099B18",
"r#	c #313A0E",
"s#	c #48000A",
"t#	c #1F6713",
"u#	c #00B81A",
"v#	c #255711",
"w#	c #211000",
"x#	c #F7DEC0",
"y#	c #E8CFB2",
"z#	c #F2D8B9",
"A#	c #F3D9BD",
"B#	c #FFFFFF",
"C#	c #5E4F3F",
"D#	c #050000",
"E#	c #A99278",
"F#	c #FFE6C8",
"G#	c #E2C4A2",
"H#	c #F2E5D7",
"I#	c #BBB5B0",
"J#	c #5B4730",
"K#	c #FFE5C6",
"L#	c #F4DABD",
"M#	c #E5CCB0",
"N#	c #F8DEBF",
"O#	c #F3DABD",
"P#	c #FFF5D7",
"Q#	c #235A11",
"R#	c #07A81A",
"S#	c #068D11",
"T#	c #008104",
"U#	c #02850C",
"V#	c #118B17",
"W#	c #2F3E0F",
"X#	c #440B0B",
"Y#	c #235C12",
"Z#	c #0A9A18",
"`#	c #285010",
" $	c #F8DFC1",
".$	c #E8CFB1",
"+$	c #E7CDAE",
"@$	c #FFFDFA",
"#$	c #665746",
"$$	c #AC967C",
"%$	c #FDE4C6",
"&$	c #E2C5A3",
"*$	c #F1E3D4",
"=$	c #BEB7B0",
"-$	c #110000",
";$	c #614D35",
">$	c #F2D8BB",
",$	c #E9D0B3",
"'$	c #E7CEB1",
")$	c #D4BC9F",
"!$	c #CCB49A",
"~$	c #E1C8AB",
"{$	c #FFECCE",
"]$	c #816B51",
"^$	c #240100",
"/$	c #0C8915",
"($	c #1D851C",
"_$	c #2D962E",
":$	c #239024",
"<$	c #0E8914",
"[$	c #0E9318",
"}$	c #283808",
"|$	c #330D00",
"1$	c #3B260E",
"2$	c #150300",
"3$	c #F9E0C2",
"4$	c #E6CDB1",
"5$	c #FFFCF9",
"6$	c #5E4F3D",
"7$	c #BAB3AC",
"8$	c #060000",
"9$	c #59452C",
"0$	c #F1D7BA",
"a$	c #ECD3B6",
"b$	c #554028",
"c$	c #130000",
"d$	c #BAA186",
"e$	c #FFFFEB",
"f$	c #846E54",
"g$	c #1E0B00",
"h$	c #765F46",
"i$	c #FFF0DE",
"j$	c #B0BC8A",
"k$	c #008409",
"l$	c #0F8A15",
"m$	c #128C19",
"n$	c #008C09",
"o$	c #27400B",
"p$	c #462418",
"q$	c #3D260F",
"r$	c #3A1F0C",
"s$	c #3C2810",
"t$	c #2B1808",
"u$	c #715C42",
"v$	c #6D5F4F",
"w$	c #1E0B0B",
"x$	c #B0997F",
"y$	c #C1BAB3",
"z$	c #1D0B0B",
"A$	c #68553E",
"B$	c #F0D5B8",
"C$	c #513C24",
"D$	c #0F0000",
"E$	c #AC947A",
"F$	c #F7F5D7",
"G$	c #7D674D",
"H$	c #3D2710",
"I$	c #291008",
"J$	c #836851",
"K$	c #FFF0E1",
"L$	c #B4BE8D",
"M$	c #CFC09E",
"N$	c #F4DEC6",
"O$	c #745E45",
"P$	c #200D01",
"Q$	c #7C664C",
"R$	c #F1DABD",
"S$	c #DEC6A9",
"T$	c #FDFBF9",
"U$	c #F6F6F6",
"V$	c #F1F0F1",
"W$	c #EADAC7",
"X$	c #E4C8A7",
"Y$	c #F1E4D5",
"Z$	c #FCFCFC",
"`$	c #F1EBE4",
" %	c #E6CBAC",
".%	c #E6CCAF",
"+%	c #533E26",
"@%	c #210E00",
"#%	c #412E16",
"$%	c #170400",
"%%	c #857055",
"&%	c #F1DCBE",
"*%	c #E1C7AB",
"=%	c #FFD9CA",
"-%	c #B3BD8C",
";%	c #FFDDCB",
">%	c #FFF3D3",
",%	c #180500",
"'%	c #856E54",
")%	c #EED5B7",
"!%	c #FCFBF8",
"~%	c #F2E3D1",
"{%	c #E0C4A3",
"]%	c #F1E3D5",
"^%	c #E4C9AA",
"/%	c #543F26",
"(%	c #241100",
"_%	c #281300",
":%	c #311D05",
"<%	c #170500",
"[%	c #907A5F",
"}%	c #FFF8D8",
"|%	c #EFD4B8",
"1%	c #FFD5C6",
"2%	c #E2CCAD",
"3%	c #D6BDA1",
"4%	c #DEC8AD",
"5%	c #040100",
"6%	c #FFE7CA",
"7%	c #E9D4BB",
"8%	c #EAD4BC",
"9%	c #E7D0B4",
"0%	c #E5CCAE",
"a%	c #E8D0B5",
"b%	c #E9D3B9",
"c%	c #E6CDAF",
"d%	c #D1B89C",
"e%	c #C9B196",
"f%	c #CCB498",
"g%	c #C8B096",
"h%	c #FFDAC8",
"i%	c #A1B87F",
"j%	c #268D1D",
"k%	c #289127",
"l%	c #F0D7BA",
"m%	c #FFFFE1",
"n%	c #8D775C",
"o%	c #776147",
"p%	c #E6CFB2",
"q%	c #E6CFB1",
"r%	c #E4C8A8",
"s%	c #E6CEB1",
"t%	c #E5CBAC",
"u%	c #F4DCBF",
"v%	c #F9E1C3",
"w%	c #F7DDC0",
"x%	c #EFD5B8",
"y%	c #FFD6C9",
"z%	c #83AE69",
"A%	c #007500",
"B%	c #02860D",
"C%	c #128B17",
"D%	c #EDD5B7",
"E%	c #CEB699",
"F%	c #A89681",
"G%	c #CBB296",
"H%	c #EDD5B8",
"I%	c #E5C9AC",
"J%	c #E5BFA2",
"K%	c #E5C1A4",
"L%	c #E5C0A3",
"M%	c #FBD5C3",
"N%	c #A9BA84",
"O%	c #F1D8BA",
"P%	c #FFE7C6",
"Q%	c #E3CCAF",
"R%	c #E5C7AA",
"S%	c #E3B598",
"T%	c #E3B79A",
"U%	c #E3B699",
"V%	c #E6CAAD",
"W%	c #E7CEB2",
"X%	c #E2C5A4",
"Y%	c #E6CBAE",
"Z%	c #E6D0B3",
"`%	c #FCD5C1",
" &	c #E5C6A9",
".&	c #EBD7C0",
"+&	c #F5EBE0",
"@&	c #F2E5D6",
"#&	c #E5CCAD",
"$&	c #E6D0B2",
"%&	c #E2C6A4",
"&&	c #E2C4A3",
"*&	c #DDBB94",
"=&	c #ECDBC6",
"-&	c #FDFAF7",
";&	c #E5C9AA",
">&	c #F1E4D4",
",&	c #F3E6D8",
"'&	c #F1E3D2",
")&	c #F7EFE5",
"!&	c #FAF4EE",
"~&	c #E5CAAB",
"{&	c #FDFAF8",
"]&	c #E5CAAA",
"^&	c #E9CFB2",
"/&	c #F3E8DA",
"(&	c #F5EADE",
"_&	c #FDFBF8",
":&	c #FCF8F4",
"<&	c #F4E9DC",
"[&	c #F2E4D5",
"}&	c #E2CAAE",
"|&	c #DFC7AB",
"1&	c #E3C5A4",
"2&	c #E1C19D",
"3&	c #FCF7F3",
"4&	c #F8F0E6",
"5&	c #DEBE97",
"6&	c #E3C7A6",
"7&	c #DCC4A9",
"8&	c #D3BEA3",
"9&	c #F4E9DD",
"0&	c #F8F1E9",
"a&	c #E3CAAE",
"b&	c #D8C2A7",
"c&	c #E4CAAB",
"d&	c #DAC3A9",
"e&	c #D6C0A5",
"f&	c #D9C2A7",
"g&	c #E4CBAF",
"h&	c #DBC4A9",
"i&	c #D8C1A6",
"j&	c #DAC3A8",
"k&	c #D8C2A6",
"l&	c #E7CDB0",
"m&	c #DAC2A7",
"n&	c #EFD1B6",
"o&	c #E8CEB1",
"p&	c #EACFB3",
"q&	c #E6CEB0",
"r&	c #D8C1A7",
"s&	c #D7C1A7",
"t&	c #EBCAB2",
"u&	c #E5C9AF",
"v&	c #D6C1A5",
"w&	c #E5CDB0",
"x&	c #E4CCAF",
"y&	c #FAD6BD",
"z&	c #4F834F",
"A&	c #0A6222",
"B&	c #2C7238",
"C&	c #2A7137",
"D&	c #C9B99C",
"E&	c #E1C5AB",
"F&	c #D7C0A6",
"G&	c #FBD8BE",
"H&	c #628C5B",
"I&	c #116527",
"J&	c #2B7138",
"K&	c #19692C",
"L&	c #15672A",
"M&	c #17682B",
"N&	c #005A18",
"O&	c #9DA981",
"P&	c #FFD8C1",
"Q&	c #E3CBAE",
"R&	c #FAD7BD",
"S&	c #296F36",
"T&	c #126527",
"U&	c #A7AF88",
"V&	c #FFDCC2",
"W&	c #2A7037",
"X&	c #297036",
"Y&	c #2B7438",
"Z&	c #30793D",
"`&	c #2F793C",
" *	c #2B7238",
".*	c #A6AE87",
"+*	c #FFDAC1",
"@*	c #2C7439",
"#*	c #307A3D",
"$*	c #2F773C",
"%*	c #136628",
"&*	c #076020",
"**	c #0B6223",
"=*	c #1A692D",
"-*	c #2E7139",
";*	c #276C34",
">*	c #348041",
",*	c #337F40",
"'*	c #0E6324",
")*	c #BBB894",
"!*	c #FFEEDB",
"~*	c #F4D4B9",
"{*	c #E2CBAD",
"]*	c #E5CDAF",
"^*	c #FFEAD5",
"/*	c #6B9061",
"(*	c #0D6324",
"_*	c #2D773A",
":*	c #348141",
"<*	c #327C3F",
"[*	c #216D32",
"}*	c #759668",
"|*	c #9CA980",
"1*	c #8FA378",
"2*	c #9DAA82",
"3*	c #5D8D59",
"4*	c #1E7031",
"5*	c #2E773B",
"6*	c #327D3F",
"7*	c #1F6B30",
"8*	c #638D5C",
"9*	c #7B996C",
"0*	c #B8B793",
"a*	c #F3D5BB",
"b*	c #EACFB2",
"c*	c #92A47A",
"d*	c #7F9B6E",
"e*	c #447D48",
"f*	c #1E6B30",
"g*	c #2D763A",
"h*	c #2E783B",
"i*	c #2A7237",
"j*	c #286E35",
"k*	c #16662A",
"l*	c #CDC09F",
"m*	c #FFE9D5",
"n*	c #FFDCC4",
"o*	c #FFEBDA",
"p*	c #99AC80",
"q*	c #10702A",
"r*	c #337E40",
"s*	c #2E733A",
"t*	c #16672A",
"u*	c #004C06",
"v*	c #94A57C",
"w*	c #FFF2E1",
"x*	c #F7D5BB",
"y*	c #E7CDB1",
"z*	c #FFDDC5",
"A*	c #FFE1CA",
"B*	c #36773F",
"C*	c #005310",
"D*	c #216D31",
"E*	c #2C7539",
"F*	c #338040",
"G*	c #296E36",
"H*	c #2C7639",
"I*	c #1E6F31",
"J*	c #B7B792",
"K*	c #FDD8BF",
"L*	c #FFDAC3",
"M*	c #89A476",
"N*	c #14702C",
"O*	c #648E5D",
"P*	c #95A77E",
"Q*	c #B9B793",
"R*	c #F1D4B9",
"S*	c #E3CCAE",
"T*	c #9DA980",
"U*	c #3C7A43",
"V*	c #327E3F",
"W*	c #276E34",
"X*	c #338140",
"Y*	c #267A39",
"Z*	c #B9BA94",
"`*	c #FCD7BE",
" =	c #FFDCC6",
".=	c #7C9E6E",
"+=	c #00631A",
"@=	c #19722F",
"#=	c #17712E",
"$=	c #1E7432",
"%=	c #337D40",
"&=	c #337D3F",
"*=	c #2F733A",
"==	c #7A976A",
"-=	c #FFEDDB",
";=	c #FFE0C8",
">=	c #F8D6BB",
",=	c #1E6B2F",
"'=	c #005817",
")=	c #256E34",
"!=	c #2D7339",
"~=	c #358242",
"{=	c #2E793B",
"]=	c #207233",
"^=	c #B7B892",
"/=	c #F7D6BD",
"(=	c #A7B189",
"_=	c #588E57",
":=	c #6C9763",
"<=	c #729967",
"[=	c #62925D",
"}=	c #307C3E",
"|=	c #317C3E",
"1=	c #156729",
"2=	c #648D5C",
"3=	c #BABA97",
"4=	c #A9AF89",
"5=	c #AFB38D",
"6=	c #A5AD86",
"7=	c #34763D",
"8=	c #216C31",
"9=	c #2C7339",
"0=	c #296E35",
"a=	c #166529",
"b=	c #005B1C",
"c=	c #B0B28D",
"d=	c #FFD9C1",
"e=	c #F1D2B7",
"f=	c #FFD8C0",
"g=	c #FDD7BE",
"h=	c #FED8BF",
"i=	c #FFE1CC",
"j=	c #DBC8A9",
"k=	c #2B7A3B",
"l=	c #2D7B3D",
"m=	c #2D7138",
"n=	c #106426",
"o=	c #136528",
"p=	c #126427",
"q=	c #146629",
"r=	c #276F35",
"s=	c #2B7037",
"t=	c #286D35",
"u=	c #2F783C",
"v=	c #2B7338",
"w=	c #317B3E",
"x=	c #4A804B",
"y=	c #467E49",
"z=	c #C0BA97",
"A=	c #F8D6BC",
"B=	c #F6D3BA",
"C=	c #C5BD9B",
"D=	c #2C7A3B",
"E=	c #2E7B3D",
"F=	c #297037",
"G=	c #2B7339",
"H=	c #2D753A",
"I=	c #2D7C3C",
"J=	c #2F7D3D",
"K=	c #D5C6A5",
"L=	c #FFDBC2",
"M=	c #E8CEB2",
"N=	c #E0C7AB",
"O=	c #D5BEA5",
"P=	c #D7C1A6",
"Q=	c #E8C7B1",
"R=	c #BBB594",
"S=	c #2C7B3B",
"T=	c #2F7C3D",
"U=	c #317D3E",
"V=	c #2D7B3C",
"W=	c #CFC3A2",
"X=	c #E1C8AC",
"Y=	c #EBCAB3",
"Z=	c #BDB796",
"`=	c #CDC2A0",
" -	c #F9D5BC",
".-	c #C7BF9D",
"+-	c #E0C7AC",
"@-	c #E8C8B1",
"#-	c #2E753B",
"$-	c #F7D3BA",
"%-	c #C5BD9C",
"&-	c #2E763B",
"*-	c #276D34",
"=-	c #307B3D",
"--	c #2C7B3C",
";-	c #DFCBAC",
">-	c #FBD6BD",
",-	c #FBD7BD",
"'-	c #FFE0CB",
")-	c #D9C7A9",
"!-	c #358342",
"~-	c #5D8B58",
"{-	c #698F5F",
"]-	c #689461",
"^-	c #6A9663",
"/-	c #6A9662",
"(-	c #709866",
"_-	c #60915C",
":-	c #358142",
"<-	c #347F41",
"[-	c #16692A",
"}-	c #0D6124",
"|-	c #186F2E",
"1-	c #1B7331",
"2-	c #1A7230",
"3-	c #266A33",
"4-	c #358042",
"5-	c #1F7438",
"6-	c #1E7337",
"7-	c #1D7136",
"8-	c #1D7236",
"9-	c #1E7236",
"0-	c #1B6F35",
"a-	c #1A6F35",
"b-	c #1A6F34",
"c-	c #1C7136",
"d-	c #1E7237",
"e-	c #1D7436",
"f-	c #16702D",
"g-	c #16712D",
"h-	c #17732E",
"i-	c #126829",
"j-	c #0E6225",
"k-	c #486A35",
"l-	c #476935",
"m-	c #486A36",
"n-	c #4F7039",
"o-	c #507139",
"p-	c #51713A",
"q-	c #4C6D37",
"r-	c #466835",
"s-	c #436530",
"t-	c #4F713D",
"u-	c #7C9F6E",
"v-	c #7B9D6D",
"w-	c #759667",
"x-	c #709063",
"y-	c #7E5C32",
"z-	c #7F5C33",
"A-	c #7A5930",
"B-	c #7D5B32",
"C-	c #936F3E",
"D-	c #96703E",
"E-	c #946F3E",
"F-	c #987340",
"G-	c #896438",
"H-	c #78562E",
"I-	c #725125",
"J-	c #916D46",
"K-	c #FFDDC6",
"L-	c #FFD9C2",
"M-	c #FFDBC3",
"N-	c #F9D3BB",
"O-	c #F2CDB7",
"P-	c #735F33",
"Q-	c #725E33",
"R-	c #746034",
"S-	c #786335",
"T-	c #796437",
"U-	c #856F3D",
"V-	c #87703D",
"W-	c #866F3D",
"X-	c #88713E",
"Y-	c #806939",
"Z-	c #776235",
"`-	c #766235",
" ;	c #685527",
".;	c #836E44",
"+;	c #E9D0B4",
"@;	c #DEC6AA",
"#;	c #6E5B31",
"$;	c #756134",
"%;	c #89723E",
"&;	c #87703E",
"*;	c #8C733F",
"=;	c #7F6939",
"-;	c #6D5B31",
";;	c #725E32",
">;	c #746033",
",;	c #756034",
"';	c #796436",
");	c #89713E",
"!;	c #806A3A",
"~;	c #725F33",
"{;	c #6F5B31",
"];	c #786336",
"^;	c #816B3A",
"/;	c #655225",
"(;	c #826D43",
"_;	c #735E33",
":;	c #7A6537",
"<;	c #826C3A",
"[;	c #695427",
"};	c #846F45",
"|;	c #705C31",
"1;	c #7B6637",
"2;	c #88713F",
"3;	c #7C6531",
"4;	c #937C4D",
"5;	c #ECD2B7",
"6;	c #EDD4B7",
"7;	c #8A7340",
"8;	c #7E6733",
"9;	c #947D4D",
"0;	c #ECD3B7",
"a;	c #EFD6BA",
"b;	c #89723F",
"c;	c #856F3E",
"d;	c #7D683D",
"e;	c #7A663B",
"f;	c #826C3B",
"g;	c #6A5629",
"h;	c #5F4C1E",
"i;	c #836D3C",
"j;	c #746135",
"k;	c #7C6738",
"l;	c #8C7541",
"m;	c #8B7440",
"n;	c #806837",
"o;	c #715D32",
"p;	c #786436",
"q;	c #816B3B",
"r;	c #826B3B",
"s;	c #846E3C",
"t;	c #806B3A",
"u;	c #7E6839",
"v;	c #766134",
"w;	c #192018",
"x;	c #836A37",
"y;	c #6E5A30",
"z;	c #8B733F",
"A;	c #6E5C30",
"B;	c #786234",
"C;	c #121B16",
"D;	c #826937",
"E;	c #846D3C",
"F;	c #7E6939",
"G;	c #715E32",
"H;	c #776234",
"I;	c #111A16",
"J;	c #8B6F3A",
"K;	c #7A6435",
"L;	c #7B6435",
"M;	c #796335",
"N;	c #7B6436",
"O;	c #8E7540",
"P;	c #907740",
"Q;	c #8F7540",
"R;	c #8A723E",
"S;	c #856E3D",
"T;	c #907640",
"U;	c #927942",
"V;	c #856C3A",
"W;	c #766032",
"X;	c #7F6736",
"Y;	c #101A16",
"Z;	c #6A5930",
"`;	c #6A5830",
" >	c #69572F",
".>	c #6A5931",
"+>	c #7A6739",
"@>	c #7C6839",
"#>	c #7B6739",
"$>	c #776438",
"%>	c #927741",
"&>	c #806A3B",
"*>	c #796538",
"=>	c #7E6A3B",
"->	c #736035",
";>	c #67562E",
">>	c #0D1714",
",>	c #131C16",
"'>	c #161D17",
")>	c #141C17",
"!>	c #141C16",
"~>	c #0C1814",
"{>	c #181E18",
"]>	c #181D18",
"^>	c #191F18",
"/>	c #1A1819",
"(>	c #191618",
"_>	c #181A18",
":>	c #181B18",
"<>	c #191018",
"[>	c #181318",
"}>	c #191718",
"|>	c #181C18",
"1>	c #182018",
"                                                                                          . . . . . . . . . . . . . . . . . . . . . . . . . . . . . . . . . . . .                                                                                               ",
"                                                                                          . . . . . . . . . . . . . . . . . . . . . . . . . . . . . . . . . . . .                                                                                               ",
"                                                                                          . . . . . . . . . . . . . . . . . . . . . . . . . . . . . . . . . . . .                                                                                               ",
"                                                                                          . . . . . . . . . . . . . . . . . . . . . . . . . . . . . . . . . . . .                                                                                               ",
"                                                                                          . . . . . . . . . . . . . . . . . . . . . . . . . . . . . . . . . . . .                                                                                               ",
"                                                                                          . . . . . . . . . . . . . . . . . . . . . . . . . . . . . . . . . . . .                                                                                               ",
"                                                                                          . . + @ # # $ $ $ $ $ % & * . . . . . . . . . . . . . . . . . . . . . .                                                                                               ",
"                                                                                          . . = - ; > , , , , , ' ) ! . . . . . . . . . . . . . . . . . . . . . .                                                                                               ",
"                                                                                          ~ ~ { ] ^ / ( ( ( ( _ : < [ ~ ~ ~ ~ ~ ~ ~ ~ ~ ~ ~ ~ ~ ~ ~ ~ ~ ~ ~ ~ ~ ~                                                                                               ",
"                                                                                          } } | 1 2 3 4 5 6 7 8 9 0 a } } } } } } } } } } } } } } } } } } } } } }                                                                                               ",
"                                                                                          b b c d e f g h i h j ( k l b b b b b b b b b b b b b b b b b m n n n n                                                                                               ",
"                                                                                          o p q r s t u v w x y z A B p p p p p p p p p p p p p p p p C D E F F F                                                                                               ",
"                                                                                          G G H I J K L M N M O P Q R G G G G G G G G G G G G G G G G S T U V V V                                                                                               ",
"                                                                                        W X Y Z `  ...+.@.#.Z $.%.&.*.Y Y Y Y Y Y Y Y Y Y Y Y Y Y Y Y =.-.;.>.,.>.                                                                                              ",
"                                                                                    '.).!.~.{.].^./.(._.].:.].<.[.}.].{.{.{.{.{.{.{.{.{.{.{.{.{.{.{.{.|.1.2.3.3.4.                                                                                              ",
"                                                                                    5.6.7.7.7.7.7.7.7.7.7.7.7.7.7.7.7.7.7.7.7.7.7.7.7.7.7.7.7.7.7.7.7.8.9.0.a.b.c.                                                                                              ",
"                                                                            '.d.e.f.g.h.i.i.i.i.i.i.i.i.i.i.i.i.i.i.i.i.i.i.i.i.i.i.i.i.i.i.i.i.i.i.i.j.k.l.m.n.o.p.q.                                                                                          ",
"                                                                            n.5.5.'.r.j.. . . . . . . . . . . . . . . . . . . . . . . . . . . . . . . s.t.u.v.v.v.5.n.                                                                                          ",
"                                                                        w.q.x.y.. z.. . . . . . . . . . . . . . . . . . . . . . . . . . . . . . . . . . . z.. . . y.x.q.w.                                                                                      ",
"                                                                        A.B.C.s.i.i.i.. . . . . . . . . . . . . . . . . . . . . . . . . . . . . . . . . i.i.i.i.i.s.C.e.A.                                                                                      ",
"                                                                    w.A.D.. z.. . . . . . . . . . . . . . . . E.F.F.F.F.F.F.F.i.. . . . . . . . . . . . . . . . . . z.G..                                                                                       ",
"                                                                    '.w.H.I.i.. . . . . . . . . . . . . . . . J.K.K.K.K.K.K.K.L.z.. . . . . . . . . . . . . . . . . i.y.y.                                                                                      ",
"                                                                    M.M.z.i.. . . . . . . . . . . . . . . E.N.O.P.Q.Q.Q.Q.Q.R.S.T.. . . . . . . . . . . . . . . . . . y.M.U.w.                                                                                  ",
"                                                                    y.y.. . . . . . . . . . . . . z.i.V.W.X.Y.Z.`. + + + + +.+++@+W.W.W.W.W.W.W.F.z.. . . . . . . . . y.#+U.).                                                                                  ",
"                                                                    . . . . . . . . . . . . . . . N.$+%+&+*+=+R.-+;+;+;+;+;+>+,+'+*+*+*+*+*+)+!+~+{+. . . . . . . . . i.z.]+]+                                                                                  ",
"                                                                    . . . . . . . . . . . ^+K./+(+_+:+<+[+}+|+1+2+3+3+3+4+5+6+7+8+9+9+9+9+9+0+a+b+c+(+d+e+f+. . . . . . i.s.h.                                                                                  ",
"                                                                    . . . . . . . . . . . e+g+h+i+j+k+l+m+n+o+p+q+r+r+r+s+t+u+;+;+;+;+;+;+;+v+w+O.x+i+%+y+z+. . . . . . . A+z.B.B+                                                                              ",
"                                                                    . . . . . . . . . f+e+C+D+E+F+G+H+n+I+J+K+L+M+N+N+N+O+P+Q+R+4+S+T+U+V+R+J+W+X+Y+0+Z+`+ @. . . . . . . A+.@).+@                                                                              ",
"                                                                    . . . . . . . . . @@#@$@%@&@*@=@-@;@>@J+,@'@)@!@!@!@~@{@]@^@=@/@(@_@:@<@[@o+;+;+;+}@|@1@. . . . . . . i.z.2@3@                                                                              ",
"                                                                    . . . . . . . . .  @`+4@5@6@7@8@9@0@a@b@c@d@e@!@!@!@f@g@h@i@j@k@R+l@m@n@o@p@b@3+o@q@r@s@{+^+. . . . . . . s.j.                                                                              ",
"                                                                    . . . . . . . . . 1@|@t@7@u@v@w@x@y@z@t+A@B@C@!@!@!@!@!@!@!@)@'@b@D@E@F@G@t+H@I@7@J@%@K@#@L@. . . . . . . . .                                                                               ",
"                                                                    . . . z.M@N@J.O@P@Q@R@S@T@U@V@W@X@V+Y@Z@`@ #.#+#@#!@##$#%#&#*#=#-#;#>#,#'#)#!#~#{#6@]#^#/#d+. . . . . . . . .                                                                               ",
"                                                                    . . . F.g+(#_#e+~+:#<#[#}#|#1#2#3#4#5#6#7#8#9#0#a#!@b#c#d#e#f#g#h#i#j#a#!@!@!@k#l#m#n#o#p#q#. . . . . . . . .                                                                               ",
"                                                                    . . i.z+r#s#t#u#v#.+>+w#}#x#y#g@C@z#A#B#B#C#D#E#F#!@G#H#B#I#W@J#K#L#!@M#!@j#g@N#O#P#-@H+Q#R#S#T#U#V#. . . . .                                                                               ",
"                                                                    . . i.{+W#X#Y#Z#`#0+v+S+}# $!@y#.$+$y#@$B##$c@$$%$!@&$*$B#=$-$;$>$,$!@!@!@'$)$!$~${$]$^$i+/$($_$:$<$. . . . .                                                                               ",
"                                                                        i.[$}$|$>@1$;+I+>@2${#3$!@!@!@b#4$5$B#6$-#E#F#!@&$*$B#7$8$9$0$y#!@!@F@a$b$c$d$e$f$g$z@c@h$i$j$k$l$. .                                                                                   ",
"                                                                        m$n$o$p$q$r$m+n+s$t$u$x#!@!@!@b#4$5$B#v$w$x$'#!@&$*$B#y$z$A$B$y#!@!@F@a$C$D$E$F$G$g$H$I$J$K$L$k$l$. .                                                                                   ",
"                                                                            M$N$O$V+J+P$Q$R$S$'$!@!@!@b#4$T$B#U$V$W$X$!@&$Y$B#Z$V$`$ %.%!@!@F@a$+%@%s$#%;+$%%%&%*%=%-%k$l$. .                                                                                   ",
"                                                                            ;%>%G$,%J+3+'%P#)%j#!@!@!@b#4$!%B#B#B#~%{%!@&$]%B#B#B#8@^%.%!@!@F@a$/%(%a@_%:%<%[%}%|%1%-%k$l$. .                                                                                   ",
"                                                                            2%E@3%4%G@5%G@6%!@!@!@!@!@!@!@7%8%8%8%9%0%!@0%a%8%8%8%b%c%!@!@!@'$'$d%e%f%f%f%g%k@h%i%j%k%<$.                                                                                       ",
"                                                                            !@>#l%m%n%Q+o%n@!@p%p%p%p%p%q%Z@r%r%r%b#s%!@s%t%r%r%r%^%!@!@p%p%s%s%u%v%x#w%w% #x%y%z%A%B%C%.                                                                                       ",
"                                                                                !@D%E%F%G%H%I%J%K%K%K%L%K%.%s%!@!@!@!@!@!@!@!@!@!@!@s%.%K%L%K%K%K%J%I%s%!@!@!@M%N%                                                                                              ",
"                                                                                !@@#O%P%C@Q%R%S%T%T%T%U%T%V%s%!@!@!@!@!@!@!@W%$#X%%#p%Y%T%U%T%T%T%S%R%Z%!@!@!@!@`%                                                                                              ",
"                                                                                    !@!@!@s%Y% & & & & & &.%!@!@!@!@!@!@!@!@Z@.&+&@&#&.% & & & & & &Y%s%!@!@!@                                                                                                  ",
"                                                                                    !@!@!@!@s%Z%Z%Z%Z%Z%$&%&&&&$&$&$&$&$&$&$*&=&B#-&;&.%Z%Z%Z%Z%Z%Z%s%!@!@!@                                                                                                    ",
"                                                                                      !@!@!@!@!@!@!@!@0%4$>&,&,&,&,&,&,&,&,&'&)&B#!&~&.%!@!@!@!@!@!@!@!@!@!@!@                                                                                                  ",
"                                                                                          !@!@!@!@!@!@$#4$B#B#B#B#B#B#B#B#B#B#B#B#{&]&.%!@!@!@!@!@!@'$^&'$!@!@                                                                                                  ",
"                                                                                          !@!@!@!@!@!@0%4$/&(&_&B#B#B#B#B#B#B#:&<&[&b#.%!@!@!@!@!@!@}&|&j#.$                                                                                                    ",
"                                                                                          !@!@!@!@!@!@!@!@1&2&3&B#B#B#B#B#B#B#4&5&6&4$!@!@!@!@!@'$,$7&8&                                                                                                        ",
"                                                                                          !@!@!@!@!@!@!@!@.%t%9&0&0&0&0&0&0&0&@&Z@!@!@!@!@!@!@!@a&a&7&b&                                                                                                        ",
"                                                                                              !@!@!@!@!@!@!@!@^%r%r%r%r%r%r%r%c&s%!@!@!@!@!@'$'$d&e&f&f&                                                                                                        ",
"                                                                                              !@!@!@!@!@!@!@!@!@!@!@!@!@!@!@!@!@!@!@!@!@!@!@g&>#h&i&f&f&                                                                                                        ",
"                                                                                                  !@!@!@!@!@!@!@!@!@!@!@!@!@!@!@!@!@!@!@.$'$j&i&f&f&                                                                                                            ",
"                                                                                                  !@!@!@!@!@!@!@!@!@!@!@!@!@!@!@!@!@!@!@c%j#j&i&f&k&                                                                                                            ",
"                                                                                                          !@!@!@!@!@l&!@!@!@!@!@!@!@'$j#m&b&f&b&f&f&                                                                                                            ",
"                                                                                                          n&o&p&p&q&!@!@!@!@!@!@!@!@'$j#r&s&f&f&f&t&                                                                                                            ",
"                                                                                                                  u&v&j&j&j&j&j&j&j&j&j&r&f&>#w&x&y&z&A&B&C&                                                                                                    ",
"                                                                                                                  D&E&F&F&F&F&F&F&F&F&F&F&i&!@y#'$G&H&I&C&C&C&                                                                                                  ",
"                                                                                              C&C&C&C&J&C&K&L&M&N&O&P&Q&Q&Q&Q&Q&Q&Q&Q&Q&a&Q&!@!@!@R&H&I&C&C&C&C&C&C&C&C&C&                                                                                      ",
"                                                                                              S&S&S&S&S&S&C&C&C&T&U&V&o&o&o&o&o&o&o&o&o&o&o&!@!@!@R&H&I&C&C&C&C&W&S&S&S&X&                                                                                      ",
"                                                                              C&C&C&C&C&C&X&Y&Z&`&`&`&`&`& *X&C&T&.*+*!@!@!@!@!@!@!@!@!@!@!@!@!@!@R&H&I&C&C&C&X&@*#*`&Z&$*C&C&                                                                                  ",
"                                                                            %*&***&*=*-*S&;*Y&>*,*,*,*,*,* *X&C&'*)*!*~*{*!@!@!@!@!@!@!@!@!@w&]*+*^*/*(*C&C&C&S&_*:*,*>*<*S&S&                                                                                  ",
"                                                            C&C&C&C&C&C&X&[*}*|*1*2*3*4*5*5*`&6*6*6*6*6*6* *X&C&7*8*9*0*a*!@!@!@!@!@!@!@!@!@o&b*c*d*e*f*C&C&C&S&g*,*6*6*<*h*5*i*W&                                                                              ",
"                                                            C&C&S&S&S&S&j*k*l*m*n*o*p*q*,*,*r*6*6*6*6*6*6* *X&C&s*t*u*v*w*x*{*!@!@!@!@!@j#y*z*A*B*C*D*s*C&C&X&;*E*,*6*6*6*F*r*X&G*                                                                              ",
"                                                          C&C&i*g*g*g*g*H*I*J*K*!@L*M*N*6*6*6*6*6*6*6*6*6* *X&C&C&C&K&O*P*Q*R*!@!@!@!@!@p&S*T*c*U*7*C&C&C&W&@*g*`&r*6*6*6*V*<*_*g*i*                                                                            ",
"                                                        C&C&W*i*:*:*:*:*X*Y*Z*`*!@ =.=+=@=@=@=#=$=%=&=6*6*W&j*C&C&C&*=K&u*==-=+*+*+*+*+*;=>=,='=)=!=C&C&X&;*5*~=r*6*6*6*6*6*6*,*,*i*W*                                                                          ",
"                                                        C& *E*g*`&`&`&`&{=]=^=`*!@/=(=_=:=:=:=<=[=}=|=6*6*g*E* *C&C&C&C&1=2=3=4=4=4=4=4=5=6=7=8=C&C&C&W&9=@*`&r*6*6*6*6*6*6*6*6*6*g*E*                                                                          ",
"                                                        j*9=:*<*j*j*0=j*a=b=c=d=!@Q&e=f=g=h=h=i=j=k=l=6*6*r*F*9=j*X&X&X&m=7*n=o=p=p=p=p=T&q=r=s=X&X&X&t=u=:*V*6*6*6*6*6*6*6*6*6*6*r*>*9=j*                                                                      ",
"                                                       *v=g*,*w=9=9=v=v=x=y=z=A=!@!@!@!@j#a&>#B=C=D=E=6*6*6*V*g*v=9=9=9=@* *F= *@*G=@*v=C&C&v=@*9=9=9= *Z&,*6*6*6*6*6*6*6*6*6*6*6*6*r*g*v= *                                                                    ",
"                                                    S&H=>*6*6*6*V*V*I=J=K=L=M=j#!@!@!@.$N=O=P=Q=R=S=T=6*6*6*6*6*V*V*V*V*F*h*t=H=F*V*,*U=W&C&U=,*V*V*V*V*6*6*6*6*6*6*6*6*6*6*6*6*6*6*6*6*>*H=S&C&                                                                ",
"                                                    S&H=,*6*6*6*6*6*V=T=W=R&l&!@!@!@!@.$X=r&j&Y=Z=S=T=6*6*6*6*6*6*6*6*6*,*h*t=H=,*6*r*|=W&C&|=r*6*6*6*6*6*6*6*6*6*6*6*6*6*6*6*6*6*6*6*6*,*H=S&                                                                  ",
"                                                    S&H=,*6*6*6*6*6*V=T=`=x*!@!@!@!@!@!@!@!@!@ -.-D=E=6*6*6*6*6*6*6*6*6*F*h*t=H=,*6*r*|=W&C&|=r*6*6*6*6*6*6*6*6*6*6*6*6*6*6*6*6*6*6*6*6*,*H=S&                                                                  ",
"                                                    S&H=,*6*6*6*6*6*V=T=`=x*!@!@!@!@!@!@!@!@!@ -.-D=E=6*6*6*6*6*6*6*6*6*,*h*t=H=,*6*r*|=W&C&|=r*6*6*6*6*6*6*6*6*6*6*6*6*6*6*6*6*6*6*6*6*,*H=S&                                                                  ",
"                                                    S&H=,*6*6*6*6*6*V=T=`=x*!@!@!@!@!@.$X=r&j&Y=Z=S=T=6*6*6*6*6*6*6*,*5*W&i*S&H=,*6*r*|=W&C&|=r*6*6*6*6*6*6*6*6*6*6*6*6*6*6*6*6*6*6*6*6*,*H=S&                                                                  ",
"                                                    S&H=,*6*6*6*6*6*V=T=`=x*!@!@!@!@!@.$+-O=P=@-R=S=T=6*6*6*6*6*6*6*,*#-j*W&G*H=,*6*r*|=W&C&|=,*6*6*6*6*6*6*6*6*6*6*6*V*6*6*6*6*6*6*6*6*,*H=S&                                                                  ",
"                                                    S&H=,*6*6*6*6*6*V=T=`=x*!@!@!@!@!@l&j#>#g&$-%-D=E=6*6*6*6*6*6*6*,*&-*-H=|=|=6*6*r*|=C&C&v=9=w=r*6*6*6*6*6*6*6*r*=- *E*6*6*6*6*6*6*6*,*H=S&                                                                  ",
"                                                    S&H=,*6*6*6*6*6*--T=;-A*>-y&y&y&y&y&,-`*`*'-)-k=l=6*6*6*6*6*6*6*,*&-*-$*!-,*6*6*r*|=X&X&X&X&w=r*6*6*6*6*6*6*6*r*#*j*i*6*6*6*6*6*6*6*,*H=S&                                                                  ",
"                                                    S&H=,*6*6*6*6*6*}=U=~-{-]-^-/-/-/-/-/-/-/-(-_-}=|=6*6*6*6*6*6*6*,*&-j*v=@*$*r*6*6*6*#*Z&i*X&w=r*6*6*6*6*6*6*6*r*#*S&v=6*6*6*6*6*6*6*,*H=S&                                                                  ",
"                                                    S&g*:-r*6*6*,*,*<-<-[-}-|-1-2-2-2-2-2-2-2-#=$=%=&=6*6*6*6*6*6*6*,*H=t=S&t=@*,*6*6*6*F*,*i*X&w=r*6*6*6*6*6*6*6*r*#*S&v=6*6*6*6*6*6*6*,*H=S&                                                                  ",
"                                                      v=g*u=r*|=g*g*g*g*i*X&#*r*6*6*6*6*6*6*6*6*6*6*6*6*6*6*6*6*6*6*V*#*u=E*j*H=,*6*6*6*V*6*i*X&w=r*6*6*6*6*6*6*6*r*#*S&v=6*6*6*6*6*6*6*,*H=S&                                                                  ",
"                                                        *-v=~=<*S&S&S&S&C&X&w=>*,*,*r*6*6*6*6*6*6*6*6*6*6*6*6*6*6*6*6*r*~=h*3-@*,*6*6*6*V*6*X&j*w=r*6*6*6*6*6*6*6*r*#*S&v=6*6*6*6*6*6*6*,*H=S&                                                                  ",
"                                                        X&v=u=&-C&C&C&C&C&X&g*u=5*&-#*V*6*6*6*6*6*6*6*6*6*6*6*6*6*6*6*6*r*#*H=`&r*6*6*6*V*6*5*g*|=r*6*6*6*6*6*6*6*r*#*S&v=6*6*6*6*6*6*6*,*H=S&                                                                  ",
"                                                            S&S&C&C&C&C&C&C&X&S&S&;*5*~=r*6*6*6*6*6*6*6*6*6*6*6*6*6*6*6*6*r*>*r*6*6*6*6*6*6*,*,*6*6*6*6*6*6*6*6*6*r*#*S&v=6*6*6*6*6*6*6*,*H=S&                                                                  ",
"                                                            C&C&C&C&C&C&C&C&C&C&C&X&H=`&#*V*6*6*6*6*6*6*6*6*6*6*6*6*6*6*6*6*6*6*6*6*6*6*6*6*6*6*6*6*6*6*6*6*6*6*6*r*#*S&v=6*6*6*6*6*6*6*,*H=S&                                                                  ",
"                                                                                      t=E*,*6*6*6*6*6*6*6*6*6*6*6*6*6*6*6*6*6*6*6*6*6*6*6*6*6*6*6*6*6*6*6*6*6*6*6*r*#*S&v=6*6*6*6*6*6*6*,*H=S&                                                                  ",
"                                                                                    C&S&g*,*6*6*6*6*6*6*6*6*6*6*6*6*6*6*6*6*6*6*6*6*6*6*6*6*6*6*6*6*6*6*6*6*6*6*6*r*#*S&v=6*6*6*6*6*6*6*,*H=S&                                                                  ",
"                                                                                    C&S&g*,*6*6*6*6*6*6*6*6*6*6*6*6*6*6*6*6*6*6*6*6*6*6*6*6*6*6*6*6*6*6*6*6*6*6*6*r*#*S&v=6*6*6*6*6*6*6*,*H=S&                                                                  ",
"                                                                                    C&S&g*,*6*6*6*6*6*6*6*6*6*6*6*6*6*6*6*6*6*6*6*6*6*6*6*6*6*6*6*6*6*6*6*6*6*6*6*r*#*S&v=6*6*6*6*6*6*6*,*H=S&                                                                  ",
"                                                                                    C&S&g*,*6*6*6*6*6*6*6*6*6*6*6*6*6*6*6*6*6*6*6*6*6*6*6*6*6*6*6*6*6*6*6*6*6*6*6*r*#*S&v=6*6*6*6*6*6*6*,*H=S&                                                                  ",
"                                                                                    C&S&g*,*6*6*6*6*6*6*6*6*6*6*6*6*6*6*6*6*6*6*6*6*6*6*6*6*6*6*6*6*6*6*6*6*6*6*6*r*#*S&v=6*6*6*6*6*6*6*,*H=S&                                                                  ",
"                                                                                    C&S&g*,*6*6*6*6*6*6*6*6*6*6*6*6*6*6*6*6*6*6*6*6*6*6*6*6*6*6*6*6*6*6*6*6*6*6*6*r*#*S&v=6*6*6*6*6*6*6*,*H=S&                                                                  ",
"                                                                                    C&S&g*,*6*6*6*6*6*6*6*6*6*6*6*6*6*6*6*6*6*6*6*6*6*6*6*6*6*6*6*6*6*6*6*6*6*6*6*r*#*S&v=6*6*6*6*6*6*6*,*H=S&                                                                  ",
"                                                                                    C&S&g*,*6*6*6*6*6*6*6*6*6*6*6*6*6*6*6*6*6*6*6*6*6*6*6*6*6*6*6*6*6*6*6*6*6*6*6*r*#*S&v=6*6*6*6*6*6*6*,*H=S&                                                                  ",
"                                                                                    C&S&g*,*6*6*6*6*6*6*6*6*6*6*6*6*6*6*6*6*6*6*6*6*6*6*6*6*6*6*6*6*6*6*6*6*6*6*6*r*#*S&v=6*6*6*6*6*6*6*,*H=S&                                                                  ",
"                                                                                    C&S&g*,*6*6*6*6*6*6*6*6*6*6*6*6*6*6*6*6*6*6*6*6*6*6*6*6*6*6*6*6*6*6*6*6*6*6*6*r*#*S&v=6*6*6*6*6*6*6*,*H=S&                                                                  ",
"                                                                                    C&S&g*,*6*6*6*6*6*6*6*6*6*6*6*6*6*6*6*6*6*6*6*6*6*6*6*6*6*6*6*6*6*6*6*6*6*6*6*r*#*S&v=6*6*6*6*6*6*6*,*H=S&                                                                  ",
"                                                                                    C&S&g*,*6*6*6*6*6*6*6*6*6*6*6*6*6*6*6*6*6*6*6*6*6*6*6*6*6*6*6*6*6*6*6*6*6*6*6*r*#*S&v=6*6*6*6*6*6*6*,*H=S&                                                                  ",
"                                                                                    C&S&5*:-,*,*,*,*,*,*,*,*,*,*,*,*,*,*,*,*,*,*,*,*,*,*,*,*,*,*,*,*,*,*,*,*,*,*,*4-|=S&v=6*6*6*6*6*6*6*,*H=S&                                                                  ",
"                                                                                    C&W&v=h*5*5*5*5*5*5*5*5*5*5*5*5*5*5*5*5*5*5*5*5*5*5*5*5*5*5*5*5*5*5*5*5*5*5*5*5*H=X&v=6*6*6*6*6*6*6*,*H=S&                                                                  ",
"                                                                                    5-5-6-7-8-8-8-9-8-0-a-a-a-a-a-a-a-a-a-a-a-a-a-a-a-a-a-a-a-a-a-a-a-a-a-b-c-d-8-8-d-5-e-f-f-g-g-g-g-g-h-i-j-                                                                  ",
"                                                                                    k-k-k-k-k-k-k-l-m-n-o-n-n-n-n-n-n-n-n-n-n-n-n-n-n-n-n-n-n-n-n-n-n-n-n-p-q-r-k-k-k-s-t-.=u-v-v-v-v-v-u-w-x-                                                                  ",
"                                                                                    y-y-y-y-y-z-y-A-B-C-D-E-E-E-E-E-E-E-E-E-E-E-E-E-E-E-E-E-E-E-E-E-E-E-E-F-G-H-B-z-y-I-J-n*K-L-L-L-L-L-M-N-O-                                                                  ",
"                                                                                    P-P-P-P-P-Q-R-S-T-U-V-W-W-W-W-W-W-W-W-W-W-W-W-W-W-W-W-W-W-W-W-W-W-W-W-X-Y-Z-`-Q-P- ;.;y#+;!@!@!@!@!@.$@;F&                                                                  ",
"                                                                                    P-P-P-P-Q-#;$;%;X-W-W-W-W-W-W-W-W-W-W-W-W-W-W-W-W-W-W-W-W-W-W-W-W-W-W-W-&;*;=;-;;; ;.;y#+;!@!@!@!@!@.$@;F&                                                                  ",
"                                                                                    P-P-P-P->;,;';V-W-W-W-W-W-W-W-W-W-W-W-W-W-W-W-W-W-W-W-W-W-W-W-W-W-W-W-W-W-);!;R-$; ;.;y#+;!@!@!@!@!@.$@;F&                                                                  ",
"                                                                                    P-P-~;{;];%;W-W-W-W-W-W-W-W-W-W-W-W-W-W-W-W-W-W-W-W-W-W-W-W-W-W-W-W-W-W-W-W-W-%;^;/;(;y#+;!@!@!@!@!@.$@;F&                                                                  ",
"                                                                                    P-P->;_;:;X-W-W-W-W-W-W-W-W-W-W-W-W-W-W-W-W-W-W-W-W-W-W-W-W-W-W-W-W-W-W-W-W-W-X-<;[;};y#+;!@!@!@!@!@.$@;F&                                                                  ",
"                                                                                    P-|;1;2;W-W-W-W-W-W-W-W-W-W-W-W-W-W-W-W-W-W-W-W-W-W-W-W-W-W-W-W-W-W-W-W-W-W-W-W-W-3;4;5;6;!@!@!@!@!@.$@;F&                                                                  ",
"                                                                                    P-|;1;7;V-W-W-W-W-W-W-W-W-W-W-W-W-W-W-W-W-W-W-W-W-W-W-W-W-W-W-W-W-W-W-W-W-W-W-W-W-8;9;!@0;a;j#!@!@!@.$@;F&                                                                  ",
"                                                                                    P-|;1;b;W-W-W-W-W-W-W-W-W-W-W-W-W-W-W-W-W-W-W-W-W-W-W-W-W-W-W-W-W-W-W-W-W-W-W-W-W-V-c;d;e;                                                                                  ",
"                                                                                    P-|;1;b;W-W-W-W-W-W-W-W-W-W-W-W-W-W-W-W-W-W-W-W-W-W-W-W-W-W-W-W-W-W-W-W-W-W-W-W-W-b;f;g;h;                                                                                  ",
"                                                                                    P-|;1;b;W-W-W-W-W-W-W-W-W-W-W-W-W-W-W-W-        W-W-W-W-W-W-W-W-W-W-W-W-W-W-W-W-W-X-i;P-j;                                                                                  ",
"                                                                                    P-|;1;b;W-W-W-W-W-W-W-W-W-W-W-W-W-W-W-W-        W-W-W-W-W-W-W-W-W-W-W-W-W-W-W-W-W-X-i;P-~;                                                                                  ",
"                                                                                    P-|;1;b;W-W-W-W-W-W-W-W-W-W-W-W-W-W-W-W-        W-W-W-W-W-W-W-W-W-W-W-W-W-W-W-W-W-X-i;P-~;                                                                                  ",
"                                                                                    P-|;1;b;W-W-W-W-W-W-W-W-W-W-W-W-W-W-W-W-        W-W-W-W-W-W-W-W-W-W-W-W-W-W-W-W-W-X-i;P-~;                                                                                  ",
"                                                                                    P-|;1;b;W-W-W-W-W-W-W-W-W-W-W-W-W-W-W-W-        W-W-W-W-W-W-W-W-W-W-W-W-W-W-W-W-W-X-i;P-~;                                                                                  ",
"                                                                                    P-|;1;b;W-W-W-W-W-W-W-W-W-W-W-W-W-W-W-W-        W-W-W-W-W-W-W-W-W-W-W-W-W-W-W-W-W-X-i;P-~;                                                                                  ",
"                                                                                    P-|;1;b;W-W-W-W-W-W-W-W-W-W-W-W-W-W-W-W-        W-W-W-W-W-W-W-W-W-W-W-W-W-W-W-W-W-X-i;P-~;                                                                                  ",
"                                                                                    ,;|;k;l;X-W-W-W-W-W-W-W-W-W-W-W-W-W-W-W-        W-W-W-W-W-W-W-W-W-W-W-W-W-W-W-W-V-m;U-P-~;                                                                                  ",
"                                                                                    n;o;p;q;r;V-W-W-W-W-W-W-W-W-W-W-W-W-W-W-        W-W-W-W-W-W-W-W-W-W-W-W-W-W-W-V-s;t;u;P-v;                                                                                  ",
"                                                                    F F F F F w;    x;P-;;y;S-z;X-X-X-W-W-W-W-W-W-W-W-W-W-W-        W-W-W-W-W-W-W-W-W-W-W-W-&;X-X-z;<;A;o;P-B;    C;F F F F F F                                                                 ",
"                                                                    F F F F F F     D;P-P-o;S-E;f;f;f;W-W-W-W-W-W-W-W-W-W-W-        W-W-W-W-W-W-W-W-W-W-W-V-E;r;f;E;F;G;P-P-H;    I;F F F F F                                                                   ",
"                                                                    F F     F F     J;K;K;L;K;M;M;B;N;O;P;Q;Q;Q;Q;Q;P;R;S;W-        W-W-W-W-O;T;Q;Q;Q;Q;Q;U;V;W;M;M;K;L;K;K;X;    Y;F     F F                                                                   ",
"                                                                    F F     F F     H;Z;Z;Z;`;`;`; >.>+>@>#>#>#>#>#>$>*;Q;          W-W-W-%>&>*>#>#>#>#>#>=>->;>`;`;`;Z;Z;Z;-;    C;F     F F                                                                   ",
"                                                                    F F               w;w;w;w;w;w;w;w;w;w;w;w;w;w;w;>>                      ,>'>w;w;w;w;w;w;w;w;w;w;w;w;w;w;w;            F F                                                                   ",
"                                                                    F F             )>)>)>)>)>)>)>)>)>!>,>,>,>,>,>,>)>                      ~>)>,>,>,>,>,>,>)>)>)>)>)>)>)>)>)>            F F                                                                   ",
"                                                                    F F F F F F F F F F F F {>]>]>]>]>]>]>]>]>]>]>]>^>                      />{>]>]>]>]>]>]>{>F F F F F F F F F F F F F F F F                                                                   ",
"                                                                    F F F F F F F F F F F {>(>_>:>:>:>:>:>:>:>:>:>:><>                      [>}>:>:>:>:>:>|>(>|>1>F F F F F F F F F F F F F F F                                                                 "};
