/* XPM */
static char * floor_xpm[] = {
"512 512 1534 2",
"  	c #413C39",
". 	c #403B38",
"+ 	c #3F3A37",
"@ 	c #423D3A",
"# 	c #3E3936",
"$ 	c #3D3835",
"% 	c #3D3936",
"& 	c #3E3A37",
"* 	c #3C3835",
"= 	c #3B3734",
"- 	c #3A3633",
"; 	c #3C3734",
"> 	c #3A3532",
", 	c #383330",
"' 	c #37322F",
") 	c #35302D",
"! 	c #342F2C",
"~ 	c #332E2B",
"{ 	c #322D2A",
"] 	c #312C29",
"^ 	c #302B28",
"/ 	c #2F2A27",
"( 	c #2D2926",
"_ 	c #2C2724",
": 	c #2A2623",
"< 	c #292522",
"[ 	c #282421",
"} 	c #282320",
"| 	c #292421",
"1 	c #2A2522",
"2 	c #2B2623",
"3 	c #2D2825",
"4 	c #2E2926",
"5 	c #36312E",
"6 	c #393431",
"7 	c #2F2B28",
"8 	c #26211E",
"9 	c #25201D",
"0 	c #241F1C",
"a 	c #231E1B",
"b 	c #221D1A",
"c 	c #211C19",
"d 	c #201B19",
"e 	c #201B18",
"f 	c #1F1A17",
"g 	c #1E1916",
"h 	c #1D1815",
"i 	c #27221F",
"j 	c #3B3633",
"k 	c #433E3B",
"l 	c #443F3C",
"m 	c #45403D",
"n 	c #46413E",
"o 	c #47423F",
"p 	c #484340",
"q 	c #494441",
"r 	c #4A4542",
"s 	c #4B4643",
"t 	c #484240",
"u 	c #282321",
"v 	c #332E2A",
"w 	c #312D2A",
"x 	c #1D1916",
"y 	c #1B1613",
"z 	c #191411",
"A 	c #16110E",
"B 	c #140F0C",
"C 	c #120D09",
"D 	c #100B07",
"E 	c #0E0906",
"F 	c #0D0805",
"G 	c #0C0704",
"H 	c #0B0603",
"I 	c #0A0503",
"J 	c #090402",
"K 	c #080302",
"L 	c #080301",
"M 	c #070201",
"N 	c #090401",
"O 	c #0C0604",
"P 	c #0F0A07",
"Q 	c #110C08",
"R 	c #120D0A",
"S 	c #181310",
"T 	c #2B2724",
"U 	c #1A1512",
"V 	c #17120F",
"W 	c #14100D",
"X 	c #120E0B",
"Y 	c #110D09",
"Z 	c #100C08",
"` 	c #0F0B07",
" .	c #0E0A06",
"..	c #0D0906",
"+.	c #0E0A07",
"@.	c #0F0B08",
"#.	c #100C09",
"$.	c #110D0A",
"%.	c #130F0C",
"&.	c #15110E",
"*.	c #16120F",
"=.	c #171310",
"-.	c #191512",
";.	c #1A1613",
">.	c #1C1815",
",.	c #201C19",
"'.	c #1C1714",
").	c #181411",
"!.	c #191412",
"~.	c #1B1614",
"{.	c #1C1715",
"].	c #1F1A18",
"^.	c #1D1817",
"/.	c #1B1615",
"(.	c #191414",
"_.	c #161212",
":.	c #140F10",
"<.	c #110D0E",
"[.	c #0F0B0C",
"}.	c #0D090A",
"|.	c #0B0708",
"1.	c #0A0607",
"2.	c #0A0606",
"3.	c #0B0706",
"4.	c #0C0707",
"5.	c #0D0808",
"6.	c #0F0A09",
"7.	c #100B0A",
"8.	c #110C0B",
"9.	c #130E0C",
"0.	c #35312E",
"a.	c #312D29",
"b.	c #2F2A28",
"c.	c #221E1B",
"d.	c #0A0502",
"e.	c #0B0503",
"f.	c #1F1B18",
"g.	c #1A1513",
"h.	c #1B1714",
"i.	c #1D1816",
"j.	c #211C1A",
"k.	c #120D0B",
"l.	c #373330",
"m.	c #272320",
"n.	c #16120E",
"o.	c #100B08",
"p.	c #241F1D",
"q.	c #1E1A17",
"r.	c #221D1B",
"s.	c #231E1C",
"t.	c #1E1917",
"u.	c #1B1616",
"v.	c #141010",
"w.	c #16110F",
"x.	c #36322F",
"y.	c #393532",
"z.	c #2D2826",
"A.	c #2C2825",
"B.	c #26221F",
"C.	c #0B0604",
"D.	c #110C09",
"E.	c #0C0805",
"F.	c #211D1A",
"G.	c #1E1918",
"H.	c #1C1716",
"I.	c #140F0D",
"J.	c #383431",
"K.	c #34302D",
"L.	c #332F2C",
"M.	c #322E2B",
"N.	c #25211E",
"O.	c #24201D",
"P.	c #47413E",
"Q.	c #15100D",
"R.	c #130E0A",
"S.	c #272220",
"T.	c #0B0704",
"U.	c #26211F",
"V.	c #25201E",
"W.	c #1F1A19",
"X.	c #1C1717",
"Y.	c #191514",
"Z.	c #171212",
"`.	c #100C0A",
" +	c #120E0C",
".+	c #15100E",
"++	c #302B29",
"@+	c #231F1C",
"#+	c #302C29",
"$+	c #383331",
"%+	c #181311",
"&+	c #0D0705",
"*+	c #0F0A06",
"=+	c #130E0B",
"-+	c #0A0603",
";+	c #292422",
">+	c #201B1A",
",+	c #1A1515",
"'+	c #110C0A",
")+	c #35302E",
"!+	c #413C38",
"~+	c #3E3935",
"{+	c #322E2C",
"]+	c #2E2A27",
"^+	c #120E0A",
"/+	c #2C2725",
"(+	c #100D09",
"_+	c #130F0D",
":+	c #2B2624",
"<+	c #090502",
"[+	c #090603",
"}+	c #0C0705",
"|+	c #24201E",
"1+	c #201C1A",
"2+	c #0C0708",
"3+	c #0D0807",
"4+	c #171210",
"5+	c #342F2D",
"6+	c #2A2624",
"7+	c #2A2523",
"8+	c #2D2925",
"9+	c #3F3B38",
"0+	c #130F0B",
"a+	c #110B08",
"b+	c #1C1816",
"c+	c #0F0A08",
"d+	c #110D0B",
"e+	c #34312E",
"f+	c #181413",
"g+	c #3A3533",
"h+	c #282422",
"i+	c #272421",
"j+	c #241E1C",
"k+	c #3E3A36",
"l+	c #120F0B",
"m+	c #0C0804",
"n+	c #1F1B19",
"o+	c #1B1716",
"p+	c #151111",
"q+	c #130F10",
"r+	c #34302E",
"s+	c #1F1C19",
"t+	c #4C4744",
"u+	c #1D1A17",
"v+	c #1B1815",
"w+	c #1E1A18",
"x+	c #1A1615",
"y+	c #171313",
"z+	c #130F0F",
"A+	c #0F0A0C",
"B+	c #0D080A",
"C+	c #0B0707",
"D+	c #100B09",
"E+	c #36312F",
"F+	c #282522",
"G+	c #1C1916",
"H+	c #28231F",
"I+	c #1E1B18",
"J+	c #13100D",
"K+	c #1D1918",
"L+	c #1A1614",
"M+	c #171312",
"N+	c #120E0F",
"O+	c #100C0D",
"P+	c #0E0A0B",
"Q+	c #0C0809",
"R+	c #090506",
"S+	c #090606",
"T+	c #0E0908",
"U+	c #130E0D",
"V+	c #292623",
"W+	c #201D1A",
"X+	c #191613",
"Y+	c #161210",
"Z+	c #4D4845",
"`+	c #211D1B",
" @	c #171411",
".@	c #1C1817",
"+@	c #120E0E",
"@@	c #0E090B",
"#@	c #0A0506",
"$@	c #0C0808",
"%@	c #0E0909",
"&@	c #140F0E",
"*@	c #2D2A27",
"=@	c #262320",
"-@	c #15110F",
";@	c #393531",
">@	c #110E0A",
",@	c #2E2927",
"'@	c #0D0809",
")@	c #0F0A0A",
"!@	c #120D0C",
"~@	c #15100F",
"{@	c #25211F",
"]@	c #23201D",
"^@	c #443F3D",
"/@	c #34302C",
"(@	c #2C2824",
"_@	c #1A1714",
":@	c #191513",
"<@	c #151110",
"[@	c #130E0F",
"}@	c #110D0D",
"|@	c #100B0B",
"1@	c #161110",
"2@	c #24211E",
"3@	c #221F1C",
"4@	c #1B1715",
"5@	c #4C4643",
"6@	c #373230",
"7@	c #36322E",
"8@	c #322E2A",
"9@	c #302C28",
"0@	c #2E2A26",
"a@	c #181412",
"b@	c #161211",
"c@	c #14100F",
"d@	c #080405",
"e@	c #110C0C",
"f@	c #181211",
"g@	c #211E1B",
"h@	c #3B3634",
"i@	c #4E4946",
"j@	c #3C3735",
"k@	c #3F3A38",
"l@	c #383430",
"m@	c #140F0F",
"n@	c #120D0D",
"o@	c #100C0C",
"p@	c #0B0607",
"q@	c #0E090A",
"r@	c #130D0D",
"s@	c #16100F",
"t@	c #171311",
"u@	c #2A2724",
"v@	c #181312",
"w@	c #130F0E",
"x@	c #0E0A0A",
"y@	c #0F0B0B",
"z@	c #171211",
"A@	c #1B1514",
"B@	c #1F1917",
"C@	c #231D1B",
"D@	c #181512",
"E@	c #161310",
"F@	c #0D0905",
"G@	c #312E2B",
"H@	c #302D2A",
"I@	c #2C2926",
"J@	c #0A0507",
"K@	c #0F0A0B",
"L@	c #110C0D",
"M@	c #130E0E",
"N@	c #191413",
"O@	c #2F2C29",
"P@	c #262220",
"Q@	c #25221F",
"R@	c #221E1A",
"S@	c #151010",
"T@	c #1B1515",
"U@	c #14100E",
"V@	c #3D3836",
"W@	c #413C3A",
"X@	c #37332F",
"Y@	c #373431",
"Z@	c #363330",
"`@	c #35322F",
" #	c #33302D",
".#	c #1A1514",
"+#	c #0D0A07",
"@#	c #0C0806",
"##	c #0B0705",
"$#	c #3E3937",
"%#	c #403B39",
"&#	c #383532",
"*#	c #2B2825",
"=#	c #0D0909",
"-#	c #0F0B09",
";#	c #0E0A08",
">#	c #0D0907",
",#	c #433E3C",
"'#	c #312C2A",
")#	c #1E1919",
"!#	c #211C1B",
"~#	c #241F1E",
"{#	c #2E2925",
"]#	c #100B0C",
"^#	c #110D0C",
"/#	c #100C0B",
"(#	c #0F0B0A",
"_#	c #0E0A09",
":#	c #1E1915",
"<#	c #332E2C",
"[#	c #45413D",
"}#	c #363230",
"|#	c #383432",
"1#	c #3A3634",
"2#	c #3B3735",
"3#	c #161111",
"4#	c #120E0D",
"5#	c #181313",
"6#	c #1E1A19",
"7#	c #0D0908",
"8#	c #0C0807",
"9#	c #0C0706",
"0#	c #0E0907",
"a#	c #0D0806",
"b#	c #2B2625",
"c#	c #2E2928",
"d#	c #312C2B",
"e#	c #393533",
"f#	c #201C1B",
"g#	c #231E1D",
"h#	c #25201F",
"i#	c #322D2B",
"j#	c #393432",
"k#	c #3D3935",
"l#	c #0B0606",
"m#	c #0A0505",
"n#	c #211D1C",
"o#	c #282322",
"p#	c #2B2725",
"q#	c #2E2A29",
"r#	c #312D2B",
"s#	c #332F2E",
"t#	c #35312F",
"u#	c #373331",
"v#	c #3F3B37",
"w#	c #413D3A",
"x#	c #090505",
"y#	c #090404",
"z#	c #090405",
"A#	c #181414",
"B#	c #1E1A1A",
"C#	c #221D1D",
"D#	c #252120",
"E#	c #282423",
"F#	c #2B2726",
"G#	c #312D2C",
"H#	c #332F2D",
"I#	c #403A38",
"J#	c #2F2927",
"K#	c #0E0B0B",
"L#	c #0D0707",
"M#	c #100A09",
"N#	c #120C0A",
"O#	c #423D3B",
"P#	c #4F4A47",
"Q#	c #080404",
"R#	c #120D0E",
"S#	c #181415",
"T#	c #1B1718",
"U#	c #1F1B1B",
"V#	c #221E1E",
"W#	c #252121",
"X#	c #292524",
"Y#	c #2C2827",
"Z#	c #2F2A29",
"`#	c #302C2B",
" $	c #27211E",
".$	c #504B48",
"+$	c #070304",
"@$	c #161213",
"#$	c #191516",
"$$	c #1C1819",
"%$	c #1F1B1C",
"&$	c #231F1F",
"*$	c #262222",
"=$	c #292625",
"-$	c #2F2B29",
";$	c #0C080A",
">$	c #070405",
",$	c #141112",
"'$	c #171314",
")$	c #1A1617",
"!$	c #1D191A",
"~$	c #201D1D",
"{$	c #242020",
"]$	c #272323",
"^$	c #2A2625",
"/$	c #2D2827",
"($	c #090406",
"_$	c #151112",
":$	c #201C1C",
"<$	c #272322",
"[$	c #292423",
"}$	c #2A2524",
"|$	c #0E0A0C",
"1$	c #141011",
"2$	c #1E1A1B",
"3$	c #211D1D",
"4$	c #4A4643",
"5$	c #4A4541",
"6$	c #1D1919",
"7$	c #24201F",
"8$	c #262221",
"9$	c #14100C",
"0$	c #120E10",
"a$	c #1C1818",
"b$	c #231F1E",
"c$	c #272321",
"d$	c #1B1717",
"e$	c #272221",
"f$	c #2A2422",
"g$	c #1A1616",
"h$	c #0F0C0C",
"i$	c #403C39",
"j$	c #100D0D",
"k$	c #292523",
"l$	c #2D2824",
"m$	c #0F0C0D",
"n$	c #110E0F",
"o$	c #0E0B0C",
"p$	c #2D2725",
"q$	c #2E2826",
"r$	c #302A28",
"s$	c #312B29",
"t$	c #423E3B",
"u$	c #131010",
"v$	c #110E0E",
"w$	c #120F10",
"x$	c #191515",
"y$	c #1C1718",
"z$	c #1F1B1A",
"A$	c #2E2827",
"B$	c #161313",
"C$	c #151212",
"D$	c #141111",
"E$	c #171213",
"F$	c #241F1F",
"G$	c #292322",
"H$	c #2C2726",
"I$	c #2F2928",
"J$	c #453F3C",
"K$	c #15110D",
"L$	c #150F0C",
"M$	c #191415",
"N$	c #191616",
"O$	c #181515",
"P$	c #171414",
"Q$	c #201B1B",
"R$	c #0D090B",
"S$	c #302A29",
"T$	c #342E2C",
"U$	c #1C1919",
"V$	c #1B1818",
"W$	c #1A1718",
"X$	c #191617",
"Y$	c #151213",
"Z$	c #262121",
"`$	c #231E1E",
" %	c #201B1C",
".%	c #1E191A",
"+%	c #130F11",
"@%	c #262120",
"#%	c #312B2A",
"$%	c #201C1D",
"%%	c #1F1C1D",
"&%	c #1F1C1C",
"*%	c #1E1B1C",
"=%	c #322D29",
"-%	c #292424",
";%	c #231E1F",
">%	c #100C0E",
",%	c #272222",
"'%	c #322C2B",
")%	c #1D1818",
"!%	c #1F1A1A",
"~%	c #211C1D",
"{%	c #221E1F",
"]%	c #231F20",
"^%	c #232021",
"/%	c #242021",
"(%	c #231F21",
"_%	c #211D1E",
":%	c #1C181A",
"<%	c #1D1917",
"[%	c #282424",
"}%	c #161314",
"|%	c #302B2A",
"1%	c #332D2C",
"2%	c #211C1C",
"3%	c #262223",
"4%	c #272324",
"5%	c #282425",
"6%	c #292526",
"7%	c #292525",
"8%	c #262323",
"9%	c #2B2626",
"0%	c #282324",
"a%	c #262122",
"b%	c #38332F",
"c%	c #4A4642",
"d%	c #252020",
"e%	c #292425",
"f%	c #2A2626",
"g%	c #2B2727",
"h%	c #2C2728",
"i%	c #2C2829",
"j%	c #2D2929",
"k%	c #2D292A",
"l%	c #2E292A",
"m%	c #2B2728",
"n%	c #221D1C",
"o%	c #2F2B2A",
"p%	c #302C2A",
"q%	c #393430",
"r%	c #282323",
"s%	c #2D2829",
"t%	c #2E2A2A",
"u%	c #2F2B2B",
"v%	c #302C2C",
"w%	c #312D2D",
"x%	c #322D2E",
"y%	c #322E2E",
"z%	c #322D2D",
"A%	c #2C2828",
"B%	c #181314",
"C%	c #1A1516",
"D%	c #1B1617",
"E%	c #2C2826",
"F%	c #231F1D",
"G%	c #2C2727",
"H%	c #2E2929",
"I%	c #2F2A2A",
"J%	c #312C2C",
"K%	c #322E2D",
"L%	c #342F2F",
"M%	c #353030",
"N%	c #363131",
"O%	c #2D2928",
"P%	c #2B2827",
"Q%	c #2A2525",
"R%	c #221E1D",
"S%	c #34302F",
"T%	c #383332",
"U%	c #393433",
"V%	c #363231",
"W%	c #35302F",
"X%	c #332E2D",
"Y%	c #2D2927",
"Z%	c #4C4845",
"`%	c #373231",
" &	c #3A3534",
".&	c #3B3635",
"+&	c #2E2A28",
"@&	c #3B3533",
"#&	c #514C49",
"$&	c #524D4A",
"%&	c #484341",
"&&	c #534E4A",
"*&	c #2F2A26",
"=&	c #393330",
"-&	c #534E4B",
";&	c #332F2B",
">&	c #2F2B27",
",&	c #413B38",
"'&	c #4D4946",
")&	c #474340",
"!&	c #544F4C",
"~&	c #484441",
"{&	c #46423F",
"]&	c #4B4644",
"^&	c #494542",
"/&	c #45413E",
"(&	c #4B4744",
"_&	c #4F4A48",
":&	c #44403D",
"<&	c #25211D",
"[&	c #2A2622",
"}&	c #282420",
"|&	c #3A3531",
"1&	c #4C4745",
"2&	c #292521",
"3&	c #231E1A",
"4&	c #1D1714",
"5&	c #17120E",
"6&	c #15120E",
"7&	c #0F0906",
"8&	c #15100C",
"9&	c #221E1C",
"0&	c #0E0805",
"a&	c #433F3C",
"b&	c #0E0806",
"c&	c #3F3A36",
"d&	c #403B37",
"e&	c #15120F",
"f&	c #3D3834",
"g&	c #2E2B28",
"h&	c #47423E",
"i&	c #181410",
"j&	c #191511",
"k&	c #1A1612",
"l&	c #27231F",
"m&	c #443E3C",
"n&	c #433D3B",
"o&	c #0E0B07",
"p&	c #110E0B",
"q&	c #423C3A",
"r&	c #413B39",
"s&	c #433E3A",
"t&	c #0D0704",
"u&	c #3F3937",
"v&	c #3E3837",
"w&	c #3D3736",
"x&	c #403A39",
"y&	c #413B3A",
"z&	c #0D0804",
"A&	c #3E3836",
"B&	c #3E3736",
"C&	c #3D3636",
"D&	c #3C3636",
"E&	c #3C3635",
"F&	c #3C3535",
"G&	c #3B3535",
"H&	c #3B3534",
"I&	c #3F3938",
"J&	c #403A3A",
"K&	c #0C0603",
"L&	c #17130F",
"M&	c #3D3635",
"N&	c #3B3435",
"O&	c #3B3434",
"P&	c #3A3434",
"Q&	c #3A3333",
"R&	c #3A3334",
"S&	c #3E3737",
"T&	c #3F3838",
"U&	c #403939",
"V&	c #413A3A",
"W&	c #413B3B",
"X&	c #423C3B",
"Y&	c #201A18",
"Z&	c #0C0703",
"`&	c #0B0502",
" *	c #3C3536",
".*	c #393233",
"+*	c #393132",
"@*	c #383132",
"#*	c #393333",
"$*	c #3B3334",
"%*	c #3C3435",
"&*	c #3D3537",
"**	c #3E3738",
"=*	c #3F3839",
"-*	c #40393A",
";*	c #413A3B",
">*	c #423B3B",
",*	c #161112",
"'*	c #1C1614",
")*	c #1D1715",
"!*	c #140F0B",
"~*	c #3A3433",
"{*	c #3B3335",
"]*	c #3A3335",
"^*	c #3A3234",
"/*	c #393134",
"(*	c #383133",
"_*	c #383032",
":*	c #373032",
"<*	c #373031",
"[*	c #372F31",
"}*	c #393133",
"|*	c #3B3436",
"1*	c #3D3538",
"2*	c #3E3739",
"3*	c #3F383A",
"4*	c #1A1412",
"5*	c #100A07",
"6*	c #0B0602",
"7*	c #383231",
"8*	c #383232",
"9*	c #393234",
"0*	c #383033",
"a*	c #372F32",
"b*	c #362F31",
"c*	c #362E30",
"d*	c #352E30",
"e*	c #352E2F",
"f*	c #3A3235",
"g*	c #3B3437",
"h*	c #16100E",
"i*	c #17110F",
"j*	c #181210",
"k*	c #0E0905",
"l*	c #36302E",
"m*	c #36302F",
"n*	c #363030",
"o*	c #362F32",
"p*	c #362E31",
"q*	c #352E31",
"r*	c #352D30",
"s*	c #342D2F",
"t*	c #342C2E",
"u*	c #332C2E",
"v*	c #332D2F",
"w*	c #342D30",
"x*	c #3D3738",
"y*	c #3E3838",
"z*	c #342E2E",
"A*	c #332C2F",
"B*	c #322C2E",
"C*	c #322B2D",
"D*	c #312B2D",
"E*	c #393235",
"F*	c #3A3436",
"G*	c #3B3536",
"H*	c #3C3736",
"I*	c #3B3733",
"J*	c #302B2B",
"K*	c #312B2C",
"L*	c #312A2D",
"M*	c #302A2D",
"N*	c #302A2C",
"O*	c #30292B",
"P*	c #2F292B",
"Q*	c #352F31",
"R*	c #373133",
"S*	c #383234",
"T*	c #393334",
"U*	c #0B0608",
"V*	c #1E1A16",
"W*	c #2D2728",
"X*	c #2D2729",
"Y*	c #2D282A",
"Z*	c #2E282A",
"`*	c #342E30",
" =	c #363031",
".=	c #363032",
"+=	c #373132",
"@=	c #373232",
"#=	c #201D1C",
"$=	c #292323",
"%=	c #282325",
"&=	c #292325",
"*=	c #292426",
"==	c #2A2426",
"-=	c #2A2526",
";=	c #2A2527",
">=	c #2B2527",
",=	c #2C2628",
"'=	c #312C2D",
")=	c #332D2E",
"!=	c #332E2F",
"~=	c #352F2F",
"{=	c #37322E",
"]=	c #080505",
"^=	c #0B0605",
"/=	c #231E20",
"(=	c #241F20",
"_=	c #241F21",
":=	c #252021",
"<=	c #252022",
"[=	c #262022",
"}=	c #262123",
"|=	c #272123",
"1=	c #272223",
"2=	c #282224",
"3=	c #2B2627",
"4=	c #2C2729",
"5=	c #2F2A2B",
"6=	c #302B2C",
"7=	c #322D2C",
"8=	c #1E191B",
"9=	c #1F1A1B",
"0=	c #201B1D",
"a=	c #211C1E",
"b=	c #221D1F",
"c=	c #272224",
"d=	c #2D2828",
"e=	c #080304",
"f=	c #0A0504",
"g=	c #191416",
"h=	c #1A1517",
"i=	c #1B1618",
"j=	c #1C1719",
"k=	c #1D181A",
"l=	c #221D1E",
"m=	c #252122",
"n=	c #161113",
"o=	c #171214",
"p=	c #181315",
"q=	c #1D1819",
"r=	c #090504",
"s=	c #18130F",
"t=	c #151012",
"u=	c #171315",
"v=	c #120D0F",
"w=	c #352F2C",
"x=	c #252222",
"y=	c #0A0605",
"z=	c #100D0E",
"A=	c #131011",
"B=	c #2A2627",
"C=	c #272424",
"D=	c #0C090A",
"E=	c #0D0A0B",
"F=	c #292626",
"G=	c #262324",
"H=	c #201D1E",
"I=	c #1D1A1B",
"J=	c #0B0809",
"K=	c #0A0809",
"L=	c #0B080A",
"M=	c #0B090A",
"N=	c #0D0A0C",
"O=	c #120F11",
"P=	c #2E2A2B",
"Q=	c #0B0807",
"R=	c #0A0808",
"S=	c #090809",
"T=	c #090808",
"U=	c #0C0A0B",
"V=	c #100E0F",
"W=	c #110F10",
"X=	c #302C2D",
"Y=	c #292627",
"Z=	c #181516",
"`=	c #0A0706",
" -	c #0A0707",
".-	c #090707",
"+-	c #090708",
"@-	c #080708",
"#-	c #0D0B0C",
"$-	c #0E0C0D",
"%-	c #0F0E0E",
"&-	c #110F0F",
"*-	c #151211",
"=-	c #332F2F",
"--	c #322E2F",
";-	c #312D2E",
">-	c #2F2B2C",
",-	c #2A2728",
"'-	c #0A0604",
")-	c #090605",
"!-	c #080707",
"~-	c #070707",
"{-	c #0A0909",
"]-	c #0B0A0A",
"^-	c #0C0B0C",
"/-	c #0E0D0D",
"(-	c #100E0E",
"_-	c #13100F",
":-	c #151210",
"<-	c #1C1613",
"[-	c #1C1713",
"}-	c #342F2E",
"|-	c #343031",
"1-	c #332F30",
"2-	c #2E2B2C",
"3-	c #191311",
"4-	c #090604",
"5-	c #080606",
"6-	c #070606",
"7-	c #070607",
"8-	c #080808",
"9-	c #0A090A",
"0-	c #0B0B0B",
"a-	c #0D0C0C",
"b-	c #12100E",
"c-	c #14110F",
"d-	c #353130",
"e-	c #363132",
"f-	c #363232",
"g-	c #353132",
"h-	c #343030",
"i-	c #1C1615",
"j-	c #090503",
"k-	c #080604",
"l-	c #080605",
"m-	c #060606",
"n-	c #090909",
"o-	c #0A0A0A",
"p-	c #0C0C0C",
"q-	c #100E0D",
"r-	c #110F0E",
"s-	c #383334",
"t-	c #373334",
"u-	c #363233",
"v-	c #1D1717",
"w-	c #080504",
"x-	c #070605",
"y-	c #0C0B0B",
"z-	c #0E0C0C",
"A-	c #0F0E0D",
"B-	c #110F0D",
"C-	c #13100E",
"D-	c #383433",
"E-	c #393534",
"F-	c #3A3535",
"G-	c #393535",
"H-	c #383434",
"I-	c #373333",
"J-	c #353131",
"K-	c #070505",
"L-	c #060506",
"M-	c #0F0D0D",
"N-	c #110E0D",
"O-	c #3A3635",
"P-	c #3B3736",
"Q-	c #3B3737",
"R-	c #070506",
"S-	c #060505",
"T-	c #0D0B0B",
"U-	c #3C3836",
"V-	c #3D3837",
"W-	c #3D3938",
"X-	c #3C3837",
"Y-	c #3B3636",
"Z-	c #060405",
"`-	c #080506",
" ;	c #080607",
".;	c #3D3937",
"+;	c #3E3938",
"@;	c #3E3A38",
"#;	c #363130",
"$;	c #090607",
"%;	c #0A0708",
"&;	c #28221F",
"*;	c #332E2E",
"=;	c #453F3D",
"-;	c #1A1713",
";;	c #171410",
">;	c #211B1A",
",;	c #241E1D",
"';	c #26201E",
");	c #1C1915",
"!;	c #191612",
"~;	c #16130F",
"{;	c #0F0C08",
"];	c #1D1A16",
"^;	c #1B1814",
"/;	c #181511",
"(;	c #1E1819",
"_;	c #1D1915",
":;	c #14110D",
"<;	c #0F0C09",
"[;	c #221C1C",
"};	c #251F1E",
"|;	c #282221",
"1;	c #171415",
"2;	c #2C2624",
"3;	c #38322F",
"4;	c #3E3835",
"5;	c #201C1E",
"6;	c #211D1F",
"7;	c #141012",
"8;	c #211E1E",
"9;	c #242121",
"0;	c #1C191A",
"a;	c #2B2828",
"b;	c #403A37",
"c;	c #1A1715",
"d;	c #1B1817",
"e;	c #1C1918",
"f;	c #221E20",
"g;	c #252123",
"h;	c #282525",
"i;	c #1C1917",
"j;	c #48423F",
"k;	c #352F2E",
"l;	c #0E0807",
"m;	c #37312F",
"n;	c #383230",
"o;	c #393331",
"p;	c #3A3432",
"q;	c #3C3634",
"r;	c #3D3735",
"s;	c #2B2523",
"t;	c #2D2724",
"u;	c #0F0907",
"v;	c #100A08",
"w;	c #110B09",
"x;	c #0D0708",
"y;	c #0E0808",
"z;	c #0F0908",
"A;	c #130D0B",
"B;	c #150F0D",
"C;	c #4E4845",
"D;	c #0E0809",
"E;	c #0F0909",
"F;	c #110B0A",
"G;	c #120C0B",
"H;	c #140E0C",
"I;	c #0F090A",
"J;	c #130D0C",
"K;	c #100D0A",
"L;	c #0D0A06",
"M;	c #0E0B08",
"N;	c #4C4743",
"O;	c #494541",
"P;	c #47413F",
"Q;	c #494341",
"R;	c #4A4442",
"S;	c #46403E",
"T;	c #4B4543",
"U;	c #4C4644",
"V;	c #1D1A1A",
"W;	c #1B1719",
"X;	c #151011",
"Y;	c #4A4441",
"Z;	c #221F20",
"`;	c #211E1F",
" >	c #3A3632",
".>	c #1C1814",
"+>	c #201C18",
"@>	c #46413D",
"#>	c #1B1713",
"$>	c #1F1B17",
"%>	c #211D19",
"&>	c #231F1B",
"*>	c #18120F",
"=>	c #292420",
"->	c #14110E",
";>	c #292320",
">>	c #2B2723",
",>	c #1E1815",
"'>	c #302D29",
")>	c #2A2421",
"!>	c #373332",
"~>	c #322F2E",
"{>	c #2A2628",
"]>	c #3D3734",
"^>	c #252223",
"/>	c #231D1C",
"(>	c #36312D",
"_>	c #1A1716",
":>	c #35302C",
"<>	c #302B27",
"[>	c #342F2B",
"}>	c #312C28",
"|>	c #3F3936",
"1>	c #3C3733",
"2>	c #3B3632",
"3>	c #221D19",
"4>	c #211E1A",
"5>	c #423C39",
"6>	c #2E2825",
"7>	c #1E1816",
"8>	c #413D3B",
"9>	c #403C3A",
"0>	c #3F3B39",
"a>	c #403B3A",
"b>	c #3F3B3A",
"c>	c #3E3A39",
"d>	c #3B3532",
"e>	c #3D3939",
"f>	c #393434",
"g>	c #3C3838",
"h>	c #3A3636",
"i>	c #3A3637",
"j>	c #393536",
"k>	c #383435",
"l>	c #2C2623",
"m>	c #55504D",
"n>	c #242122",
"o>	c #272425",
"p>	c #1B1819",
"q>	c #4F4B48",
"r>	c #534E4C",
"s>	c #443E3B",
"t>	c #56514E",
"u>	c #433D3A",
"v>	c #57524F",
"w>	c #423B39",
"x>	c #433C39",
"y>	c #3A3431",
"z>	c #3D3634",
"A>	c #3F3836",
"B>	c #413A38",
"C>	c #443D3A",
"D>	c #443D3B",
"E>	c #423B38",
"F>	c #413A37",
"G>	c #403937",
"H>	c #433C3A",
"I>	c #342E2B",
"J>	c #38312F",
"K>	c #3E3735",
"L>	c #403936",
"M>	c #3F3835",
"N>	c #3F3735",
"O>	c #433B39",
"P>	c #322C29",
"Q>	c #352F2D",
"R>	c #3C3633",
"S>	c #3D3533",
"T>	c #3C3533",
"U>	c #3C3532",
"V>	c #3D3633",
"W>	c #3E3734",
"X>	c #3B3431",
"Y>	c #3A3331",
"Z>	c #393230",
"`>	c #3A3330",
" ,	c #080401",
".,	c #080502",
"+,	c #54504D",
"@,	c #37312E",
"#,	c #36302D",
"$,	c #362F2D",
"%,	c #120C09",
"&,	c #332D2A",
"*,	c #120F0C",
"=,	c #130D0A",
"-,	c #13100C",
";,	c #0C0906",
">,	c #0B0805",
",,	c #0B0804",
"',	c #12100C",
"),	c #0C0A06",
"!,	c #0A0804",
"~,	c #090703",
"{,	c #0A0703",
"],	c #0A0704",
"^,	c #0C0905",
"/,	c #100E0A",
"(,	c #1E1B17",
"_,	c #110F0B",
":,	c #0E0C08",
"<,	c #0D0B07",
"[,	c #0B0905",
"},	c #090704",
"|,	c #080703",
"1,	c #24201C",
"2,	c #201D19",
"3,	c #15130F",
"4,	c #0F0E0A",
"5,	c #0D0C07",
"6,	c #0B0A06",
"7,	c #0A0905",
"8,	c #090804",
"9,	c #080803",
"0,	c #090803",
"a,	c #0B0A05",
"b,	c #0C0B07",
"c,	c #0D0C08",
"d,	c #110F0C",
"e,	c #13110D",
"f,	c #26221E",
"g,	c #1A1814",
"h,	c #171511",
"i,	c #14120E",
"j,	c #11100B",
"k,	c #0E0D09",
"l,	c #090905",
"m,	c #080804",
"n,	c #0D0D08",
"o,	c #11100C",
"p,	c #191713",
"q,	c #151410",
"r,	c #12110D",
"s,	c #100F0B",
"t,	c #0B0B07",
"u,	c #0A0A05",
"v,	c #080904",
"w,	c #090904",
"x,	c #0B0B06",
"y,	c #0C0C07",
"z,	c #0D0D09",
"A,	c #0F0F0B",
"B,	c #1F1C18",
"C,	c #14130F",
"D,	c #11110C",
"E,	c #0F0F0A",
"F,	c #090A05",
"G,	c #0A0A06",
"H,	c #0A0B06",
"I,	c #0C0D08",
"J,	c #0E0E0A",
"K,	c #14120F",
"L,	c #13120E",
"M,	c #161410",
"N,	c #181612",
"O,	c #13110E",
"P,	c #0E0E09",
"Q,	c #0C0C08",
"R,	c #10100C",
"S,	c #12110E",
"T,	c #141310",
"U,	c #171512",
"V,	c #494440",
"W,	c #0F0E09",
"X,	c #161411",
"Y,	c #0C0B06",
"Z,	c #0F0D09",
"`,	c #0E0C09",
" '	c #1B1916",
".'	c #100E0B",
"+'	c #4B4642",
"@'	c #211B19",
"#'	c #24211D",
"$'	c #272420",
"%'	c #2A2723",
"&'	c #393633",
"*'	c #1F1D19",
"='	c #22201C",
"-'	c #25231F",
";'	c #292622",
">'	c #3B3834",
",'	c #3C3935",
"''	c #282622",
")'	c #3B3835",
"!'	c #3C3936",
"~'	c #26231F",
"{'	c #2D2A26",
"]'	c #3A3734",
"^'	c #3C3834",
"/'	c #312E2A",
"('	c #3D3A36",
"_'	c #393632",
":'	c #1B1612",
"<'	c #3A3733",
"['	c #231D1A",
"}'	c #2B2522",
"|'	c #201A17",
"1'	c #221C19",
"2'	c #251F1C",
"3'	c #2F2926",
"4'	c #221C1A",
"5'	c #251E1C",
"6'	c #2A2320",
"7'	c #2C2523",
"8'	c #2F2825",
"9'	c #312A28",
"0'	c #342D2A",
"a'	c #453D3B",
"b'	c #28211E",
"c'	c #2A2321",
"d'	c #342C2A",
"e'	c #362F2C",
"f'	c #39312F",
"g'	c #3B3331",
"h'	c #463E3C",
"i'	c #473F3D",
"j'	c #463F3C",
"k'	c #453E3B",
"l'	c #443C3A",
"m'	c #3E3634",
"n'	c #3B3432",
"o'	c #39322F",
"p'	c #37302D",
"q'	c #352E2C",
"r'	c #2D2623",
"s'	c #322A28",
"t'	c #372E2C",
"u'	c #39302F",
"v'	c #3D3433",
"w'	c #3F3634",
"x'	c #403836",
"y'	c #423938",
"z'	c #443B39",
"A'	c #49403E",
"B'	c #49413F",
"C'	c #48403E",
"D'	c #3B3332",
"E'	c #342D2B",
"F'	c #332C2A",
"G'	c #2C2522",
"H'	c #2E2725",
"I'	c #312A27",
"J'	c #342C29",
"K'	c #362E2C",
"L'	c #39302E",
"M'	c #3B3231",
"N'	c #3F3635",
"O'	c #413836",
"P'	c #443A39",
"Q'	c #453B3A",
"R'	c #463D3B",
"S'	c #483F3D",
"T'	c #49403F",
"U'	c #4B4240",
"V'	c #4A413F",
"W'	c #443B3A",
"X'	c #413937",
"Y'	c #3E3635",
"Z'	c #3C3332",
"`'	c #322B29",
" )	c #312B28",
".)	c #322C2A",
"+)	c #322B28",
"@)	c #352D2B",
"#)	c #382F2D",
"$)	c #3A3130",
"%)	c #3D3432",
"&)	c #433938",
"*)	c #463C3B",
"=)	c #473D3C",
"-)	c #483E3D",
";)	c #4B4140",
">)	c #4C4341",
",)	c #4C4342",
"')	c #4A403F",
"))	c #473E3D",
"!)	c #453C3A",
"~)	c #362E2D",
"{)	c #322A29",
"])	c #302A27",
"^)	c #332D2B",
"/)	c #38302E",
"()	c #3E3533",
"_)	c #403735",
":)	c #423937",
"<)	c #493F3E",
"[)	c #4A4140",
"})	c #4C4241",
"|)	c #4D4342",
"1)	c #4D4442",
"2)	c #403736",
"3)	c #372E2D",
"4)	c #352C2B",
"5)	c #332B29",
"6)	c #3E3534",
"7)	c #413736",
"8)	c #483F3E",
"9)	c #493F3F",
"0)	c #4D4443",
"a)	c #433A39",
"b)	c #3E3433",
"c)	c #3B3130",
"d)	c #382F2E",
"e)	c #362D2C",
"f)	c #332C29",
"g)	c #4B4241",
"h)	c #4A4241",
"i)	c #4A4240",
"j)	c #463D3C",
"k)	c #372F2E",
"l)	c #221F1B",
"m)	c #423A38",
"n)	c #473F3E",
"o)	c #3C3432",
"p)	c #37302E",
"q)	c #1A1815",
"r)	c #1B1915",
"s)	c #1C1A16",
"t)	c #1E1C18",
"u)	c #1F1D1A",
"v)	c #201E1A",
"w)	c #463F3D",
"x)	c #48413F",
"y)	c #494240",
"z)	c #48413E",
"A)	c #47403D",
"B)	c #453E3C",
"C)	c #3A3230",
"D)	c #1A1915",
"E)	c #1C1A17",
"F)	c #1D1B18",
"G)	c #1E1C19",
"H)	c #1F1E1A",
"I)	c #201E1B",
"J)	c #211F1B",
"K)	c #46403D",
"L)	c #191814",
"M)	c #1B1A16",
"N)	c #1D1B17",
"O)	c #211F1C",
"P)	c #23201C",
"Q)	c #23211D",
"R)	c #26201D",
"S)	c #241E1B",
"T)	c #251F1D",
"U)	c #282521",
"V)	c #35312D",
"W)	c #38312E",
"X)	c #46423E",
"Y)	c #3F3734",
"Z)	c #403835",
"`)	c #463E3D",
" !	c #47433F",
".!	c #3F3736",
"+!	c #423A37",
"@!	c #433A38",
"#!	c #443C39",
"$!	c #48403F",
"%!	c #473E3C",
"&!	c #484440",
"*!	c #4E4443",
"=!	c #0A0602",
"-!	c #4D4543",
";!	c #4E4543",
">!	c #4B4341",
",!	c #4C4442",
"'!	c #4E4544",
")!	c #4A4341",
"!!	c #4B4442",
"~!	c #4C4542",
"{!	c #4E4644",
"]!	c #4D4644",
"^!	c #4C4543",
"/!	c #47403E",
"(!	c #49423F",
"_!	c #4D4643",
":!	c #4E4744",
"<!	c #4E4745",
"[!	c #494340",
"}!	c #4B4542",
"|!	c #4D4744",
"1!	c #4D4745",
"2!	c #4E4A47",
"3!	c #4E4846",
"4!	c #4E4A46",
"5!	c #45403E",
"6!	c #27211F",
"7!	c #474240",
"8!	c #16110D",
"9!	c #4B4743",
"0!	c #4C4844",
"a!	c #120F0F",
"b!	c #0E0B0A",
"c!	c #191310",
"d!	c #322F2C",
"e!	c #0C0605",
"f!	c #0D0706",
"g!	c #504C49",
"h!	c #3E3B38",
"i!	c #1A1411",
"j!	c #3D3A37",
"k!	c #16100D",
"l!	c #0C0709",
"m!	c #1B1512",
"n!	c #181416",
"o!	c #2C2723",
"p!	c #130E10",
"q!	c #140F11",
"r!	c #100B0D",
"s!	c #150F0E",
"t!	c #140E0D",
"u!	c #141110",
"v!	c #373130",
"w!	c #211B18",
"        . . . . + + + + + + + .     @     . . + # $ $ $ $ $ $ % # & & & % % % * * = = = - - - - = = = = * * * % & & % ; > , ' ) ! ~ { { { { { { { { { ] ^ / / / ^ ] { { ~ ! ! ~ ~ ~ ~ ~ ~ ! ~ { ] / ( _ : < [ [ } } } } } } | 1 2 _ 3 4 / ^ { ~ ! ) 5 ' , 6 > > 6 , ' ) { 7 3 2 } 8 9 0 0 a b c d e f f e e e f f g g h h h g f e c b a 0 8 i | 1 _ 4 / ^ ] ~ ! ) 5 ' , 6 j ; $ + .   @ @ k k l l m m n n o p q r r s s s s s s s s s s r r q p t o n n n n n n n n n n n n n n m m m l l k @ @   . + # # $ $ ; ; j j > 6 , , ' 5 ) ! ! ~ ] ^ ( 2 u 8 0 b e e f e c b 0 i | 2 3 / ] { v ~ { w ^ 4 2 | i 0 b e x y z A B C D E F G H I J K L M M M L N J I O F E P Q R B A S y h f b 9 } T 4 ] ~ ! 5 ' , 6 6 6 6 , ' 5 ) ~ { ] ^ / / ^ ] { ! 5 , > ; # . @ l l l k   + ; , ) { ] ^ / / 4 4 3 _ 2 1 | | 1 _ 3 4 4 4 3 _ | i 0 c x U V W X Y Z `  . ...+.+.@.#.#.#.#.#.#.#.#.#.$.X %.&.*.=.-.;.>.x f ,.b 0 8 } } i 8 0 b e g '.y -.z ).!.-.~.{.g ].c b b c ].^./.(._.:.<.[.}.|.1.1.1.1.1.1.|.|.|.|.1.1.1.1.1.1.1.1.2.2.3.4.5.6.7.8.9.A z h c 8 1 / ~ ' 6 > j ; ; ; ",
"        . . . . + + + + + + . .     @     . . + # $ $ $ $ $ $ % # & & & % % % * * = = = - - - - - = = = = * * % % % $ = > , 5 ) ! ~ { { { { { { { { ] ^ / 4 4 / / ^ ] { ~ ~ ~ ~ { { { ~ ~ ~ ~ { ^ / 3 T : < [ } } } } } } } | | 1 2 3 4 / ^ ] { ~ ! 0.' , 6 6 6 6 , ' ) { ^ 3 2 | i 9 0 0 a a b c e f f e e e f f g g g h h g f e c a 0 9 8 i | 2 _ 4 / ^ a.~ ! ) 5 , 6 > j ; $ + .   @ @ k k l l m m n n o p q r r s s s s s s s s s s r r q q p o n n n n n n n n n n n n n n m m m l l k @ @   . + # # $ $ ; ; j j > 6 , , ' 5 ) ) ! ~ ] ^ 4 2 | 8 0 b c e e e c a 9 i | 2 ( b.] { ~ ~ ~ { ^ 4 _ | i 9 c.e g y z A B R D E F G H H d.J L M M L L J d.e.G F E P Q R B A S y h f.b 9 | _ / ] ~ ) 5 , 6 6 > > 6 , ' 5 ) ! { ] ^ ^ ^ ] { ~ ) ' , > ; # . @ l l l k   + ; , ) { ] ^ / / 4 4 3 _ 2 1 | | 1 _ 3 4 4 4 3 2 | i 0 c x g.V W X Y Z `  . .....+.@.@.#.#.#.#.#.#.#.#.$.X %.W *.=.-.;.>.x f ,.b 0 8 } } i 8 0 b ,.f h h.;.U -.g.~.{.i.f d j.b b j.].^./.(._.:.<.[.}.|.1.1.1.1.1.1.|.|.|.|.1.1.1.1.1.1.1.1.2.2.3.4.5.6.7.k.9.A !.h j.8 1 / ~ ' 6 > j ; ; ; ",
"      . . . . . . + + + + . . .   @ @     . . + # $ $ $ $ $ $ # # & & & & % % * * = = - - - - - - - - = = = = * * * ; - 6 l.5 ) ~ { { ] ] ] ] ] ] ^ ^ / 4 3 3 3 4 / ^ ] ] { { { ] ] ] ] { { w ^ / 3 _ : < [ m.m.i i i i i } } | 1 2 _ 3 4 / ^ ] { ~ ) 5 ' , 6 6 , , 5 ! { ^ 3 2 | i 8 9 0 0 a b c e f f f e f f f g g g h g g f e b a 0 9 8 i | 2 _ 4 / ] { ~ ! 5 ' , 6 > j ; # +     @ k k l l m m n n o o p q r r s s s s s s s s s s s r r q p o n n n n n n n n n n n n n n m m m l l k @ @   . + # # $ $ ; ; ; j > 6 6 , ' 5 5 ) ! ~ { ^ 4 _ | i 9 a c e e c b a 9 } 1 _ 4 ^ { ~ ! ! ! ~ { ^ 3 2 } 8 a c g ~.z n.B R o.E F G G H I J K L L L L J d.H G F E P Q R B A S y h e a 8 | 3 ^ { ! 5 ' 6 6 > > > > 6 , ' 5 ! ~ { { { { ~ ! ) ' , > ; $ +   @ k l k @   + j , ! { ^ ^ / 4 4 3 3 _ 2 | } | 1 2 3 3 4 3 3 2 | i 0 c x ;.=.W X Y Z `  .........+.@.@.@.@.@.@.@.@.@.#.$.X W &.=.).;.h.x f d b p.8 } } } 8 9 a b e f g h >.>.>.x q.e c r.a 0 s.r.d t.u.(._.v.<.[.}.|.1.1.1.1.1.1.|.|.|.|.1.1.1.1.1.1.1.1.2.2.3.4.5.6.7.k.B w.U g b 8 1 / ~ x.6 > j j ; ; ",
". . . . . . . . . . . . . . .     @ @     . . + # $ $ $ $ $ # # & & & & & % % * * = = - - - y.y.y.y.y.y.- - - - - - - y., x.0.! ~ { ] ] ^ ^ b./ / 4 z.A.T 2 2 2 _ 3 4 / / ^ ^ ^ / / / / ^ ^ / 4 3 2 1 | m.B.8 8 8 8 8 8 i i i } | 1 2 _ 3 4 / ^ ] { ~ ! 5 ' ' , ' ' 5 ! { ^ 4 2 | } 8 9 9 0 a b c e f f f f f f f g g g g g f e c b a 0 9 8 } | 2 3 4 ^ ] { ~ ) 5 ' 6 > j ; $ # .   @ k k k l l m m n n o p p q r r s s s s s s s s s s s r r q p o n n n n n n n n n n n n n n n m m l l k @ @   . + # # # $ $ ; ; j j > 6 , , ' 5 ) ! ! { ] / _ 1 } 9 a b c c c b 0 8 | 2 3 ^ { ! ) 5 5 5 ) ! { / 3 1 i 0 c q.'.z V B R o.E F F G C.H I J J J J J J I H G F E P Q R B A S y h e a B.1 4 ] ! 5 , 6 > j j j j > > 6 , ' 5 ) ! ! ) ) 5 ' 6 > j ; $ # .   @ k k k @ . # j ' ! ] ^ / / 4 4 3 _ 2 1 | } } | 2 _ 3 3 3 _ 2 | i 0 c g ;.=.W X D.`  ...F E.E.E...E +.+.+.+.+.+.+.+.@.#.$.X W *.=.-.~.>.q.e b 9 i } | } i 8 9 0 a F.c e e d ,.j.r.s.0 9 8 8 9 s.j.G.H.(._.v.<.[.}.|.1.1.1.1.1.1.|.|.|.|.1.1.1.1.1.1.1.1.2.2.3.4.5.6.7.k.I.V ;.q.c.i 2 / ~ 5 , > j j ; ; ",
". . . . . . . . . . .           @ @ @     . . + # # $ $ $ # # # & & & & & % % * = = - - y.y.y.y.J.J.J.J.J.J.J.J.J.J.J.l.x.0.K.L.M.w ] ^ / 4 4 3 _ 2 2 1 | } } } | 1 2 _ 3 3 3 3 _ _ _ _ 3 3 3 _ 1 | } B.N.9 0 0 O.9 9 9 8 8 i i } | | 1 2 _ 3 4 / ^ ] M.! ) 5 5 5 5 ) ! { ^ 4 _ 1 | i 8 9 9 0 b c e f f f f f q.g g g g g g f e c a 0 9 8 i } 1 _ 3 / ^ ] ~ ! ) ' , 6 > j ; # + .   @ k l l l m m n n o o p q q r s s s s s s s s s s s s s r q p o o o P.o o o o o o o o o n n n m m l l k @ @   . + # # # $ $ $ ; ; j > > 6 , ' ' 5 ) ! ~ { ^ 3 2 | 8 0 b b c b a 9 i 1 _ / ] ~ ) ' , , , , 5 ! { b._ | 8 b f h U V Q.R.Q P E F F G G H I I d.d.d.I H C.G F E P Q R B A S y g c 0 S.2 / ~ ) , > j ; ; $ ; ; j > 6 6 , ' ' ' ' , 6 > j ; $ # + + .     @ k @ @   + $ > ' ~ ] / / 4 4 3 3 _ 2 | } i i } 1 2 _ _ _ _ 2 | i 0 c g ;.=.W X #.` E F G T.T.T.E.E.E.F F E.E.E.E.F ..+.Z $.%.W *.).;.>.g e b 9 i } | | } } i 8 9 9 0 0 0 p.9 N.U.i } } | } i V.r.W.X.Y.Z.v.<.[.}.|.1.1.1.1.1.1.|.|.|.|.1.1.1.1.1.1.1.1.2.2.3.4.5.6.`. +.+=.h.f a i 2 / ~ 5 , 6 > j j ; ",
"+ + + + + . . . . .         @ @ @ @ @     . . + # # $ $ $ # # & & & & & & % * * = - - y.y.J.J.l.l.l.l.x.x.x.x.x.x.0.0.0.K.L.L.M.w ++/ 4 3 _ 2 1 | } i 8 9 9 9 9 8 i } | 1 1 1 1 1 | | 1 1 1 1 | } i 9 0 @+a a a a 0 0 9 9 9 8 8 i } } | 1 2 _ _ 3 4 / #+{ ~ ! ) ) ) ! ~ { ^ 4 3 2 | } i 8 9 0 a c e f f g g g g g g g g g f e c b a 0 9 8 i | 2 _ 4 / ] { ~ ) 5 , 6 > j ; $ # .   @ k l l m m n n o o p p q q r r s s s s s s s s s s s s s r q p p o o o o o o o o o o o o o n n m m l l k @ @   . + + # # # $ $ $ ; ; j > 6 6 , ' 5 5 ) ! { ] 4 _ 1 i 9 a b b a 0 8 } 2 3 ^ { ) ' , 6 > > > $+' K.{ / 2 i 0 c g y %+A B R o.P P E E F &+G G H H H H G G F E *+D D.X B A z y g c 9 [ 3 ] ! ' 6 j $ # # # $ $ ; j > 6 6 , , 6 6 > ; $ # + .           @ @ @ @   . + $ > 5 ~ ^ / 4 4 3 3 _ 2 1 | i 8 8 i | 2 _ _ _ _ 2 | i p.b q.h.S &.=+D.` E F T.H -+-+H T.T.T.T.T.T.T.T.T.E...+.Z $.%.&.=.-.h.g e b 9 i | ;+1 1 | | | } } } } } } | < 1 2 2 2 2 2 | i s.>+^.,+Z.v.<.[.}.|.1.1.1.1.1.1.|.|.|.|.1.1.1.1.1.1.1.1.2.2.3.4.5.6.'+9.&.).{.e 0 } _ / ~ )+' 6 > > j j ",
"# # # # # + + + . . !+      @ @ @ @ @     . . + # ~+$ $ $ # # # & & & % % * * = - y.y.J.J.l.l.x.x.0.0.K.K.K.L.L.L.{+M.M.M.w ] #+7 ]+( _ 2 1 | } B.9 0 a a b b a 0 9 8 i m.} } } i i i i } } } i 8 9 0 a b b b b a a 0 0 9 9 8 8 i i } } | 1 1 2 _ _ 3 / ^ ] { ~ ! ! ! ~ ] ^ / 3 _ 1 | } i 8 9 a b e f f g g g g g g g g f f e c b 0 9 8 i } 1 2 3 / ^ { ~ ! ) ' , > j ; $ # + . @ k l l m m n n o o p p q q q r r s s s s s s s s s s s s s r r q p p o o o o o o o o o o o o n n m m l l k @ @   . + + # # # # # $ $ ; j j > 6 , , ' 5 5 ) ~ { / 3 2 } 8 0 s.a 0 9 i | _ 4 #+~ 5 , 6 j j ; j > 6 ' ! ] 3 < 8 a e h y S A B ^+C D.Q o.` P E E F F F F F F E E P o.C =+Q.V U '.f b 8 < 4 { ) , > ; # # + # # $ ; j > 6 6 6 6 > j ; # + .   @ k k @ @ @ @ @ @     . # ; 6 ) { ^ 4 z.3 /+_ _ 2 1 } i 8 8 i | 1 _ _ 3 3 _ 1 } 8 a e >.-.*.%.R o. .F T.-+-+-+-+-+-+-+-+-+-+-+-+-+T.E...@.(+X W *.-.h.g e b 9 i | 1 2 2 2 2 2 2 2 2 2 2 _ _ 3 4 4 / 4 4 A.2 } p.>+^.,+Z.v.<.[.}.|.1.1.1.1.1.1.|.|.|.|.1.1.1.1.1.1.1.1.2.2.3.4.5.6.8._+*.-.h c 9 | _ ^ ~ ) ' , 6 > > > ",
"; ; ; ; $ $ # # + + . .       @ @ @ @     . . + # $ $ $ $ $ $ % % % % * * = - y.y.J.l.x.x.0.0.K.K.L.L.M.M.w w #+#+7 7 7 ]+]+( ( A.T : | } i 8 9 a b c ,.e e e c b a 0 9 8 8 8 8 9 9 9 8 8 i i 8 9 0 a b b b b b a 0 0 9 9 8 8 8 i i } } | | 1 1 1 2 _ 3 4 / ] { { ~ ~ { ] ^ / 4 3 2 1 | } i 9 0 b c f g g g h h h g g g f e c b a 0 9 8 i | 1 _ 4 ^ ] { ! ) 5 , 6 > ; $ # + .   @ k l m m n n o o p p q q r r r s s s s s s s s s s s s s s s r q q p p p p p p p p p p p p o o n m m l l k @ @   . + + + # # # # # $ $ ; j > > 6 , , ' 5 5 ! ~ #+4 _ 1 i 8 9 9 9 8 } 1 _ / ] ! 5 , > j ; $ $ ; > 6 5 ~ ^ _ | 8 a e h y z V Q.B B =+=+R D.Z o.P *+E E E E P P o.D.R B A S y i.e a i : / M.5 6 j $ # + + # # $ ; > 6 6 6 6 > j ; # +   @ @ k k k k k @ @ @ @   . + # j , ) ] / z.3 /+_ :+2 1 | } 8 9 9 i | 2 _ 3 4 4 3 _ 1 i O.F.g ;.=.&.=+D.` ..G H -+<+[+-+-+-+-+-+-+-+-+-+T.}+..+.#.X W *.z h.g e b 9 i | 1 2 _ 3 3 4 4 4 ]+]+/ / ^ ] ] { { ] ^ 4 _ [ |+1+^.Y._.v.<.[.}.2+1.1.1.1.1.1.|.|.|.|.1.1.1.1.1.1.1.1.2.2.3.4.3+6.8.I.4+;.g b 8 < 3 ^ { 5+5 ' , 6 6 6 ",
"6 6 > > j ; ; $ # # + . .       @ @ @     . . + # $ $ $ $ $ $ $ * * * = - y.J.J.l.x.0.K.K.L.L.M.M.w #+#+7 ]+]+( A.A.T T 6+: 7+< [ } i 8 9 0 b c e f g g g g g f e j.b a 0 9 9 0 0 a 0 0 9 8 8 9 0 a a b b b b a 0 0 9 9 8 8 i i i i } } | | | | 1 1 7+2 _ 4 / ^ ] { { { ] ] ^ / 8+_ 2 1 | } 8 0 a c f g g h h h h h g g f e c b a 9 8 i } | 2 3 / ] { ~ ) 5 ' 6 > j ; $ # 9+  @ k l m n n o o p p q q q r r r s s s s s s s s s s s s s s s s r r q q q q q q q q q q q q p p o n m m l l k @ @   . + + + + + + # # # $ ; ; j > 6 6 , , ' ' ) ! { / 3 2 | i 8 8 8 i | 2 3 / ] ! 5 6 > ; $ # # $ ; > , ) { / _ | 8 a c g '.U S S V V A Q.B 0+^+R D.Q a+o.o.o.D.D.R B Q.V U '.f b 9 } _ b.~ ' 6 ; $ + + + # $ ; j > 6 , , 6 > j $ + . @ @ k k l k k k k @ @     . + $ j , ! ] 4 3 _ _ :+2 7+1 | } 8 9 8 i | 2 3 4 / / / 3 2 | B.@+e >.-.*.W X #.+.F T.-+-+-+-+-+-+-+-+-+-+-+-+T.}+..+.#.X W *.z h.g e b 9 i | 2 _ 3 / 7 ^ #+] w w { { ~ ! ) ) ) ! { ^ 3 ;+V.1+b+Y._.v.<.[.}.2+1.1.1.1.1.1.|.|.|.|.1.1.1.1.1.1.1.1.2.2.3.4.3+c+d+W S h.f a i 1 3 ^ { ! ) 5 ' , , , ",
"5 ' ' , 6 > > j ; $ # # + . .     @ @     . . + # $ $ $ $ ; ; ; = = - y.J.l.x.0.e+K.L.M.w w #+7 7 ]+]+( A.T : < < [ m.m.B.B.N.N.O.0 a b c e f g h '.'.'.'.'.h g f ,.F.b a 0 0 0 a a a 0 p.9 9 p.0 a a b a a a 0 9 9 8 i i i } } } } } } | | | | | | | 1 2 _ 3 4 ^ ] ] ] ] ] ^ / 4 3 _ 2 | } i 9 a c e g g h h h h h g f f e b a 0 9 8 } | 1 _ 4 ^ ] ~ ! 5 ' , 6 j ; $ # + .   @ l m n n o o p p q q r r r r s s s s s s s s s s s s s s s s s s r r r r r r r r r r q q q q p o n n m l l k @   . . + + + + + + + + # # $ ; j j > 6 6 , , ' 5 ) ~ ^ 4 _ 1 } i i i } 1 2 3 / ] ! 5 , > ; $ # # # $ j 6 ' ! ] ]+_ | i 0 b e g '.~.y ;.U z =.*.&.Q.W B B %.=+=+B B Q.A S U '.f c 0 i 1 3 ^ ! ' > ; # + + + # $ ; > 6 , ' , 6 > ; # .   @ k k l l l k k k @ @     . # $ > ' ! ^ 4 _ :+:+7+7+1 | } i 8 9 8 i 1 _ 3 / ^ ^ ^ / 3 2 [ N.b q.h.).*.W X #.+.F T.T.-+-+-+-+-+-+-+-+-+-+T.E...@.#.X W *.z h.x e b 9 i | 2 3 4 ^ ] { ~ L.L.! ! ! ) 5 ' ' ' ) ~ ^ 3 ;+|+d b+f+_.v.<.[.}.|.1.1.1.1.1.1.|.|.|.|.1.1.1.1.1.1.1.1.2.2.3.4.3+c+k..+z {.e 0 } 2 4 ^ { ~ ) ) 5 5 ' ' ",
"! ! ) ) 5 ' , 6 g+j ; $ # + + .           . . + # # $ $ ; ; = j - y.y.J.l.0.K.L.M.w #+7 ]+]+( A.A.T : < h+i+m.B.N.O.@+@+c.c.F.F.c e f q.g h '.y U U U U y '.h g f e c b a 0 0 0 0 a 0 0 9 9 9 0 j+a a a a 0 9 9 8 i } } } | | | } } } } | | | } } } } | 1 2 _ 3 / ^ ^ ] ] ^ ^ / 4 3 _ 2 1 } i 9 a c f g h h h h h h g f e c b a 9 8 i } 1 2 3 4 ^ { ! ) 5 , 6 > j ; # + + . @ k l m n o o p p p q q r r r r s s s s s s s s s s s s s s s s s s s r r r r r r r r r r r r q p p n m m l l k @   . . + + + + + + + + k+# $ ; ; j > > 6 6 J., ' ) ~ ] / 3 2 | } } } | 1 _ 3 / ] ~ 5 , > ; $ # + # $ ; > , 5 ~ ] / _ 1 } 8 0 b c e f.f g h '.;.g.-.z ).S S S S S ).z U '.g e b p.i | 2 4 w ) , > ; # + + + # $ j > , ' ' ' 6 > ; # . @ k k l l l l k k k k @     . # ; > ' ~ ^ 4 _ :+2 7+;+| | } i 8 9 8 } 1 _ 4 / ] ] ] ^ / 3 : m.p.,.x h.-.=.&.l+#.` ..E.E.m+T.T.T.T.T.T.T.T.E...+.@.$.%.W *.z y x e b 0 8 | 2 3 / ] { ~ ! ) 0.0.0.5 5 ' , , ' 5 ~ ^ 3 | O.n+o+f+p+q+<.[.}.|.1.1.1.1.1.1.|.|.|.|.1.1.1.1.1.1.1.1.2.2.3.4.3+6.k.A -.h c 9 [ _ 4 ^ { ~ ! ! ) ) ) ) ",
"{ { { ~ ! ) 5 ' 6 > j j ; $ # + . . .   . . . + + # $ $ ; ; j > y.J.l.x.r+L.M.w 7 ]+( A.T : < [ [ m.B.N.O.@+c.F.,.s+f.q.q.q.x x h >.'.y g.U z z S S S z U '.h g f c b a 0 O.9 9 9 9 9 9 9 9 9 0 0 a a 0 0 9 8 i } | 1 1 1 1 1 1 | | | } } } } } } } } } | 1 2 _ 3 / / ^ ^ ^ / / 4 3 _ 2 1 } i 9 a c f g h h h h h g f e c b a 0 9 i } | 1 _ 3 / ] ~ ! 5 ' , 6 j ; $ # + .   @ k l m n o o o p p q q q r r r r r r r r r r s s s s s s t+t+t+t+s s s s s s s s s s s s r r q q p n m l l k k @   . . + + + + + + + + + # $ $ ; j g+> 6 6 6 , ' 5 ! { / 3 2 1 | | | 1 2 _ 3 / ^ ~ ) ' 6 j $ # # # $ ; j 6 ' ) ! { ^ 4 _ 7+[ i 8 9 O.0 a F.,.f.q.g x x h h h h h g g f c c.p.U.} 1 _ 4 ^ ~ 0., > ; # + + + # ; j 6 ' 5 5 ' , > ; # . @ k k k k k k k k k k @ @   . # ; > ' ! ^ 4 /+:+2 1 | u } i 8 8 8 8 } 2 3 4 ^ ] { { ] ^ / A.1 B.@+,.u+v+;.).&.%.$.Z ` +.....E.E.}+G G E.E...+.@.#.$.%.&.*.).;.h f c s.8 } 1 3 / ] { ! ) 5 x.x.x.5 ' ' , , ' ) { / _ } @+w+x+y+p+z+<.A+B+|.1.1.1.1.1.1.|.|.|.|.1.1.1.1.1.1.1.2.2.2.C+4.5.D+9.*.g.g b 8 | _ / ^ { ~ ~ ! ! ! ! ! ",
"/ ^ ^ ] { ~ ! ) E+, 6 > > j ; $ # + . . . . . + + # $ $ ; j > 6 , x.0.K.M.w 7 ]+( T : F+m.B.N.O.@+c.F.,.f.w+u+G+>.h.;.;.;.g.U -.z z ).S S V V V V V S z y >.g f e b a 0 9 8 i m.m.} m.i 8 8 9 0 0 0 0 0 9 U.} | 1 2 _ _ _ 2 2 1 1 | | } } } } } H+i } } } | 1 2 3 4 4 / / / 4 4 3 _ 2 1 | } 8 0 b e f g h h h h g f f e c b 0 9 8 i | 1 2 _ 4 ^ { ~ ) 5 , 6 > j ; $ # + .   @ k l m n o o o p p p q q q q r r r r r r r r r s s s s t+t+t+t+t+t+t+s s s s s s s s s s s r r q p n m l l k k @   . . + + + + + + + + + # # $ ; ; j > > 6 6 6 , 5 ! { ^ 4 _ 1 | | 1 2 2 _ 3 4 ^ { ! 5 , > ; $ $ $ ; j > 6 , ' 5 ! ~ { ^ ]+3 T : 1 < | } B.N.p.@+c.c.c.b b b b c.a s.0 N.i | 2 _ 3 4 ^ { ! 5 6 g+; # + + + # ; j 6 ' ) ) 5 , > ; # . @ k k k k k k k k k k k @   . # ; > ' ! ] / 3 _ 2 1 | } i 8 8 8 8 i | 2 3 / ^ { { ~ { { ^ ]+_ | N.@+,.I+x h.-.*.W 0+$.#.Z ` +........... .+.@.#.$.X J+&.*.).;.>.g ,.a 9 i 1 _ 4 ++{ ! ) 5 x.' ' 5 ' ' ' ' 5 ! ] 4 1 U.r.K+L+M+v.N+O+P+Q+|.1.R+1.1.1.1.|.|.|.1.1.1.R+R+R+R+R+S+2.1.C+4.T+7.U+4+~.f a i 1 3 / ] { { ~ ~ ~ { { { ",
"3 4 4 / ^ ] { ~ ! 5 ' , 6 > j ; $ # + + + . + + + # $ ; j > 6 , x.0.L.M.#+]+( T V+[ B.N.@+c.W+f.q.x >.h.;.X+-.).=.Y+*.*.*.*.A A A A &.Q.Q.Q.Q.Q.A V S U '.g f c b a 9 8 m.[ < 1 7+: 1 | } i 8 9 9 0 9 9 8 } | 1 _ 3 3 3 3 _ _ 2 1 | } } } i i i i i i i } } | 1 _ 3 3 4 4 4 3 3 _ 2 2 1 | } 8 0 b e g g h h h g f f e c b a 0 8 i } | 2 _ 3 / ^ { ! ) ' , 6 > j ; $ # + .   @ k l m n o o o o p p p p q q q q q q q q r r r r s s t+t+t+t+Z+Z+t+t+t+t+t+t+t+t+t+t+t+s s s r q p n m l k k @ @   . . + + + + + + + + + # # $ ; ; j > > > 6 6 , 5 ! { ^ 4 _ 2 1 1 2 2 _ _ 3 3 / ++~ ) 5 , > j ; ; j > > 6 6 , ' 5 ) ! ~ { ] ^ b.]+4 z.A.:+1 [ [ m.m.S.i i i i i } } | 1 2 3 4 / ^ ] { ~ ) ' 6 j ; # + + + # ; j 6 5 ) ) 5 , > ; # . @ k k l k l l l l l l k k @ . # ; > ' ! ] / 3 _ 2 1 } i 8 8 9 9 8 i | 2 ( / ] { ~ ~ ~ ~ { #+4 T [ N.@+`+,.q.>.X+ @*.W %.X $.#.@.` +.+.@.@.#.$.^+X %.W *.=.).;.'.g e b 0 U.| 2 4 ^ { ~ ) 5 5 5 5 5 5 5 5 ) ! { / _ u O.1+.@Y._.v.+@O+@@Q+1.#@R+R+1.1.1.|.|.|.1.1.R+R+R+R+R+R+R+1.1.C+$@%@8.&@%+{.e 0 } 2 4 ^ ] ] { { { ] ] ] ] ",
"_ _ _ 3 4 / ^ ] { ! ) 5 ' , 6 > j $ $ # + + + # # $ ; j > 6 , x.K.L.w 7 *@A.: [ =@N.@+`+,.q.x h.;.-.).=.*.-@&.W %.%.=+=+=+=+=+=+=+=+=+=+=+B B Q.A V z y h f c a 0 8 i [ 1 2 _ A.3 3 3 _ 1 | i 8 8 N.8 8 i } | 2 _ 3 4 3 3 _ 2 1 | } } i i 8 8 8 8 8 8 i i } } 1 2 _ 3 3 3 3 _ _ 2 2 1 | } i 9 0 b e q.g g g g f f e c b a 0 9 i } | 1 _ 3 4 ^ ] ~ ) 5 ' , > j ; $ # # + .   @ k l m n n o o o o p p p p p q q q q q q q r r r s s t+t+Z+Z+Z+Z+Z+t+t+t+t+t+t+t+t+t+t+t+s s r q p n m l k k @ @   . . + + + + + + + + + # # $ $ ; j j > > > 6 , ' ) ~ ] / 3 _ 2 2 2 _ _ _ _ _ 3 / ] ~ ) 5 , 6 > > 6 6 , , , , , ' ' 5 ) ) ! L.M.M.{ { ] ^ / 4 ( 3 A./+_ _ _ _ _ _ _ 3 4 / ^ ] ] { { ~ ! 5 ' 6 j ; # + + + # $ j 6 5 ) ) 5 , j $ +   k l l m m m m m m m l l k @ . # ; ;@' ! { ^ 4 _ 2 | } i 8 9 9 9 8 i | 2 ( / ] { ! ! ) ) ! M.#+( : [ B.O.@+F.f.x h.-. @*.&.W %.X $.#.#.$.>@X %.%.W &.*.V %+-.;.'.g e b 0 8 } 1 _ ,@^ { ~ ! ) ) ) ) ! ! ! ~ { ^ 3 1 B.s.n+o+f+p+z+<.[.}.2+1.R+R+R+1.1.1.1.1.1.1.1.R+R+R+R+R+R+R+1.1.2+'@)@!@~@!.i.c 9 } _ 4 ^ ] ] ] ] ] ^ b./ / ",
"1 1 2 2 _ 3 4 / ] { ~ ! ) 5 ' 6 > j ; $ $ # # $ $ ; j > 6 l.5 K.M.#+]+( T < m.{@]@c.,.q.x h.X+).=.*.&.W %.%.X ^+$.Y #.D.D.D.Y $.$.R R R R =+B Q.A =.U '.f c a 9 i [ 1 T 3 4 / ^ ^ ^ / 4 _ 2 | } i i i i } | 1 2 _ 3 3 3 _ 2 1 | } i 8 8 9 9 9 9 9 9 9 8 8 i } | 1 2 _ _ _ _ 2 2 1 1 | } i 8 9 a c e f g g g f f e c b a 0 9 8 } | 1 2 3 4 / ^ { ! ) ' , 6 > j ; $ # + + .   @ k l m n n o o o o o p p p p p p p p q q q q r r s t+t+t+Z+Z+Z+Z+Z+Z+Z+t+t+t+t+t+t+t+t+t+t+s s q p n m l k k @ @     . . . + + + + + + + + # # $ ; ; j j > > > 6 ' 5 ! { ^ / 3 _ _ _ _ _ 2 2 2 _ 3 / ] { ! 0.' ' ' ' 5 5 5 ' ' ' ' ' ' ' x.5 5 5 5 5 5 5 ) 5+L.~ M.{ { ] ] ] ] ] ] ] ] ] { { ~ ~ ~ ! ! ) 5 , 6 j ; # + + + # $ j 6 ' ) ) ' 6 ; # . k ^@n n n n n n n n n m l k @ . # = 6 ' /@{ ^ 4 (@2 | } 8 9 0 0 0 9 i | 2 3 / ] ~ ! ) 5 5 5 ) M.^ ( : < m.N.]@c.,.q.>._@:@).=.&.W %.%.%.%.W W &.&.*.*.=.).z U h.h g e c a 9 i | 2 3 4 ^ ] { { ~ ~ ~ { { { ] ^ 3 2 m.p.j.t.L+M+<@[@}@[.}.|.1.R+R+R+R+R+1.1.1.1.1.R+R+R+R+R+R+R+R+1.|.$@%@|@U+1@g.t.r.8 | _ / ^ ] ] ] ] ^ / 4 3 3 ",
"| | | 1 2 _ 3 4 / ^ ] { ~ ! ) ' , > j j ; ; ; ; j > 6 , x.) L.w ^ ]+A.: [ B.2@3@W+I+x 4@;.).=.*.W %.%.X X $.$.#.Z @.@.@.o.Z #.#.D.D.D.R R =+B Q.V z y g c s.8 } 1 _ 3 / ^ w { ~ ~ ~ { ] / 3 2 1 | | } } } | | 1 2 _ _ 2 1 | } i 8 9 0 0 a a a a a 0 0 9 9 8 i } | 1 2 2 2 2 2 1 1 | } i 8 9 0 c.c e f f f f f e c b a 0 9 8 i | 1 2 3 4 / ^ ] ~ ) 5 ' , 6 > j ; $ # + + .   @ k l m n n o o o o o o o o p p p p p p q q q r r s t+t+Z+Z+Z+Z+Z+Z+Z+Z+Z+Z+Z+Z+Z+Z+Z+Z+t+t+5@s r p o m l k k k @ @     . . . . . . . . + + # # $ $ ; ; j j j > 6 , ' ) ~ { ^ 4 3 3 _ _ 2 2 1 1 1 2 3 4 / ] { ! ! ! ! ~ ! ! ) ) 5 5 ' ' ' , , J.6 6 > > > > 6 J., 6@' 5 5 )+) ) ) ! ! ! ! ! ! ! ! ! ! ) ) 5 , 6 j ; # + + + # $ ; > , 5 5 , > $ + @ l n o p q q q p p o o n m l @ . # j 6 7@/@8@9@0@3 2 | } 8 9 0 0 0 0 8 } 1 3 / ] ~ ) 5 ' , , ' ) M.7 ( T : [ B.2@@+F.s+q.G+h.;.a@=.*.&.&.*.*.=.=.=.).).-.U ;.h.{.x f e c b 0 9 i | 1 _ 3 4 4 / b.^ ^ ^ ^ / 4 3 2 } 9 r.].H.:@b@c@+@O+P+Q+|.R+R+d@d@R+R+R+R+1.#@R+R+R+d@d@R+R+R+1.1.|.'@)@e@&@f@{.e 0 i 1 3 / ^ ] ] ] ^ / 3 _ 2 2 ",
"} } } | 1 2 _ 3 4 / ^ ] { ~ ! ) ' , 6 > > > > > 6 , ' 5 ! M.#+b.( T < m.N.]@g@s+u+v+;.a@=.*.&.J+%.X $.$.#.#.Z @.` ` ` ` @.@.o.o.o.Z D.R =+B Q.A S U h e a 8 } 7+3 / ^ { L.) ) 5 5 ) K.~ ] / 3 _ 2 1 | | } } } | 1 1 1 | [ i 8 9 0 a b b c c c b b a a 0 0 9 8 i | 1 1 2 2 1 1 1 | } i 8 9 0 a b c c e e e e d c b a 0 9 8 i } 1 2 3 4 / ^ ] ~ ! 0.' , 6 > j h@; $ # + . .   @ k l m n n o o o o o o o o o o o p p p p q q r r s t+t+Z+Z+i@i@i@Z+Z+Z+Z+Z+Z+Z+Z+Z+Z+Z+Z+t+t+s r p o m l l k k k @ @     . . . . . . . . + + # # $ $ ; ; j j j > 6 l.5 ! ~ ] / 4 3 _ 2 2 1 | } } | 1 2 _ 4 / ^ #+^ ^ ^ ^ ] { ~ ! ) 0.5 ' , 6 > j ; $ $ $ $ $ j@; j - > 6 6 , , ' ' x.5 5 ) ) ! ! ! ! K.) 5 ' , > ; $ + + + # $ ; > , ' ' 6 j $ . k m o q r r r r r q p o n m k @ k@$ j l@7@/@8@9@0@3 2 | i 8 0 0 a a 0 9 i 1 _ / ] ~ ) ' , 6 6 J.' K.w 7 ]+A.T < i+B.2@3@g@,.f.x >._@-.-.-.-.-.X+;.;.;.h.h.'.>.h g f e c c b a O.8 i } | 1 7+2 _ _ 3 3 3 3 3 _ 1 } 8 a ,.g ~.a@1@m@n@o@P+Q+p@R+d@d@d@d@R+R+R+R+R+R+R+d@d@d@R+R+1.1.|.Q+q@|@r@s@!.i.j.9 } 2 3 / ] ] ] ^ / 4 _ 7+1 | ",
"i i } } | 1 2 _ 3 4 / ^ ] { ~ ! ) 5 ' , , , , , ' 5 ) ~ w 7 4 A.: [ B.O.3@W+I+G+h.:@t@*.&._+ +X $.#.#.@.@.@.` +. . . . .+.` @.@.o.o.D.R =+B A S U '.f b 9 } 1 3 / ] ~ ) 5 6@, , , , ' ) ~ ] / 3 _ 2 | | } i i } } } } i B.9 0 a b c e e e e e c c b b a a 0 9 8 } | 1 1 1 1 1 | } H+i 8 9 0 a a b b b c c b b a 0 p.9 8 i [ 1 2 3 4 / ^ { ~ ! ) ' , 6 > > j ; $ # + . .     @ k l m n o o o o o o o o o o o o o p p p q q r r s t+Z+Z+Z+i@i@i@i@Z+Z+Z+Z+Z+Z+Z+Z+Z+Z+Z+t+t+s r q o n m l l k k k @ @         . . . . . . + + # # $ $ ; ; ; j > 6 , ' ) ! { ^ 4 3 _ 2 1 } i B.8 B.i } | 1 2 _ 3 3 _ /+3 4 / ] { ~ ! ) 5 , 6 j ; $ # + . . + + # # $ ; j > > 6 , , ' 5 5 ) ! ! ! ~ ~ ! ! ) 5 ' 6 > ; $ # # $ ; j 6 , ' ' 6 j % . k m p q r s s s r r q o n m k   + $ > , 5 /@8@9@0@3 2 | i 8 0 a a a 0 9 i 1 _ / ] ! 5 , 6 > > > J.x.K.M.#+7 *@A.u@< i+B.N.]@3@F.,.I+u+x x x x x x x x q.q.q.f f e ,.c b b a @+0 9 8 8 i } } } | 1 1 2 2 2 2 1 u i 0 b f h g.v@<@w@}@[.x@Q+1.R+d@d@d@d@d@R+R+R+R+R+d@d@d@R+R+#@1.|.Q+}.y@}@m@z@A@B@C@8 | _ 4 ^ ] ] ^ ^ / 3 2 | } } ",
"8 i i } | | 1 2 _ 3 4 / ^ ] { ~ ! ) ) 5 5 5 5 ) ! ~ { ^ ]+A.: [ B.O.@+F.s+u+>.L+D@E@-@W %.X $.#.Z @.@.+.+.+.+.....F@F@..E +.+.P P o.D.R =+Q.V z y g c 0 i 1 3 / { ! 5 , 6 > j j > > , ' ! { ^ 4 _ 2 | } i 8 8 8 8 8 8 9 0 a b c e f f f f f f e e c c b b a 0 9 i } | | 1 1 | | } i 8 8 9 0 0 a a a a a a 0 0 p.9 8 i } | 1 2 3 4 ^ ] { ~ ! ) ' , 6 > j j ; $ # # + .     @ k l m n n o o o o o o o o o o o o o p p p q q r r s t+Z+Z+Z+i@i@i@i@Z+Z+Z+Z+Z+Z+Z+Z+Z+Z+Z+Z+t+s r q p n m l l l k k @ @ @               . . . + + # # $ $ $ ; ; j > 6 ' 5 ! { ^ 4 3 2 1 } i 9 0 0 0 0 0 9 8 i m.} } } } | 1 _ 3 / ^ { ~ ) ' 6 j ; # .         . . + # $ j > 6 , , ' 5 ) ! ! ~ { { ] ] { { ~ ! ) ' , > j ; ; j > > J.' ' ' 6 j $ . @ m o q r r s s r q p o n l @ . # ; > , 5 /@8@9@0@3 2 | i 8 0 a a a 0 9 i 1 3 / { ! ' , > j j j > , x.K.L.G@H@7 *@I@T V+F+i+B.N.O.@+c.F.F.F.F.F.F.F.F.F.F.F.F.b b a a @+0 0 0 0 O.9 9 8 8 8 8 i } } | | | | } i 9 a c t.{.g.t@<@w@}@[.q@Q+1.R+d@d@d@d@R+R+R+R+R+R+d@d@R+R+J@1.|.Q+}.K@L@M@1@N@H.d 0 i 1 3 / ^ ] ] ^ / 4 _ 1 } i i ",
"8 8 i } } | 1 2 _ 3 4 / ^ ] ] { { ~ ~ ! ! ! ~ { ] ^ ,@3 2 | S.N.@+F.f.q.G+h.X+).Y+&._+X $.#.Z @.` +.+.+.......F@E.E.E.F F@E E +.P o.D.R B A S y h e a 8 | _ / ] ! 5 , > ; $ $ $ ; j > , 5 ~ ] / 3 2 | i 8 9 0 0 0 s.a c.b c e f g g h h g g g f e e c c c b a 0 8 i } | | 1 | | } i i 8 9 9 0 9 9 9 8 8 8 8 8 8 i } } | 1 2 3 4 ^ ] { ! ) 5 ' , 6 > j j ; $ $ # + .     @ k k l m n o o o o o o o o o o o o o o p p p q q r r s t+Z+Z+Z+i@i@i@i@Z+Z+Z+Z+Z+Z+Z+Z+Z+Z+Z+Z+t+t+s r p o n m m l l k k k @ @ @ @ @ @ @       . . + + # # # $ $ ; j > 6 , 5 5+{ ^ 4 _ 1 } 8 p.a b c e e d c F.b c.a a @+0 9 8 } 1 2 3 / ] ~ ) , > ; # .   @ @     . + # ; j > , ' 5 ) ! ~ { ] ^ ^ / / / / / ^ ] ~ ! 5 ' , 6 6 6 , , ' 5 5 ' , > $ +   l n p q r r r q p o n m k   . # ; > , 5 ! 8@9@0@3 2 | i 8 0 a a a 0 8 } 7+3 ^ { ) ' 6 > ; ; ; j y.J.x.0.K.L.M.H@O@]+( A.T : < [ m.P@B.Q@Q@N.N.2@2@O.O.O.O.O.O.9 9 N.N.N.V.9 9 9 9 9 9 9 9 9 9 8 i i i } } i 8 O.R@e g {.g.t@<@z+}@o@P+Q+|.R+R+R+R+R+R+R+R+R+R+R+R+R+R+J@1.|.Q+}.P+o@+@S@v@T@t.r.V.u 2 3 / ^ ] ] ^ / 3 2 | i 8 8 ",
"8 8 i } | 1 2 _ 3 4 4 / ^ ] ] ] ] ] ] ] ] ] ] ^ 4 3 2 ;+m.N.@+F.e q.>.h.X+D@=.*.U@%.X $.#.@.@.+.+.+.........E.E.E.E.E.E.F F E E P o.D.=+Q.V -.'.f b 9 } 2 4 #+~ 5 , > ; # + + + # ; j 6 5 ! ] / 3 1 } 8 9 a b F.c c c e ].f g g h h '.h h h g f f e e d c c b a 9 i } | | 1 | | } } i 8 8 9 8 8 i } } } } } } | | | 1 2 _ 3 4 ^ ] ~ ! ) 5 ' , 6 > j ; ; $ $ # + . .   @ k k l m n n o o o o o o o o o o o o o o p p p q q r r s t+Z+Z+Z+i@i@i@i@Z+Z+Z+Z+Z+Z+Z+Z+Z+Z+Z+Z+t+t+s r q o o n m m m l l k k k k k @ @ @ @       . . + + + # # $ ; j > 6 , ' ) { ^ 4 2 | i 0 b ,.f g h h {.>.>.h x g t.q.f ,.b 0 8 } < T 4 ^ ~ 5 6 j V@9+  @ @ W@  . + $ ; > J.' ) ! { ] ^ / 4 4 3 _ _ _ _ _ 3 / ^ ] ~ ! ) 5 5 5 5 5 0.) ) 5 , 6 j # . @ l n o p p p p o n m k @ . + $ j 6 X@5 ! 8@9@]+3 2 | i 8 0 0 a 0 9 i | 2 4 ^ ~ ) ' 6 j ; $ $ ; j y.J.Y@Z@`@e+ #M.w #+7 ]+]+( A.T T : V+V+< F+F+[ [ [ m.m.m.m.m.} } } m.i B.8 N.N.9 9 9 0 0 9 9 8 8 8 i i 8 8 0 b d q.>..#v@b@c@+@O+y@}.2+1.#@R+1.1.1.1.1.R+R+R+R+R+1.1.|.Q+q@y@O++@v.Z..#^.d s.i 1 _ 4 ^ ] ] ^ / 4 _ 2 | i 8 9 ",
"8 i i } | 1 2 _ 3 4 / ^ ^ ] ] ] ^ ^ / / / / 4 3 _ 1 } 8 p.c.,.f h h.:@).=.Y+&.W %.X $.#.@.@.+.+.+#......@#E.E.E.######}+E.F ..E P o.R B A S y g ,.s.U.| _ / { ) , > ; # + . . . # $ j 6 5 ~ ] 4 _ | i 9 a F.e ].f f g g g h h h '.'.'.'.h h g f ].e e e e c c a 9 8 i } | < 1 | | } } i i i i } | 1 2 2 2 2 2 2 2 2 _ _ 3 4 ^ ] { ! ) 5 , 6 > > j ; ; $ $ # + + .   @ @ k l m m n n o o o o o o o o o o o o o o p p p q q r r s t+t+Z+Z+i@i@i@i@Z+Z+Z+Z+Z+Z+Z+Z+Z+Z+Z+Z+Z+t+s r q p o o n n m m l l k k k k k k @ @ @       . . . + + # $ ; j > 6 , 5 ! { ^ 3 1 } 9 b e g {.y U z z ).).).).!.-.U y {.g e b 0 8 u 2 4 ] ! ' > ; $#.       %#9+# $ j 6 ' ) ~ { ^ / 4 3 _ 2 1 1 | | | 1 7+_ 3 4 b.] { ~ ~ ~ ~ ! ! ! ! ) 5 , > ; # . @ k m n n n n m l k @   + # ; j 6 ' 5 ! 8@9@/ 3 2 | i 8 0 0 0 9 8 } 1 _ / ] ~ 5 , 6 j ; $ $ * ; j - y.&#Y@Z@`@0.K.L.M.w w #+++7 ]+]+*@( ( I@A.*#T T T : : : : : 1 1 < | [ m.i B.8 8 9 9 9 9 9 9 8 8 8 i 8 8 9 a c ].x 4@:@M+<@z++@o@P+=#2+|.|.|.2+2+|.C+p@p@1.1.1.C+2+'@x@[.L@+@v._.Y.H.W.r.V.[ 2 3 / ^ ] ] ^ / 4 _ 1 } i 8 9 ",
"i i } | 1 2 _ 3 4 / / ^ ] ] ] ^ / 4 4 4 3 3 _ 2 | } 8 0 b e g {.;.-.t@Y+*.&.W %.X $.`.-#@.;#+.+.>#......@#E.E.E.########}+E.F E P Z R B V z '.f b 9 } 7+3 ^ ~ 5 6 j $ + .     . + $ j , ) { / 3 1 } 8 a j.e t.g h h h h h h h '.'.'.'.h h g g f e d d d e d c a 0 8 i } | < 1 < | | } } } | | : _ 3 4 4 4 z.3 3 3 3 3 4 / ^ ] { ! ) 5 ' 6 > j j ; ; $ # # + + .     @ k l l m m n n n n o o o o o o o o o o o p p p q q q r r s t+t+Z+Z+Z+Z+i@Z+Z+Z+Z+Z+Z+Z+Z+Z+Z+Z+Z+Z+Z+t+t+s r q p p o n n m m l l l l ,#k k k k @ @       . . . + # $ ; j > 6 , 5 ! { / _ | 8 a e g '.U z 4+w.A Q.Q.W W .+&.w.4+z y h f c a V.} 2 4 '#5+6@> j@$#k@. . . + # ; > , 5 ! { ^ 4 _ 2 1 | } i B.8 8 8 i i [ 1 2 _ 3 ,@/ ^ ^ ] ] ] { { ~ ! 5 , 6 j $ + . @ @ k k k k @   . + # $ ; > 6 ' 5 ! 8@] / 3 2 | i 8 9 0 9 8 i | 2 3 ^ { ! 5 , 6 j j ; ; * ; = = - - y.&#J.l.x.0.) K.! L.L.M.M.M.w w H@#+#+7 7 ]+]+( ( ( 3 3 A._ _ 2 : 1 | | } } i i 8 8 8 8 8 8 i i i 8 9 0 b c f i.~.:@M+<@z++@o@K@q@'@'@=#q@=#'@'@$@2+2+C+|.$@'@x@[.L@+@v._.(.o+)#!#~#S.7+3 / ^ ] { ] ^ / 3 2 1 } i 8 8 ",
"} } | | 1 2 _ {#,@/ ^ ] ] ] ] ^ 4 3 _ _ _ 2 1 | i 9 0 b e g '.g.z =.*.-@U@W _+ +d+`.`.-#@.;#+.+.>#>#....@#@#@#E.########}+E...E ` D.=+Q.S U h d s.U.| T 4 ] ! ' > ; # .   @   . # ; > ' ! ++( 2 } 8 0 F.e g h '.~.~.~.~.'.{.h h h h h h g f f e d c j.c c c c a 0 8 i } | < 1 1 1 1 1 1 1 2 _ 3 / ^ #+] #+^ ^ / / / / / ^ ] { ~ ) 5 ' , 6 > j ; ; $ # # + + . .   @ k k l m m n n n n n n n n n n n n o o o o p p p q q q r r s t+t+t+Z+Z+Z+Z+Z+Z+Z+Z+Z+Z+Z+Z+Z+Z+Z+Z+Z+Z+Z+t+s s r q p p o o n n m m l l l l k k k @ @ @       . . + # $ ; j > 6 ' 5 ~ ] 4 2 } 0 c g '.U S w.Q.B =+k.R '+'+$.k.9.I.A 4+!.4@t.d r.9 } :+,@w 5+6@y.= V@$#& & # $ j 6 ' ) { ^ 4 _ 1 } i 8 9 0 a a a a s.0 9 8 S.| 1 2 _ 3 3 4 4 / / ^ ] { ~ ) ' , > j $ # + + . . . . + + # $ ; j > 6 ' 5 ! 8@] / 3 2 | i 8 9 9 8 i | 2 3 / ] ~ ) 5 , 6 > j j ; ; * * * = = j - > 6 J., l.' x.x.5 5 0.0.0.K.K.! L.M.M.w w H@#+#+7 7 / ]+4 3 3 _ _ 2 2 1 | | } } } i i i } } } } i 9 0 c.c ].x 4@:@M+b@v.M@}@o@|@|@|@]#]#|@K@)@q@%@=#=#%@)@]#}@[@S@_.(.u.)#!#p.S.1 /+,@^ ] { { { ^ / 3 2 1 } i 8 8 ",
"} | | 1 2 _ 3 4 / ^ ] ] ] ] ] / 4 _ 2 1 1 | } i 9 a F.e g '.U ).=.*.-@U@_+_+ +^#/#`.(#-#_#;#;#+.>#>#>#..@#@#@#@#3.3.3.##}+E...+.o.Y B A z ~.t.j.p.S.7+/+/ { K.l.> $ + .   @   . # j $+) { 4 2 u 8 0 F.f.g '.y U U U U y '.{.h h :#g g g f ].e c j.j.b j.j.j.b a 0 8 i } | 1 : : 2 2 2 _ _ 3 4 ^ '#~ <#! <#~ { { ] ] ] ] ] { ~ ! 5 ' , 6 > j ; ; $ $ # # + + .   @ @ k l m m [#n m m m n n n n n n n n n o o o p p q q q r r r s s t+t+Z+Z+Z+Z+Z+Z+Z+Z+Z+Z+Z+Z+Z+Z+Z+Z+Z+Z+Z+Z+t+s s r q q p o o n n m m l l l k k k k @ @ @       . + # $ ; j 6 , ' ) ~ ^ 3 1 B.a f '.U =.A I.9.R D.D+c+T+T+T+c+D+'+9.U@1@a@~.i.].j.p.u :+,@'#5+}#|#1#2#* V@* = y.l.) ~ ^ 4 2 | } 8 0 a b c e e e e c c b a 0 9 i } | | 1 : 2 _ _ 3 4 / ^ { ~ ) 5 6@6 > > j ; ; $ $ $ $ ; ; j > 6 , ' 5 ! ~ ] / 3 2 | } 8 9 9 i } 1 _ 4 ^ { ~ ) ' , 6 > > j j ; * * $ $ * * ; = j > > y.6 6 6 6 J.J.J.J., l.' x.5 0.K.K.L.L.M.M.{ ] ] ^ ^ / / 4 4 3 3 _ 2 2 1 1 | | | | | | | } i 8 O.a F.f.q.b+x+:@M+3#v.z+M@M@M@M@M@M@M@n@n@^#e@e@^#4#w@S@3#5#,+X.6#!#~#S.;+/+,@^ ] { ~ { { ^ 4 (@2 | } i i i ",
"| | | 1 2 _ 3 4 / ^ ] ] ] ] ^ / 3 2 1 | } i 8 9 a c e g '.U %+4+-@U@w@_+4# +^#/#/#(#(#_#_#;#7#7#>#>#>#8#8#@#@#9#3.3.3.3.9#@#..+.o.R B V U {.].r.V.u :+z.^ ~ ) , j $ + .     . + ; 6 x.~ ^ _ | 8 0 F.f x '.U z %+%+%+z U ~.h h g g f f e e c c j.b r.r.r.r.a a 0 9 8 i } < : 2 T _ _ 3 4 / ^ ] ~ 5+5 E+E+5 5 ) ! ~ ~ 8@~ ~ ! ! ) x., 6 > j ; ; $ $ # # + + . .   @ k k l m m n m m m m m m m n n n n n n n o o p p q q q q r r s s t+t+t+Z+Z+Z+Z+Z+Z+Z+Z+Z+Z+Z+Z+Z+Z+Z+Z+Z+Z+Z+Z+t+t+s s r q p p o o n m m l l l k k k @ @ @ @     . + # $ ; g+6 , 5 ! { / _ | N.b g y S w.I.k.'+D+;#0#a#9#9#9#9#3+T+D+k.&@1@v@g.{.G.!#V.u b#c#d#5+}#$+e#- 1#- y.l.0.~ ] 4 _ | i 9 0 b c e f g g g g g f e e c b 0 9 9 8 i i } [ | 1 2 _ 3 4 7 ] { ~ ! ) 5 ' , 6 > j j j j j > > 6 , ' 5 ! ~ ] / 3 2 | } 8 8 8 } ;+_ 3 / ] { ! ) ' , 6 > > > j ; * % % # # % $ $ ; ; ; j j j j j j j j - - > y.6 J.l.l.x.x.0.0.) ! ! ~ ~ { { ] ] ^ ^ / / 4 3 3 _ _ 2 2 2 2 2 2 1 | } i N.0 c.F.n+w+.@4@.#f+v@z@z@Z.M+v@M+Z.z@z@b@1@1@Y+z@v@N@/..@6#f#g#h#u 7+/+,@++{ ~ ~ ~ ~ { ^ 4 _ 2 | } i i i ",
"} | | 1 2 _ 3 4 / ^ ^ ] ] ^ / 4 _ 1 } i i 8 9 a c e g '.g.z 4+-@U@_+4#^#^#/#/#y@(#x@_#%@=#7#7#7#$@8#8#8#8#8#8#C+C+C+C+3.9#@#0#c+D.=+Q.S g.i.d s.U.;+_ / ] ! E+6 ; # + . . . + $ > ' ! ^ 3 | 8 0 c f h ~.U z S V V V S !.y h g f f e c c c b b r.a a s.0 0 p.9 9 8 i } | 1 2 _ 3 ( 4 / ^ ] i#! 5 6@$+j#6 6 , 6@' 5 ) ! ! K.) 5 5 ' , 6 > j ; $ $ k## k++ + . .   @ k k l m m m m m l l l m m m m m n n n n o o o p p q q q r r r s s t+t+t+t+Z+Z+Z+Z+Z+Z+Z+Z+Z+Z+Z+Z+Z+i@i@i@i@i@Z+Z+t+t+s r q q p o n n m l l k k k k @ @ @     . . + # $ ; g+6 , 5 ! ] / :+} 9 c h U 4+.+9.'+6.T+3+9#l#m#m#m#m#l#4.T+)@e@M@S@z@N@o+w+n#h#o#p#q#r#s#t#}#u#J.l.x.) ~ ] 4 _ 1 i 9 a b e f g h '.'.'.'.h h g g f e c b a a 0 0 O.9 V.8 i m.| 1 2 _ ( / ^ ] { ~ 5+5 ' , 6 y.> > > y.6 , ' 5 ! ~ ] / 3 2 1 } i i i | 2 3 4 ^ ] ~ ! 5 ' , 6 > > j j ; % # & + + + # # # # $ $ $ $ $ $ $ $ $ $ * ; ; j - > y.6 J., l.' ' 5 5 ) ) ) ! ! ~ ~ { w ] ^ ^ / 4 4 3 3 3 3 3 _ 2 1 | } i 8 9 @+c.j.d w+^.H.{.4@H.H.H.H.b+b+H.{.4@4@{.b+^.w+>+r.p.U.u 7+/+,@^ '#~ ! ! ! ! ~ { ^ 4 _ 2 | } i i 8 ",
"} } | 1 2 _ 3 4 / / ^ ^ ^ / 4 3 2 | i 8 9 0 a c e g h y z 4+w.U@U+}@o@o@y@y@y@x@x@}.=#=#5.$@$@$@$@$@$@8#8#C+C+C+C+C+C+C+4.3+0#c+'+9.A %+~.t.j.0 i 1 3 ^ { ) 6@> ; # + + + # $ > ' ! #+3 1 8 a c f h y z S V A .+.+A V z y h f e c c b b a a a a 0 0 p.9 8 8 i i i } | 1 2 _ 3 4 / ^ w ~ ! ) ' $+> h@; ; j j > 6 , ' 5 5 5 5 ' ' , 6 > j j ; $ $ # # k++ v#. .   @ k k l m m m m l l k k l l l m m m n n n n o o p p q q q q r r s s s t+t+t+Z+Z+Z+Z+i@i@i@i@i@i@i@i@i@i@i@i@i@i@i@i@i@Z+t+s r q q p o n m l l k k k @ @ @ w#    . . + # $ ; g+6 6@)+~ ] 4 2 } 0 d h -.*.I.k.(#T+3+4.l#m#x#y#y#z#x#2.4.5.)@e@M@c@b@A#o+B#C#D#E#F#q#G#H#r+)+)+K.<#{ ^ 4 _ 1 i 9 @+b e f g h '.y y y y '.'.'.h g g f f.e d ,.c c j.j.F.r.a 0 9 8 i [ 1 2 A.4 b.] ~ ) 5 ' , J.6 6 6 6 , ' 5 ! { ] / 3 2 1 } } i } 1 _ 4 / ] { ~ ! 5 ' , 6 > > j ; $ # + 9+. . . I#+ + + + + + + + + + + & # # # $ $ ; ; j j - > > y.6 6 , , , ' ' 5 5 ) ) ! ! ~ i#{ ] ^ ^ ^ / / / 4 3 3 _ 2 1 < [ m.B.N.p.s.r.j.d d >+j.j.!#`+r.r.F.j.j.F.r.a p.V.S.;+:+z.]+++w ~ ! ) ) ) ) ! ~ { ^ 4 _ 2 | } i 8 8 ",
"} | | 1 2 _ 3 4 4 / / / / J#3 _ 1 } 8 9 0 a c e g h y U %+*..+_+n@o@y@K#P+x@x@}.}.=#Q+Q+$@$@2+|.|.|.|.|.|.|.|.|.|.|.C+4.4.L#T+M#N#B w.!.'.f j.p.S.7+3 ^ ~ 5 , > ; # # # $ ; > ' ! ^ 3 < 8 a e g '.y z V A Q.B B B Q.V z y g f c b a a 0 0 0 p.9 9 9 V.8 i } | | | | < : _ 3 4 ^ ] { ! ) 5 , 6 j * # # # # $ ; j > 6 , , , , , , 6 6 > j ; ; $ k## k+k++ v#. .   @ O#k l l m l l k k k k k k l l l m m m n n n o o p p p q q q r r s s t+t+t+t+Z+Z+i@i@i@i@i@i@i@i@i@i@i@i@P#P#P#P#P#P#i@Z+t+s r q p o n m m l k k @ @ @ @     . . + + # $ ; g+6 ' ) ~ ^ 3 1 i 0 e h !.w._+8.6.7#4.p@#@x#d@Q#Q#Q#d@x#2.4.'@K@e@R#:._.S#T#U#V#W#X#Y#Z#`#r#i#i#'#++/ 3 2 | i N.0 b e f g h '.y y y y y y y y '.'.h h h x g x x x x i.i.i.g f e c b 0 9 i u 7+/+,@++i#! 5 ' l.J.J.J.J., ' 5 ! { ^ ,@3 2 1 | } } | 2 3 4 ^ ] { ~ ) 5 ' , 6 > j h@; # + . .     . . . . . . . . . . . . . . . . + + # # $ $ * ; ; ; h@j j j > > > 6 6 , , ' ' 5 5 ) ) ! ~ ~ { { ] ] ^ ^ / / 4 ( 3 _ T 2 1 | m.U.V.9 9 V.V.U.U.U.i i B.U.U.B.i } | 7+_ 4 ^ '#M.! ) )+5 E+' 5 5 ) ~ { ^ 4 _ 2 | } i  $8 ",
"| | 1 1 2 _ 3 4 4 / / / 4 4 3 2 | i 9 0 a c e f h '.U z 4+w.&@4#e@y@P+P+}.}.}.}.Q+Q+Q+Q+|.|.|.|.|.|.|.|.|.|.|.|.|.|.|.4.4.L#T+M#k.I.V !.{.].r.9 } 2 4 ] ! 5 6 > ; $ $ ; j > ' ! ] 3 ;+8 a e g y U S V A B B =+=+B Q.w.z '.g e c a 0 9 9 8 8 8 8 8 8 i } | 1 1 1 1 1 2 _ 3 4 ^ ] { ! ) ' , > h@$ + . . . . + # $ ; j > 6 6 6 6 6 > > j j ; ; $ k## k+k++ + . .     @ k k k l l k @ @ @ @ @ k k k l l m m m m n n o o o p p p q q r s s s t+t+Z+Z+Z+i@i@i@i@i@i@i@i@i@i@i@P#P#P#P#.$.$P#i@Z+t+s r q p o n m m l k k @ @ @       . . + + # $ ; g+6 ' ) ~ ^ 3 1 i a e {.z w._+/#_#$@C+2.R+d@d@+$+$+$d@d@R+1.2+}.K@O+R#:.@$#$$$%$&$*$=$Y#q#Z#-$Z#b.4 /+2 | } 8 0 a c e g h '.'.y y U U U U U y y y y y y y y y ;.;.-.!.!.!.U y '.h g e b s.V.S.;+_ ,@++~ ! 0.x.l., , , ' 5 ) ~ { ^ 4 3 2 1 | | | 1 2 3 / ] { ~ ! ) 5 l.6 > > j ; $ # + .                                       . . . + + # # # $ $ $ $ $ $ ; ; ; j j > > 6 6 6 , , ' 5 5 ) ) ! ! ~ ~ { { w ] ] ^ ^ / / 4 3 _ 2 1 | | ;+1 7+7+2 2 2 2 2 2 :+_ 3 4 / ] { ! ) 5 5 ' ' 6@, ' ' 5 ) ~ { ^ 4 _ 2 1 } } i i ",
"1 1 2 2 _ 3 4 4 4 / / 4 4 3 _ 1 } 8 0 a b e f g '.U z =.w..+_+!@o@y@P+}.}.}.;$Q+Q+Q+Q+|.|.|.|.|.|.|.|.|.|.|.|.|.|.|.|.2+4.L#T+M#k.I.V -.{.].r.9 } 2 4 ] ! ' 6 > j = j > 6 ' ! ] 3 | 8 a e h y z V A Q.B =+=+=+=+=+Q.V z '.q.,.b 0 9 8 i i i } } } } } | 1 2 _ _ 2 2 _ 3 4 / ] { ! ) ' 6 > ; $ + .   @ @     . + $ ; j j > > > > > j j j ; ; $ $ # # k++ + v#. .     @ @ @ @ @ @           @ @ k k l l l m m m m n n n o o p p q r r s s t+t+Z+Z+i@i@i@i@i@i@i@i@i@i@i@i@P#P#P#.$.$.$P#P#i@Z+t+s r q p o n m l k k @ @ @       . . + & # $ ; g+6 ' ) i#^ 3 1 U.a e '.z w.U+/#_#$@C+2.R+d@>$+$+$+$+$d@R+J@|.Q+q@[.O+N+,$'$)$!$~${$]$^$F#/$/$z.z./+2 | } 8 9 a b c f g h '.'.y y y U U U U U U U U z z z ).S =.4+*.w.A w.V S z U '.h f c a V.} 7+3 / '#~ K.5 x.' ' ' x.5 ! ~ ] ^ 4 _ 2 1 | | 1 7+_ 4 ^ ] { ~ ! ) ' , 6 > j ; ; $ + .                         W@@ @ @ @ @ @ @     . . + + + + # # # # # # # # # $ $ ; ; j j g+> > 6 6 6 , , ' ' 5 5 ) ) 5+! ! ! ! ~ ~ { ] ^ / 4 4 ( 4 ,@,@/ / / / / ^ ^ ^ ] w { L.) 5 ' , , 6 6 , , , ' ' ) ! ~ ] ^ 4 3 2 1 | } } } ",
"_ _ _ 3 3 4 4 / / / / 4 4 3 _ 1 } N.0 b c e g h y -.S V &.I.4#^#|@P+}.}.}.Q+Q+Q+Q+2+|.|.|.|.|.|.|.|.|.|.|.|.|.|.|.|.|.2+4.L#T+M#k.I.V -.{.].r.9 } 2 4 ] ! ' , 6 > > 6 , 5 ~ #+3 < 8 b f h U S A Q.B =+R R R R =+B Q.V U >.f c a 0 8 i } | | | | | 1 1 2 _ 3 3 3 3 3 3 4 / ] { ! ) ' , > ; $ + . @ @ k k k @   . + # $ ; ; j j j j j j ; ; ; $ $ k## # + + + . . . .           . . . . .     w#@ k k k l l l l l l l m m n o p p q r s s t+Z+Z+i@i@i@i@i@i@i@i@i@i@i@i@i@P#P#P#.$.$.$P#P#i@Z+t+s r q p o n m l k k @ @ @       . . + + # $ ; j 6 ' ) i#^ 3 1 U.a e '.z w.U+/#_#$@C+2.R+d@>$+$+$+$+$d@($#@p@Q+}.P+[.<.q+@$#$$$U#V#W#]$X#^$p#p#:+2 1 u i 8 0 a b c e f g h h '.'.y y y U U U z z S S S V *.&.Q.W B %.9.B Q.A V z U '.g e b p.i ;+_ ,@] { ! ) 5 5 5 5 5 ) ! { ] / 4 _ 2 1 1 1 1 2 3 / ^ { ~ ! ) 5 ' , > j j ; $ # + .   @ @ @ @ @ @ @ @ @ @ @ @ @ @ k k k k k @ @     . . . + + + + . . . . + + + # # $ $ ; ; ; ; h@j j j - > 6 6 , , , ' ' ' ' ' ' 5 5 ) ! ~ { { { { i#i#~ ~ ~ ~ ~ ! ! ) ) 5 ' , 6 > > j j > > 6 6 , ' 5 ) ~ { ] / 4 3 _ 2 1 1 | | ",
"3 3 4 4 / / / / / / / 4 3 _ 2 | i 9 a b e f g '.U z V A W _+ +/#y@x@}.}.Q+Q+Q+Q+2+|.|.|.|.|.|.|.|.|.|.|.|.|.|.|.|.|.|.2+4.L#T+M#k.I.V -.{.].r.9 } 2 4 ] ! 5 , , , , ' ) M.^ 3 < 8 b f '.U S A B =+R R D.D.R R =+B A S U h ].b a 9 i } | 1 2 2 2 2 2 _ _ 3 4 4 4 4 4 4 / ^ { ~ ) 5 , 6 j $ # .   @ k l l l k @   . + # $ $ $ ; ; ; ; ; ; ; ; ; $ $ # # k++ + + + + + + + + + + + + + + + . . .   W@@ @ k k k k k k k k l m n o p q r s t+t+Z+i@i@i@i@i@i@i@i@i@i@i@i@i@i@P#P#P#P#.$.$P#P#i@Z+t+s r q p n m m l k k @ @ @       . . + + # $ ; j 6 ' ) ~ ^ 3 1 i a e h !.w._+/#x@$@C+1.R+d@d@+$+$+$d@d@R+1.|.Q+}.P+[.O+N+_$'$)$!$:$&$W#<$[$}$}$7+1 | } i 8 0 a b c e f f g g h h '.'.y y U U z S S V V A Q.B =+=+R R k.=+B &.V z ;.'.g e c.9 i | _ 4 ^ { ~ ! ) ) ) ) ) ! ~ ] ^ / 3 _ 2 1 1 1 2 _ 3 / ] { ~ ! ) 5 , 6 > j ; $ $ # + .   @ @ @ @ @ @ @ @ @ @ @ @ @ k l l l l k k @ @       . . . . .           . . + + # # # $ $ $ $ $ $ $ $ ; ; j j > > > > > > > > > 6 J., ' 5 ) ) 5 5 5 5 5 5 5 ' ' , , 6 > - j ; $ $ $ ; ; j > 6 , ' 5 ! ~ ] ^ / 4 3 3 _ 2 2 1 1 ",
"/ / / / ^ ^ ^ ^ ^ / / 4 3 _ 2 | 8 0 b c e g h y !.S A Q.I. +d+/#y@x@}.Q+Q+Q+Q+2+|.|.|.|.|.|.|.|.|.|.|.|.|.|.|.|.|.|.|.4.4.L#T+M#k.I.V -.{.].r.9 } 2 4 ] ~ ) ' ' 5 5 ! { / /+;+8 a f '.!.V Q.B R D.D.Z D.D.R =+B Q.V z y x e b 0 8 i | 1 2 _ 3 3 3 3 3 4 ,@/ / / / / / ^ { ~ ! 5 ' 6 > ; $ + . @ k l m m l l k @   . + # # # $ $ $ ; ; ; ; ; ; $ $ # # # + + + + + + # # # # $ $ $ $ $ # # + + . .         @ @ @   @ @ k l m n o p q s t+Z+Z+i@i@i@i@i@i@i@i@i@i@i@i@i@i@P#P#P#P#.$.$P#P#i@Z+t+s r q p n m m l k k @ @ @       . . + + # $ $ j > , 5 ~ ] 4 2 i 0 c h U 4+&@^#x@'@|.1.R+R+d@d@d@d@d@d@R+1.|.Q+}.P+|$O+N+1$@$#$T#2$3$&$W#<$h+[$7+;+| } i 8 9 0 a b c c e e f f g g h '.'.y U z S S V A A Q.B =+=+R X =+B Q.V ).U '.g e b 0 8 } 1 _ 4 ^ { ~ ~ ! ! ! ! ~ ~ { ] / 4 3 _ 2 1 1 2 2 3 4 ^ { ~ ! ) 5 ' , > j ; ; $ # + .   @ @ @ @ @ @ @ @ @ @ @ @ @ k k l m m m l l k k @ @               @ @       . . + + + # # # # # + + + # # $ $ ; ; ; j ; ; ; ; ; ; ; j > 6 6 , , , 6 6 6 6 6 6 > > j j ; $ % # # + + # # $ ; - 6 , 5 ) ! { ] ^ / 4 4 3 3 _ _ _ 2 ",
"^ ^ ] ] ] ] ] ] ^ ^ / 4 3 _ 1 } 8 a b e f g '.U z V &.I.9.k.8.(#x@}.=#Q+Q+Q+|.|.|.|.|.|.|.|.|.|.|.|.|.|.|.|.|.|.|.|.|.4.4.L#T+M#k.I.V -.{.].b 9 } 2 z.^ ~ ! ) ) ! ~ ] / _ | 8 a e h U V Q.=+R D.o.o.o.o.D.R =+Q.A S U '.g e b 0 8 } 1 2 _ 3 4 4 / / / / ^ ^ ^ ^ ^ ^ ^ ] ~ ! ) ' , 6 j ; # + . @ k l m m l l k @   . . + + + # # # $ $ ; ; ; ; $ $ # # # + + + # # # $ $ ; ; ; ; j j j ; ; $ $ # # + + + + . . . . . %#  k l m o p q s t+Z+i@i@i@i@i@i@i@i@i@i@i@i@i@i@i@P#P#P#.$.$.$P#P#i@Z+t+4$5$q t n m m l k k @ @ @     . . . + + # # $ ; > 6 ' ! { / _ u 9 b g y %+.+4#y@=#$@|.1.R+R+d@d@d@R+R+1.1.|.Q+}.}.P+[.<.q+_$S#)$6$%$V#7$8$o#;+;+;+| } i 8 9 0 0 a b b b c c c e f f g h '.y U z S S V A A Q.Q.B B 9$Q.A S -.y h f c a 9 8 } 1 _ 3 / ] { { ~ ~ ~ ~ ~ { { ] ^ / 4 3 _ 2 2 2 2 _ 3 / ] { ! ) 5 ' , 6 > j ; $ # # + .   @ @ @ @ @ @ @ @ @ @ @ @ @ k l m n n n m l l k k @ @ @       @ @ @ @ @     . . + + + k+# + + + . . . . + + # $ $ $ $ $ # # # & # # # $ ; j j j j j j j j j j ; $ $ # + + . . . . . + & % ; j y., 5 ) ~ a.^ / / 4 4 4 3 3 3 3 3 ",
"{ { { { { { { ] ] ^ / 4 3 2 1 i 9 a c f g h y U S A Q.%.X d+`.(#x@=#Q+Q+Q+|.|.|.|.1.1.1.1.1.1.|.|.|.|.|.|.|.|.|.|.|.|.4.4.L#T+M#k.I.V -.{.f b 9 } 2 3 ^ { ~ ~ ~ { ^ 4 _ | 8 @+c g y S A B R D.o.P P o.Q R =+B A 4+!.y h t.e b 9 i | 2 _ 4 / / ^ ^ ^ ] ] ] ] ] ] ] ] ] { ! ) 5 ' 6 > j ; # + . @ k l m m l l k @ @   . . . . + + # # $ $ ; ; ; ; $ # # # # # # # $ $ ; ; j j > > > 6 6 > > > j j ; ; $ $ $ $ # # # # + .   k l n p q s t+Z+i@i@P#i@i@i@i@i@i@i@i@i@i@i@i@P#P#P#.$.$.$P#P#i@Z+t+s r q t n m m l k k @ @       . . . + + # # $ ; j > , 5 ~ ^ 3 1 8 a ].'.!.w._+o@x@=#$@|.1.R+R+R+R+R+1.1.|.Q+Q+}.P+P+[.<.0$_$'$#$a$2$3$b$D#c$;+;+;+| } } i 8 9 9 0 0 0 a a a a b c e f g h '.y U z z S S V V V V V S S -.y h f c a O.8 } | 2 _ ( / ^ ] { { { { { { ] ] ^ ^ / 4 3 _ _ 2 2 2 _ 3 4 ^ ] ~ ! 0.' ' 6 > j ; $ $ # + .     @ k k k k k k k k k k k k k l m n o n n m m l l k k @ @ @ @ @ @ @ @ @     . . + + + # + + + . .     . . + + # # $ # # + . . . . . . + # $ $ $ $ $ $ $ $ $ $ # + k@.   @ @ @ @     . + # * j y., 5 ! { ] ^ / 4 4 4 4 4 4 4 4 4 ",
"~ ~ ~ ~ ~ ~ { { ] ^ / 4 3 2 | i 0 b e q.h '.y z V A B =+k.'+7.6._#=#Q+Q+Q+|.|.|.|.1.1.1.1.1.1.|.|.|.|.|.|.|.|.|.|.|.|.2+4.L#T+M#k.I.V !.'.f b 9 } 2 3 / ] { { ] ^ 4 _ | i 0 c q.'.U V Q.=+D.o.` P o.o.Y =+B A =.!.~.{.g f c a 9 i | 2 3 4 / ^ ] ] { { { { { { ] ] { { ~ ) 5 ' , 6 > j ; # + . @ k l l l l k k @ @       . . . + + # $ $ ; ; ; ; $ $ # # # # $ $ ; ; j > > 6 6 , , ' ' , , , 6 6 > > > j j j ; ; ; $ # + . @ l n o q s t+Z+i@i@P#i@i@i@i@i@i@i@i@i@i@i@i@i@P#P#P#.$.$P#P#i@Z+t+s r q p o n m l k k @ @     . . . + + + # # # $ ; j 6 ' ! ] 4 2 } 0 c x g.z@U@}@y@x@=#$@|.1.1.1.1.1.p@|.|.Q+}.}.P+P+[.O+N+1$@$S#d$!$:$V#h#e$;+7+1 f$| | } i i 8 8 8 9 9 9 9 9 0 a b c e f h '.y y U U U U U U U y y '.i.f c a 9 8 } 1 2 _ 3 4 / ^ ] { { { { ] ] ^ ^ ^ / / 4 4 3 _ _ 2 2 _ 3 4 / ^ { ! ) 5 ' , 6 > j ; $ # + + .   @ @ k k k k k k k k k k k k l m n o o o n n m m l l l k k k k @ @ @ @     . . + + + # # + + + .         . . + + # # # + .     @ @ @     . + # # + + + + + + + . .   @ k k k k k @   . + # * j y.l.) ! { ^ / / 4 4 / / / / ,@4 4 ",
"! ! ! ! ~ ~ ~ { ] ^ / 4 _ 7+| 8 0 c f g '.y U S A Q.B X R '+7.)@x@}.}.Q+Q+Q+2+|.|.|.C+p@p@p@|.|.|.|.|.|.|.|.|.|.|.|.|.2+4.L#T+M#R B V z '.f b 9 } 1 _ / ^ ] ] ^ 4 _ 1 i O.b f h g.S A B ^+D.o.o.o.D.R =+Q.A S U ~.i.t.].e j.a 9 } 1 2 3 / ^ ] ] { { { { { { { { { ~ ~ ! 5 ' , 6 > j ; $ # + . @ k l l l l k @ @           . . + + # $ ; ; j j j ; ; ; j@j@; ; ; j > > 6 , ' ' 5 5 5 5 5 5 5 5 ' ' , , 6 6 > > j j ; $ # . @ k m o q r t+Z+i@i@i@i@i@i@i@Z+Z+Z+Z+Z+Z+Z+Z+i@i@i@P#P#P#P#i@Z+Z+t+s r q p o n m l k k @ @   . . + + + + # # # # $ ; j > , ) { / _ | 8 b f h.a@-@4#o@y@q@Q+Q+|.|.|.|.|.|.|.Q+Q+}.}.P+P+[.O+N+q+_$A#g$$$U#3$7$e$;+7+7+7+1 1 | | } } } i i i i i i 8 9 0 b c e f g h '.'.'.'.'.h h g f ].,.b a 9 i } 1 2 3 4 / / ^ ] ] { { { { ] ^ ^ ^ / / 4 4 3 3 3 _ _ _ _ 3 3 4 ^ ] ~ ! ) 5 ' , 6 > j ; $ # + . .   @ @ k k k k k k k k k k k l l m n o o o o n n m m l l l l k k k @ @ @       . . + + + + + + . .     @     . . . + + + .   @ @ k k k k @     . .                 @ k l l l l l k k @ . + # * - J.' ) ~ ] ^ / 4 4 4 / / / / / / / ",
"! ! ! ! ! ~ ~ { ] ^ / 3 _ 1 } 8 a c g h y U z V A B =+k.$.'+7.(#x@x@}.}.}.Q+Q+Q+2+|.|.|.|.|.|.|.|.|.Q+Q+Q+Q+Q+|.|.|.2+2+4.3+T+M#N#B A z '.f c 0 i 1 _ 4 ^ ] ] ^ 4 2 | 8 a e g y z S A B R D.Q D.D.^+B Q.V z y {.g ].d c b b 0 8 } 1 2 3 4 ^ ] ] { { ~ ~ ~ { ~ ~ ~ ! ! ) ' , 6 > j j ; $ # + . @ k l l l k k @ @     . . . . . + # $ $ ; j > > > > > > > > > > 6 6 , , ' 5 ) 5+! ! ! ! ! ! ! ! ) ) 5 5 ' , , 6 > > j $ # . @ k m o q r s t+Z+i@i@i@i@Z+Z+t+t+t+s s s t+t+t+Z+Z+i@i@i@i@i@Z+Z+t+s r q p o n m l k k @   !+. + # # # # # # # $ $ ; j > , 5 ~ ^ 3 1 i 0 d i.:@Y+w@}@h$P+}.}.Q+Q+2+|.|.|.Q+Q+Q+B+}.}.P+[.O+N+q+_$'$#$T#B#:$~#e$;+7+:+:+2 2 2 2 1 1 1 | | | | | | } i V.0 b c e f g g g g g f f e j.a 0 9 B.} | 2 _ 3 4 b.^ ] ] ] { { { { ] ] ^ ^ / / 4 4 4 3 3 _ _ _ _ 3 3 4 / ^ ] { ~ ! ) 5 ' , 6 > j ; $ # + . .   @ @ k k k k k k k l l l l l m n n o o o o n n n m m m l l l l k k @ @         . . . . . . . .     @ @ @       . . . .   @ k k l l l l l k k @ @ k k k k k k k k l l m m m m l l k @ i$+ % = > , 5 ! { ^ / 4 4 4 4 4 / / / ^ ^ ^ ",
"! ! ! ! ! ! ~ { ] ^ / 3 2 1 i 9 b e g '.U z V A Q.B =+R $.'+`.|@y@y@P+P+P+}.}.}.Q+Q+Q+Q+Q+Q+Q+Q+Q+Q+Q+Q+Q+Q+Q+Q+Q+Q+$@2+4.3+T+M#N#B A z '.g c 0 8 | 2 4 ^ ] ] ^ 4 2 | 8 r.f h U z V A B =+R C R =+W A S U h.h f ,.b a a a 0 9 8 } 1 2 3 4 / ^ ] { { { ~ ~ ~ ~ ~ ! ! ) 5 , 6 > j j ; $ # + .   @ k k k k k @ @     . . . . + + # $ $ ; j > > 6 J., , l.6@6@6@' ' ' 5 5 ) ! ~ { { { { { { { { { ~ ~ ! ) ) 5 ' , 6 > j ; # . @ l m o q r s t+t+Z+Z+Z+Z+Z+t+s r r q q q r r s t+t+Z+Z+Z+Z+Z+Z+Z+t+s r q p o n m l ,#k @   . + # # $ $ $ $ $ $ $ $ ; ; g+6 ' ! { / _ | 9 b q.~.M+c@+@j$[.P+P+}.}.Q+Q+Q+Q+Q+Q+Q+Q+}.}.P+[.O+<.q+_$y+S#)$6$f#b$e$k$:+/+/+3 3 3 _ _ _ _ 2 2 2 2 2 2 1 | i 9 0 b c e e e e e e c b 0 9 i } 1 2 _ 3 ,@b.^ ] { ~ ~ ~ ~ { { ] ] ^ ^ ^ / / 4 4 3 3 l$_ _ _ _ 3 3 4 / ^ ] { ~ ! ) ) 5 ' , 6 > j ; $ # + . .   @ @ @ k k k k k l l l m m m n n n o o o n n n n n m m m m l l k k @ @ @                         @ @ @ @ @             @ k k l m m m m m m m l l l m m m m m m m m n m m m m l l k @   + $ j 6 ' ) ~ ] ^ / 4 4 4 4 4 / / ^ ^ ^ ^ ",
"! ! ! ! ! ! ~ { ] ^ 4 3 2 | i 9 b f h y z S A Q.B =+k.R d+d+d+e@o@O+O+m$[.[.[.P+P+}.}.}.}.}.}.}.}.}.}.}.}.}.}.}.Q+Q+Q+$@5.5.T+D+R B A z h.g c a 8 } 2 4 ^ ] ] ^ 4 T | 8 c.f h g.z V A Q.9.=+=+B Q.V S U '.g f.c a 0 p.9 9 9 8 i } 1 2 _ 4 / ^ ] ] { { { ~ ~ ~ ! ) ) 5 ' 6 > j j ; $ $ # + .   @ @ k k k @ @   . . . + + + # # $ $ ; j > 6 6 , ' E+)+)+) ) ) ) ) ) ! ! ~ ] ^ ^ ^ ^ ++] ^ ^ ^ ^ ] ] { ~ ! ) 5 ' , 6 j ; # . @ l m o p q r s s t+t+t+Z+t+s r q p p o o p p q r s s t+t+t+Z+Z+t+t+s r q p o n m l k @   . + # $ $ ; ; ; ; ; $ $ $ ; ; j > , ) ~ ^ 3 1 i 0 ,.b+:@b@z++@}@O+[.P+P+}.}.}.Q+Q+Q+Q+Q+}.}.P+[.O+<.q+_$@$S#g$a$U#b$e$7+/+z.4 4 4 4 4 4 4 3 3 _ _ 3 3 3 _ 7+| i 9 0 a b b b b b a 0 8 i | 2 _ 4 / ^ ] { ~ ~ ! ! ! ! ! ! ~ { ] ^ ^ / / / / 4 3 3 _ _ _ _ _ _ 3 4 / ^ ] { ~ ~ ! ) )+5 ' , 6 > j ; $ # + . .     @ @ k k k k l l m m m n n n n n n n n n n n n n n n m m m l l k @ @ @ @ @ @ @ @ W@  w#@ @ @ @ @ @ @ @ @ @ @ @ @ @ @ k k l m m n n n n n n n n n n n n n o o o o n n n m l l k k @   + * > , 5 ! { ] / 4 4 4 4 4 4 / / ^ ^ ] ] ",
"! ! ! ! ! ! ! ~ ] ^ / 3 2 | i 9 b f h y z V A Q.B =+k.k.k. + +4#+@+@N+n$<.<.O+O+[.[.P+P+P+P+P+P+P+o$o$P+P+P+P+P+}.}.}.=#7#T+6.`.k.I.*.z '.g c a 8 } 2 3 ^ ] { ] / _ 1 i a e x y U S V A Q.B Q.Q.V S U '.g f.c a 0 9 8 8 8 8 i } | 1 2 _ 4 / ^ ^ ] { { ~ ~ <#! ) ) 5 ' , > j ; ; $ $ # # + .     @ @ @ @ w#  . . + + # # # $ $ ; ; j > 6 6 , ' 5 ) 5+<#<#<#~ ~ ~ ~ ~ { ] b.4 4 4 4 / / 4 4 4 4 / / ^ ] { ~ ) 5 ' 6 > ; # . @ k m n p q q r r r s s s s r q o n n n n n o p p q r r s s t+t+t+s s r q p o n m l k @   . + # $ ; ; j j ; ; $ $ $ $ ; ; > 6 ' ! { / 3 1 U.s.].4@f+p+v.N+<.O+O+[.[.P+@@}.}.Q+Q+Q+Q+}.P+[.O+<.q+1$@$A##$a$U#b$e$:+z.,@/ / ^ ^ ^ / / / 4 4 4 4 4 4 4 _ 1 } i 8 9 0 0 0 9 9 8 } | 2 3 / ^ { ~ ! ! ) ) 5 5 5 5 ) ) ! ~ { ] ^ / / / / 4 4 3 _ _ 2 2 2 _ p$q$J#r$s$] { ~ ! ! ) 5 5 ' , 6 > j ; $ # + .     @ @ @ k k k l l m m n n o o o o o n n n n n n n n n n n n m m l k k @ @ @ @ @ @ @ @ @ @ @ @ @ @ k k k k k k k k t$k k k l m m n n n n o n n n n n n o o o o o o o o n n m l l k k @   + ; > , 5 ! { ] / / 4 4 4 4 4 / ^ ^ ] { { ",
") ) ) ) ) ) ! ~ { ^ / 3 _ 1 i 9 b f h y z V A Q.B =+X X  +U+w@z+v.1$1$1$u$q+N+v$<.O+O+O+O+O+O+O+O+O+O+O+O+O+[.[.P+P+x@x@x@6.7.d+9.Q.V U '.f c a 8 } 7+3 ^ { { ] / 3 2 } 9 b f h '.U z S V A *.V %+U ~.h f c b 0 9 8 i i i i } | 1 2 _ 3 4 / ^ ^ ] { { ~ ! ! ) 5 5 ' , 6 j ; ; $ $ # # + + . .   @ @ @     . . + # # $ $ $ ; ; j > > 6 , ' ' 5 ) ! <#~ i#i#{ { { { ] ] / 4 3 _ _ _ _ _ _ _ _ _ _ 3 4 / ^ { ~ ) ' , > ; # .   k l n o p p p p q q r r q p o n m m l l l m n n o p q q r r r r r q p o n m l l k @   . + # $ ; j j j j ; ; $ $ $ $ $ $ ; > , 5 ! { / _ ;+8 r.G.g$A#_.1$q+N+<.<.O+[.[.P+}.}.Q+Q+Q+}.}.P+h$<.w$1$@$'$x$y$z$~#o#b#A$b.^ ++] ] ] ] ^ ^ / / / / ^ ^ / 4 _ 1 | } i i i i } | 1 2 3 / ] { ! 0.5 ' ' ' ' ' ' ' ' 5 ) ! ~ { ] b./ / / J#4 4 3 _ _ 2 2 2 _ p$q$/ ^ ] { ~ ~ ! ) ) 5 ' , , 6 > j ; $ # + .   @ @ @ k k k l l l m m n o o o o o o o n n n n n n n n n n n n m m l k k k k k k k k k k k k k k k k k k k k k k k k l l l m m m n n n n n n n n n n n o o o o p p o o o n m l l k k @   + $ > , 5 ! ~ ] ^ / / 4 4 / / ^ ^ ] { ~ ~ ",
") ) ) ) ) ) 5+! { ] / 4 _ 1 } 9 a e h y z S A Q.B =+=+9._+&@~@p+_.y+'$B$@$C$D$1$q+N+N+N+N+N+N+N+N+N+N+N+N+<.<.O+O+[.[.y@|@8.k.9.W w.).y h e b 0 8 } 2 3 ^ { { { ^ 4 _ 1 i 0 b e g '.y U z %+z z U ~.h q.e b a 9 8 i } } | | | 1 2 2 _ 3 4 / ^ ] ] { ~ ~ ! ) 5 ' 6@, 6 > j ; $ # # # # + + + . .         . . + # # $ ; ; ; j j > 6 , , ' 5 ) ) ! ~ ~ i#{ { { { { ] ] ^ 4 3 2 1 1 1 1 1 1 | | ;+1 2 _ 3 4 ^ { ! 5 , > ; # +   @ l m n n o o o o o p p o o n l l k k k k k l l m n o o p p q q p p o n m l k @   . . + # $ ; j j j j ; ; ; $ $ # # # $ $ j > , 5 ! { / _ [ V.!#K+u.S#E$_$1$q+N+<.<.O+[.P+}.}.Q+Q+}.}.P+[.<.N+1$@$'$x$a$U#F$G$H$I$++] { { { { { ] ] ^ ^ ^ ] ] ] ] ^ 4 _ 2 1 1 1 1 1 2 _ 3 / ] ~ ! 5 , 6 6 > > 6 6 6 6 , , ' 5 ) ~ { ] / / 4 4 4 4 3 3 _ 2 2 2 2 _ p$q$/ ^ ] { ~ ~ ! ) 5 ' ' , 6 > j ; $ # + .     @ k k k l l l J$m m n o o p p p p o o o o o o o o o o o o n n n m l l k k k k k k k k k l l l l l l l l l l l l l l m m m m m n n n n n n n n n n n n n n o o o o o o o n m l l k k @   + $ j 6 ' ) ! { ] ^ / / / / ^ ^ ] { ~ ~ ! ",
"5 5 5 5 5 5 ) ! ~ ] ^ 4 3 2 | 8 a c g '.U S V K$L$B B I..+-@b@y+M$#$g$N$#$O$P$'$@$C$_$_$_$_$_$_$_$_$_$_$,$1$q+q+N+<.<.}@n@U+I..+*.%+U {.q.c a 9 i | 2 4 ^ { ~ ~ ] ^ 4 _ | i 0 b e q.h '.y y y y '.h g e c a 0 8 i } | | 1 1 2 2 _ _ 3 4 / / ^ ] ] { ~ ! ) 5 ' ' , 6 > j ; $ # # # # + & # + + k@.     . . + # $ $ ; j j > > 6 6 , ' 5 5 ) ! ! ~ ~ { { { { { { ] ] ^ / 3 2 1 | } } } i i i i i } | 1 2 3 4 ^ ~ ) ' > ; % + . @ k l m m m m m m n n n n m l k k @ @ @ @ @ @ @ k l m m n n o o n n m l k @   . . + # # $ ; j j > j j j ; ; $ $ # # # # % $ j > , 5 ! { / :+c$~#Q$6$d$#$'$@$_$1$q+N+<.O+[.P+R$}.}.}.P+P+O+<.q+_$@$A#g$a$f#h#[$/$S$'#i#~ ~ ~ ~ ~ { { ] ] ] { { ~ { ] / 4 3 _ _ _ _ 3 4 / ] { ! 5 , 6 j = ; ; = j - > 6 6 , ' 5 ) ~ { ^ / 4 4 4 4 4 3 _ _ 2 2 2 2 _ p$q$/ ^ ] { ~ T$! ) 5 ' , 6 6 > j ; $ # + .   @ k k k l l l m m n n o o p p p p p p o o o o o o o o o o o o o n n m l l l l l l l l l l l l m m m m m m n n n n n n n n n n n n n n n m m m m m m m n n n o o o o o o o n m l l k k @   + # ; > , 5 ) ~ { ] ^ ^ ^ ^ ] ] { ~ ! ! ! ",
"5 5 5 5 5 5 5 ) ~ { ^ / 3 2 | i 0 b e h ~.U S V A Q.Q..+1@z@f+,+d$$$!$U$$$V$V$W$)$)$)$X$X$X$X$X$X$#$#$#$S#'$@$Y$_$1$v.v.v.S@1@t@a@;.>.q.,.c.0 8 } 1 _ ]+] ~ ! ! ~ { ^ 4 _ | i 9 a c f.g x h h h g f e c a 0 9 i } | 1 1 2 _ _ _ 3 3 4 4 / ^ ^ ] ] { { ! ) 5 ' , , 6 > j ; $ # # # # # # # # # + + . . . + # $ ; ; j > > 6 J., ' 5 5 ) ! ~ ~ { { { { { { { { ] ] ^ / 4 _ 1 } i 8 8 N.9 9 9 9 9 8 i } 1 _ 3 / { ! ' > ; $ + .   @ k l l l l k k l l l l l k k @ @ @             @ k l l m m m m l k @   . + # # $ j@; j j > 6 6 > > j j ; $ $ k## # # # $ ; j > , 5 ! '#,@}$Z$`$ %.%T##$S#'$@$_$+%N+<.O+[.[.P+P+P+[.O+<.N+1$@$A##$d$6$n#@%}$c##%i#<#! ! ! ! ! ~ ~ { { { { ~ ~ ~ { ++/ 4 4 4 4 4 / ^ { ~ ) ' 6 j ; $ # # $ $ ; j g+> 6 , ' 5 ! ~ a.^ / 4 4 4 4 3 3 _ _ 2 2 2 2 _ p$q$/ ^ ] { ~ ! ) 5 ' ' , 6 > j ; $ # + .   @ @ k l l l m m m n n o o p p q q q q p p p o o o o o o o o o o o o n m m l l l l l l l l l m m m n n n n n o o o o o o o o o o o n n n n n n n n n n n n n n o o o o o o o n m l l k k @   . # ; j 6 ' 5 ! ~ { ] ] ] ] { { ~ ! ! ! ) ",
"' ' ' ' ' ' 5 ) ! { ] / 4 _ 1 } 8 s.c f h y U S V V V 4+v@N@/.a$B#%$$%$%$%%%&%&%%$%$%$%$%$%$%$*%2$2$!$!$$$T#)$#$S#'$'$y+5#5#N@L+4@x f ,.a O.8 } | 2 3 ^ { ! ) ) ! ~ { ^ 4 _ 1 } N.@+b c e ].f e e c b a 0 9 i } } | 1 2 _ 3 4 4 4 4 4 / / ^ ^ ^ ] ] { ~ ! ) 5 ' , 6 > j ; $ # # # # # # $ $ $ # # + + + # $ ; j j > 6 , , ' 5 5 ) ! ~ ~ { ] ] ] ] ] ] =%{ ] ] ^ / 4 3 2 | i 9 0 0 a a a a a 0 9 8 i | 2 3 / ] ! ' > ; $ # .     @ k k @ @ @ @ @ k k k k k @ @ @       . . + . .   @ @ k k k k @   . + # $ ; ; j > > 6 6 , , , , 6 > j j ; ; $ $ # # # # $ ; j > , 5 ! ++z.-%Z$;%$%2$$$)$#$S#@$_$1$q+N+<.O+O+O+O+>%<.q+1$@$S##$d$$$U#V#,%b#Z#'%<#5+) ) ) ) ) ) ! ~ ~ ~ ~ ! ! ~ { ] ^ / / / ^ ^ ] ~ ! 5 , > ; $ # + + + # V@j@h@g+j#, ' 5 ) ! ~ ] ^ ,@4 4 4 3 3 3 _ 2 2 2 2 2 _ 3 q$/ ^ ] { ~ ! ) 5 ' , 6 > > j ; # + .   W@@ k l l m m m n n n o o p p q q q q q q p p p p p p p p p p p p p o o n m m m m m m m m m m m n n n o o o p p p p p p p p p p p o o o o o n n n n n n n n o o o o o o o o o n m l l k k @   . + $ ; > J.' 5 ! ~ ~ { { ~ ~ ~ ! ! ! ! ! ",
"' ' ' ' ' ' ' 5 ! ~ ] ^ 4 3 2 | i 9 a c f h '.U z z z !..#H.)%!%~%{%]%]%^%^%/%/%/%/%/%/%/%/%/%(%]%{%{%_%$%%$2$:%T#)$)$g$u.o+b+<%].,.b @+9 i } 1 2 3 / ] ~ ) 5 5 5 ) ! ~ ] 4 _ 1 } B.O.@+r.b F.b b a 0 9 8 i } } | 1 2 _ 3 4 / / / / / / ^ ^ ^ ^ ^ ] { ~ ! ) 5 ' , 6 > j ; $ $ # # # $ $ ; ; ; $ $ # # # $ ; ; j 6 , , ' 5 5 ) ! ~ ~ { ] ^ ^ ^ ^ ^ ] ] ] ] ] ] ^ / 3 2 | i 9 0 a b j.c c c b a 0 9 i } 1 _ ]+] ! ' > h@$ # + .     W@    . . .   @ @ k k k k @ @ @   . . + # # + + . .         . + # $ ; j > 6 6 , ' ' 5 5 5 5 ' , 6 6 > j j ; $ $ # # # $ $ ; j > , 5 <#Z#H$[%Z$&$_%%$!$T#X$S#'$_$1$q+N+N+n$N+N+q+1$_$}%S#)$V$!$2$3${$E#/$|%1%5+)+5 5 ' 5 5 5 ) ) ! ! ! ! ! ~ ~ { ] ^ ^ ^ ] { ~ ) 5 , > $ # . .   . . + # j@h@> 6 , ' 5 ! ~ { ] / 4 4 3 3 3 3 _ _ 2 2 2 2 2 _ p$q$/ ^ ] { ~ ! ) 5 ' , 6 > j ; $ # + .   @ k ,#l m m m n n o o p p q q q r r r r q q q q q q q q q q q q q p p o n n m m m m m m m m n n n o o p p p q q q q q q q q q q q p p p p p o o o o o o o o o o t p o o o o o n m l l k k @   . + # $ j > , ' 5 ) ! ! ! ! ! ! ! ! ! ! ! ",
", , , , , ' ' 5 ) ~ { ] / 4 _ 1 | i 9 a c ].g h '.y y ~.H.t.!%2%&$/%*$3%4%4%4%5%5%6%6%6%6%6%7%5%4%8%*$/%]%{%_%$%2$B#!$6$)#W.d j.c.@+N.B.} < 2 _ 3 / ^ { ! ) 5 ' ' ' 5 ! ~ ] ]+A.: [ B.N.p.0 a a 0 9 9 8 i } | | 1 7+_ 3 4 / ^ ^ ^ ^ ^ ^ ^ ^ ^ ^ ^ ^ ] { ~ ! ) 5 ' , 6 > j ; $ $ $ $ $ ; ; j j ; ; $ $ $ ; ; j > 6 , ' 5 ) ! ! ~ { ] ] ^ / / 4 / / ^ ^ ] ] ] ^ / 4 _ 1 } 8 0 b c e e e e e c b a 0 8 } 1 _ 4 ] ! ' 6 j $ # + + . . . . . + + + .   @ @ k k k k @ @   . + # # $ $ # # # + + + & # $ ; j > 6 , ' 5 5 ) ! ! ! ! ! ) 5 ' , 6 > > j ; ; $ $ $ $ $ $ ; j 6 6@5+d#c#9%0%a%]%_%%$!$T#)$S#'$_$p+1$1$v.1$1$_$@$'$#$T#$$2$%$3$&$*$^$c#i#5+)+E+' ' , b%' ' 5 5 ) 5+! ! ! ! ~ { ] ] ] { { ~ ) 5 , > ; + .   @ @     k@# j@j j#$+' 5 ) ! ~ { ^ / 4 3 3 3 3 3 _ _ 2 2 2 2 2 _ p$q$J#^ ] { ~ ! ) 5 ' , 6 > j ; # + .   @ k k l l m m n n o o p p q q r r r s c%r r r r r r r r r r r q q q q p p o n n n n n n n n n n n o o p p q q q q q q q q q q q r r q q q q q q q q q q q q q p p p p p p o o o n m l l k k @ @   . + # ; j 6 , ' 5 ) ) ) ) ) ) ! ! ! ~ ~ ",
"' ' , , , ' ' 5 ) ! ~ { ^ / 4 _ 1 | i 9 a b e f g h h i.t.W.!#`$d%*$0%e%6%f%g%h%i%j%k%l%l%k%j%i%m%f%7%[%3%W#{${%_%~%:$:$2%n%g#p.N.S.[ 1 2 _ 3 4 / ^ { ~ ) 5 ' ' X@' ' ) ! { ^ 4 _ 1 [ i 8 9 9 9 9 8 8 i } } | | 1 2 _ 3 4 ^ ^ ^ ^ ^ ^ ^ ^ ^ / / / / ^ ] { ~ ! ) 5 ' , 6 j ; ; $ $ ; ; ; j > > j j ; ; ; j j > 6 , ' 5 ) ! ! ~ { ] ^ ^ / 4 4 4 4 / / ^ ^ ^ ^ b.4 3 2 | i p.b c f f g g f f e c b 0 9 i | _ 4 ] ! ' 6 j ; $ # + + + . + + # # # + .   @ k k k k @ @   . + # $ ; ; ; ; ; $ $ $ j@; j > 6 , ' 5 ) ! ~ ~ { { { { { ~ ) 5 ' , , 6 > j j ; $ $ $ $ $ ; j > , 0.<#o%/$^$0%a%]%_%%$!$y$g$S#'$@$_._._.@$y+A#x$)$a$.%%$3$V#{$8$X#/$p%<#)+' , , , q%, , , ' 5 5 ) ) ! ! ! ~ { { { { ~ ! ) 5 , > ; # . @ @ k k @   . $#j@j j#$+' 5 ) ! ~ { ] / 4 4 3 3 3 3 _ _ 2 2 2 2 2 _ p$q$J#r$s${ ~ ! ) 5 , 6 > j ; $ # + .   @ k l l m m n n o o p p q q r r s s s s s r r r r r r r r r r r r r q q p o n n n n n n n n n n o o p p q q r r r r r r r r r r r r r r r r r r r r r r r r r r q q q p p p o o n m m l k k k @   . + # $ ; > 6 , ' 5 ) ) ) 0.) ! ! ~ { { ",
"' ' ' ' ' ' ' 5 ) ) ! ~ { ] / 4 _ 1 | i 9 0 b c e f f ].d j.n%F$Z$r%7%9%h%s%t%u%v%w%x%y%y%z%w%v%u%j%A%F#7%E#*$W#{$F$b$~#|+{@P@u < : _ z.]+7 ^ ] { { ~ ! ) 5 ' ' , , ' 5 5+~ ] / 3 2 < } i 8 8 V.8 8 i i } } | 1 1 2 _ 3 4 / ^ ^ ^ ^ ^ / / / / / 4 4 / ^ ] { ~ ! ) 5 ' , 6 > j h@; ; j j > > > > > j j j j > > 6 , ' 5 ) ! ~ { ] ^ / / 4 3 3 3 3 4 / / / ^ / / 3 _ 1 } 9 a c f g g g g g g f e b a 9 i | _ 4 ] <#5 J.> ; $ $ # # + + + + # # # + .   @ k k k k k @ @   + # $ ; j j j j j j j j > 6 , ' 5 ) ! ~ { { ] ^ ^ ^ ^ ] { ! ) 5 ' ' , 6 > > j ; ; $ $ $ ; j > $+E+H#d#q#Y#^$r%a%F$3$U#6$X.g$(.B%5#B%A#x$C%D%a$6$U#~%V#{$Z$<$X#E%-$<#)+6@$+6 6 6 6 6 6 , , ' 5 5 ) ) ! ! ~ ~ ~ ~ ~ ! ) 5 , > ; $ +   @ k k k @ W@. $#$ h@> $+' 5 ) ! ~ { ] ^ / 4 4 4 3 3 _ _ 2 2 2 2 2 2 _ q$J#r$s${ ~ ! ) ' , 6 > j ; $ # .     @ k l l m n n o o o p p q r r s s s s s s s s r r r r r r r r r r r q q p o o n n n n n n n n n o o p p q r r r s s s s s s s s s s s s s s s s s s s s s s s s s r q q p p o o n m m l l k k @ @   . + # ; j > 6 ' ' 5 5 5 5 ) ! ~ { ] ] ",
"5 5 5 5 ' ' ' 5 5 ) ) ! ~ { ] ^ 4 _ 1 | i 8 0 a b c c c j.r.F%h#e$-%9%G%H%I%J%K%L%M%N%N%N%N%M%L%K%`#o%O%P%^$X#o#e$8$@%P@c$[ < :+A.4 / #+w M.~ ~ ! ! ! ) 5 5 ' ' ' ' ' 5 ) <#w 7 ( T 1 [ m.i 8 8 8 8 i i } } | | 1 2 _ 3 4 / / / / / / / / 4 4 4 3 3 4 4 / ^ ] { ~ 5+5 ' , 6 > > j j j > > 6 6 6 6 > > > > > 6 6 , ' ' 0.! ~ { ] ^ / 4 3 3 3 3 3 4 4 / / / 4 4 _ 1 } 8 0 b e g g h h h h g f e c a 9 i | _ 4 ] ~ 5 , > j ; $ $ # # # + # # # + . .   @ k k k k k k @   . # $ ; j > 6 6 6 6 6 6 , ' 5 ) ! ! ~ { ] ^ / / / / / ^ ] { ! ) 5 5 ' , 6 6 > j ; ; ; ; ; j > $+x.5+i#++c#H$Q%r%Z$F$3$U#)#X.u.,+,+x+u.X.)%)#!%2%R%F$Z$<$-%b#/$Z#i#)+l.6 > > > > > > 6 6 , ' ' 5 ) ) ! ! ~ ~ ~ ! ! ) 5 , > j $ + .   @ k k k k @ %#+ $ ; > 6 ' 5 ) ! ! ~ { ^ ^ / 4 4 4 3 3 _ 2 2 2 1 2 2 _ 3 4 / s${ ~ ! 5 ' 6 > j ; $ # + .     @ k l l m n n o o p p p q r r s s s s s s s s s s s s s s s s s r r r q p o o n n n n n n n n n o o p p q r r s s s s s t+t+t+t+t+t+t+Z+Z+Z+Z+Z+Z+Z+Z+Z+Z+Z+Z+t+t+s r r q p o o n m m l l l k k @   . + # $ ; > 6 , ' 5 5 5 ) ) L.{ ] ^ ^ ",
") ) 5 5 5 5 5 5 5 5 ) ) ) ! ~ ] / 3 _ 1 | } 8 9 0 a b b c.s.p.{@c$X#9%/$Z#d#K%S%N%T%U%U%U%U%T%V%W%X%r#-$O%E%^$k$h+u u h+;+: T 3 ]+^ w ~ ! ! ) ) ) ) ) ) 5 5 5 5 ' ' 5 5 5+<#{ ^ 4 _ 1 | } i i 8 8 8 8 i i } | | 1 2 _ _ 3 4 / / / / / / 4 4 3 3 _ _ _ 3 4 / ^ ] { ~ ) 5 ' , 6 > > > > > 6 6 6 6 6 6 6 6 6 6 6 6 J., ' 5 ) ! ~ { ^ / ,@4 3 3 3 3 4 4 4 4 4 4 3 2 | i 9 a c f g h h h h h h g f c a p.i | 2 4 ^ ~ ) ' 6 > j ; $ $ # # # # + + + .   @ @ k k k k k k @   . # $ j > 6 , ' ' ' ' ' 5 ) ! ! ~ { ] ^ / 4 4 3 3 3 4 / ^ ] ~ ! ) ) 5 ' , , 6 > j j ; ; j > 6 , x.K.M.'#Z#Y%H$}$o#@%~#n%>+G.^.X..@^.G.W.>+!#C#~#D#e$[$b#H$c#++i#)+6@j#j j j j j j > > 6 6 , ' 5 5 ) ) ! ! ! ! ! ) 5 , 6 j $ # .   @ @ k k k k @   + # ; j 6 , ' 5 ) ! ~ { ] ^ ^ / / 4 4 3 _ _ 2 2 1 1 2 _ 3 4 / ^ { ~ ) 5 , 6 > j ; $ # + .     @ k l l m n n o o p p p q r r s s s t+t+s s s s s s s s s s s s s r r q p o o n n n n n n n n n o o p p q r r s s s t+t+t+t+Z%Z+Z+Z+Z+i@i@i@i@i@i@i@i@i@i@i@i@i@Z+t+s r q p p o n n m m l l l k @   . + # $ ; j > , ' ' 5 5 ) ! ~ ] ^ / / ",
") ) ) ) ) ) 5 5 5 5 5 5 ) ) ! { ^ 4 3 T 1 | } 8 9 0 @+a a @+O.U.c$k$b#/$Z#d#X%W%`%U% &h@.&h@g+|#}#r+{+p%+&z.p#7+;+u u [ < : _ ( / ] { ~ ! ) ) ) ) ) ) ) ) ) ) 5 5 5 5 ) ! ~ '#b.z._ 1 | } i i 8 8 8 8 8 i } } | 1 2 2 _ 3 4 4 / / / / / 4 4 3 _ _ 2 _ _ 3 4 / ^ ] ~ ! ) ' , 6 6 > > > > > 6 6 6 , , 6 6 6 6 6 6 6 6 , ' 5 ) ! ~ { ] ^ / 4 4 4 4 4 4 4 4 4 3 _ 1 } 8 0 b c f g h '.'.'.h h g f c b 0 8 | 2 4 ^ { ) ' , 6 > j ; $ $ # # + + + . .   @ @ k k l l k k @   . # $ j > , ' 5 ) ) ) ) ! ~ { { ] ^ / / 4 3 _ _ _ _ _ 3 / ^ { ~ ! ! ) 5 ' , , 6 > j j j > > 6 , 5 K.~ w +++&/$b#7+u U.~#n%!#d W.W.>+!#r.g#~#h#e$;+}$H$,@Z#'#<#) ' 6 j ; ; ; ; ; j j > > 6 , , ' 5 5 ) ) ) ) ) ) 5 , 6 > ; # + .   @ @ k k k k @   . # $ j > , ' 5 ) ) ! ~ { ] ^ ^ / / 4 3 3 _ 2 2 1 1 2 2 _ 4 / ^ { ~ ) 5 , 6 > j ; $ # + . .   @ k k l m n n o o o p p q r r s s s t+t+t+s s s s s s s s s s s s r r q p t o n n n n n n n n n o o p p q r s s s t+t+t+Z+Z+Z+Z+i@i@i@i@P#P#P#P#P#P#P#P#P#P#P#P#i@Z+t+s r q p o n n m m m l l k @   . + # $ ; j > 6 ' 5 5 ) ! ~ { ^ / 4 4 ",
"! ! ! ! 5+) ) ) ) 5 5 5 5 ) ! ~ ] / 4 3 2 1 | } 8 9 0 0 0 0 O.U.S.;+:+z.b.'#<#W%`%j# &h@j@j@h@e#$+t#L.w b.z.:+;+u S.S.m.[ < 2 3 ]+^ ] ~ ! ! ) ) ) ! ! ! ! ! ! ) ) ) ! ! ~ { ++/ 3 2 | } } i i 8 8 8 8 8 8 i } | 1 2 2 _ 3 4 / / / / / / 4 {#3 _ 2 2 2 2 _ 3 4 / ] { ~ ) 5 , 6 > j j j j j > > 6 6 6 6 6 6 > > > > > > 6 , ' 5 ) ! ~ { ] ] ^ ^ / / / 4 4 3 _ 2 1 } 8 0 b c f g h h '.'.'.h g f e b 0 8 } 2 3 ^ { ! 5 , 6 > j ; ; $ # # + + . .     @ @ k k l l k k @   . # $ j 6 ' ) ! ! ~ ~ ~ { ] ] ^ / 4 4 3 _ 2 1 1 1 1 2 _ 3 / ^ { 8@~ ! ) 5 ' ' , 6 > > > > 6 , ' 0.! M.w ++b.,@z.:+7+u S.V.p.s.s.s.g#p.V.U.S.h+7+/+/$b.'#i#! )+' 6 g+; $ $ $ ; ; ; j j > > 6 , , ' ' 5 5 5 ) 5 5 ' 6 > ; $ + .   @ @ @ k k k k @   . # $ ; > 6 , ' 5 ) ! ~ ~ { ] ^ ^ / / 4 3 _ _ 2 2 2 2 2 _ 3 / ^ ] ~ ) 5 , 6 > ; ; $ # + . .   @ @ k l m m n o o o p p q q r r s s s t+s s s s s s s s s s s s s r r q p o o n n n n n n n n n o o p p q r s s t+t+t+Z+Z+Z+i@i@i@P#P#P#.$.$.$.$.$.$.$.$.$.$.$.$P#i@t+s r q p o o n n m m l l k @   . + # $ ; j > , ' 5 ) ! ! { ] b.4 3 3 ",
"~ ~ ~ ~ ! ! ! ) ) ) ) 5 ) ) ! ~ { ^ / 3 _ 2 1 | i 8 9 O.0 0 O.V.U.u < _ 4 ++i#5+' $+g+h@; j@h@g+$+E+5+w / /+7+} U.V.9 N.B.} < 2 3 4 ^ ] { ~ ~ ~ ~ ~ ~ ~ ~ ~ ~ ~ ~ ~ ~ { { ++/ z._ 1 | } i i 8 8 9 9 9 9 8 i i } | 7+_ 3 4 / / ^ ^ ^ ^ / / 4 3 _ 2 1 1 2 2 3 4 / ^ { ~ ) ' , 6 @&j ; ; ; ; j j > 6 6 6 6 > > > j j j j j > > 6 , ' 5 ) ! ~ { w ] ^ ^ / 4 3 _ 2 | } 8 0 a c e f g h '.'.'.h h q.e b 0 8 } 1 3 / ] ! 5 ' , 6 > j ; $ # # + .       @ @ @ k k l l k k @   . # $ j 6 5 ! ~ { { ] ] ^ / / 4 3 _ _ 2 1 | | | | | | 1 _ 4 / ^ ] { ~ ! ) 5 ' ' , 6 6 6 6 , ' 5 ) ~ { ] ^ b.,@z./+:+7+;+u S.i U.U.i S.u ;+7+T z./ ++i#! ) E+6@6 > ; $ $ $ $ $ ; ; j j > > > 6 6 , , ' ' ' ' ' ' , > j ; # +     @ @ @ @ k k k @   . + # ; j 6 , ' 5 5 ) ! ~ { { ] ] ^ / / 4 3 _ 2 2 2 2 _ _ 3 4 ^ ] ~ ! 5 , 6 > j ; $ # + + .     @ k k l m n n o o o p p q q r r s s s s s s s s s s s s s s s s r r q p o o n n n n n n n n n o o p p q r s s t+t+t+Z+Z+i@i@i@P#P#.$.$.$#&#&#&#&#&#&#&#&#&#&.$P#i@Z+t+s r q p o o n m m l l k @   + # $ ; j > 6 , ' ) ! ~ { ] ^ / 4 3 3 ",
"{ { ~ ~ ~ ~ ! ! ! ) ) ) ) ) ! ~ { ^ / 4 3 _ 2 | } 8 9 9 0 0 0 9 V.i } 1 /+,@] ~ )+' 6 g+h@; h@g+6 x.! w ,@T | U.p.a c.a 0 N.i | 1 _ 3 ]+b.^ ] ] ] { { { { { { { { { ] ] ^ / 4 _ 1 | } i i 8 8 9 9 9 9 9 9 8 i } | 1 _ 3 4 / ^ ^ ] ] ^ ^ / 4 3 _ 2 7+1 2 :+3 4 / ^ { ! ) ' 6 > j ; $ $ $ $ ; ; j > 6 6 6 > > j j ; ; ; ; ; ; j > 6 , ' 5 ) ! ~ { ] ^ / 4 3 _ 1 | i 8 0 a b e f g h h '.'.h h g e b a 8 } 1 _ / ] ~ ) ' , 6 > j ; $ # # + .   W@@ @ @ @ k k l l k @   . + # $ j , 5 ! { ] ^ ^ / 4 3 3 _ 2 1 1 | } } i i i i } | 2 _ 4 / ^ ] { ~ ! ) 5 ' ' , , , , ' 5 ) ! { ] ^ ^ / / 4 z.3 _ :+2 1 1 1 1 1 2 2 _ 3 ,@^ '#~ ) 5 ' , 6 > j ; $ $ $ $ $ $ ; ; j j > > > > 6 6 6 , , , , , 6 j ; $ + .   @ @ @ @ @ k k k @ @ . + # j@j > , , ' 5 ) ) ! ~ { { ] ] ^ / 4 3 3 _ _ 2 2 _ _ 3 4 / ] { ! 5 ' 6 > j ; $ $ # + . .     @ k l m n n n o o o p p q q r r s s s s s s s s s s s s s s s r r q q p o n n n n n n n n n o o p q q r s s t+t+Z+Z+i@i@P#P#P#.$.$#&#&#&#&$&$&$&$&$&$&$&#&#&.$P#Z+t+s r q p p o n m m l k @   . + # $ ; j > , ' 5 ) ! { ] ^ / 4 3 _ _ ",
"{ { { { { ~ ~ ~ ! ! ! ! ! ! ~ { ] ^ / 4 3 _ 2 | } 8 9 9 0 0 0 0 0 9 i } 7+3 / ] ! 5 l.6 j h@j > 6 ' ! ] 4 2 } 9 a c e c b a 9 8 } | 2 _ 3 4 ,@/ / ^ ^ ^ ^ ] ] ] ^ ^ ^ / 4 3 _ 2 | } i 8 8 8 8 9 9 0 0 9 9 8 i } | 1 _ 3 / ^ ] ] ] a.] ] ^ / / 3 _ _ 2 _ 3 4 / ^ ] ~ ! 5 , > j ; $ # # # # $ $ ; j > > > > > j j ; ; $ $ $ $ $ ; j > 6 , ' 5 ! ~ { ^ / 4 _ 2 1 } i 8 0 a b c e q.h h '.'.'.h g e c a 9 } 1 _ 4 ] ~ ) 5 , 6 > j ; $ # + .     @ @ @ @ @ k k l k k @   . + # $ j , 5 ~ ] ^ / 4 3 3 _ 2 1 | | } i i 8 8 8 8 8 i } | 2 3 4 / ^ ] { ~ ! ) 5 5 ' ' ' 5 5 ) ! M.] ^ / / / / 4 4 4 4 3 3 3 3 3 3 3 3 4 / ^ ] { ! ) ' , 6 > j j ; $ $ $ $ $ $ $ ; ; ; j j j j g+> > > > 6 6 6 6 > j $ # + .   @ @ @ @ @ @ k k @ @   + # $ j > 6 , ' ' 5 ) K.! ~ M.{ ] ] ^ / 4 3 3 _ _ _ _ _ 3 4 / ^ { ! ) ' 6 > j ; ; $ # # + . .   @ @ k l m n n n o o o p %&q q r r s s s s s s s s s s s s s s s r r q p o o n n n n n n o o o p p q r r s t+t+Z+Z+i@i@P#P#P#.$.$#&#&#&$&$&$&$&$&$&$&$&$&$&#&.$P#i@Z+t+s r q p o n m m l k @   . # $ ; j > 6 , 5 ) ! ~ { ^ / 4 3 3 _ _ ",
"{ { { { { { { ~ ~ ~ ~ ~ ~ ~ { ] ^ / 4 3 _ 2 1 | i 8 9 0 a a a a a 0 9 8 } 1 _ / ] ! 5 , > j j > , 5 ! ] 3 1 8 a c f g g f d b a 9 8 m.| 1 2 _ _ 3 4 4 / / ^ ^ / / / 4 3 _ 2 1 | } 8 8 8 8 8 8 9 9 0 0 9 9 8 i } | 7+_ 4 / ^ ] { { ~ ~ { { ] ^ / 4 3 3 4 4 / ^ { ~ ! 5 , 6 j ; $ # + + + + # $ ; j > > > > > j j ; $ $ # # # # # $ ; j > , ' ) ~ { ^ 4 3 _ 1 | } i 9 0 a b c e f g h '.'.'.h g e c a 9 m.1 _ 4 ] ~ ) 5 , 6 > j ; $ # + .     @ @ @ @ @ k k l k k @   . + # $ j , 0.~ ] / 4 3 _ 2 1 | } } i 8 8 9 9 0 0 0 9 9 i } 1 _ 3 4 / ^ ] { ~ ! ! ) 5 5 5 ) ! ! 8@] ^ / 4 4 4 4 4 4 / / / / / / / ^ ^ ^ ] ] { ~ ! ) ' , 6 > j ; ; ; $ $ $ $ $ $ $ ; ; ; ; ; ; ; ; ; ; ; j j j > j j ; $ # + .   @ @ @ @ @ @ k k @ @   . # $ ; > 6 6 , ' ' 5 ) K.! ~ ~ { ] ^ ^ / 4 3 3 _ _ _ _ 3 3 / ^ ] ~ ) 5 , 6 > j ; ; $ # + + . .   @ k l l m m n n o o p p p q q r r r s s s s s s s s s s s s s r r q p p o o o o o o o o o p p q q r s s t+Z+Z+i@i@P#P#.$.$.$#&#&$&$&$&$&$&$&$&$&$&&&$&$&$&#&.$P#i@Z+t+s r q o n m l k @   . + # ; j > 6 , ' ) ! ~ { ] ^ ,@4 3 _ _ _ ",
"] ] ] a.{ { { { { ] ] ] ] ] ^ ^ / 4 3 _ 2 1 | } 8 9 0 a a b b b b b a 0 8 i 1 _ / ] ! 5 , > > 6 , 5 ! ^ _ [ 9 b f h '.'.h g f e c a 0 9 8 i } ;+2 _ _ 3 4 / / 4 4 3 _ 2 1 | } i 8 9 9 9 9 8 8 9 9 0 0 9 9 8 i } | 2 _ 4 ^ ] { ~ ! ! ! ! ~ ~ { ] ^ ^ ^ ^ ] { ~ ! ) 5 , 6 j ; $ # + + . . + + # $ j > > > > > > j ; ; $ # # + + + # # $ j 6 ' ) ~ ] / 3 _ 1 | } i 8 9 0 a b c e f g h '.'.'.h g e c a 9 m.1 _ 4 ] ~ ) 5 , 6 > j ; $ # + .     @ @ @ @ @ k k l k k @   . I## $ j J.5 ~ ] / 4 3 2 1 | } i 8 9 9 0 0 a a a a 0 0 8 i | 2 _ 3 4 / ^ ] { { ~ ! ! ) ! ! ~ { ] ^ / 4 3 3 3 4 4 *&/ / ^ ^ ] ] { { { ~ ~ ! ! ) 5 ' , 6 > j ; ; ; ; ; ; ; ; ; ; ; ; ; ; ; ; ; $ $ $ $ $ $ $ ; ; ; ; $ $ # + .   @ @ @ @ @ @ k k @ @   . # $ ; > > 6 =&, ' ' 5 ) K.! ~ M.{ ] ^ / / 4 3 3 _ _ _ l$3 4 / ] { ! 5 ' , 6 > j ; ; $ # # + . .   @ k l l m m n n o o o p p q q q r r s s s s s s s s s s s s s r r q p p p p p p p p p p q q r r s s t+t+Z+i@i@P#P#.$.$.$#&#&#&$&$&$&-&-&-&-&-&-&-&-&-&$&#&.$P#i@Z+t+s r q p n m l k @   + # $ ; > 6 , ' 5 ! ~ { ] ^ / 4 3 _ _ 2 2 ",
"] ] ] ] ] ] ] ] ^ ^ ^ ^ / / / 4 4 3 _ 2 1 | } i 9 0 a b b c c e e e c b a 9 i < _ / { ) ' 6 6 6 , 5 ~ ^ _ } 0 c g '.y U y y '.h g f d b a 0 9 i } 1 2 _ 3 4 4 3 _ 2 1 | } i 8 9 9 0 0 9 9 8 8 9 9 0 0 9 9 8 i } | 1 _ 4 ^ ] ~ ! ! ) ) ) ) ! ! ~ ~ { ~ ~ ! ) 5 ' , 6 > j ; $ # + + . . . + + # $ ; j > 6 6 6 > > j ; ; $ # + + + + + # ; > , ) ~ ^ 4 _ 2 | } i 8 9 0 0 a b c e f g h '.'.'.h g e c a 9 } 1 _ 4 ] ~ ) 5 , 6 > > ; $ # + .     @ @ @ @ @ k k l k k @   . . + $ j 6 5 ;&] >&4 _ 2 1 } i 8 9 0 a a R@b b b b a 0 9 8 } 1 2 _ 3 4 / ^ ] ] { ~ ~ ~ ~ ~ { ] ^ / 4 3 _ _ 3 3 4 4 / ^ ] { { ~ ! ! ! ! ) ) 5 ' ' , 6 > j j ; ; ; ; ; ; ; ; ; ; ; ; ; $ $ $ $ $ # # + + + # $ $ $ $ $ # + .     @ @ @ @ @ @ k k @ @   . # $ ; j > 6 6 6 , l.x.0.) K.L.~ { { ] ^ / 4 4 3 3 _ _ _ 3 4 / ^ ] ~ ) 5 , 6 6 > j ; ; $ # k++ .     @ k l l m m n n o o o p p p q q r s s s s s s s s s s s s s r r q q q q q q q q q q q q r r s s t+t+Z+Z+i@i@P#P#.$.$#&#&#&$&$&$&-&-&-&-&-&-&-&-&-&-&$&$&#&.$P#i@Z+t+s q p n m k @   . + $ ; j > , ' 5 ) L.{ ] ^ / 4 3 l$_ 2 2 2 ",
"] ] ] ] ] ] ^ ^ / / 4 4 4 3 3 3 _ 2 2 1 | } i 9 0 a b c e e f f f f f e c b 0 i 1 3 ^ ~ 5 , , , ' ) ~ 7 _ m.0 c g '.y U U U U y '.h g f e b a 9 i [ 1 2 _ 3 3 _ 2 1 | } 8 9 0 0 a a a 0 9 8 8 9 9 9 p.9 9 8 i } | 1 _ 4 ^ ] ~ ! ) ) 5 5 5 5 5 5 ) ) ) 5 ' , 6 6 > j ; $ $ # + + . . . . + + # $ j > 6 6 , , J.6 > > j ; $ # + + + + $ ; > ' ) { / 3 2 | } i 8 9 0 0 a b b c e f g h '.'.h h g e b a 8 } 1 _ 4 ] ~ ) 5 ' , 6 > j ; # + . ,&  @ @ @ @ @ k k l k k @     . + $ = 6 7@L.a.>&4 (@2 | } 8 9 0 a a b b b b b b b a 0 8 } | 2 _ 3 {#4 / ^ ^ ] { { { { { ] ^ / 4 3 _ _ _ _ 3 3 4 / ^ ] { ~ ! ! ) ) ) 5 5 ' ' , , 6 > > j j ; ; j j j j j j ; ; ; $ $ $ # # # + + . . . + + # # # # # + .     @ @ @ @ @ @ k k @ @   . # $ ; j > > > 6 6 , ' x.0.) ! L.~ { ] ^ ^ / 4 4 3 3 _ _ 3 3 4 / ] { ! 5 ' , 6 6 > j ; ; $ # + + .   @ @ k l l m m n n n o o o p p q r r s s s s s s s s s s s s s r r r q q q q q q q q r r r s s t+t+Z+Z+i@i@P#P#.$.$#&#&$&$&$&$&-&-&-&-&-&-&-&-&-&-&-&-&$&#&.$.$P#'&t+s q )&n l k   . + # ; j > 6 , 5 ) ! ~ a.^ / 4 3 3 _ _ 2 2 2 ",
"] ] ] ^ ^ ^ ^ / 4 4 3 3 _ _ _ 2 1 1 | } i 8 9 0 a b c e f f g g h h h g f e b 9 u _ / { ) ' , ' 5 ) ~ 7 _ } O.F.f h y U U U U U U y '.h g e b 0 8 } 1 2 _ _ _ 2 1 } i 8 9 0 a a b b a 0 9 8 8 8 9 9 9 9 9 8 i } | 1 2 3 / ] { ~ ) 5 ' ' , , , , , , 6 y.> j ; $ $ # # # + + + . . . . . + # $ ; j 6 6 , ' ' ' ' , 6 > j ; $ $ # # $ ; j , 5 ~ ] 4 2 | } 8 9 9 0 a a b c c e f g h h '.'.h h g e b 0 8 } 1 _ / ] ~ ) 5 ' , 6 > j ; $ k++ .   @ @ @ @ @ k k l l k @     . + $ ; ;@' /@8@9@/ 3 2 1 } 8 9 0 a b b b c b b b a a 0 8 } | 1 2 _ 3 4 4 / ^ ^ ] ] ] ] ] ^ / 4 3 _ _ 2 2 _ _ 3 4 / ^ ] { ~ ! ) ) ) 5 5 5 ' ' ' , , 6 6 > > > > > > > > j j j ; ; $ $ # # + + . .       . . + # # # + + .     @ @ @ @ @ @ k k @ @   . # $ ; j j > > > 6 J., ' 5 )+K.! ~ { { ] ^ / / 4 3 3 _ _ 3 3 4 / ^ { ~ ) 5 ' , 6 > > j ; $ $ # + . .   @ @ k k l l m m n n o o o p q r r s s s s s s s s s s s s s s r r r r r r r r r r r r s s t+t+Z+Z+i@i@P#P#.$.$#&#&$&$&$&$&-&-&-&-&-&-&-&-&-&-&-&-&-&$&$&#&.$P#i@Z%s q o m l @   + # $ j > 6 , ' ) ! ~ { ] ^ / 4 3 _ _ 2 2 2 2 ",
"^ ^ ^ ^ ^ / / 4 3 _ _ 2 2 1 1 | | } i 8 9 0 a b c e f g g h h '.'.'.'.'.h g ,.0 i 1 4 ] ! 5 ' ' 5 ! { 7 _ [ N.c.e g >.y y U U U U y y '.g f c 0 8 } 1 2 2 _ 2 1 | i 8 O.a c.b b b b a 0 9 8 8 8 9 9 9 9 9 8 i i } | 2 _ 4 / ] ~ ! 5 ' , 6 > > j j j ; $ # + + . . . . . . . . . . . . + + # $ j > 6 ' 5 5 ) ) ) 5 ' ' 6 > j j ; ; ; j 6 ' ! { / _ 1 i 8 9 0 a b b c c e e f f g h h '.'.h g f e b 0 8 } 1 3 / ] ~ ! 5 ' , 6 > j ; $ # + .     @ @ @ @ k k l l k @     . + $ ; > X@) ~ ] >&4 _ 1 } i 9 0 a b b b b b b b a 0 9 8 } | 1 2 _ 3 4 4 4 / / ^ ^ ^ ^ ^ / 4 4 3 _ 2 2 2 _ _ 3 4 / ^ ] { ~ ~ ! ) ) ) 5 5 5 5 ' ' ' , , , 6 6 6 6 6 > > > > j j ; $ $ # + + . .   @ @ @   . . + + + + . .   @ @ @ @ @ @ @ k k @ @   . + # $ ; j j j > > 6 , l.x.5 ) ! ~ ~ { ] ^ ^ / 4 3 3 l$_ _ 3 4 ,@^ ] ~ ! 5 ' ' , 6 > j j ; $ # # + .     @ @ k k l l m m n n o o p q q r r r r r s s s s s s s s s s s r r r r r r r r r s s s t+t+t+Z+Z+i@i@P#P#.$.$#&#&$&$&$&-&-&-&-&!&!&-&-&-&-&-&-&-&-&$&$&#&.$P#i@Z%s q o m k   . # $ ; > 6 , ' 5 ) ! { ] ^ / 4 3 _ _ 2 2 2 1 1 ",
"^ ^ ^ / / 4 4 3 _ 2 2 1 < | } } i 8 9 9 0 a b c f.f g h h '.'.y y U U g.y h f b 8 | 3 ^ ~ ) 5 5 5 ! M.^ A.< B.0 b e g h '.'.y y y y '.h g f.b 0 i | 1 2 2 2 1 | } 8 9 a b b c c c c b 0 9 8 8 8 8 9 9 9 9 8 8 i } | 1 2 3 4 ^ { ! 5 ' 6 > j ; ; $ $ # + .   @ @ @ @         . . . . + + # $ ; > 6 ' 5 ) ! ! ~ ~ ! ! ) 5 ' , 6 > > 6 J.' ) { ^ 3 2 } 8 9 a a b c c e e f f f g h h '.'.h h g f c b 0 8 | 2 3 / ] ~ ! 0.' , 6 > j ; $ # + .       @ @ @ k k l k k @   . + # $ ; > , 5 ! { ^ 4 3 2 | i N.0 a a b b b b b b a 0 9 8 } | 1 2 _ 3 3 4 4 4 / / / / / / 4 4 3 _ _ 2 2 2 _ _ 3 4 / ^ ] ] { ~ ! ! ! ) ) ) ) ) 5 5 5 ' ' ' ' ' ' , , 6 6 > > > j ; ; $ # + . .   @ @ k k @   . . . . . .     @ @ @ @ @ @ @ k k @ @   . + # $ ; ; j j j > > 6 , ' 5 ) ! ! ~ { ] ^ ^ / 4 4 3 3 _ _ 3 3 4 / ] { ! ) 5 ' , 6 6 > j ; ; $ # + + .   @ @ k k l l m m n n n o p p q r r r r r r r s s s s s s s s s s s s s s s s s s s s s t+t+Z+Z+i@i@P#P#.$.$#&#&#&$&$&$&-&-&-&-&!&!&-&-&-&-&-&-&-&$&$&$&#&.$P#'&t+4$~&{&l @   + $ ; j 6 , ' 5 ) ! ~ { ] ^ / 4 3 _ 2 2 2 1 1 1 ",
"/ / / 4 4 3 3 _ 2 1 | | } } i 8 9 0 0 a b c e f g h h '.'.y y U -.z z z U y g j.9 | _ b.i#) 5 5 5 ) ~ ] 4 : u N.0 b e f g g h h h h h g f c a 9 } 1 2 2 2 2 1 | i 9 0 a b c c c c c b 0 9 8 i i 8 8 9 9 8 8 8 i i } | 1 2 _ 4 ^ ~ ) ' 6 > j ; $ # # + .   @ k k k @ @ @     . . . + # # $ j > 6 ' 5 ) ! ~ { ] ] ] { M.L.) 5 5 ' ' ' 5 5+~ ^ 4 _ | i 9 0 a b c e e f f g g g g h h '.'.h h g e c a 9 i | 2 3 / ] { ! ) 5 ' , 6 j ; $ # + . .       @ @ k k k k k @   . + # $ j > , 5 ! { 9@/ 3 2 | i 8 0 a R@b b c F.b b a a 0 8 i | 1 2 _ _ 3 3 3 4 4 4 4 J#4 4 4 3 3 _ _ 2 2 2 _ _ 3 4 / ^ ^ ] { ~ ~ ! ! ! ! ! ! ) ) ) ) ) 5 5 5 5 5 ' , , 6 6 6 > > j ; $ # + .     @ k k k @ @   . . . .       @ @ @ @ @ @ @ @ @ @     . + # $ $ ; ; ; j j > > 6 , ' 5 ) ! ~ { ] ^ ^ / 4 4 3 3 3 3 3 3 4 / ^ { ~ ! ) 5 ' , 6 > > j ; $ # # + .     @ @ k k l l m m n n o o p q q r r r r r r r s s s s s s s s s s s s s s s s s s s s t+t+t+Z+Z+i@i@P#P#.$.$#&#&$&$&$&-&-&-&-&-&-&-&-&-&$&$&$&$&$&#&#&.$P#i@Z%]&^&)&/&k   . # ; j 6 , ' 5 ) ! ~ { ] ^ ^ / 4 3 _ 2 2 2 2 2 : ",
"4 4 4 3 3 _ 2 7+1 | } i i 8 9 0 a b j.c e f g g h '.'.y y U U z z S S S z y h c 9 u _ b.M.) 5 ' 5 ) ! { b.A.7+} 8 0 a b c c e e e e e c b a 9 i | 2 _ _ _ 2 1 } i 9 0 b c c c c c b a 0 9 i i i i 8 8 8 8 8 8 8 8 i i } | 1 _ ]+] ~ 5 , > j ; $ # # + . @ @ k k k @ @     . + + # # $ ; j > 6 ' 5 ! ~ { ] ^ / / / / ^ ] { { ~ ~ L.~ ~ { ^ / 3 2 | i 9 0 b c e f f g g g h h h h '.'.h h g f e b 0 8 } 1 _ 4 / ] { ~ ! ) 5 , 6 > j $ # + + . .     @ @ @ k k k @   . + # $ ; > 6 ' 5 ! { 9@/ 3 2 | i 8 0 a b b c c c c c b a 0 9 i } | 1 2 _ _ 3 3 3 3 4 4 4 4 4 3 3 l$_ _ 2 2 _ _ _ 3 4 / ^ ^ ] { { ~ ~ ~ ~ ! ! ! ! ! ! ! ! ! ! ! ) ) 5 ' , , , 6 6 > j ; $ # + .   @ @ k k k @ @               @ @ @ @ @ @ @ @ @ @ @     . + # # $ $ $ ; ; ; j j > 6 , ' ) ! ~ { ] ^ ^ / 4 4 3 3 3 3 3 3 4 / ^ ] { ~ ! ) 5 ' , 6 > j ; ; $ # + .     @ @ k k l l m m n n n o p p q q q q q q r r r s s s s s s s s s s s s s s s s s s s s t+t+t+Z+Z+i@i@P#P#.$.$#&#&#&$&$&$&-&-&-&-&$&$&$&$&#&#&#&#&.$P#P#i@Z+(&r p n l @ . # $ j > , ' 5 ) ! ~ ~ { ] ^ / / 4 3 _ _ 2 2 2 2 2 ",
"_ _ _ _ 2 2 1 | } i i 8 9 9 0 a c e f f g g h '.'.y y y U U z z S S S S z U h c O.u _ ^ ~ ) ' ' ' 5 ) <#] ]+/+7+u i 9 O.0 0 a a a a s.0 9 8 i | 2 _ 3 3 _ 2 1 } i 9 0 b b c c c c b a 0 8 i i i i i 8 8 8 8 9 9 9 9 8 8 i } 1 _ / { ! 5 6 > ; $ $ # + .   @ @ @ @     . . + # # $ ; j > 6 , ' ) ! ~ ] ^ / 4 3 3 3 3 3 ( 4 / / 7 ^ ^ / / 4 3 _ 1 | i 8 0 a c e f g g h h h h h '.'.'.h h g e c a 9 i | 1 _ 4 / ^ { ~ ! ) 5 ' , 6 j ; $ # + + . .     @ @ @ @ @ @   . + $ ; j 6 , ' ) ! { 9@0@3 2 | i 8 0 a b c c e e e e c b a 0 8 i | 1 2 2 _ _ 3 3 3 3 3 3 3 3 3 3 _ _ _ 2 2 _ _ 3 3 4 / ^ ^ ] { { { ~ ~ ~ ~ ~ ~ ~ ~ ~ ~ ~ ~ ~ ~ ! ! ) 5 ' , , , , 6 > j ; $ + .   @ @ k k k @ @ @           @ @ @ @ @ @ @ @ @ @ @     . . + + # # $ $ $ $ $ ; ; j > 6 ' 5 ) ~ { ] ^ / / 4 4 4 3 3 3 3 4 4 / / ] { ~ ! ) 5 ' l., 6 > j ; $ # + .     @ @ k k l l m m n n n o o p p p p q q q q r r r s s s s s s s r r r r r r r r c%s s s s s t+t+t+Z+Z+i@i@P#P#.$.$#&#&$&$&$&$&$&$&$&#&#&.$.$.$_&P#i@i@Z+t+s r p {&:&t$i$+ $ j > , ' 5 ) ! ~ 8@{ ] ] ^ / / 4 3 3 _ _ _ _ _ _ ",
"2 2 2 1 1 | | } i 8 9 9 0 a b c e g g h h '.'.y y y U U U z z S S V V S z g.i.c 9 | /+^ <#5 ' , , ' 5 ) M.++,@A.2 | } m.i i i i i i i } } | 1 _ 3 4 / 4 3 _ 1 | i 9 0 a b c c c b a a 9 8 i i i i i 8 8 8 9 9 9 0 0 0 0 9 8 } 1 3 ^ { ) ' 6 > j ; $ # + .         . . + + # $ ; j > 6 , ' 5 ! ~ { ] / 4 3 _ 2 1 1 1 1 1 2 2 2 _ _ _ _ :+2 2 1 | } i 8 0 a c e f g h h '.'.'.'.'.'.'.h g f e b 0 8 i | 2 (@4 / ^ ] { ~ ! ) 5 ' 6 > j ; $ # + + . .     @ @ @ @   . + # ; j > , ' 5 ) ~ { ^ 0@(@: | i <&0 a b c e ].f f f e c b a 9 8 } | 1 2 2 _ _ _ _ _ _ _ _ _ _ _ _ 2 2 2 2 2 _ _ 3 4 / / ^ ] ] { { { { { ] ] ] { { { { { ~ ~ ~ ~ ~ ! 5 ' ' ' ' , , 6 > ; $ # .   @ @ @ @ @ @ @ @ @ @ @ @ @ @ @ @ @ @ @ @ @ @ @       . . . + & # # # # # $ $ ; ; j 6 , ' ) ! { ] ^ / / 4 4 4 4 4 4 4 4 4 / / ^ ] { ~ ! ) 5 ' , 6 > j ; $ # + . .   @ @ k k l l m m m n n n o o o o p p p q q q r r r s s s s r r r r r r r r r r r r r r r s s s t+t+Z+Z+i@i@P#P#.$.$#&#&#&#&#&#&#&#&.$.$P#P#P#i@i@Z+t+s r q p o m k   + $ ; > 6 ' 5 ) ! ~ { { ] ] ^ ^ / / 4 3 3 3 3 3 3 3 3 ",
"1 1 | | | } i i 8 9 0 0 a b c e g h '.'.y y y y U U U U z z z S V V V S z y g b V.;+3 ++! 5 , q%6 , ' 5 5+i#] b.z._ 2 2 2 2 2 2 2 2 2 T _ 3 ( / ^ ] ] ^ 4 3 2 | } 8 0 a b b F.b b a 0 9 8 i i i i 8 8 8 9 9 0 0 a a a a a 0 8 } 2 ( ^ ~ ) ' , > > j ; $ + + . . . . + # $ ; j > 6 , ' ) ! ~ { ++/ 4 3 _ 2 ;+| } i i i i i } } } } } [ | | | | } } i 9 0 b c f g h '.'.'.'.'.'.'.'.h h g f c b 0 8 } | 2 _ 4 / ^ ^ ] { ~ ! ) 5 , 6 j ; $ $ # + + . .           . + # $ j > 6 ' 5 ) ! ~ a.^ 4 (@[&}&i 9 0 a b c e f f g f f e c b 0 9 i } | ;+1 1 2 2 2 2 2 2 2 2 2 2 2 1 1 1 1 2 2 _ _ 3 4 / / ^ ^ ] ] ] ] ^ ^ ^ ^ ^ ] ] ] { { { { { ~ ! ) 5 ' ' ' ' , 6 > j $ # .   @ @ @ @ @ @ @ @ @ @ @ @ @ @ @ @ @ @ @ @ @ @         . . . + + # # # # # # # $ ; j > 6 ' 5 ! ~ ] ^ ^ / / / 4 4 4 4 4 4 / / / ^ ] { ~ ! ) 5 ' , 6 > j ; $ # # + .     @ @ k k l l m m m n n n n o o o o p p q q q r r r s s r r r r r r r r r r r r r r r r r r s s t+t+Z+Z+i@i@P#P#P#.$.$.$.$.$.$.$.$P#P#i@i@Z+Z+t+t+s r q p o m l @ . # ; > 6 , 5 ) ! ~ { { ] ] ] ^ ^ / / 4 4 3 3 3 3 3 3 3 ",
"| | | } } i 8 8 9 0 0 a b c e f g '.y y y y U U U U z z z z S S S S S z U >.].a U.7+z.] ! ' , 6 6 6 , 6@5 5+<#{ ++/ ]+4 4 4 ,@/ / / b.^ ^ ] ] { ~ ~ ~ { ^ 4 _ 7+| i 9 0 a b b b b a a 0 9 8 8 8 8 8 9 9 0 0 a a b b b b b a 0 8 | 2 4 ^ { ! 5 ' , 6 > ; $ # + + + # # $ ; > 6 , 5 ) ~ { ] b.,@3 _ 2 1 | } i 8 9 9 0 0 0 0 0 0 9 9 9 8 8 i i i i i 8 9 a b e f g '.'.y y y y y '.'.h g f e c a 0 8 } | 2 _ 3 4 / / ^ ] { ~ ! ) ' , 6 j j ; $ # # + . . .     . . + $ ; j 6 , ' 5 ) ! { ] / 8+T 1 } 8 9 0 b c e e f g g g g f e c a 0 9 8 i } u | | | | | | | | | | | | | | | | | 1 1 2 _ A.3 4 / / ^ ^ / / / / / / / r$^ ^ ] ] ] { { ~ ! ) 5 5 5 5 5 ' , 6 j ; # + .   @ @ @ @ @ @ @ @ @ @ @ @ @ @ @ @ @ @ @ @ @         . . . + + + + + + + # # # $ ; j 6 , 5 5+~ { ] ^ ^ / / / / / / / / / / ^ ^ ] { ~ ! ) )+5 ' , |&j ; ; $ # + .     @ @ k k l l l m m m m m n n n n o o p p q q q r r r r r r q q q q q q q q q q q q q q r r r s s s t+1&Z+i@i@i@P#P#P#P#P#P#P#P#P#i@i@Z+Z+t+t+s r r q p o n l k   + $ j > , ' ) ! ~ { { ] ] ] ^ ^ / / 4 4 3 3 3 3 3 4 4 4 ",
"} } } i i 8 8 9 0 0 a b c e f g h '.y y U U U U U z z z z S S S S S z U '.g c 0 } 2 ,@{ ) ' 6 6 > > 6 6 , E+)+! ~ { { { { { { M.~ ~ ! ! ! K.) 5 5 5 ) ! { ^ 4 _ 1 } 8 9 a b b b b b a 0 p.9 9 9 9 9 0 0 a a b b b c c c c b a O.B.| 2 3 / ] M.! ) ' , > j ; $ # # $ $ ; > , ' ) ~ ] ^ 4 3 _ 7+< | } i 8 9 0 a c.b c c c c c c b b a 0 O.9 8 8 8 9 9 0 a c e g h '.y U U U U y y '.h g f e c a 0 8 } | 1 2 _ 3 4 4 / ^ ] { ~ ! 5 ' , 6 > j ; ; $ # + + . . . . + # $ j > , ' 5 ) ! ~ { ^ / 3 2 2&m.8 0 a b c e f f g g g g g f e c a 0 9 V.8 U.U.i i i i i i i i i i i i i i i } } | | 1 2 T _ 3 4 4 4 4 3 3 3 3 3 4 4 / ^ ^ ] ] ] { ~ ~ ! ) 5 5 5 5 ' , 6 > ; $ + .     @ @ @ @ @ @ @ @ @ @ @ @ @ @ @ @ @ @ @ @         . . . + + + + + + + + + # $ ; j > , ' ) ~ { ] ] ^ ^ ^ ^ ^ ^ ^ ^ ^ ^ ^ ^ ] ] { ~ ! ) )+5 ' , |&j ; ; $ # + + .     @ @ k k l l l l m m m m m m n n o o p p p q q q r r q q q q q q q q q q q q q q q q q q r r r s s t+Z+Z+Z+i@i@i@i@i@i@i@i@i@Z+Z+Z+t+t+s s r q q p o n m l @ . # ; > 6 ' 5 ) ! ~ { ] ] ] ^ ^ ^ / / 4 4 3 3 3 3 4 4 4 4 ",
"i i i i 8 8 9 0 0 a b c c e f g h '.y y y U U U U z z z z S S S S z U y h e r.8 | _ / { ) ' 6 > > > > > 6 , ' E+5 ) ) ) ) ) ) 5 5 ' ' ' , , , , J., ' 5 ! ] / 3 2 | i 9 0 a b b b b a a 0 0 0 0 0 0 a a b b c c c c e e e c b a 0 8 } 1 _ 3 / ] { ! 5 ' 6 j ; ; $ ; j > , 5 ! { ^ 4 _ 7+| } B.8 9 p.0 a b c e e f g g g g g g f e c b a 0 0 9 9 0 0 a b c f g h y U U z z U U '.h g f e c b a 0 8 i | | 1 2 _ 3 3 4 / ^ ] { ~ ) 5 ' , 6 > > j ; $ # # + + + + # $ ; j 6 , 5 ) ! ~ ~ ] ^ 4 _ : | i 9 0 a b c e f f g g g h g g f e c b a s.p.p.p.p.p.0 0 0 0 0 0 0 0 O.9 9 9 9 8 8 i i } | 1 1 2 _ _ _ _ _ 2 2 _ _ 3 3 4 / ^ ^ ] ] { { ~ ! ) ) ) ) ) 5 ' , > j $ # + .     @ @ @ @ @ @ @ @ @ @ @ @ @ @ @ @ @ @ @         . . . . + + + + + . + + + # $ ; > 6 ' 0.! ~ { ] ] ] ] ] ] ] ] ] ] ] ] ] ] { { ~ ! ) 5 ' , 6 > j ; ; $ # # + . .       @ k k k l l l l l l l m m n n o o p p p q q q q q q p p p p p p p p p p p p p p q q q r r r s t+t+Z+Z+Z+Z+Z+Z+Z+Z+Z+Z+Z+t+t+t+s s r r q p p o n m l k   9+# ; > , ' ) ! ~ { { ] ] ^ ^ ^ / / 4 4 3 3 3 3 3 4 4 / / ",
"i i 8 8 9 9 0 0 a b c e e f g h h '.y y y U U U U z z z z S S S z z y {.f c 0 i 1 3 ^ ~ ) ' 6 6 > > > > > 6 6 , , ' ' ' ' , , , 6 6 > > > > > > > > 6 ' ) ~ ^ 4 _ 1 } 8 p.a b b b b b a a a a a a a b b c c c e e e e f f e e c b s.9 i } 1 _ 4 / ] ~ ) 6@6 > j j j > 6 ' ! { / 3 1 } U.9 0 a r.F.c d e f g g h '.'.y y y y '.h g f c b a 0 0 0 0 0 a b c f g h y U U z z U y '.h f e e c b a 0 8 i } | 1 1 2 _ _ 3 4 / ^ ] { <#) 5 ' , 6 6 > j ; $ # # # # # $ ; j > , ' 5 ! ! ~ { ] / 4 _ 1 } 8 9 a b c e e f f g g h h h h g f e c j.b r.r.r.r.r.b b b b b b b b c.a a a 0 0 9 9 8 i i } | 1 1 2 2 2 1 1 1 1 2 2 _ 3 4 / ^ ] ] { { ~ ! ! ) ) ) ) 5 ' , 6 j ; # + .     @ @ @ @ @ @ @ @ @ @ @ @ @ @ @ @ @ @ @         . . . . + + + . . . . . + + # ; j 6 , 5 K.~ { { a.] ] ] ] ] ] ] ] ] ] ] { { { ~ ! ) 5 ' , 6 > j ; ; $ # # + + + . .     @ @ k k k l l l l l l l m n n o o o p p p q q p p p p p p p p p p p p p p p p p p q q q r s s t+t+t+Z+Z+Z+Z+1&t+t+t+s s s r r r q q p o o n m l k @ . + $ j 6 ' 5 ! ~ { { ] ] ++^ ^ b./ / 4 4 3 3 _ _ 3 3 4 4 / ",
"8 8 8 9 9 0 a a b c e f.f g g h h '.'.y y y y U U U U z z z z z z U y h e c.9 } 2 4 ] ~ ) ' , 6 6 > > > > > > > 6 6 6 6 6 > > > j j ; ; ; ; ; ; j > 6 l.5 ~ ] / 3 2 | i 9 0 a b b b b b b a a a b b b c c e e ].f f f f g g f f e c b 0 9 i | 2 /+]+] ~ 5 , 6 > > > 6 ' ) { ^ 3 1 i 9 a j.d ].t.g g h h '.h.y U -.z z ).).z U y h g e c a j+0 0 0 0 a b c e g h '.y U U U U y h g f e c b 3&a 0 8 i } } | 1 1 2 2 _ 3 4 / ^ ] { ! ) 5 ' , 6 6 > j ; $ $ # # $ ; j > 6 ' 5 ) ! ~ { ] ^ / 3 2 ;+} 8 0 a b c e ].f g g h h '.'.'.h g g f e d d c c c c e e e e e e e d c c c b b a a 0 0 9 8 8 i } | | | | } } } | | 1 2 _ 3 / ^ ^ ] { { ~ ~ ! ! ! ! ! ) 5 ' 6 > ; $ + .     @ @ @ @ @ @ @ @ @ @ @ @ @ @ @ @ @ @ @         . . . . . . . . .     . . + # $ j > , 5 ) ! ~ { { { { { { { { { { { { { { { { ~ ! ) 5 ' , 6 > j ; ; $ $ # # # + + . .     @ @ @ k k k k k k l l l m m n n o o p p p p p p o o o o o o o o o o o o o o p p p q q 5$r s s t+t+t+t+t+t+t+s s s r r r q q p p o o n n m l k @   . # ; > , ' ) ! { { ] ] ] ^ ^ b./ / 4 4 3 3 _ _ _ 3 3 4 4 4 ",
"9 9 9 9 0 a a b c e f f g h h h h '.'.'.'.y y y y U U U z z z z z U '.g c 0 i 1 3 / ] ~ ) 5 ' , 6 6 6 > > > j j j j j j j j j ; ; $ $ # # # # $ ; j 6 , 5 ! { ^ 4 _ 1 } 8 0 a b b b F.b b b b b F.c c e e f f f f g g g h h h h g g f c b 0 8 } 1 _ ]+] ! 5 , 6 6 6 , 5 ~ #+4 1 i 0 c f i.{.~.y y g.U U z z S =.V *.*.*.V V S U '.g f c a 0 0 9 9 9 0 a b e f g h '.y y y y '.i.f e c b b a 0 9 9 8 i } } | | 1 2 2 _ 3 4 / ^ ] ~ ! ) 5 ' , 6 > j ; ; $ $ $ ; ; > 6 , E+) ! ~ { { ] ^ 4 3 2 | i V.0 a c c e f f g g h 4&'.'.'.'.'.h g g f f ].f f f f f f f f f f f f f e e c c b b a a 0 9 8 8 i i i i i i i i } | 1 2 3 4 / ^ ] { { ~ ~ ~ ! ! ! ! ) 5 ' , > j $ # . .   @ @ @ @ @ @ @ @ @ @ @ @ @ @ @ @ @ @ @         . . . . . . . .           . + # ; > 6 ' ) ! ~ ~ v { { { { { { { { { { { { { v ~ ! ) 5 ' , 6 > j ; ; $ $ $ # # # + + + . .     @ @ @ k k k k k k l l m [#n n o o o p p o o o o o o o o o o o o o o o o o o p p p q r r s s s t+t+s s s c%r r q q p p p o o n n m m l l k   . + $ j 6 ' 5 ! ~ { ] ] ] ^ ^ b.b./ ,@4 4 3 3 _ _ _ _ 3 3 3 3 ",
"0 0 0 0 a a b c e f g g h h h h h h h '.'.'.'.y y y ;.U U z z z U y h ].b 9 } 2 4 ^ { ~ ) 5 ' ' , , 6 6 > > j j j ; ; ; ; ; ; $ $ # # # + + # $ ; > 6 , 5 ! ~ ] / 3 1 } 8 0 a b b c c c c c c c c c e e f f g g g h h h '.'.'.'.'.'.h g e b s.V.} 1 3 ^ ~ ) ' , , , ' ) { / _ } 9 c g '.U z S S 4+V V V V A A Q.Q.W W W Q.A V z y h f c a 0 9 9 8 9 9 0 a b e f g h '.'.'.h g f e c b a a 0 0 9 9 8 i i } } | | 1 1 2 _ 3 4 / ^ { ~ ! ) 5 ' , 6 > j j ; ; ; ; j > , ' 5 ! ~ { { ] ^ / 4 _ 1 } i 9 a b c e f f g g h h '.y y y y y '.'.h h g g g h h h h h h h h h h h g g f f e e c c b a 0 0 9 9 8 8 8 9 9 9 8 i } | 1 _ 3 / ^ ] ] { ~ ~ ~ ~ ~ ~ ~ ! ) 5 , 6 j $ # + .   @ @ @ @ @ @ @ @ @ @ @ @ @ @ @ @ @ @ @         . . . . . . .             . + # ; j 6 ' 5 ) ! ~ ~ ~ ~ ~ ~ ~ ~ ~ ~ ~ ~ { { { v ~ ! ) 5 ' , 6 > j ; ; $ $ $ $ # # # # + + . .     @ @ @ @ @ @ k k l l m m n n n o o o o o o n n n n n n n n n n n n n n o o o p p p q q r r s s s s r r r q q p p o o o n n m m l l k k @ . + # ; > , ' ) ~ { ] ^ ^ ^ ^ b./ / ,@4 4 3 3 _ _ 2 2 _ _ _ _ l$",
"a a a c.b b c e f g g h h h '.h h h h h '.'.'.'.'.y y y U U U U y '.g c @+8 | _ 4 ^ { ~ ! ) 5 5 5 ' ' , 6 6 > g+j j ; ; ; ; ; $ $ $ # # # # # $ j > , ' 5 ! M.] / 3 2 | 8 9 a b b b c c c c c c c e e f f g g h h h '.'.y y y U U U y '.g e b 0 8 | _ / { ) ' , , , ' ) { 4 2 i a f '.U S *.&.Q.Q.Q.Q.Q.B B B %.=+X X =+%.W A S U '.t.c c.0 9 8 8 i 8 9 0 a b c e f g g g f f e c b a a 0 0 O.9 N.8 8 i i } } | | 1 : 2 _ 3 4 / #+{ ~ ! ) 5 ' , 6 > > j j j j > 6 , 5 ) ! ~ { ] ^ ^ / 3 2 1 } 8 0 a c e ].f g g h h >.'.y y U ;.y y y h.'.'.'.'.'.'.h.h.h.h.h.y ~.h.'.'.h h g g f f.e c b b a 0 0 0 O.0 0 0 0 9 N.B.} < 2 3 4 / #+] { { ~ ~ ~ ~ ~ ~ ~ ! 5 ' 6 j ; # + .   @ @ @ @ @ @ @ @ @ @ @ @ @ @ @ @ @ @ @         . . . . . . .       @     . . # $ j 6 , ' ) ) ! ! ! ~ ~ ~ ~ ~ ~ ~ ~ ~ { { { v ~ ! ) 5 ' , 6 > j ; ; $ $ $ $ # # # # + + . . .     @ @ @ @ @ @ k k l l m m n n n o o o o n n n n n n n n n n n n n n n n o o o p p p q q r r r r r r r q q p p o o n n m m l l k k @ @   + # ; j 6 ' 5 ! { ] ^ / / b./ / ,@,@4 z.3 3 _ _ 2 2 2 2 2 _ _ _ ",
"j.c c c c e e f f g h h h '.'.h h h h h h '.'.'.'.'.'.y y y y ~.'.g e b 9 i 1 _ / ^ { ~ ! ! ) ) ) ) 5 ' ' , J.6 > > > > j j j j ; ; $ $ $ $ ; j > , ' 5 ) ~ { ^ / 3 2 | i 9 a 3&b b b c c c c c e e f f g g h h '.'.y y U U z z z z U '.h f c 0 8 | _ / { ) ' , 6 6 ' ) { 4 1 U.b g y S A Q.B =+=+=+=+=+=+=+=+^+R $.$.$.R =+Q.V z y g e b 0 8 i i } } i 8 9 0 a b c ,.e c c c b a @+0 0 O.9 9 N.8 8 B.i i m.} [ | < 1 2 T _ 3 4 / ^ ] M.! ) 5 ' , , 6 > > > > 6 , ' 5 ) ! ~ { ] ^ / 4 _ 2 | i 9 a b e f f g x h h >.'.h.y ;.U U U ;.;.;.y y y ;.;.U U U U U U U U U ;.y h.'.>.h g q.f e ,.c b c.a a @+a a a a @+O.N.i | : _ ( / ^ ] { { { M.{ { { { ~ ! ) ' , > ; # +   W@@ k k k k k k k k k k k @ @ @ @ @ @           . . . . . .               . + # $ j > 6 ' 5 0.) ) ! ! ! ! ! ~ ~ ~ ~ ~ { { { v ~ ! ) 5 ' , 6 > j ; ; $ $ # # # # # + + + . .       @ @ @ @ @ @ k k l l m m n n n o o o o n n n n n n n n n n n n n n n n n o o o o p p p q q q q q q q q %&p p o o n m m l l k @ @   . + # ; j 6 , 5 ! ~ ] ^ / / / / / ,@4 z.z.3 _ _ 2 2 1 1 1 1 2 2 _ _ ",
"e e e f f f f g g g h h h h h h h h h h h h h '.'.'.'.'.'.'.'.h g f c 0 8 } 2 3 / ^ { { ~ ~ ~ ! ! ! ! ) ) 5 ' ' , , , 6 6 6 6 > > j j j j j > 6 , ' ) ! ! ~ ] ^ 4 _ 7+| i 9 0 a 3&b b b b c c c e e f f g h '.'.y y U U z z z S S z U y h f F.0 i 1 3 ^ ~ 0.' 6 > > , 5 { / 2 i b g y S A Q.=+=+R R R R R R R R Y #.#.#.D.R %.Q.S U h f b 0 8 i [ | | | } i 8 9 0 0 a a a a 0 0 O.O.9 V.N.N.N.8 8 B.B.B.i m.} [ | < 1 : : 2 _ A.( ]+^ ] { ~ ! ) 5 ' , , 6 6 6 , , ' 5 ) ! ~ ] ^ / 4 3 2 1 } 8 0 a c f g g h h >.'.'.'.h.y ;.;.U U U U U -.-.-.-.z ).).).).).).).).).z -.U y h.'.h x q.f f.,.c b b a a b b F.b c.@+9 B.} 1 T 3 ]+^ ] w { { { { { { { { ~ ) 5 , > ; # +   @ k k k k k k k k k k k k k @ @ @ @             . . . . .               . + + # ; j > 6 , ' 5 5 ) ) ) ! ! ! ! ~ ~ ~ { { { { { ~ ! ) 5 ' , 6 > j ; ; $ # # # # + + + + . . .       @ @ @ @ @ @ k k l l m m n n n o o o o n n n n n n n n n n n n n n n n n n n o o o o o p p p p p q q q p p p o n n m l l k @ @   . + # $ j > , 5 ) ~ ] ^ / 4 4 4 4 4 4 z.3 /+_ :+2 1 1 | | | 1 1 2 2 2 ",
"g g g g g g g g h h h h h h h h h h h h h h h h h h h h h h h g f c a 9 i | 2 3 / ^ ] { { { { { { { { ~ ~ ! ) ) 5 5 5 ' ' ' ' , , 6 6 6 6 6 6 , 5 ) ! ~ ~ { ] / 4 _ 1 | i 9 0 0 a a a a b b b c c e e f g h '.y y U z z S S S S S S U y h f b 9 i 1 3 ] ! 5 , > @&j 6 ' ~ / 2 i a f y S A Q.=+R R D.D.D.R R R Y D.Z Z o.Z D.^+B V z '.f b 0 8 } 1 1 2 2 1 | | } i i 8 8 8 8 8 8 8 8 8 8 8 B.B.B.B.B.B.B.i m.m.[ [ < < < < 1 : T _ 3 4 7 ] { ~ ! ) 0.5 ' , , , , ' 5 5 ) ! { ] ^ / 3 _ 1 | i N.0 b e g h h '.'.h.h.h.h.h.;.;.;.U -.-.-.-.).).).S =.=.=.=.=.=.=.=.=.=.=.).-.-.;.h.'.>.x q.q.f.,.c F.b b F.c ,.c F.a O.8 m.< :+A.]+7 #+w { { { { ] ] ] ] ~ ! 5 , > ; # k@  @ k l l l l l l l l l k k k k @ @               . . . .               . . + # $ ; j g+> 6 , ' ' 5 5 ) ) ! ! ! ~ ~ { { { { { { ~ ! ) 5 ' , 6 > j ; ; $ # # # + + + . . . .       @ @ @ @ @ @ @ k k l l m m n n n o o o o n n n n n n n n n n n n n n n n n n n n n n n o o o o o p p p p p p o o n m m l k k @   . + # $ j > , ' ) ! { ] / 4 3 3 3 3 3 3 3 /+_ 2 2 1 | | } } } | 1 2 2 2 ",
"g g g g h h h h h h h h h h h g g g g g g g g g g g g g g g f ].c b 0 8 } 1 _ 4 / ^ ] ] { { { ] ] ] ] ] { { ~ ~ ! ! ) ) ) 5 5 5 ' ' , , , , ' 5 ) ! ~ ~ { ] ^ / 4 _ 2 | i 8 9 9 0 0 0 0 0 a a a b c e f g h '.y y U z S S V V V V S z y h f b 9 } 2 4 ] ! ' 6 > j h@> , ! ^ _ } 0 f.'.z V Q.=+R D.D.o.D.D.D.D.D.Z ` ` ` D Z R B A z '.f b 9 i | 1 _ _ _ _ 2 2 2 1 1 | | | | | [ m.m.B.B.B.B.B.B.B.B.B.B.B.i m.m.} [ [ [ [ [ | < : T A.( / #+w M.~ ! ) 5 ' ' ' ' ' 5 ) ! ~ { ] ^ 4 3 2 1 } 8 9 a c f g h '.y y y y ;.;.;.;.;.-.-.-.-.).).=.=.=.*.*.*.*.*.*.*.*.*.*.*.*.=.).).-.;.h.h.>.x q.q.f.,.c c c c ,.,.,.F.c.@+N.m.| : A.]+7 #+w w { { ] ] ^ ^ ] { ! ) ' 6 ; # +   @ k l l l l l l l l l l k k k @ @               . . .                 . . + # $ ; ; j > 6 , , ' ' 5 5 ) ) ! ! ~ ~ { { { { { { ~ ! ) 5 ' , 6 > j ; ; $ # # + + + . . . .         @ @ @ @ @ @ @ @ k k l l m m n n n o P.n n n n n n n n n n n n n n n n n n n n n n n n n n n n o o o p p p o o n n m l l k @   . + # $ ; > 6 ' 5 ! ~ a.^ / 3 3 3 3 3 3 3 3 _ _ 2 1 1 | } } } } } | 1 2 2 ",
"h h h h h h h h h g g g g g g g g g g g g g g g g g f f f f e c b a 9 i | 2 _ 4 / ^ ] ] ] ] ] ^ ^ ^ ^ ^ ] ] { { ~ ~ ~ ! ! ! ) ) 5 5 ' ' ' ' ' 5 ) ! ~ { { ] ] / 4 3 2 1 } i 8 8 8 8 8 8 9 9 9 0 a a b e f g h '.y U z S V V V A V V z g.h f b 9 } 2 4 ] ! ' 6 j ; ; j 6 5 { 4 1 9 c h U V Q.=+R D.o.o.o.o.D.Z o.` ` P P ` o.R B A z '.f b 9 i | 2 3 3 4 4 4 4 3 3 3 3 3 3 A._ 2 < [ m.m.=@B.B.B.B.B.B.B.B.B.B.B.B.m.m.B.B.B.m.m.[ < : T ( ]+^ ] { ~ ! ) 5 5 ' 5 5 ) ) ! ~ { ] / 4 _ 2 | i 8 0 b e t.h '.y ;.U U U U -.-.-.-.).).).).=.=.*.*.*.&.&.&.&.&.&.&.&.&.&.&.&.*.=.).-.-.;.h.h.>.x q.f f.,.,.,.,.e f.,.F.c.@+N.B.[ : A.( 7 #+w w w ] ] ^ ^ ^ ^ { ~ ) ' 6 j # +   @ k l l l l l l l l l l k k k @ @                 .           @ @ @     . + # # $ ; j j > 6 , , ' 5 5 ) ) ! ! ~ ~ { { { { { { ~ ! ) 5 ' , 6 > j ; ; $ # # + + + . . . .         @ @ @ @ @   @ @ k k l l m m m n n n n n n m m m m m m m m m m m m m m m m m m m m m m m m m n n o o o o o o n n m l l k @ @   . # $ ; j 6 , ' ) ! ~ ] ^ / {#3 3 3 3 3 3 _ _ _ 2 1 | | } } i } } | 1 1 1 ",
"g g g g g g g g g g g g g f f f f f f f f f f f f ].e e e e c b a 9 8 } 1 2 3 4 / ^ ] ] ] ] ^ ^ / / / / b.^ ] ] { { { ~ ~ ~ ! ! ) 5 5 ' ' ' ' 5 ) ! ~ ~ { { ] ^ / 3 _ 2 1 | } } } } } } i i i 8 9 0 a b e f h '.y U z S V V A A A V S U h f b 9 } 2 4 w ) , > ; $ $ * > ' ~ 7 2 i a f y S A =+R D.o.o.o.o.o.o.` P P P P ` Q R B A z '.f b 9 } 1 _ 4 / / ^ ^ ^ ^ ^ ^ ^ ^ ^ ^ / 3 T < [ m.m.B.B.B.B.B.Q@N.N.N.N.N.N.N.N.N.O.O.N.N.B.m.[ < T 3 ,@^ ] { ~ ! ) 5 5 5 ) ) ! ~ { ] ^ / 3 _ 1 } i 9 a c e g >.h.;.U -.-.-.-.).).).).=.=.=.=.*.*.*.&.&.&.W W W W W W W W W W &.&.*.=.).-.-.;.h.>.>.x q.f.f.e ,.e f.f.,.W+c.@+2@B.[ : A.( 7 #+w w ] ] ^ ^ / / ^ ] ~ ) ' 6 j $ +   @ k l l l l l l l l l l k k k @ @                           @ @ @ @ @   . . + # $ $ ; j > 6 , , ' 5 5 ) ) ! ! ~ ~ { { { { { { ~ ! ) 5 ' , 6 > j ; ; $ # # + + + . . . .         @ @ @ @       w#@ k k l l m m m m n n m m m m m m m m m m m m m m m m m m m m m m m m m m m m [#n n o o n n n m l l k @ @   . + # ; j > 6 ' 5 ) ! ~ ] ^ / 4 3 3 3 3 3 3 _ _ _ 2 1 | | } } i i } | | 1 1 ",
"f f f f f f f f f f f f e e e e e d c c c c c c c c c c c b b a 9 8 i | 2 _ 3 / ^ ^ ] ] ] ^ ^ / / 4 4 4 / ^ ^ ] ] { { { { ~ ~ ! 5+) 5 5 ' ' ' 5 ) ) ! ~ ~ { ] ^ / 4 3 _ 2 1 1 1 1 1 1 1 1 | | } i 8 9 a c e g h '.y U z S V A A A V S U h f b 9 } 2 4 { ) , > ; # # # ; 6 ) ] 3 | p.e h z w.B R D.o.P P P P P P P  .*+P D Q R B 5&z '.f c.V.} 1 3 4 ^ ^ ] { { { ~ ~ ~ ~ ~ { ] / A.: [ m.m.B.B.N.N.N.N.N.|+O.O.O.@+@+@+@+c.c.@+@+O.N.B.m.< : A.]+^ w ~ ! ! ) ) ) ) ! ! ~ { ] ^ 4 3 2 | } 8 0 a c f h '.y U -.).).).).).=.=.=.=.*.*.*.6&&.&.&.W W W W %.%.%.%.%.%.%.W W &.*.=.=.).-.-.;.h.>.x g q.f.f.f.f.f.f.,.,.F.@+O.B.[ : A.Y%7 #+w ] ] #+^ / / / / ] { ! 5 6 j $ +   @ k l l l l l l l l l l k k k @ @                       @ @ @ @ @ k @ @   . + + # $ ; j > 6 6 , ' 5 5 ) ) ! ! ~ ~ { { { { { { ~ ! ) 5 ' , 6 > j ; ; $ # # + + + . . . .         @ @ @             @ @ k l l l m m m m m m l l l l l l l l l l l l l l l l l l l l l l l l l m m n n n n n m m l l k @ @   . + # $ j > 6 , ' 5 ) ! ~ { ^ / 4 4 3 3 3 3 3 _ _ _ 2 1 | | } } i i } } | | | ",
"c c c c c c c c c c c c c c b b b b b b b b b b b b b b b a 0 9 8 i | 1 2 3 4 / ^ ^ ] ] ] ^ ^ / / 4 4 / / ^ ^ ] ] { { { { { ~ ! ! ) 5 ' ' , , ' ' 5 ) ! ! ~ { ] ^ / 4 3 _ _ 2 _ _ _ _ _ _ _ 2 1 | } 8 p.a c f g '.y U z S V V V V V z y h e a N.} _ / { 5 6 j $ + + + $ > ' ~ / 2 U.b t.y S Q.=+D.o.` P P P P *+E E 7&P D Q R.8&V z '.e a 8 } 2 3 / ^ ] { ~ ! ! ) ) ) ) ! ~ w 7 3 : [ m.B.B.N.N.O.O.O.@+@+@+9&c.c.F.F.F.,.,.F.F.c.@+O.N.m.| : 3 / ] { ~ ! ! ) ) ! ! ~ { ] ^ / 4 _ 1 | i V.0 b e g h y U -.).).=.=.=.=.=.*.*.*.*.&.&.&.&.W W W W %.%.%.%.%.%.%.%.%.%.W W &.*.=.).).-.-.;.h.>.x q.q.q.f.f.f.f.,.,.F.@+O.B.[ : A.*@7 #+] ] #+^ b./ 4 4 / ^ { ! 5 , > $ + . @ k l l l l l l l l l l ,#k k @ @ @                   @ @ @ @ k k k k @     . + # # $ ; j > 6 , ' 5 5 ) ) ! ! ~ ~ { { { { { { ~ ! ) 5 ' , 6 > j ; ; $ # # + + + . . . .         @ @ @     . . .     @ @ k k l l l l l l l l l l l l l l l l l l l l l l l l l l l l l l l l l l m m m m m m l l k @     . . + $ ; > 6 , ' 5 ) ! ! ~ { ] ^ / J#4 4 3 3 3 _ _ _ 2 1 | | } } i i } } } | | ",
"a a a a a a a a a a a a s.@+@+a a a a a a a a a a a 0 0 0 0 9 8 } | 1 2 _ 4 / / ^ ] ] ] ] ^ ^ ^ / / / ^ ^ ] ] { { { ~ ~ ~ ~ ~ ! ) 5 5 ' , 6 6 6 , , ' 5 ) ! ~ { ] ^ / 4 4 3 3 4 4 / / / / 4 3 _ 2 1 } 8 0 b e f h '.y U z S S S S ).U '.g c 0 8 | _ ^ ~ 5 6 ; # .   . + ; 6 ) ] 3 u 0 e {.z A B R D.o.P P P E E E E 7&P D D.R.Q.V U h e a 8 | 2 3 / ] { ~ ! ) 5 5 5 5 ) ! ~ ] / A.< m.B.N.O.O.@+@+c.c.`+F.F.,.,.n+f.f.q.q.q.q.f.,.F.c.@+N.m.< T 4 ^ ] ~ ~ ! ! ! ! ~ ~ { ] ^ 4 3 2 1 } i 9 a c e g '.y -.z ).=.=.=.=.*.*.*.*.&.&.&.&.W W W W %.%.%.%.%.9.9.%.9.X X %.%.W &.*.*.=.=.).-.;.h.>.>.x q.q.q.q.q.f.f.,.F.@+O.B.[ : A.Y%7 #+#+#+^ 7 / 4 4 4 4 ^ ] ~ ) , > ; # . @ k l l l l l l l l l l l k k k @ @ @ @ @ @ @ @ @ @ @ @ @ k k k k l k k @   . . + # $ ; j > 6 , ' 5 5 ) ) ! ! ~ ~ { { { { { { ~ ! ) 5 5 ' , |&j ; ; $ # # + + + . . . .         @ @ @   . . . . .     @ @ k k k l l l l k k k k k k k k k k k k k k k k k k k k k k k k k k k l l m m m l l k k @     . + + # ; j 6 , ' 5 5 ) ! ~ ~ { ] ] ^ / / 4 4 3 3 3 _ _ 2 1 | | } } i i i } } } } ",
"8 8 8 8 8 8 8 8 8 8 8 8 8 8 8 9 9 9 9 9 9 9 9 9 9 9 9 9 9 8 i } | 1 2 3 4 4 / ^ ^ ] ] ] ] ] ] ^ ^ ^ ^ ] ] { { ~ ~ ! ! ! ~ ~ ! ! ) 5 ' , 6 > - j > > 6 , ' ) ! ~ { ] ^ / / / / ^ ^ ] ] ] ] ] ^ / 3 2 1 } 8 0 b e g h '.y U U z z z U y h e b 9 m.1 3 #+! ' > $ +   @ @ . # - ' ~ / 7+U.b t.;.V Q.=+D.o.P P P E E E E 7&P o.D.=+Q.V U h e a 8 | 2 4 ^ ] ~ ! ) 5 5 ' ' 5 ) ! { ^ ( 2 [ B.N.O.@+c.F.F.,.,.f.w+q.q.<%x x G+>.>.>.>.x x q.,.F.@+N.m.7+3 / ] { ~ ~ ~ ~ ~ ~ { ] ^ / 4 _ 2 | i 8 0 a c f h y U z ).=.=.=.*.*.*.*.*.&.&.&.&.W W W W %.%.%.%.X X X X X X X X X %.W W &.*.*.=.).).-.;.h.>.x x x q.q.q.q.f.,.F.@+O.B.[ : A.]+7 #+#+#+7 / ]+( 3 3 4 / ] ~ ) ' 6 ; # . @ k l l l l l l l l l l l l k k k @ @ @ @ @ @ @ @ @ @ k k k k l l l l k k @   . + + # $ j > 6 , ' ' 5 ) ) ! ! ~ ~ { { { { { { ~ ! ) 5 5 ' , > j ; ; $ # # + + + . . . .         @ @     . + + + . . .     @ @ k k k k k k k k k k k k k k k k k k k k k k k k k k k k k k k k k l l l l l k k @     . + + # $ j > , ' 5 5 ) ) ! ~ ~ { { ] ] ^ b./ 4 3 3 3 _ _ 2 1 | | } } i i i i } } } ",
"| | | | | | | | | | | [ } } } i i i 8 8 8 8 8 8 8 8 8 i i i } | 1 _ 3 4 4 / ^ ^ ] ] ] ] ] ] ] ] ] ] { { ~ ~ ! ! ) ) ) ) ! ! ) ) 5 ' , 6 j j ; ; ; ; j > , 5 ) ! ~ { ] ^ ^ ^ ] w { ~ ~ ~ ~ ~ { ^ / 3 2 | i 9 a c f g h '.y y y y y '.h f c 0 8 | _ / { ) , j # . @ k k   + ; 6 ) ] /+u p.e {.z A B R D.o.P *+E E 0&0&7&P o.C =+Q.S U h e @+8 | _ 4 ^ { ~ ! 0.5 ' ' ' 5 ) ~ ] 4 _ ;+B.O.@+c.F.,.,.f.q.x b+>.4@4@h.h.L+;.;.;.;.;._@h.>.q.f.F.@+8 | _ / ^ { { ~ ~ ~ ~ { { ] ^ / 3 _ 1 } i 9 0 b e q.h y z ).=.=.*.*.*.*.*.*.*.&.&.&.&.W W W W %.%.%.%.X X X X X X X X X %.%.W &.*.*.=.=.).-.;.h.>.>.x x x q.q.q.f.,.F.@+O.B.[ : A.]+7 #+#+#+7 ]+( 3 3 3 3 / ^ { ! 5 6 j $ +   k l l l l l l l l l l l l l k k k k k k k k k k k k k k l l l l l l l k @     . + # $ ; j 6 , ' ' 5 ) ) ! ! ~ ~ { { { { { ~ ~ ! ) 5 ' , 6 > j ; $ $ # # + + + . . . .         @ @     . + + + + + . .     @ @ @ @ @ @ @ @ @ @ @ @ @ @ @ @ @ @ @ @ @ @ @ @ @ @ @ @ @ @ @ @ @ k k k k k k @ @     . + # # $ ; > 6 , 5 5 ) ) ! ! ~ ~ ~ { { ] ] ^ / 4 4 3 3 _ _ 2 1 | | } } i i i i i i i ",
"2 2 2 2 2 2 2 2 2 2 2 2 2 1 1 | u } } i i i i i i } } } } } | 1 2 _ 3 4 / ^ ^ ^ ] ] ] ] ] ] ] { { { ~ ~ ! ! ) )+5 5 5 5 5 ) 5 5 ' , 6 > j ; $ $ $ $ ; j 6 , 5 ) ! ~ { { { { { ~ ! ! ) ) ) ! ~ { ^ 4 _ 1 i 9 a c e g h h '.'.'.'.h h f c a 8 } 2 4 ^ ~ 5 6 ; #   k l a&@ . $ > ' i#,@7+8 b t.y S Q.=+D.o.P *+E E 0&0&7&P o.R 9.&.S U h c 0 i | _ 4 ^ { ~ 5+0.5 x.x.5 ) ~ ] ]+_ < i O.s.F.,.,.f.q.x >.h.;.:@:@-.a@a@a@).).).).).-.-.;.>.x f.c.O.[ T 4 ^ ] { ~ ~ ~ ~ { ] ] ^ 4 3 2 | } 8 9 a b e g '.U z S =.V *.*.*.*.*.*.*.&.&.&.W W W W W %.%.%.%.%.%.%.%.%.%. + +%.%.%.W &.&.*.*.=.).).-.;.h.>.>.x x x q.q.f.,.F.@+N.m.< : A.]+7 #+#+#+7 4 ( A.A.A.3 4 ^ { ! 5 , j $ +   k k l l l l l l l l l l l l l l k k k k k k k k k k k l l l l m m l l k @     . + # $ ; j > 6 , ' 5 ) ) ! ! ~ ~ ~ { { { { ~ ~ ! ) 5 ' , 6 > j ; $ $ # + + + . . . . .         @ @   . + # # # # + + . .       @ @ @ @ @ @ @ @ @ @ @ @ @ @ @ @ @ @ @ @ @ @ @ @ @ @ @ @ @ @ @ @ k k k @ @ @     . + # # $ ; j > , ' 5 ) ) ! ! ~ ~ ~ ~ { { { ] ^ / / 4 3 3 _ _ 2 1 | | } } i i i i i i i ",
"3 3 3 3 3 3 3 3 3 3 3 3 3 _ _ 2 1 | | | | | | | | | | | | | 1 2 _ 3 4 / / ^ ^ ^ ] ] ] ] ] ] { { ~ ~ ! ! ) ) 5 ' , , , , ' ' ' ' , 6 > j ; $ # # + # # ; j 6 ' 5 ) ! ~ ~ ~ ~ ~ ! ) ) 5 5 ) ) ! { ^ 4 _ 1 } 9 a b e f g g h g g g g f c a V.} 2 3 ^ { ) , > $ +   k l l k   # j , ! ^ _ } p.,.h U V B R o.P *+E b&0&E 7&P o.R %.A S y g c 0 i 1 _ 4 ^ { ~ ! ) ) 0.) ! ~ ] 4 _ | i O.c.,.f.q.q.x >.h.;.-.).t@=.=.Y+=.=.=.=.*.=.=.=.).-.;.>.q.F.O.m.2 4 ^ ] { { ~ ~ { { ] ^ / 4 _ 2 | i 9 0 b c f g '.U z S V *.*.*.*.*.*.*.*.&.&.&.W W W W W W W W %.%.%.%.%.%.%.%.%.%.%.W W W &.&.*.*.=.).-.;.h.>.>.x x x q.q.f.,.c.O.N.m.< T A.]+7 #+#+^ ]+( 3 A._ _ 3 4 ^ ] ~ 5 , > $ +   @ k l l l l l l m m m m m m l l l k k k k k k k k l l l l l m m m l l k @     . + # $ ; j > 6 , ' 5 5 ) ) ! ! ~ ~ ~ { { { ~ ~ ! ) 5 ' , 6 > j ; $ # # + + + . . . .                 . + # # ~+# # c&+ d&. .       @ @ @ @ @ @ @ @ @ @ @ @ @ @ @ @ @ @ @ @ @ @ @ @ @ @ @ @ @ @ @ @ @ @ @     . + + # $ $ ; j 6 , ' 5 ) ! ! ~ ~ ~ ~ ~ { { { ] ^ / / 4 3 3 _ _ 2 1 | | } } } i i i i i i ",
"/ / / / / / / / / / / / / 4 4 3 2 1 1 ;+| 1 1 1 1 1 1 1 1 1 2 2 _ 3 4 / / ^ ^ ^ ] ] ] ] ] { { ~ ~ ! ! ) 5 5 ' , 6 6 > 6 6 , , 6 6 > j ; $ # k++ + + + $ ; > 6 ' 5 ) ) ! ! ! ) ) 5 5 5 5 5 ) ! ~ ] / 3 1 } 8 0 b c e f f f f f e e c a 9 } 1 3 ^ { ) ' 6 ; # . @ a&l l k   + ; 6 )+'#4 1 U.a f '.%+Q.=+D.` P E E b&E 7&P o.R B A S y g c 0 i 1 _ 4 ^ ] M.L.! ! L.~ { ^ 4 2 } 8 @+F.f.q.x >.4@h.;.-.).=.*.e&&.&.&.&.&.&.&.&.&.*.*.=.).-.h.q.,.0 m.2 4 ^ ] { { ~ ~ { { ] ^ / 3 _ 1 } 8 9 a b e f h '.U z S V *.*.*.*.*.*.*.*.*.&.&.&.W W W W W W W W W W W W W W W W W W W W W &.&.*.*.=.).-.;.h.h.>.x x x q.f.,.F.@+O.B.[ : T ( ]+7 #+#+7 ]+( A._ _ _ 3 4 ^ ] ~ 5 , > ; # . @ k k l l l l m m m m m m m m l l l l l l l l l l l l l l m m m m l l k @   . . + # $ ; j > 6 , ' 5 5 ) ) ! ! ! ~ ~ ~ ~ ~ ~ ! ! ) 5 ' 6 > j ; $ # # + + + . . . .                   . & # $ $ ~+# # c&+ d&. .       @ @ @ @ @ @ @ @ @ @ @ @ @ @ @ @ @ @ @ @ @ @ @ @ @ @ @ @ @ @ @ @       . . + # $ $ ; ; j 6 , ' 5 ) ! ! ~ ~ ~ { { { { ] ] ^ / / 4 3 3 _ _ 2 1 | | } } } } } } } } } ",
"] ] ] ] ] ] ] ] ] ] ] ] ^ ^ / 4 3 2 2 1 1 1 7+7+7+2 2 7+2 2 2 _ 3 3 4 / / ^ ^ ^ ] ] ] ] ] { { ~ ~ ! ) ) 5 ' , 6 > > j > > 6 6 6 > > j ; $ # + + . . + # $ j > 6 , ' 5 5 5 5 5 5 5 ' ' ' 5 5 ) ~ ] / 3 : } 8 0 b c c e e e e c c b a 9 i 1 3 / { ! ' 6 j $ + . @ l m m l @ k@$ > ' ~ ^ _ | 9 b g U V B C o.P E E E E P P Q R B A ).y g c 9 i 1 _ 4 ^ ] { M.M.M.w #+/ 3 : } 9 b e g >.h.;.;.-.-.).=.*.&.U@W W _+_+W W W W W &.&.&.*.=.-.h.x ,.0 m.: 3 / ] { { ~ ~ ~ { ] ^ / 3 2 ;+} 8 0 a c e f h y U z S V V *.*.*.=.=.=.*.*.*.&.&.W W W W &.&.&.&.&.&.&.&.&.&.&.&.&.&.W W W &.&.&.*.=.).-.;.h.h.>.x x q.q.f.,.g@@+N.m.[ : A.( 7 #+#+#+7 ]+3 _ _ _ _ 3 4 ^ { ! 5 , > ; # .   t$k l l l m m n n n n n m m m l l l l l l l l l l l m m m m m m l l k @   . + + # $ ; j > 6 , ' ' 5 5 ) ) ) ! ! ! ~ ~ ~ ~ ! ) 5 ' , 6 > j ; $ # + + + . . . ,&                  . + # $ $ $ $ ~+# c&+ + . .       @ @ @ @ @ @ @ @ @ @ @ @ @ @ @ @ @ @ @ @ @ @ @ @ @ @ @ @ @ @         . . + # # $ $ ; j > 6 , ' 5 ) ! ! ~ ~ ~ { { { { ] ] ^ / 4 4 3 3 _ _ 2 1 1 | | } } } } } } } } ",
"{ { { { { { { { { { { { { ] ^ / 4 _ _ 2 2 2 2 2 2 2 2 2 2 2 _ _ 3 3 4 4 / / ^ ^ ^ ^ ] ] ] ] { { ~ ! ! ) 5 ' , 6 > j j j > > > > > j j ; $ # + + . . . + $ ; j > 6 , , ' ' ' ' ' ' ' ' ' ' 5 ) ! { ^ 4 2 | B.9 a b b c c c b b a a 9 i | _ 4 ] ! 5 , > ; # +   k l m m l @ . # j , ) { / T } O.c h z Q.=+D.o.P E E P P o.D.=+Q.V z '.f b 9 } 1 _ 4 / ^ ] ] #+#+/ 4 _ 1 i 0 c f h y U -.).).%+=.*.&.W W %.%.X X X %.%.%.%.W W W &.&.*.).;.x ,.@+m.: 3 / ] { { ~ ~ ~ { ] ^ 4 3 2 | i 9 a b c e g h y U z S V V *.*.V =.=.=.*.*.*.&.&.W W W &.&.&.&.&.&.&.&.&.&.&.&.&.&.&.&.Q.W &.&.&.*.=.).-.;.h.h.>.x q.q.f.f.F.c.O.B.m.< T A.]+7 #+#+#+7 4 3 _ _ _ _ 3 / ^ { ! 5 , j $ + . @ k k l l m m n n n n n n n n m m m l l l l l l J$m m m m m m m m l l k @   . + + # $ ; j > 6 6 , ' ' 5 5 )+) ) ) ! ! ! ! ! ! ) 5 ' , 6 > ; $ # # + + . . . .                     . + # $ $ f&$ ~+~+# c&+ + . .     @ @ @ @ @ @ @ @ @ @ @ @ @ @ @ @ @ @ @ @ @ @ @ @ @ @ @ @ @         . . . + # $ $ ; ; j > 6 , ' 5 ) ! ! ~ ~ ~ { { { ] ] ] ^ / 4 4 3 3 _ _ 2 1 1 | | | } } } } } } } ",
"~ ~ ~ ~ ~ ~ ~ ~ ~ ~ ~ ~ { { ] ^ 4 3 _ _ _ _ _ _ _ _ _ _ _ _ _ 3 3 3 4 4 4 / / / ^ ^ ^ ^ ^ ] ] { { ~ ! ! ) 5 ' , 6 > > > > > > > > > j ; $ $ # + . . . + # $ ; j > > 6 6 6 , , , , , , , , ' 5 ) ~ ] ]+_ 1 } 8 9 0 a a a a a 0 0 9 8 } 2 3 ^ ~ ) ' > ; $ + . @ k l m m l k   + ; > ' ! ] 4 2 } @+f y V B R Q ` P P P o.Q R 0+.+S U h e a V.} 1 _ 4 / / 7 / ]+( A.: [ 8 0 c g h.U ).S 4+*.*.*.&.&.W %.%.X X X X X X X %.%.%.W W W Q.e&t@;.x ,.0 m.: 3 / ] { { ~ ~ ~ { ] ^ 4 _ 2 | i 9 a b e f g h y U z S V V V V V =.=.=.*.*.*.&.&.&.&.&.&.&.&.&.&.&.&.&.&.&.&.&.&.&.&.&.&.&.&.&.n.*.=.).-.;.h.>.x x q.f.f.,.F.@+N.B.[ : T ( ]+7 7 #+^ / ( A._ _ _ _ 3 / ] ~ ) ' 6 j $ +   @ k l m m m n n o o o o o o n n n m m m m m m m m m m n n n n m m m l k @     . + # $ ; ; j > 6 6 , , ' ' 5 5 5 ) ) ) ! ! K.) 5 5 ' , > j ; $ # + + . . . .                       . + # $ $ $ $ ~+# # + + . .       @ @ @ @ @ @ @ @ @ @ @ @ @ @ @ @ @ @ @ @ @ @ @ @ @ @ @ @ @       . . . + + # $ $ ; ; j > 6 , ' 5 5 ) ! ! ~ ~ 8@{ { ] ] ] ^ / 4 4 3 3 3 _ 2 2 1 1 | | | } } } } } } ",
"~ ~ ~ ~ ~ ~ ~ ~ ~ ~ ~ ~ ~ { { ^ / 4 3 3 3 3 3 3 3 3 3 3 3 3 3 3 3 3 3 3 4 4 4 / / / / / ^ ^ ^ ^ ] ] { ~ ! ) 5 ' , 6 > > 6 6 6 6 6 > > j ; $ # # + + + + # $ $ ; ; j j > > 6 6 6 6 , , 6 6 , ' 5 ! { ^ 3 2 | m.B.N.9 9 0 0 p.9 8 8 } 1 _ / ] ! 5 6 j ; # +   @ k m m m l k   + $ j 6 ' ! ] 4 2 B.b h z A B R Z o.o.Z D.R =+Q.V z h.g c a 8 } 1 _ 3 4 4 4 3 _ : | i 9 a e h y z 4+*.A &.&.Q.W W _+%.X X X X $.$.X X X %.%.%.W W W W &.=.;.x ,.p.m.1 3 / ^ =%{ ~ ~ ~ { ] ^ 4 _ 1 } 8 9 a c e f g '.y U z S V V V V V =.=.=.*.*.*.&.&.&.&.&.&.&.&.&.&.*.*.*.*.*.*.*.*.*.6&&.&.&.&.&.*.*.=.).-.;.h.>.x q.f.f.,.F.c.O.N.m.< : A.( ]+7 7 7 7 ]+( _ _ _ _ 3 4 ^ ] ! 5 , > ; # . @ k l m m n n o o p p p p p p o o n n n n n n n n n n n n n n n n m m l k k @   . . + # $ ; ; j > > 6 6 , , ' ' 5 5 5 ) ) ) ) 5 5 ' , 6 > j ; $ # + + . . .                         . + # $ $ $ $ ~+# c&+ + . .     @ @ @ @ @ @ @ @ @ @ @ @ @ @ @ @ @ @ @ @ @ @ @ @ @ @ @ @ @ @       . . . + # # $ $ ; ; j > > 6 , ' 5 ) ) ! ! ~ ~ { { { ] ] ^ / 4 4 3 3 3 _ _ 2 2 1 1 | | | | | | | | ",
"! ! ! ! ! ! ! ! ! ! ! ~ ~ ~ { ] ^ / 4 4 4 4 4 4 4 4 4 4 4 4 3 3 3 3 _ 3 3 3 3 4 4 4 4 4 4 4 / / / ^ ] { ~ ! ) 5 ' , , , , , , 6 6 6 > > j ; $ # # + + + # # $ $ $ ; ; j j g+> > 6 6 6 6 6 6 , ' ) { ^ 4 _ 1 [ m.i 8 8 8 9 9 8 8 i | 2 3 / { ! ' 6 j $ # .   @ k l m m l k   . # ; j J.5 ! ] z.| 9 e '.z A B R Y Y Y ^+0+W A S y h e b p.i | 1 2 _ 3 3 _ 2 | } 8 @+c f {.U S A Q.Q.B B %.%.%.%.X X X $.$.$.$.$.$.X X X %.%.W W W W &.=.;.x W+O.m.1 3 / ^ ] { ~ ~ ~ { ] ^ 4 _ 1 } 8 0 a c e f g '.y U z S S V V V =.=.=.=.*.*.*.*.&.&.&.&.&.&.&.&.*.*.*.*.*.*.*.*.*.*.*.&.&.&.&.*.*.=.).).-.;.h.>.x q.f.,.F.F.@+O.B.[ < T A.( ]+g&7 7 / 4 3 _ _ _ _ 3 4 ^ { ) ' 6 j # .   k m m n n o o o p p p q q p p p o o h&n n n n n n n n o o o n n n m m l l k @ @   . + + # $ ; ; j j > > 6 6 , , ' ' ' 5 5 5 5 5 ' , , 6 > j ; $ # + + . .                           . + # # $ $ ~+# # + + . .     @ @ @ @ @ @ @ @ @ @ @ @ @ @ @ @ @ @ @ @ @ @ @ @ @ @ @ @ @ @ @       . . + + # # $ $ ; ; j j > 6 , ' ' 5 ) ) ! ! ~ ~ { { ] ] ^ / / 4 4 3 3 3 _ _ 2 2 1 1 | | | | | | | ",
"! ! ! ! ! ! ! ! ! ! ! ! ! ~ ~ { ] ^ / / / / / / / / / / / 4 4 3 3 _ _ _ _ _ _ 3 3 3 3 3 3 3 3 3 4 4 / ^ ] { ~ ! ) 5 ' ' ' ' , , , 6 6 > j j ; $ # # # # # # # # $ $ $ ; ; j j > > 6 6 6 > 6 , ' ) ~ ] ]+A.: | } m.i 8 8 8 8 8 i } | 2 3 / { ! 5 6 j ; # + .   @ k l l k @   . # $ ; > , 5 ~ ^ _ } a f '.z V Q.B 0+%.9$K$V i&;.h f b 0 8 } | 1 2 _ _ 2 1 | i 9 c.e g y z V Q.B =+=+=+X X ^+R $.$.$.$.$.$.$.$.$.$.$.X X %.%.W W W W U@=.;.x ,.O.m.1 3 / ^ ] { ~ ~ ~ { ] ^ 4 _ 1 } 8 9 a F.e f g '.y U z S S =.V =.=.=.=.=.=.*.*.*.n.&.&.&.&.&.&.&.*.*.*.*.*.*.*.*.*.*.*.*.*.&.*.*.*.=.).-.;.h.>.x q.f.,.,.F.c.O.N.m.[ : T A.( ]+]+]+]+]+( A._ _ _ _ 3 / ] ~ 5 , j $ +   k l n n o o o o p p q q q q p p p o o o n n n n n n n n n h&n n n n m m l l k k @     . + + # # $ ; ; j j > > 6 6 , , , ' ' ' ' , , 6 6 > j ; $ $ # + + . .                           . . + # # # # # + + . .     @ @ @ @ @ @ @ @ @ @ @ @ @ @ @ @ @ @ @ @ @ @ @ @ @ @ @ @ @ @ @ @       . . + + # # $ $ ; ; j j > 6 , , ' 5 5 ) ) ! ! ~ ~ { { ] ^ ^ / 4 4 4 3 3 3 _ _ 2 2 1 1 | | | | | | ",
"! ! ! ! ! ! ! ! ! ! ! ! ! ! ~ 8@{ ] ^ ^ ^ ^ ^ ^ ^ ^ ^ ^ ^ / / 4 3 _ 2 2 2 2 2 2 2 2 2 2 2 2 2 2 _ _ 3 4 / ^ ] { ~ ! ) 5 5 5 ' ' , , 6 6 > j ; ; $ $ # # # # # # # $ $ ; ; j j @&> > > > > 6 , ' ) ~ ] ]+A.: | } m.i 8 8 8 8 8 i i | 1 _ ,@] ~ ) ' 6 j ; $ # + .   @ @     . + # $ ; j 6 ' ) { / 2 i a f.h U S V n.n.*.S z y h f b 0 8 i | 1 1 2 2 2 1 } 8 0 b ].h U S A B =+R D.D.D.D.D.#.#.#.#.#.#.#.#.#.#.#.$.$.$.X X %.%.W %.%.W *.:@x ,.0 i 1 A.]+^ ] { ~ ~ ~ { ] ^ 4 _ 1 } i 9 a b c f g h y U z z S S =.=.=.=.=.=.=.*.*.*.*.*.&.&.&.&.&.*.*.*.*.*.*.*.*.*.*.*.*.*.*.*.*.*.=.).).-.h.>.x q.q.f.,.F.c.@+O.B.m.< : T A.( ]+]+]+( ( 3 _ T _ _ 3 4 ^ { ) ' > ; #   @ l n o o p p p p p p q q q p p p o o n n n n n n n n n n n n n n n m m m l l l k k @ @   . . + + # # $ $ ; ; j j > > 6 6 6 J., 6 6 6 > > j ; ; $ $ # # + . .                           . . + # # # + + + . .     @ @ t$k k @ @ @ @ @ @ @ @ @ @ @ @ @ @ @ @ @ @ @ @ @ @ @ @ @ @ @ @       . . + + # # $ $ ; ; j j > 6 6 , ' ' 5 5 ) ! ! ! ~ ~ { { ] ^ ^ / / 4 4 3 3 l$_ _ 2 2 1 1 1 | | | | ",
") ) ) ) ) ) ) ) ) ) ) ) ! ! ! ~ ~ { { { { { { { { { { ] ] ^ / 4 3 _ 2 1 1 1 1 1 | | | | | | | | ;+1 2 _ 3 4 / ^ ] { ~ ! K.) 5 5 ' , , 6 > > j ; ; $ $ # # # # # # $ $ ; ; j j j > > > > 6 6 , 5 ! { ^ 4 _ 1 | } i 8 8 8 9 9 9 8 i } | 2 3 / ] ~ )+' 6 > j ; $ # + + + + + # # $ $ ; j > 6 ' 5+] 4 1 i s.,.g '.U z z j&k&'.g e b 0 8 } | 1 1 1 1 1 | } 8 0 b f h U V Q.=+R D.o.o.o.@.@.@.@.@.@.@.@.@.@.@.Z #.#.#.#.$.$.X X %.%.%.%.W *.-.x ,.@+i 1 A.,@^ ] { ~ ~ ~ { ] ^ 4 _ 1 | i 9 0 b c e f h '.;.-.z ).S S S S ).=.=.=.=.*.*.*.*.*.*.*.*.*.*.*.*.*.*.*.*.*.*.*.*.*.*.*.*.=.=.=.).-.;.h.>.x q.f.,.F.c.@+O.N.m.[ < : T A.( ( ( ( ( A.A.T T _ _ 3 / ] ~ 5 6 j # . @ l n o p p q q p p p q p p p p o o o n n m m m m m m m m m m m m m m m m l l l l k k k @ @     . . + + # # $ $ ; ; j j g+> > > > > > j j j ; j@$ $ # # # + + .                             . + + + + + . .     @ @ @ k k k k k @ @ @ @ @ @ @ @ @ @ @ @ @ @ @ @ @ @ @ @ @ @ @ @ @ @ @       . . + + # # $ $ ; ; j j > > 6 , , ' ' 5 ) ) ) ! ! ~ ~ { { ] ^ ^ / / 4 4 3 3 3 _ _ 2 2 2 1 1 | | | ",
") ) ) ) ) ) ) ) ) ) ) ) ) ) 5+! ! ~ ~ ~ ~ ~ ~ ~ ~ ~ ~ { { ] ^ 4 3 2 1 1 | | | } } l&i i i i i i i } | 1 2 _ 3 4 / ^ ] { ~ ! ) 5 5 ' , , 6 > j j ; ; $ $ $ # # # $ $ $ ; ; j j > > > 6 6 6 , ' ) ~ ] / 3 2 | } i 8 V.9 9 0 0 p.9 9 8 } | 2 3 / ] ~ ) 5 , 6 > > j ; ; ; $ $ ; ; ; ; ; j > > , 5 ! ] 3 1 i 0 b f.g h '.'.h f e b 9 i | 1 1 2 2 1 1 | } i 9 b ].h U V W R D.o.` P P +.+.+.+.+.+.+.+.+.+.@.@.@.@.@.#.#.#.$.$.X %.%.%.%.W *.-.b+,.@+i 1 A./ ^ ] { ~ ~ ~ { ] ^ 4 _ 1 | i 8 0 a b e f g '.y U z z ).).).).).).).=.=.=.*.*.*.*.*.*.*.*.*.*.*.*.*.*.*.*.*.*.*.*.*.*.=.=.=.).-.;.h.>.x q.f.,.,.F.@+O.N.B.m.[ < : T A.( ( ( A.A._ T T 2 _ 3 4 / { ! ' > $ + @ l m o p q q q q q p p p p p o o n n n m m l l l l l l l l l l l l l l l l l l l l m&k k k @ @ @       . . + + # # $ $ ; ; j j j j j ; ; ; ; $ $ $ # # # # + + .                             . . + + + . .     @ @ k k k k k k k @ @ @ @ @ @ @ @ @ @ @ @ @ @ @ @ @ @ @ @ @ @ @ @ @ @ @       . . + + # # $ $ ; ; j j > > 6 6 , , ' ' 5 0.) ) ! ! ! ~ { { ] ^ ^ / / / 4 4 3 3 _ _ _ 2 2 1 | | | ",
") ) ) ) ) ) ) ) ) ) ) ) ) ) ) ) ) ) ! ! ! ! ! ! ! ! ! ~ ~ { ^ / 3 2 1 | | } } i i 8 8 9 9 9 9 9 8 8 i } | 1 2 _ 3 4 / #+{ ~ ! ) 5 5 ' , 6 6 > j j ; ; ; $ $ $ $ $ ; ; ; j j > > > 6 6 , l.' ) ! w / 3 2 ;+} 8 9 p.0 s.a a a a a 0 9 8 i | 2 3 / ] { ! ) 5 ' ' , , 6 6 j#> > > j j j j > > 6 , 0.~ ^ 3 2 } V.a c e f f e c a 9 i | 2 _ _ _ 2 2 1 | i 8 a c g y S Q.R o.P 7&E E E ..................+.+.+.+.@.@.@.#.#.#.$.X X %.X %.%.*.-.>.,.@+i 1 3 / ^ { ~ ~ ~ ~ { ] ^ 4 _ 1 | i 8 9 a b c e g h y U -.z ).).).).).).).).=.=.=.*.*.*.*.*.*.*.*.*.*.*.*.*.*.*.*.*.*.*.*.=.=.=.).).-.;.h.>.x q.f.,.F.c.@+O.B.m.[ < : : T A.A.A.A.A.T T 2 2 2 _ 3 4 ^ { ) , j # . k m o p q q q q q p p p o o o n n m m l l k k k k k k k k k k k k k k k k k k k k k k k k k n&@ @ @ @       . . + # # $ $ $ ; ; ; ; ; $ $ $ $ $ # # # # # # # + . .                           . . + + . .     @ @ k k k l l l k k @ @ @ @ @ @ @ @ @ @ @ @ @ @ @ @ @ @ @ @ @ @ @ @ @ @ @       . . + + # # $ $ ; ; j j > > 6 6 , , l.' ' 5 5 ) ) ) ! ! ~ { ] ] ^ ^ / / / 4 4 3 3 3 _ _ 2 1 1 | | ",
") ) ) ) ) ) ) ) ) ) ) ) ) ) ) ) 5 5 5 ) ) ) ) ) ) ) ) ! ~ { ] / 3 _ 1 | } } i 8 N.9 0 0 a a a 0 0 9 8 i } | 1 2 _ 3 4 / ] { ~ ! ) 5 ' ' , 6 > > j j j ; ; ; ; ; ; ; j j > > 6 6 6 , ' ' 5 ! ~ ] / 3 2 | i V.0 a r.j.j.c c c j.j.b r.s.9 U.} 1 _ z./ ++'#{ ~ L.! ! ) ) 5 5 ' , , 6 6 > > > > 6 ' ) ~ ^ 4 T | i 9 a b b a 0 9 i | 2 3 3 3 3 _ 2 1 [ i 9 b f.h U V B D.P E 0&0&F F F E.E.E.E.E.E.........+.+.+.o&@.@.#.#.$.p&X X X X %.&.D@>.,.@+i 1 3 / ] { ~ ~ ~ ~ { ] ^ 4 _ 1 | i 8 9 0 b c e q.h '.y U -.-.).).-.-.-.).).).=.=.=.=.*.*.*.*.*.*.*.*.*.*.*.*.*.*.*.*.*.*.=.=.).).-.;.L+>.x q.f.,.F.F.@+O.N.B.m.[ < : T T A.A.A.A.T T : : 2 2 _ 3 / ] ~ 5 6 ; + w#l n o p q q q q p p o o n m m l l k k k @ @ @ q&q&q&W@W@W@W@W@    W@W@W@W@q&q&@ @ @ @ @ O#O#O#O#O#@ @ @ @     . . + + # # $ $ $ $ $ $ # # # # # # # # # # # # + . .                           . . . . .     @ @ @ k k l l l l k k @ @ @ @ @ @ @ @ @ @ @ @ @ @ @ @ @ @ @ @ @ @ @ @ @ @ @       . . . + + # # $ $ ; ; j j > > 6 6 , , , ' ' 5 5 ) ) ) ! ~ { { ] ] ^ ^ ^ / / 4 4 4 3 3 _ 2 1 1 | | ",
"5 5 5 5 5 5 5 5 5 5 5 5 5 5 5 5 5 5 5 5 5 5 5 5 5 5 5 ) ! ~ { ^ 4 _ 1 | } } i 8 9 0 a a b b b b a 0 0 9 8 i } | 1 2 3 4 / ] { ~ ! ) 5 ' , , 6 > > > j j j j j j j j > > 6 6 , , ' ' 5 ) ~ { ^ 4 _ ;+S.V.s.r.>+n+].w+t.t.t.f f ].].e c b s.9 U.u 1 :+3 ( 4 / / ^ ^ ++] { ~ <#! ) 5 ' , 6 > > 6 , ' ) ~ ] / 3 2 | i 8 9 8 i } 1 2 3 4 / / 4 3 2 1 } B.0 b f '.z A =+o.E F F F F &+}+}+}+}+}+E.E.E.E.........+.+.@.@.#.#.$.$.X X X X %.&.a@>.,.@+i 1 3 / ] { ~ ! ! ~ ~ { ^ 4 _ 1 | } 8 9 0 a b e f g '.y U -.-.-.-.-.-.-.-.).).).=.=.=.=.*.*.*.*.*.*.*.*.*.*.*.*.*.*.*.*.=.=.=.).-.-.;.h.>.x q.f.,.F.c.@+O.B.m.[ < : : T T A.A.A.T T : : : 2 T 3 4 ^ { ! ' > $ . @ m o p q q q p p o n n m l l k @ @       r&. . . I#I#I#I#k@k@k@k@k@k@k@k@I#I#I#%#r&r&  W@q&q&q&O#O#n&k s&@ @ @   . . + + # # # # # # # # # # # # # # # # # # # + k@. . . . . . . . . .         . . . . .     @ @ k k k l l l l k k @ @ @ @ @ @ @ @ @ @ @ @ @ @ @ @ @ @ @ @ @ @ @ @ @ @ @       . . . + + # # $ $ ; ; j j > > 6 6 6 , , , ' ' 5 5 ) ) ! ~ { { ] ] ] ^ ^ ^ / / / 4 4 3 _ 2 1 1 | | ",
"5 5 5 5 5 5 5 5 5 5 5 5 5 5 5 5 ' ' ' ' ' ' ' ' ' 5 5 5 ) ! { ] 4 _ 2 1 | } i 8 p.a a b j.c c b b a a 0 9 8 i } | 1 _ 3 4 ^ ] { ! ) 5 5 ' , , 6 6 > > > > > > > > > 6 6 , , ' ' 5 ) ! { ] / 3 2 u U.p.r.d w+^.H.H.4@/.{.{.{.{.{.h i.t.].d F.s.V.U.} | ;+1 : 2 2 _ _ 3 4 / ^ ] { ! ) ' , 6 > > 6 , ' 5 ! { #+/ 3 2 | | | 1 2 _ 4 / ^ ^ ^ / 3 _ 1 } 8 0 c g y S Q.^+o.E F t&t&t&G G G T.T.T.T.T.E.E.E.E.......+.+.@.#.#.#.$.$.$.$.X %.&.D@>.,.@+m.: 3 ^ ] ~ ! ! ! ! ~ { ^ 4 _ 2 | } i 8 p.a b c e g h '.y ;.-.-.-.-.;.-.-.-.).).=.=.=.=.*.*.*.*.*.&.&.&.&.*.*.*.*.*.*.*.=.=.).).-.;.;.h.>.x q.f.,.F.c.@+N.B.m.[ < : : T T A.A.A.T : : : : 2 _ 3 / ] ~ 5 6 j #   k m o p q q p p o n m l k @ @   . . k@+ + u&u&u&u&v&v&v&v&V@w&w&w&w&w&w&V@v&v&v&u&u&k@I#x&r&y&W@q&O#n&k k k @ @     . + + # # # # # # # + + + + # # # # # # # # + + . . . . . . . . . . ,&        . . .     @ @ @ k k k k l l l k k @ @ @ @ @ @ @ @ @ @ @ @ @ @ @ @ @ @ @ @ @ @ @ @ @ @ @         . . . + + # # $ $ ; ; j j > > 6 6 6 , , ' ' 5 5 5 ) ! ~ { { ] ] ] ] ] ^ ^ ^ / / 4 3 _ 2 1 1 | | ",
"5 5 5 5 5 5 5 5 5 5 5 5 5 5 5 ' ' , , , , ' ' ' ' ' 5 5 ) ! ~ ] / 3 2 1 | } i 8 9 0 a b c c c c c b a 0 9 8 i i } ;+2 _ 3 / ^ ] ~ ! ) 5 5 ' , , 6 6 6 6 6 6 6 6 6 6 6 , , ' 5 5 ) ~ { ++,@/+7+} V.s.1+].^.H./..#(.N@N@N@:@g.g.g.g..#~.{.i.G.d j.9&p.V.V.U.U.i i i } | 1 2 _ 4 ^ ] ~ ) ' , > > > > 6 , ' 5 ! M.] / 4 3 3 3 4 / ^ ] { { ] / 4 _ 1 } 8 @+c g y S Q.R D E z&t&t&G O C.C.C.C.C.T.T.T.E.E.E.E.F ....+.@.@.#.#.#.D.$.$.X %.*.-.x ,.O.} 2 4 ^ { ! ) ) ) ! ~ { ^ 4 _ 2 | } i 8 9 0 a b c f g h '.y ;.;.;.;.;.;.-.-.).).=.=.=.=.*.*.*.*.&.&.&.&.&.&.*.*.*.*.*.*.=.=.).-.-.;.h.>.x q.f.e c b a 0 N.B.m.[ < 1 : T T T _ T T 2 : : 2 _ 3 / ] ~ ) , > $ . @ l n o p p p p o n m l k @   . + $## # A&A&A&A&B&w&w&C&D&E&E&F&G&H&H&G&F&F&E&E&D&w&w&v&v&I&x&J&y&q&O#n&k k k @ @     . + + # # # # # # # + + + + # # # # # # # + + + + . . . . . . . . . .         . . .     @ @ @ @ k k k k k k k k @ @ @ @ @ @ @ @ @ @ @ @ @ @ @ @ @ @ @ @ @ @ @ @ @ @ @ W@        . . + + + # # $ $ ; ; j > > > 6 6 6 , , ' ' 5 5 ) ) ~ { ] ] ] ] ] ] ] ] ^ ^ / 4 3 _ 2 1 | | | ",
") ) ) 5 5 5 5 5 5 5 5 5 5 5 5 ' , , 6 6 , , , , ' ' ' 5 ) ! ~ { ^ 4 3 2 1 | } i 9 0 a b b c c c c b a a 0 9 8 i } | 1 2 3 4 / ^ { ~ ! ! ) 5 ' ' , , , , , , , , , , , , ' ' 5 ) ~ { ^ ,@/+7+u h#9&>+K+H./.,+(.5#5#Z.Z.Z.M+M+v@M+M+v@a@N@.#/.b+<%w+d 1+!#r.a a a 0 0 9 8 } | 2 3 / ] ~ ) ' 6 > j j j j > 6 , ' ) L.{ w ] w { { ~ ~ ! ~ { ^ 4 _ 1 } 8 a c g y S K$R.o.E z&G K&H H H H H H H C.T.T.G G E.E.E.E...E +.@.@.o.o.o.#.Y ^+B *.g.x F.9 [ _ / ] ~ ) 5 5 5 ) ! ~ ] / 3 2 1 | } i 8 8 9 a b e f g h '.h.h.h.h.h.;.;.-.).=.=.=.=.L&*.*.*.&.&.&.&.&.&.&.&.*.*.*.*.*.=.S ).-.;.y h.>.x q.f.,.c b a 0 9 B.m.[ | < 1 : 2 T T T T T 2 T _ 3 / ] ~ ) , > $ + W@k m n o p p p o o m l @   . + # $ $ j@j@j@j@M&C&C&D&F&G&N&O&P&Q&Q&Q&Q&Q&Q&R&P&P&O&G&F&E&C&S&T&U&V&W&X&O#n&n&O#@ @   . . + # # $ $ $ # # # # # # # # # # & + + + + + + + + + + + + + . . . .                     @ @ @ @ @ k k k k k @ @ @ @ @ @ @ @ @ @ @ @ @ @ @ @ @ @ @ @ @ @ @ @ @ @ @ @ @           . . + + + # # $ $ ; j j > > > 6 6 , , ' ' 5 5 0.) ~ { ] ] ^ ] ] ] ] ] ] ^ ^ / 4 _ 2 1 | } } ",
") ) ) ) ) ) ) ) ) ) 5 5 5 5 ' ' , 6 6 6 6 , , , , ' ' 5 ) ! ~ { ] / 4 _ 2 1 | } 8 9 0 a b b c c b b b a 0 9 8 i } } | 2 _ 3 4 / ^ ] { ~ ! ) ) 5 ' ' ' ' ' ' ' ' ' ' ' ' ' 5 ) ! { ^ 4 /+}$o#@%g#>+)%u.x$(.A#y+E$_.3#p+<@<@<@<@<@<@<@3#b@M+f+N@.#x+o+b+^.t.].Y&e e c b a 0 8 } 1 _ / ] ! 5 6 > j ; $ $ $ ; j > 6 , ' 5 5 ) ) ) ) ) ) ! ~ ] 4 _ 1 } 9 a e g y z A =+Q *+z&Z&H `&d.d.I I H H H H T.G G G G G E.F ..+.P ` ` P @.o.D.=+Q.S y q.b 8 < 3 ^ { ! 5 ' ' ' 5 ) ~ ] / 3 2 1 ;+| } } i 8 9 a b e f g h >.>.h.h.h.h.;.-.).=.=.*.*.*.*.*.6&&.&.&.&.&.&.&.&.&.*.*.*.*.=.).z U ;.h.'.h g q.f.e c b a 0 9 8 i } [ | | < 1 2 2 T T T _ A.( / ] ~ ) , j $ +   k m n o o p p o o n l k   + # $ ; j j j H&H&G&F& * *N&N&R&R&.*.*+*@*@*@*@*@*@*.*.*.*#*R&$*%*&***=*-*;*>*X&O#O#@ W@  . . + + # $ $ ; $ $ $ $ $ # # # # # + + + + . . + + # # # # + + + + . . .                       @ @ @ @ @ @ @ @ @ @ @ @ @ @ @ @ @ @ @ @ @ @ @ @ @ @ @ @ @ @ @ @ @ @ @ @ @ @ @ w#      . . . + + + # # $ $ ; j @&> > 6 6 , , ' ' ' 5 5 ) ~ { ] ^ ^ ^ ] ] ] ] ] ] ^ / 4 _ 2 1 | } } ",
"! ! ! ! ) ) ) ) ) ) ) ) 5 5 ' ' , 6 6 6 6 6 , , , ' ' 5 ) ! ~ { ] ^ / 3 _ 2 1 | i 8 9 0 a b b b b b b a 0 9 9 8 i } | 1 2 _ 3 4 / ^ ] { ~ ~ ! ) ) 5 5 5 ) ) ) 5 5 ' ' ' ' 5 ) ~ ] / 3 :+;+Z$F$2%)#u.A#y+y+y+@$,*p+1$v.z+z+w@w@M@[@z+z+:.v.<@3#b@Z.y+f+:@A@'*{.)*h i.t.e c a 9 m.1 _ / { ) , > j $ # # + # # $ ; j > > 6 6 , , 6@' 5 ) ~ ] 4 _ | i 9 b e g y z A !*D.*+F Z&`&d.d.d.d.d.H H H H T.G G G G G E.F E E P P P P P Z R B A z >.e @+i : 4 ] ~ ) ' ' , ' 5 ) ! { / 3 _ 2 1 1 | | } l&8 9 a b e f q.x h >.>.>.h.;.).=.*.*.*.*.*.*.*.&.&.&.&.W W &.&.&.&.e&*.*.L&=.).-.U y '.>.h g f f.e c b a 0 9 8 i i } } [ | 1 1 2 2 _ _ A.( / #+M.) , > $ + @ k m n o o o o o o n m k   + $ ; j > 6 6 j#j#~*P&N&{*{*]*^*/*(*_*:*<*[*[*[*[*[*<*<*:*:*@*(*}*^*|*1*2*3*-*;*W&q&W@  r&. . + # # $ ; ; ; ; ; ; $ $ $ $ # # # + + . . . . + + # # # # # + + + . . .                                   @ @ @ @ @ @ @ @ @ @ @ @ @ @ @ @ @ @ @ @ @ @ @ @ @ @ @ @ @ @ @ @ @ @         . . . . + + + # $ ; j j > > 6 6 , , ' ' ' 5 5 ) <#{ ] ^ ^ ^ ] ] ] ] ] ] ^ / {#_ 2 | } } i ",
"~ ~ ~ ! ! ! ! ! ) ) ) ) ) 5 ' ' , 6 6 6 6 6 , , ' ' 5 5 ) ! ~ { ] ^ / 4 3 _ 1 | } i 9 0 a b b b F.b b b a 0 0 9 8 8 i } | 1 _ 3 4 ]+/ ^ ] { { ~ ! ! ) ! ! ! ! ) 5 5 ' ' ' 5 ) ~ ] 4 _ 7+,%d%V#U#y$S#_._$_$_$_$1$v.q+N++@<.}@}@O+O+}@<.<.+@+@z+z+z+c@S@1@z@%+z 4*U U y h t.e c.9 i 1 3 ^ ~ 5 6 j $ # + . . . + + # $ ; j j > 6 6 , 5 ) ~ ^ 4 2 | i 0 b e h y z n.B C 5*0&Z&6*d.d.d.d.d.H H H H G G G F F F F F E P P o.o.o.o.C 0+A %+~.f b 9 [ _ / { ! 5 ' , , , ' 0.! { ^ 4 3 _ :+2 2 1 1 | } 8 9 a F.,.f.q.x x x >.h.;.).=.*.*.*.*.*.*.*.&.&.&.&.&.&.&.&.&.&.*.*.*.=.S z U ;.y '.h h g f e e c b a 0 9 8 8 i i } } | | 1 2 2 _ _ 3 4 ^ { ! ' > $ +   k m n o o o o n n n m l @ + $ = > 6 , ' 6@6@7*7*8*.*9*/*/*0*:*a*b*c*c*d*e*e*e*d*d*d*d*d*b*b*a*(*f*g*1*2*=*-*J&%#%#I#+ + # # # $ ; ; j j j j ; ; ; $ $ $ # # + + . .   . . + # # # # # + + + . .                                         @ @ @ @ @ @ @ @ @ @ @ @ @ @ @ @ @ @ @ @ @ @ @ @ @ @ @ @ @ @ @ @ @         . . . . + + # $ j@; j > > 6 6 , , ' ' ' 5 5 ) ! { ] ^ ^ ^ ] ] ] ] ] ^ / 4 3 _ 1 | } i i ",
"{ { { { ~ ~ ~ ! ! ! K.) ) 5 E+' , 6 6 6 6 , , ' ' 5 5 ) ) ! ~ { ] ] / 4 3 _ 1 | } i 8 0 a b b c c c c b b a a a 0 p.9 8 S.| 1 2 _ 3 4 4 / ^ ] ] { ~ ~ ~ ~ { ~ ! ) 5 5 ' ' 5 ) ~ ] 4 _ k$e$F$3$.%)$y+p+v.v.1$q+q+N+<.<.O+h$[.y@y@[.[.[.[.o@o@o@O+L@}@n@U+&@h*w.i*V j*z U '.g e b O.i 1 4 ] ! ' > ; # + . . . . . + # # $ ; j > 6 , 5 ! { / 3 1 } 8 0 c f h y z A B C D k*G H d.d.d.d.d.H H H O G &+F F E E E E P P o.o.Q D.R !*A S y g c 0 i 1 4 ++~ ) ' , , , , ' 5 ! ~ ] / 4 3 3 3 _ _ 2 2 ;+} 8 9 a b ,.f.q.g x >.h.;.).=.*.*.*.*.*.*.*.&.&.&.&.&.&.&.&.*.*.*.*.=.=.).z U y y '.h h g f e e c b a 0 9 8 8 i i } } } | 1 2 2 _ _ 3 / ] ~ 5 6 ; #   k m n o p p o n n m l k @ . # j 6 , ' 5 ) ) )+l*m*n*<*:*a*o*p*q*d*r*s*s*s*t*t*t*t*u*u*v*s*s*w*q*o*(*f*g*1*x*y*y*I&$#$## $ $ $ ; ; j j j j j j j ; ; $ $ $ # # + + . .     . + # # # # # + + . .                                         @ @ @ @ @ @ @ @ @ @ @ @ @ @ @ @ @ @ @                       @ @ @           . . . . + + # # $ ; j > > 6 6 , , ' ' ' 5 5 ) ! { ] ^ ^ ^ ^ ^ ^ ^ ^ / 4 3 _ 2 1 | } i i ",
"^ ^ ^ ] ] { { ~ ~ ! ! ) ) 5 5 ' , , , , , ' ' 5 5 ) ) ) ! ! ~ { ] ^ / 4 3 _ 7+| } i 8 0 a b c c e e e c c c c b b b a 0 9 i } | 1 2 _ _ 3 4 / / ^ ] ] ] ] ] { ~ ! 5 5 ' ' 5 ) ! ] / A.7+e$F$:$6$#$_.q+N+N+N+N+<.<.O+[.y@P+x@}.}.}.}.}.P+P+P+P+P+)@K@|@8.!@9.B I.I.Q.A V z y h f b 9 } 2 / { ) , > j@# + .     . . + + # $ ; j 6 ' ) ~ ] 4 _ | i 9 a c f h y i&A B R o.E F G H H d.H H H H H G F F E E P P 5*o.o.Q D.R R =+B A ).y g c 0 i 1 _ / { ! 5 ' , , , , ' 5 ) ~ { ^ / / 4 4 4 3 3 _ 2 ;+} 8 0 a b ,.f.q.x >.h.;.).=.*.*.*.*.*.*.*.*.*.&.&.&.&.*.*.*.*.=.=.=.).z -.U y '.'.h h g f e e c b a 0 9 8 8 i i } } } | 1 2 2 _ 3 4 ^ { ) ' > $ . k m n o p p p o n m l k   . % j 6 ' 5 ! <#~ ~ ~ <#X%z*s*w*w*w*A*A*u*u*u*B*B*C*C*C*C*C*D*D*C*C*B*A*w*o*(*E*F*G*D&D&H*j@j@; ; I*j j j > > > > > j j ; ; ; $ $ # # + + . .     . + # # # # + + + . .       @ @                             @ @ @ @ k k k k k k k k k k @ @ @ @ @                                         . . . . + + # # $ ; j > > 6 6 , , ' ' ' 5 5 ) ! ~ { ] ^ ^ ^ ^ / / / 4 3 _ 2 1 | } } i i ",
"4 4 4 / ^ ^ ] { { ~ ! ! ) 5 5 ' , , , , ' ' 5 5 ) ) ! ! ! ~ ~ { ] ^ / 4 3 _ 1 | } i 9 0 a b c c e e e e e e e e e e c b a 9 8 i } | 1 1 2 _ 3 3 4 / / / / ^ ] { ! ) 5 ' ' x.5 ! { ^ z.7+e$F$:$$$O$_$N+<.<.<.<.O+[.o$P+}.}.Q+Q+Q+Q+Q+Q+Q+Q+Q+Q+'@'@'@%@6.7.'+k.k.k.=+B Q.V S ;.h f b 9 | _ ^ ~ 5 6 j $ # + . . . . + + # $ ; > , 5 ! ] / 3 1 } 8 0 b d q.>.U S A B R Q P k*t&G H H H H H G G F 0&E P o.Q D.D.R R ^+=+B Q.A V z '.g c 0 8 | _ 4 ] ~ ) ' , , 6 , , ' 5 ) ! { ] ^ ^ ^ / / 4 4 3 _ 2 | i 8 0 a c e f g h h.;.).=.*.*.*.*.*.*.*.*.*.*.*.*.*.*.*.=.=.=.=.).).-.U ;.y '.'.h h g f e e c b a 0 9 8 8 i i } } } | 1 2 2 _ 3 4 ^ ~ 5 6 ; #   l m o p q p p n m k @ . + $ j 6 E+) ~ { ] ^ ^ ++++|%J*K*L*L*M*N*N*N*N*N*N*N*N*N*N*O*P*P*P*P*O*N*D*B*w*Q*R*S*T*R&P&P&g+g+> > > > > > 6 6 6 > > > j j ; ; $ $ # # + + . . . . . + # # # # + + + . .       w#@                             @ @ @ @ @ k k k k k k k k k @ @ @ @       . . . . . . . . .                   . . . . + + # # $ ; j > > 6 6 , , ' ' ' 5 5 ) ! ~ { ] ] ^ ^ / 4 4 3 _ _ 2 1 | | } i i i ",
"_ _ 3 3 4 / ^ ] { { ~ ! ) 5 5 ' ' ' ' ' ' 5 5 ) ) ! ! ~ ~ ~ { { ] ^ / 4 3 _ 1 | } i 9 0 a b c c e e f.f f f f f g g f e c a 0 9 8 i } } | 1 2 2 _ 3 3 4 4 / ^ { ~ ) 5 ' ' ' 5 ! { ^ 4 :+<$7$:$$$S#_$N+<.O+O+O+[.P+P+}.Q+Q+|.|.|.|.|.|.U*p@p@p@p@C+4.4.3+T+c+D+D+D+D.R =+B A S y h e a B.1 ( ] ! ' 6 j ; $ # & + $## % $ ; j 6 ' K.{ ^ 3 2 | i 9 0 b e g h y z V Q.=+D.o.*+E F G G G G G F F E P o.D.R =+=+B B Q.Q.A V S z y h f b 0 i | T 4 ^ { ) 5 , , 6 6 , , ' 5 ) ! ~ { ] ] ^ ^ ^ / / 4 3 2 1 } 8 9 a b ,.f V*h h.;.).=.*.*.*.*.*.*.*.*.*.*.*.*.*.=.=.=.=.).).).-.-.U y y '.'.h h g f e e c b a 0 9 8 8 i i } } } | 1 2 2 _ 3 4 ^ ~ 5 6 ; + @ l n o p p p o m k @ . # ; > , 0.~ { ^ / 4 3 3 z.z./$/$W*X*X*X*X*X*X*X*Y*Z*Z*Z*Z*X*X*X*X*X*X*X*Z*Z*N*D*v*`* =.=+=@=7*7*$+, , , , , , 6 6 6 6 6 > > g+j j ; ; $ $ # # + + . + + # # $ $ # # # + + . .             . . . . . . . . . .           @ @ @ @ @ @ @ @ @ @ @ @ @       . . . . . . . . . . . .                 . . . . + + # # $ ; j > > 6 6 , , ' ' ' 5 5 5 ) ! ~ { ] ^ / 4 3 3 _ 2 1 1 | | } } i i i ",
"2 2 2 _ 3 4 / ^ ] { ~ ! ) 5 5 ' ' ' ' ' 5 ) ) ! ! ~ ~ ~ ~ { { ] ] ^ / 4 3 _ 1 | } B.N.0 a b b c ,.e e f.f f f g g g g f e c b a 0 9 8 i i } | 1 1 2 _ _ 3 4 / ] ~ ) 5 5 ' ' 5 ) ~ ] ,@:+o#7$#=6$x$_$N+<.O+O+O+[.P+}.Q+Q+|.1.1.1.1.R+R+R+R+R+R+R+x#m#l#9#3+0#c+c+P o.o.D.=+Q.V z y g c O.} 2 4 ] ! 5 , y.- j ; ; ; ; j j > , ' ) { ^ ( T 1 } 8 9 a b e f h y z V Q.B R D.o.P E k*F F F F@E P D D.R =+B Q.A w.V S S z U h.h f c a 9 i 1 _ 4 ^ { ! 5 ' , 6 6 6 , , ' 5 5 ) ! ~ { { ] ^ ^ / / 4 3 _ 1 } 8 9 a b c f.q.x h.;.).=.*.*.*.*.*.*.*.*.*.*.=.=.=.=.=.).).).-.-.-.U ;.y y '.'.h h g f e e c b a 0 9 8 8 i i } } | | 1 2 2 _ _ 4 ^ ~ 5 6 ; + @ l n o o o o m k   + $ j , 5 ! { ^ 4 _ 2 1 < ;+;+;+;+$=0%%=%=%=%=&=&=*=====-=;=;=-=-=========-=>=,=X*l%N*'=)=!=L%~=W%m*E+5 5 {=' ' ' , , , , 6 6 6 6 > > > j = ; $ $ # # # # # $ ; ; ; $ $ $ # # + + . . . . . . + + + + + + + + + + . . . . .                             . . . . . . . . . . . . . . .               . . . . + + # # $ ; j > > 6 6 , , ' ' ' 5 5 5 ) ) ! ~ { ^ / 4 3 2 1 1 | | } } } i i i i ",
"| | 1 2 _ 3 4 / ^ { ~ ! ) ) 5 5 ' ' 5 5 5 ) ! ! ~ ~ ~ { { { ] ] ] ^ / 4 3 _ 1 | } B.N.O.@+a b F.c c ,.e f.f f g h h h g f e c b b a 0 9 8 8 i } | | 1 2 _ 3 / ] ~ ! 5 5 ' ' 5 ) ~ ] / /+E#D#3$!$#$_$z+<.<.<.O+[.P+}.Q+|.|.1.R+R+R+]=d@d@d@d@d@Q#Q#y#m#^=9#3+0#0#0#P P o.R =+Q.=.U >.f.a 8 | _ / ] ! ) 5 ' l., J.J., , ' ' ) ! { / 3 2 | } i 8 p.a b c f h y z S A B =+R D.o.D P  . .*+P o.Q R =+B Q.A V S z U y '.h g f c a 9 i | 2 3 4 ^ { ! ) ' 6 6 6 6 , , ' ' 5 5 ) ) ! ~ { ] ] ^ / / 4 3 _ 1 } 8 9 a b c f.q.x h.;.).=.*.*.*.*.*.*.*.=.=.=.=.=.=.).).).-.-.-.;.;.;.y y y '.'.h h g f e e c b a 0 9 8 8 i i } } | | 1 2 2 _ _ 3 ^ ~ 5 6 ; + W@l m n n n m k   + ; > ' ! { 7 z.T 1 } i 8 V.9 9 p.~#~#;%;%/=/=/=(=_=:=<=[=a%}=}=}=}=}=}=}=|=1=2=0%e%3=4=l%5=6=J%7=1%<#T$! ! ) ) 5 5 ' ' , , , , , , , , 6 6 > j j ; ; ; $ ; ; j j j j j j ; ; $ $ # # + + + + # # # # # # # # # # # # # # + + + + + + + + + + + + + . . . . . . + + + + + + + + + . . .               . . . . + + # # $ ; j > > 6 6 , , ' ' ' 5 5 5 5 ) ) ! { ] / 3 _ 1 | } } i i i i i i i i ",
"} } } | 1 2 3 4 ^ ] { ! ) ) 5 5 5 5 5 5 ) ) ! ! ~ ~ { { { { ] ] ] ^ / 4 3 _ 1 | m.B.N.O.0 a c.b F.F.,.,.e f f g h h h h g f f e c b b a 0 9 9 8 i } | | 2 _ 4 ^ { ! ) 5 5 5 5 ) ~ { b.E%k$8$V#2$)$@$q+N+<.<.O+[.P+}.Q+|.1.1.R+R+d@d@d@+$+$+$+$+$+$Q#y#m#}+a#a#a#a#E E P Q R B A z y g c 0 i 1 _ / ] { ~ L.L.! K.) ) K.! ~ { ] / _ 1 | i i 8 9 0 a b c f g '.U z V A Q.B =+R Y D.Z Z Q Y R =+B Q.*.S z U y >.g q.].,.b a 9 i } 1 _ 4 / ] { ~ ) ' , 6 > > 6 6 , ' ' 5 5 ) ) ! ! ~ { ] ^ / / 4 3 _ 1 } 8 9 a b c f.q.h h.;.).=.*.*.*.*.*.*.=.=.=.=.=.).).).).-.-.-.;.;.y y y y y '.'.h h g f e d c b a 0 9 8 8 i i } } } | 1 1 2 _ _ 3 b.{ )+6 j #   k l l l l @   # ; 6 5 ~ ^ 3 2 | i V.0 a b c d d d W.W..%.%8=8=2$9=%$0=0=a=a=b=b={%;%;%;%;%;%(=(=:=a%c=e%-=G%d=H%Z#|%#%'#{ i#~ ! ! ) 5 5 ' ' ' ' ' ' ' ' ' ' , 6 6 > > > j g+> > 6 6 6 6 > > j j ; ; $ $ $ $ $ $ $ $ $ $ $ $ $ $ $ $ $ $ $ $ $ $ # # # # # # # # # # # # # + + + + + + + + + + + + + . .               . . . . + + # $ ; ; j > > 6 6 , , ' ' ' 5 5 5 5 5 ) ! { ^ 4 3 2 | } i i 8 8 8 i i i i i ",
"8 8 i } | 1 2 3 / ^ { ~ ! ) 5 5 5 5 5 5 ) K.! ! ~ ~ { { { { { ] ] ^ / 4 3 _ : | } B.N.O.0 a a b b F.c ,.f.f g g h '.'.'.h g g f e e c b b a 0 0 9 8 i } | 1 _ 4 ^ { ! ) 5 5 5 ) ! { ++Y%6+<$&$%$T#A#_$q+N+<.O+[.P+}.Q+|.|.1.R+R+d@d@d@+$+$+$+$+$+$e=Q#f=^=}+F F F F F E 5*D.=+Q.V -.'.f b 9 } 1 _ 4 / ^ ^ #+#+] ] ] ] ] ^ / 4 _ 1 } 8 8 9 9 0 a a b c e g h '.U z S V A Q.W B %.0+0+0+B Q.A V S z ;.'.h f e c b @+9 8 i | 1 _ 3 / ^ ] ~ ! ) 5 l.6 > > > 6 6 , , ' 5 5 5 ) ) ! ~ { ] ^ / / 4 3 2 1 } 8 9 a b c f.V*h h.;.).=.*.*.*.*.*.=.=.=.=.).).).).-.-.-.-.;.;.h.h.h.y y y '.'.h g g f e c b a a 0 9 8 i i i i i } } | 1 2 2 _ 4 ^ { ) , > $ +   @ @ @   . # j J.5 { / _ | B.9 a c e f g h {.{.4@/.,+,+g=g=#$h=)$i=T#j=k=k=8=2$9=%$%$%$ % %$%~%l=;%(=m=1=0%Q%9%H$/$,@b.^ ] ] { ~ ! ) ) 5 5 5 5 5 5 ) ) ) 5 5 ' ' , , , , , , , ' ' ' , , , 6 6 > > j j ; ; ; j j j j j j j j j j j j j j j ; ; ; ; ; ; ; ; ; ; ; $ $ $ $ $ # # # # # # # # + + + + . .                 . . . + + # $ ; j j > 6 6 6 , , ' ' ' 5 5 5 5 5 ) ! { ^ 4 _ 1 } i 8 9 9 8 8 8 8 i i i ",
"9 9 9 8 i [ 1 _ 4 / ] ~ ! ) 5 5 5 5 5 5 ) ) ! ! ! ~ ~ ~ ~ ~ { { ] ] ^ / 3 _ 2 ;+} i N.9 0 a a b b c ,.e f f g h '.'.'.'.'.h g g f f e c c b b c.a 0 0 9 U.} 1 _ 4 ^ { ~ ) ) ) ) ! ~ ] +&p#E#{$3$6$#$@$1$q+N+O+[.P+}.Q+Q+|.1.1.R+R+R+d@d@d@d@+$e=e=Q#y#f=C.}+G G G G G F E D D.=+Q.S U h e a 8 } 1 _ 3 ( ( ( ( ( ( 4 ( 3 3 _ 2 | } 8 9 0 a a a a b b c e f g h '.y U z S S V V *.n.n.*.V =.S z y '.i.f ,.b 0 9 i } | 7+_ 3 4 / ^ ] { ~ ! ) 5 ' , 6 > > > > 6 6 , ' ' 5 ) ) ! ~ v { ] ^ / 4 4 _ 2 | } 8 9 0 b c f.g >.h.;.).=.=.*.*.*.=.=.=.).).).).-.-.-.-.-.;.;.;.h.h.h.y y y '.'.h g f e c b a a 0 9 8 8 i i i i 8 i i } | 1 2 _ 4 ^ { ! ' 6 j $ + . . + # j@> , ) { 4 2 S.p.b d f x '.y U z z %+%+z@z@,*,*,*n=@$o='$p=S#g=#$h=)$T#T#$$$$$$q=q=.%2$%$~%l=(=:=*$r%[$}$p#3 4 / ^ ] { ~ ~ ! ) ) ) ) ) ! ! ! ! ! ! ! ! ) ) ) 5 5 5 ) ) ) 5 5 5 5 ' ' , , 6 6 > > > 6 6 6 6 6 6 6 6 6 6 6 6 6 6 > > j j j j j j j j j j j j ; ; ; ; ; ; $ $ $ $ # # # + + + . .               . . + + # $ ; j j > > 6 6 , , , ' ' ' ' 5 5 5 ) ! ~ ] / 3 2 | i 8 9 0 0 9 9 9 8 8 i i ",
"a a 0 9 8 i | 1 _ 4 ^ { ! ) 5 5 ' ' 5 5 ) ) ) ! ! ! ! ! ! ~ ~ { { ] ^ / 4 _ 2 1 [ i 8 9 0 @+a b F.c e f.f g h h '.y y y '.'.h g g f f e e e e c c F.b a 0 9 i | _ 4 ^ { ~ ! ) ) ! ! { -$Y#X#*$V#2$T#S#_$+%N+<.[.[.P+}.Q+Q+|.|.1.1.1.R+R+R+x#d@d@z#y#r=f=C.C.C.H H H H G F E o.R B A z '.q.c 0 8 | 1 2 2 2 : : 1 1 1 1 1 1 | } i 8 0 a b b b b b b b c c e e f g h '.y y g.U U U -.-.U U ;.y '.h f e b 0 N.i | : _ 3 / ^ ^ ] { ~ ! ! ) ) 5 ' ' , 6 > > > > > 6 6 , ' 5 ) K.! ~ { ] ^ ^ / 4 3 _ 2 | } 8 9 0 b c f.g >.h.;.).=.=.*.*.=.=.=.).).).-.-.-.-.-.-.;.;.;.h.h.h.h.y y y '.'.h g f e c b a 0 9 8 8 i i i i 8 9 9 8 i } | 2 3 / ^ { ! 5 ' 6 j ; $ $ ; g+6 x.! ] ( 1 U.a e g {.y U z s=V A A .+.+U@&@z+z+q+q+q+1$1$1$t=_$n=@$'$u=S#S##$#$C%C%)$D%y$!$9=$%l=;%d%@%u ;+7+_ 3 4 / ^ ] { ~ ~ ! ! ! ! ~ ~ { { { { ] ] { { { ~ ~ ~ ~ ~ ~ ! ! ! ! ) ) 5 5 ' ' ' l.' ' ' ' ' ' ' ' ' ' ' ' ' ' , , 6 6 > > > > > > > > > > > > > > j j j j j ; ; $ $ # # + + . .         W@      . + # $ ; j j > > 6 6 6 , , ' ' ' ' ' ' 5 0.) ~ { ^ 4 _ 1 } 8 9 0 a a 0 0 9 9 8 8 8 ",
"b b a a 0 8 i | 2 3 / ] ~ ) 5 5 ' ' 5 5 5 ) ) ) ) ) ) ) ) ! ! ~ { ] ^ / 4 3 2 1 | } B.9 p.0 a b c c e f q.g h '.y y y y y '.h h g g g f f f f f f e e c F.a 9 i | _ 4 ^ { ~ ! ) ) ! ~ p%c#f%]${$$%!$)$'$_$q+<.O+[.P+P+}.Q+Q+2+|.|.|.1.1.1.1.R+R+x#m#m#f=C.C.H H d.d.H H G E P D.=+Q.=.U h e a 9 i | 1 < | } } m.i i i i i i 8 9 0 a b b c c c b b b b b b c c e f f g g h h h h h h h h h g f e F.a 9 i [ 1 _ 4 7 ] { ~ <#! ) ) ) 5 5 ' ' , , 6 6 > > > j > > 6 , ' 5 ) ! ~ { { ] ^ ^ / 4 3 _ 1 | } 8 9 0 a c f.g >.h.;.D@).=.=.=.=.=.).).-.-.-.-.;.;.;.;.;.;.;.h.h.h.h.y y y '.'.h g f c b a 0 9 8 8 i i i i 8 9 9 9 9 8 i | 2 3 / ] { ~ ) 5 ' 6 > > 6 , ' ) { ^ A.| 8 r.q.'.U %+=.*.K$8&!*=+=+=+k.!@!@}@}@<.<.<.<.<.<.v=N+N+q+1$1$_$_$@$@$@$E$'$'$S#)$T#6$2$ %C#`$h#@%u ;+2 _ 4 / ^ ] { { ~ ~ ~ { { { ] ^ ^ / / 4 4 / / ^ ^ ^ ] ] ] ] { { { ~ ~ ! ! ) ) ) ) ) ) ) ) ) ) ) ) ) ) ) ) ) 5 5 5 ' , , 6 6 6 6 6 6 6 6 6 6 6 6 6 6 6 6 6 > j j ; ; $ # # + + . .       @       . + # ; j j > > 6 6 6 , , , ' ' ' ' ' ' 5 ) ! { ] / 3 2 | i 9 0 a b b a a 0 9 8 8 8 ",
"c c c b a 0 8 i | 2 3 ^ { L.) 5 5 5 5 5 5 ) ) ) ) ) ) ) ) ) ! ! ~ { ] / 4 3 _ 1 | } i 8 9 0 a b c c e f g g h '.y y y y y '.'.h h h g g g g g g g g g f e c a 9 i 1 _ 4 ^ { ~ ! w=! <#r#Z#G%7%x={%%$$$#$@$1$N+<.O+[.P+}.}.Q+Q+Q+2+|.|.|.|.1.1.2.2.2.y=^=C.G O H H `&H K&z&E P D.=+Q.V U h f.b 0 8 } } } } i 8 8 9 9 0 9 9 9 9 0 a a b b b b b a a a 0 0 0 @+a a b c c e e e e e e e e e e c c a 0 N.i | 2 3 / ^ { ~ ! ) 5 5 5 ' ' ' , , , , 6 6 > > > j j j j > 6 , ' ) ! ~ { ] ] ^ / / 4 3 2 1 | } i 9 0 a c e q.>.h.;.-.).=.=.=.=.).).-.-.;.;.;.;.;.;.;.;.h.h.h.h.h.h.h.h.'.'.>.h g f c b a 0 9 8 i i i i i 8 9 0 0 9 8 i | 2 4 ^ { ~ ! ! ) 5 ' 6@' 5 ) ~ ] 4 T } 9 b t.~.%+w..+W B R.C D.Q o.o.D+D+(#y@y@[.[.[.[.[.[.[.[.m$O+z=<.N+N+q+q+A=1$1$,$_$}%S#)$T#6$!%f#n%p.8 S.| 2 _ 4 / ^ ] ] { { { ] ] ^ / 4 4 3 _ _ _ _ _ 3 3 4 4 / / / / ^ ^ ] ] { { { ~ ~ ~ ~ ~ ~ ! ! ! ! ! ! ! ! ! ! ! ! ) 5 5 ' ' ' ' ' ' ' ' ' ' ' ' ' ' ' ' , , 6 6 > j = ; $ # # + + . .             . + $ ; j > > 6 6 6 6 6 , , , ' ' ' ' 5 )+! ~ ] / 4 _ 1 } 8 0 a b b b b a 0 9 8 8 8 ",
"f e e c c a 0 8 i | :+4 ^ { ~ ! ) 5 5 5 5 5 5 5 5 5 5 5 5 ) ) ! ~ { ] ^ / 3 _ 2 1 } i 8 9 0 a b b c e f f g h '.'.y y y y y '.'.'.h h h h h h h h h h g f e b 0 8 } 1 3 / ] { ~ ! ! <#i#|%j%B=C=/%_%2$T#S#C$q+<.O+[.P+P+}.}.Q+Q+Q+Q+|.|.|.|.p@1.1.l#l###}+}+G G K&H G t&0&P o.R =+Q.S U h e b 0 8 i } } i 8 9 0 0 a a a a 0 0 a a a a a a 0 0 O.9 9 8 8 8 8 V.9 0 0 a a b b b b b a a a a a 0 9 8 } | 2 3 / ^ { ! ) 5 ' ' ' , , , , 6 6 6 6 > > > j j j j j j > 6 , ' 5 ! ~ { ] ] ^ / / 4 l$2 1 | } i 8 0 a b e q.x h.;.-.).).).).).).-.-.;.;.h.h.h.h.h.h.h.h.h.>.>.>.'.'.'.'.>.h g q.e c b a 0 9 8 8 i i i i 8 9 9 9 9 8 } 1 3 / ] ~ ! ! ! ) ) 5 5 ) ! { b.3 1 i 0 c g y %+A I.=+k.C Q D P *+*+0#0#T+T+=#}.}.}.D=D=D=D=D=D=E=E=o$[.m$O+z=z=<.<.n$N+w$1$Y$'$O$g$.@G.n+F.s.9 i | 2 3 4 / ^ ] ] ] ] ^ / 4 3 _ 2 2 1 | | | 1 1 2 2 T _ _ 3 3 3 4 4 / / ^ ^ ^ ^ ] ] { { { { { { { { { { { { ~ ~ ! ! ) ) ) 5 5 5 5 5 5 5 5 0.)+5 5 5 5 5 ' ' , 6 > > j ; ; $ # # + + . .       . + # $ ; j > > > 6 6 6 6 6 , , , ' ' 5 5 ) ~ { ^ 4 _ 1 | i 9 0 a b b b b a 0 9 8 8  $",
"g q.f f e c b 0 8 i | _ 4 ^ ] ~ ! ) ) 5 5 5 5 5 5 5 5 5 5 5 ) ! ! ~ { ^ / 4 3 2 1 | } i 8 9 0 a b c e e f g g h '.y y y y y y '.'.'.'.'.'.'.'.'.'.'.h h g f c a 9 i | _ 4 ^ ] v ~ ! <#{+`#t%i%F=G=^%H=I=W$'$_$q+<.O+[.P+P+}.}.}.Q+Q+Q+Q+|.|.|.|.C+C+4.9#a#a#b&F F F F E P Q R !*Q.V z '.g e b 0 8 i } i i 8 9 0 a a b a a a a a 0 0 0 9 9 8 8 i } } } } } } } } i 8 8 9 9 9 9 9 9 8 8 8 N.8 8 i } 1 2 3 4 ^ { ! ) 5 ' , , , 6 6 6 6 > > > > j j j j j ; ; ; ; j > 6 , 5 ) ~ { { ] ^ / / 4 l$2 1 | } i 8 9 a b ,.f x >.h.;.-.).).).).-.-.;.h.h.h.>.>.>.>.>.>.>.>.>.>.>.>.>.>.h h x g f e c b a 0 9 9 8 8 i i 8 8 9 9 8 8 } | 2 4 ] ~ ! ) ) ) ) ) ) ! ~ ] ]+_ | 8 a e i.y %+w.I.=+R D.o.5**+E k*F a#a#3+8#$@Q+J=J=J=J=J=K=K=J=L=M=D=E=E=N=o$o$o$o$m$m$z=n$O=,$@$P$x$o+<%].c a 9 i | 2 3 / ^ ] ] ^ ^ / 4 3 2 1 | } } i i i i } } } | | 1 1 1 2 2 _ _ 3 3 3 4 4 4 / ^ ^ ] ] ] ] ] ] ] ] ] ] ] { { ~ ~ <#! ! ! ! ! ! ! ! ! ! ! ! ! ! ! ) ) 5 ' , , 6 > j j ; ; $ $ # + + . . . . + # $ ; j > > > > > > > 6 6 , , ' ' 5 ) ! { ^ 4 3 2 | } 8 9 a b b c F.b a 0 9 8 i i ",
"g g g g f e c b 0 8 m.< _ 3 / ] { ! ) ) 5 5 ' ' ' ' ' ' 5 5 ) ) ! ~ { ] ^ 4 3 _ 2 ;+} i 8 9 0 a b F.c e e f g h '.'.y y y y y y y y '.'.'.'.y y y '.'.h g f e b 0 8 } 1 3 / ^ { ~ ~ <#<#G#v%P=i%6%G=^%H=!$)$'$_$q+N+O+[.[.o$P+P+P+}.}.}.}.Q+Q+Q+$@$@5.T+c+c+o.P P P D Q R =+Q.A S z y x e b 0 9 i i } } i 8 8 9 0 a a a a 0 0 0 9 8 8 i } | | 1 1 2 2 2 2 2 2 1 1 | | } } } } } } | | | } } | 1 2 _ 3 / ^ { ~ ) 5 , , 6 6 6 > > > > j j j j ; ; ; ; ; ; ; ; ; j > 6 , ' ) ! ~ { ] ^ b./ 4 3 _ 1 | } i 8 9 0 b c f.q.>.h.;.-.-.-.-.-.-.;.h.h.>.>.>.>.x x x x x x x x x x x x x g g f f e c b a a 0 9 9 8 8 8 8 8 8 8 i } | 2 3 ^ { ! ) 5 5 5 ) ) ! { ] 4 T u N.r.].{.U S A Q.9.R D.o.P *+E F F E.E.E.@#Q=Q=R=R=K=S=S=S=T=T=S=S=K=J=M=M=D=D=D=D=U=U=E=o$m$V=W=A=C$y+:@4@i.f c a N.} 1 _ 4 / ^ ^ ^ / 3 _ 2 1 } i 8 9 9 9 9 9 9 8 8 8 i i i } } | | 1 1 2 2 2 _ _ 3 4 / ^ ^ ^ ^ ^ ^ ^ ^ ^ ^ ^ #+] ] ] { { { { { { { { { { { { { { ~ ~ ~ ! ) 5 5 ' , 6 6 > > j j ; $ $ # + + + + + # $ ; j j > > > > > > > > 6 , ' 5 ) ! ~ ] / 3 2 < } 8 9 0 a b c c b b a 0 9 8 i i ",
"h g g g g f e c a 0 8 } 1 _ 3 / ] { ! ) 5 ' ' ' , , ' ' ' 5 5 ) ) ! ~ { ^ / 4 3 2 1 | } i 8 9 0 a b c c e ].f g h '.'.y y y y y y y y y y y y y y y '.h h f e c a 9 i | 2 3 / ] { ~ <#X%K%w%X=P=i%Y=G=/%_%2$T#Z=@$1$q+N+<.<.O+O+O+[.[.[.[.P+P+P+P+)@(#`.8.k.k.R R R =+B Q.A S z y '.g e b 0 9 8 i } } } } } i 8 9 9 p.p.9 9 8 8 i } | 1 2 _ _ 3 4 4 4 4 4 4 4 3 3 A._ T 2 2 2 2 T _ _ _ T 2 _ _ 3 4 / ++{ ~ ) 5 , 6 > > > j j j j ; ; ; ; $ $ $ ; ; ; $ $ $ $ ; j > J.' 5 ! ~ { ] ^ ^ / 4 3 _ 2 1 } i 8 9 0 c.c e q.x >.h.;.;.-.-.-.;.;.h.>.>.x x x x x x x x x x x x x x g q.q.f f e e c b b a 0 0 9 9 9 8 8 8 8 i } | 2 3 / ] ! ) 5 ' ' 5 ) ! ~ ] / _ | 9 b f '.z V Q.B =+R D.o.P *+E F G G G T.####`= -.-+-@-@-@-@-@-@-@-@-+-T=S=K=K=K=K=K=K=K=M=U=#-$-%-&-u$*-M+:@~.h f c 0 B.| 2 3 4 / / / 3 _ 2 | } 8 9 0 0 a a a a 0 0 0 0 0 9 9 8 8 8 i i } } | | | 1 2 3 4 4 4 4 4 4 4 4 4 4 / / / / / ^ ^ ^ ^ ^ ^ ^ ^ ^ ^ ^ ^ ^ ^ ] ] ] { ~ ~ ! ) 5 5 ' , , 6 > > j j ; $ # # # # # $ $ ; j j j > j j j j j > > 6 , 5 ) ~ { ^ 4 _ 1 } i 9 0 a b b c c b b a 0 9 8 8 8 ",
"g g g g g q.f e F.a p.8 } 1 _ 4 ^ ] ~ ! 5 ' , , , , , , ' ' 5 5 ) ! ~ { ] ^ / 3 _ 2 1 | i 8 9 0 a a b c c e f g g h '.'.'.'.'.'.y y y y y y y y y y '.'.h g f c b 0 N.} 1 _ 4 / ] { <#H#s#=---;->-k%,-5%m={%%$!$)$S#@$_$1$q+q+N+N+N+N+<.<.<.<.<.}@}@n@U+&@.+h*h*.+A A V S U y h t.e b a 9 8 i } | | 1 1 | | | } } i i i i } } | 1 2 _ 3 4 / ^ ^ ] ] { { { ] ] ] ^ ^ ^ / / 4 4 / / b.^ / / / / / ^ ^ ] ~ ! ) 5 , 6 > j j ; ; ; ; $ $ $ $ # # # # $ $ $ $ $ $ $ ; j > 6 , 5 ) ~ { ] ^ ^ / 4 3 _ 2 1 | i 8 9 0 a F.,.f x >.v+h.;.;.;.;.;.h.>.>.x x q.q.q.q.q.q.q.q.q.q.q.q.q.q.f f f.e e e c c b b a a 0 0 9 9 8 8 i } | 2 3 / ] ~ ) ' , , ' 5 ) ~ ] / A.;+8 a f '.z V Q.B =+R R D.o.P E F G G H H C.'-y=)-S+!-!-~-~-~-~-~-~-~-~-!-@-@-@-@-@-@-@-@-+-T={-]-^-/-(-&-_-:-t@:@h.x e r.9 i | 2 3 4 4 3 _ 2 | } 8 9 0 a b c c c b b b b b b a a a 0 0 9 9 8 8 8 i i } 1 2 _ 3 3 3 3 3 3 3 3 3 3 3 3 4 4 4 4 4 4 4 4 4 4 4 4 4 4 4 4 / / ^ ] ] { ~ ~ ! ) 5 5 ' , , 6 6 > j ; ; $ # # # $ $ ; j j j j j j ; ; ; j > 6 , 5 ! ~ ] 4 _ 1 } i 9 0 a b b c c c b a a 0 9 9 8 8 ",
"g g g g g g f e c b a 9 i u 1 _ 4 ^ { ! 5 ' , 6 6 6 6 $+, ' 5 5 5 ) ! ~ { ] / 4 3 _ 1 | } i 8 9 0 a a b c c e f g h h h '.'.'.'.'.'.'.<-[-'.'.y <-'.'.h h g f e c a 0 8 } 1 _ 4 ^ { <#}-W%M%|-1---X=2-i%6%G=/%_%2$$$)$S#'$@$@$_$_$_$_$1$1$1$1$v.v.S@S@1@f@3-z z z z U y '.i.f c b 0 9 i } | ;+1 1 2 2 2 2 2 2 7+1 1 1 1 1 2 2 _ 3 4 / ^ ] { ~ ! ! ) ) ) ) ) ! ! ! ~ ~ i#{ { { { ~ ~ ~ ~ { { { { { ~ ! ) 5 ' , 6 j ; ; $ $ $ $ # # # # + + + + # # # $ # # # # $ ; j > , ' ) ! ~ { ] ^ / 4 3 _ 2 1 | H+8 9 0 a b ,.f.q.x >.h.h.h.;.;.h.h.>.x x q.q.q.q.q.q.q.q.q.q.q.q.f.f.f.e e e e e c c c b b b b a a 0 p.9 8 i | 7+3 / ] ~ ) ' 6 6 6 , 5 ) ~ ^ 3 2 i 0 e h U S Q.B =+R R D.o.P E F t&G H H -+-+'-4-)-5-6-7-7-7-7-7-7-7-7-7-7-~-~-~-~-~-~-~-~-~-!-8-9-0-a-/-(-b-c-Y+a@g.{.t.c s.8 } | 2 _ _ _ 2 | } i 9 0 b c c e e e c c c c c c c c c b b a a 0 0 9 9 8 i } | 7+2 2 2 2 2 2 2 2 2 _ _ _ _ _ _ _ _ _ _ _ _ _ _ _ _ _ _ 3 3 4 4 / ^ ^ ] { ~ ~ ! ) 5 5 ' ' , 6 > > j ; $ $ $ $ $ ; ; j j j ; ; ; $ ; ; j > , 5 ! { ^ 3 2 | i 9 0 a b b c c c c b a a 0 0 0 9 9 ",
"f f f f g g f f e c a 0 8 i | 2 3 / ] ~ 5 ' 6 > > > > 6 , ' ' 5 5 5 ) ! ~ ] ^ / 3 _ 2 1 | i 8 8 9 0 a a b c e e f g g h h h h '.'.'.'.'.'.'.'.'.'.'.'.h h g f f e b a 9 i | 2 3 / ] <#}-d-e-f-e-g-h---X=k%m%5%m={%$%2$$$T#)$#$#$x$S#S#S#S#'$'$'$5#5#N@.#~.i-)*)*h h g f e c a p.8 } | 1 2 :+_ _ _ 3 3 3 3 3 3 3 3 3 3 3 3 4 4 / ^ ] { ~ ! ) 5 ' ' , , , , , ' ' ' 5 5 ) ) ) ) ) 0.5 5 5 ) ) ) ) ) ) 5 5 , 6 > j ; $ $ # # # # + + + + . . . . + + # # # # # # $ ; j > 6 ' 5 ! ~ { ] ^ / 4 3 _ 2 1 | }  $9 0 a b c f.q.u+x >.>.h.h.h.h.>.x x q.q.q.f.f.f.f.f.f.f.f.f.f.f.e e ,.c c c c c c c c c c b b a a 0 9 i } 1 _ 4 ] ~ ) ' 6 > > > , ' K.{ / _ | 9 b g y S A B =+R R D.D.o.P E F G H H I I I j-r=k-l-6-6-m-m-m-m-m-m-m-m-m-6-6-6-6-6-6-6-6-6-~-@-n-o-p-/-q-r-_-:-t@-.~.i.e b 0 8 } | 1 1 1 | } i 8 0 a b c e e f e e e e e e f f e e e c c b b c.a a 0 9 8 } | 1 1 1 1 1 1 1 1 1 1 1 1 1 1 1 ;+| | | | | | | | 1 1 1 2 :+_ 3 4 4 / ^ ] ] { ~ <#! ) ) 5 5 ' , 6 > j ; $ $ $ ; ; ; ; ; ; ; ; $ $ $ ; j > , 5 ! ] / _ 1 i 8 0 a b b c c ,.c F.b a 0 0 0 0 0 0 ",
"e e f f f f f f e c b a 9 8 } 1 _ 4 ^ ~ ) ' 6 > j j j > 6 , ' ' ' 5 ) ! ~ { ^ / 4 3 2 1 | } i 8 8 9 0 a a b c e f f g g g h h h h h >.>.>.>.'.'.'.'.>.h h g q.f e c b 0 8 } 1 _ ]+] ~ r+N%@=s-s-t-u-g-1-;-u%i%6%]${$V#$%U#2$.%6$6$q=$$a$a$y$T#d$X.X.v-^.B@].Y&e d c F.a 0 9 i } 1 2 _ 3 4 4 / / / / / / / / / b.^ ^ ^ ^ ] ] { { ~ ! ) 5 ' ' , 6 > > j j > > > > 6 6 , , ' ' ' ' , , , , , ' ' ' ' ' ' , 6 > j ; $ # # + + + + . . . .         . . + + + + + # # $ ; > 6 , 5 ) ~ { ] ^ J#{#3 _ 2 1 | } i 8 9 0 c.F.,.f.q.x >.>.h.h.h.h.>.x x q.q.q.f.f.f.f.f.f.f.f.f.f.,.,.c c c c c c c c c c c c c c b a 0 8 i | 2 3 ^ { ! 5 , > j j > , x.! ] 4 2 i 0 e h -.V Q.%.R R D.D.o.P E F E.G H e.d.d.j-j-r=w-x-6-m-m-m-m-m-m-m-m-m-m-m-m-m-m-m-m-m-m-m-6-!-T=o-y-z-A-B-C--@Y+a@;.>.f c a 0 8 i } | } } i 8 9 0 a b c e e ].e e e e e f f g g f f f e e c c F.b a 0 9 8 m.} } } } } } } } } } } } } } } S.i i i i i i S.S.} } | ;+1 2 :+/+3 4 / b.^ ] { i#~ <#! ) ) 5 ' , 6 > j ; ; ; ; ; ; ; ; ; ; $ $ $ $ $ h@> , 5 ~ ^ 4 2 | 8 9 a b b c ,.e e c F.b a 0 a a a a a ",
"c c e e e f f.e e c b a 0 8 i | 2 3 ^ { ) ' 6 > j j j j > 6 , ' ' ' 5 ) ~ { ] / 4 3 _ 1 | } } i 8 8 9 0 a b c e e f g g g g g g x x x h h h h h h h h h x g q.f f e c a 9 i | T 4 ^ M.r+`%D-E-F-F-G-H-I-J-!=v%l%g%[%*${$&$`$V#C#3$3$3$2%:$:$Q$Q$>+>+>+j.r.C@s.0 0 9 N.i } | 2 _ 3 / ^ ^ ] ] ] ] ] ] ] ] ] a.{ { { ~ ~ <#! ! ) ) 5 ' ' , 6 > > j ; ; $ $ $ ; ; ; j j > > 6 6 6 6 > > > > > 6 6 6 6 6 6 > g+j ; $ # # + + + . . . .               . . . . + + + # $ ; j 6 , ' ) ! { ] ^ 4 3 _ T 7+| | } i 8 9 0 a F.,.f.q.x x >.>.h.h.v+>.x x q.q.q.f.f.f.f.f.f.f.f.f.,.,.c F.b b b b b c c c c c e e c b a 9 8 } 1 _ / ] ! 5 , 6 > j j > , 5 ! ] ( 1 8 c.f h.).A W =+R D.D.Z @.P E F G T.H d.d.d.j-j-j-w-K-x-m-m-m-m-m-m-m-m-m-L-L-L-L-L-L-L-L-L-m-6-!-T=M=y-z-M-N-w@c-Y+a@g.{.g e b a 0 8 8 i i 8 8 9 0 0 a b c c e e e c c e e f g g g g g q.f f e e ,.c F.c.0 9 8 i i i i i i i i i B.B.B.8 8 8 V.V.V.V.V.V.V.V.8 U.U.S.u | ;+7+:+/+z./$,@b.++++'#{ i#~ ! 5+) 5 ' , 6 > j ; ; ; j j j ; ; ; $ $ # $ $ h@> , )+i#/ 3 1 } 9 0 c.b c c ,.e ,.c F.R@a a a a b b b ",
"b b c c d e e e c c b a 0 9 i } 1 _ / { ) ' 6 > j ; ; j > 6 6 , , ' 5 ) ! { ] ^ 4 3 _ 2 1 | } } i i 8 9 0 a b c e f f g g g g g g g g g g x x x x h x x x g q.f f e c b 0 8 [ : 3 7 i#r+`%U%O-P-Q-Q-P-F-H-f-S%z%o%A%f%X#E#<$,%8$Z$Z$@%d%d%7$F$~#~#~#~#V.V.8 i i } [ ;+2 _ 3 4 ^ ] { ~ ~ ! ! ! ! ! ! <#L.! ! ! ) ) 5 5 ' ' ' , , 6 6 > > j j ; $ # # + + + # # $ $ ; ; j > > > > j ; ; h@j j j j g+j j j ; ; $ # # + + . . . .         @ @ @ @       . . . . + # $ ; j > , ' 5 ! { ] ^ 4 3 _ _ 1 | | } i 8 9 0 a b ,.f.q.x x >.>.h.h.h.>.x x q.q.q.q.w+f.f.f.f.f.f.,.,.c F.b b b b b b b c c c e e e c b a 9 i | _ 4 ^ ~ ) ' 6 > j j j > , 5 L.#+A.| N.F.q.y S A 9$0+R D.Z o.P  ...E.G H H d.d.d.j-j-j-w-K-K-R-L-L-R-R-R-R-R-R-R-R-K-S-S-S-S-S-L-R-5-.-K=M=T-z-j$v$w@-@Y+).g.'.g ].c b a 0 9 9 9 9 9 9 0 0 a a a b b b b b c c e f g h h x g g q.q.f f.f.e ,.F.c.0 9 9 9 9 9 9 9 9 9 9 9 O.O.O.p.0 s.s.s.s.s.s.s.g#p.p.V.U.S.e$o#[$}$b#H$H$/$c#b.Z#++'#'#i#~ ! ) 0.' , 6 > > j j j j j j ; ; ; $ $ # $ j@j j#6@) { ,@_ | i 9 a b F.c ,.,.,.,.c F.b a a a b F.F.F.",
"b b b b c c c c c b b a 0 9 8 } 1 _ 4 ] ! ' 6 > j ; ; ; j > 6 6 , ' 5 ) ! ~ ] ^ 4 3 _ 2 1 | | } } } i 8 9 a b c e e f f f f f f f f q.q.q.q.g x x x x x g q.q.q.f ].,.b @+N.m.< A.]+w K.6@e#.&U-V-W-W-X-Y-E-T%d-X%`#q#O%Y#H$b#b#^$}$}$X#[$[$o#o#u u u u | ;+1 2 2 _ 3 4 / ] { ~ ! ) 5 5 5 5 x.5 5 5 5 5 5 5 5 ' , , 6 6 > > > j j = ; ; * $ $ # + . . . . . + + # # $ ; j j j j ; $ $ $ $ ; ; ; ; ; ; $ $ $ # # + + . . .         @ @ @ @ @ @ @ @         . + # $ ; j > 6 ' 5 ! ~ ] ^ / 4 3 _ 2 1 | } i 8 9 0 a b c f.q.x x >.>.h.h.h.>.>.x x q.q.q.q.q.f.f.f.f.,.,.,.F.b b a a a a b b b c c e e e c b 0 8 } 2 3 / { ! 5 , > j j j j y., 0.M.7 A.[ O.F.x ;.=.&.9$0+R D.Z @.+...E.E.T.H -+d.d.d.j-j-j-w-]=R-R-R-R-R-R-R-R-R-R-R-K->$>$Z-Z-Z-S-R-`- ;+-J=D=T-h$j$+@_-<@z@!.g.'.g f c b b a a 0 0 0 9 9 9 9 9 9 0 0 0 0 a a a b c e g g x x x g q.q.q.f f.f.e ,.F.c.a 0 0 0 0 0 @+@+@+@+a c.c.c.r.`+!#!#!#!#!#!#!#r.n%9&g#~#h#@%e$o#[$}$b#9%G%/$c#c#Z#|%'#d#i#<#5+) 5 ' , 6 > > > > > j j j ; ; $ $ # $ ; j j#' 5+] 4 2 } 8 0 c.F.c ,.,.,.,.,.c F.b a a b b F.c ,.",
"a a a b b b c F.b b a a 0 9 8 i | 2 4 ] ! 5 , > j ; $ ; ; j > 6 , , ' ) ! ~ { ^ / 3 _ 2 2 1 1 | | | } i 9 0 a b c e f f f f f f.f.f.f.f.q.q.q.x x x x x q.q.q.q.q.f e F.a O.B.2&T ( #+L.x.|#1#U-.;+;@;+;V-H* &T%#;s#7=d#|%-$Z#b.c#c#,@/$/$H$H$/+b#:+:+_ _ 3 3 4 / / ^ w ~ ! ) 5 ' ' , , 6 6 6 6 , , , , , , , 6 > > j j ; ; ; $ $ $ $ # # # + + .           . . + & # $ ; ; ; ; $ # # # # # $ $ $ $ # # # # + + . . .           @ @ @ @ @ @ @ @ @ @ @     . + + # ; j > 6 , 5 ) ~ ] ^ / 4 3 _ 2 1 | } i 8 N.O.@+c.F.,.I+x x >.h.h.h.h.>.>.x x x q.q.q.q.f.f.f.f.,.,.c F.b a a a a a a a b b c c e e c a 9 i 1 _ 4 ] ~ ) ' 6 > j ; ; j y.l.) M.]+T m.@+,.>.-.*.Q.%.X Y Z @.+.E ..E.T.T.H -+d.d.d.j-j-j-w-]=`-R-R-R-R-R-R-R-R-R-R->$>$>$>$>$>$>$R-`-$;%;J=D=o$m$}@+@c@1@t@!.y h g e c b a a a 0 0 9 9 8 8 8 i i i U.8 8 8 9 9 0 b c f g g g g q.q.q.q.q.q.f.f.f.,.c b b b b b b b F.F.F.,.,.,.,.n+n+W.W.W.W.W.W.W.!%>+f#2%C#`$F$d%Z$,%r%-%Q%9%G%Y#d=H%Z#|%d#i#<#5+)+5 ' , 6 > > > > > j j j ; ; $ $ $ $ ; g+$+E+<#^ 3 1 } 9 @+b F.c ,.,.,.,.,.,.F.b b b b F.c ,.,.",
"a a a a b b b b b b a a a 0 9 i | 2 3 ^ ~ 5 , > j ; $ $ ; ; j > 6 , ' 5 ) ~ { ] / 4 3 _ 2 2 1 1 1 1 | } 8 9 0 b c e e f.f.f.f.f.f.f.f.f.f.q.q.x x x x x x q.q.q.q.f e c c.O.B.[ : A.7 M.r+l.e#2#U-$#@;@;+;.;H*h@j#6@t#r+5+<#<#7=i#i#i#'#'#++++b.b./ / / / ^ ^ ] { ~ ! ) 5 ' l., 6 > > j j j j j > > > > > > > j j ; ; $ $ $ # # # # # # + + + .       @ @       . + # # $ $ $ $ # + + + + + + + + + + + + + + . .             @ @ @ @ @ @ @ @ @ k k @ @   . . + # $ j > 6 , ' ) ~ { ^ / 4 3 _ 2 1 | } &;i 8 9 0 c.F.,.f.x >.>.h.h.h.h.>.>.>.x x x q.q.q.q.f.f.s+,.,.F.F.b a a a a a a a a b b c c c b 0 i | T 4 ^ { ! ' 6 > j ; ; ; j y.' K.w ]+: B.c.f.h.).6&9$X ^+Y Z ` +...E.E.T.T.H -+-+d.I j-j-j-w-]=]=`-`-`-`-`-`-`-`-`-`-d@>$>$>$>$>$>$`-$;1.|.Q+E=o$O+<.w@c@Y+%+g.'.h f c b a a 0 0 0 9 8 i i } } | | | | | | | } i 8 p.b ,.f q.q.q.q.q.q.q.q.q.q.q.q.f.f.e e e e e e f.f.q.q.q.q.<%x <%.@.@X.X.X.X.X..@)%K+)#!%Q$2%C#`${$W#*$]$[%e%-=3=G%d=H%I%d#7=X%)+5 ' , 6 6 > > > > > j j ; ; $ $ $ $ $ h@> , )+~ b._ < i 9 a b c ,.,.,.,.,.,.,.F.F.b b F.F.,.,.,.",
"a a a a a b b b b a a a a 0 9 8 } 1 3 ^ ~ ) , > j $ $ $ $ $ ; j > , ' 5 ) ! ~ ] ^ / 4 3 _ _ 2 2 2 2 1 | i 8 0 a b c e e e e e e ,.,.f.f.f.q.q.x x x x x x q.q.q.q.q.f.,.c.@+N.m.< T Y%#+{+0.l.y.= V@$#k@k@+ $#V@h@> J., 6@' E+5 5 )+)+) 5+! <#~ i#{ { { { ~ ~ ! ) 5 5 ' , 6 > j j ; ; ; ; j@; ; ; ; ; ; ; ; ; $ $ $ $ # # # + + + + + + + + . .     @ @ @ @     . . + # # $ $ # + + . . . . . . . . . . . . . .         @ @ @ @ @ @ @ @ @ @ @ k k k k @   . . + # $ h@> 6 , ' ) ! { ] ^ / 4 3 _ 2 1 | } i 8 9 0 a F.,.f.x >.h.h.h.h.h.h.>.>.>.x x x q.q.q.f.f.,.,.,.F.b c.a a a a 0 a a a a a b b a 0 8 u 2 3 ^ { ! 5 , > j ; $ $ ; j 6 x.L.#+( < N.F.q.;.=.&.%.^+Y Z @.+.....E.E.T.T.H -+-+-+I j-j-j-r=]=]=`-`-`-`-`-`-`-`-`-`-d@d@d@>$>$>$d@`-$;%;Q+}.P+[.O++@z+<@z@!.y h t.e b 0 O.9 9 9 8 i } } | 1 2 _ _ _ _ _ _ _ 2 1 | i p.b ,.f.f.f.f.f.f.f.q.q.q.q.q.q.q.q.q.q.g g x x >.>.v+h.h.h.L+L+.#x$x$M$(.(.M$x$,+g$d$a$6$!% %~%l=;%(=W#*$4%5%6%f%G%j%I%J*7=5+)+' , 6 6 > > > > > j j j ; ; $ $ $ $ ; j 6 ' ) { / _ | i O.a F.c ,.,.,.,.,.,.,.,.F.F.F.F.,.,.,.,.",
"a a a a a a a a a a a a a a 0 8 } 1 _ / { ) ' 6 j $ # # # $ $ j > 6 ' 5 ) ! ~ { ] ^ / 4 3 3 3 _ _ _ 2 | } i 9 0 a b c ,.,.,.,.,.,.,.,.f.f.q.q.x x x x x x q.q.q.q.q.f.,.F.@+O.B.[ : A.]+#+{+0.l.> ; % + k@. k@+ V@j@h@j > > j#6 6 $+, , ' ' 5 5 ) ) ) ) ) 5 5 ' ' , 6 > j j ; $ $ # # # # # # # # # # # # # # # # # + + + + + . . . . . . . .     w#@ @ @ @ @     . . + # # # + . .                               @ @ @ @ @ @ @ @ @ @ @ @ @ @ k k k k @ @ . . + # $ ; j 6 , ' 5 ! ~ ] ^ / 4 3 _ 2 1 | } i 8 9 0 a b ,.f.x >.h.h.h.h.h.h.>.>.>.x x x x q.q.f.f.,.,.F.F.b c.a a a 0 0 0 0 0 0 0 a a 0 9 } 1 3 / ] ~ ) ' 6 > ; ; $ $ ; j 6 5 M.7 T [ O.,.x -.*.W X $.#.@.+. ...E.E.E.T.T.T.-+-+-+-+j-j-r=r=x#R+R+R+R+R+R+R+R+R+R+`-d@d@d@d@d@d@`-R+1.|.Q+}.|$m$<.M@c@3#v@g.{.g e b 0 9 8 i i } } | 1 2 _ 3 4 4 / / b./ / / 4 3 T | B.0 c.F.,.,.,.f.f.f.f.q.q.q.x x x >.>.>.>.h.h.;.;.-.-.).).).).t@M+_._._.,*,*_.@$y+B%M$C%d$a$!$2$%$$%_%;%/%m=3%0%7%B=h%H%J*7=*;W%6@$+6 |&> > > > > j j ; ; $ $ $ $ $ ; g+6 E+! ] 4 2 [ 8 O.c.F.c ,.,.,.,.,.,.,.,.,.,.,.,.,.,.,.,.",
"a a a a a a a a a a a a a a 0 8 i | _ / { ) ' 6 j $ # # # # $ ; j 6 , ' 5 ) ! ~ { ] ^ / / 4 4 3 3 _ _ 1 | i 8 9 a b b c c ,.,.,.,.,.,.f.f.q.q.x x >.>.x x q.q.q.q.q.f.f.F.c.@+N.m.[ : A.]+#+M.0.$+j $ # . .   . + & # $ $ $ ; ; ; j j > > 6 6 $+, , , , , , 6 6 > j j ; $ $ # # + + + . . . . . . . . . . . . + + + + . . . . . . . . . . . .     @ @ @ @ @ @       . . + + + .       @ @ @ @ @ @ @ @ @ @ @ @ @ @ @ @ @ @ @ @ @ @ @ @ @ @ @ k k k l k k @   . + # $ ; j > 6 ' 5 ) ~ { ] ^ / 4 3 _ 2 1 | } i 8 O.@+c.,.f.q.>.>.h.h.h.h.h.>.>.>.>.x x x q.q.f.f.,.,.F.F.b c.a a 0 0 0 0 9 9 9 9 9 9 8 i | _ 4 ] ~ ) 5 , > j ; $ $ $ ; j , ) w Y%: B.@+f.v+).&.%.$.#.Z @.+.....E.E.E.m+T.T.T.H -+-+-+j-r=r=x#R+R+R+R+R+R+R+R+R+R+R+R+d@d@d@d@R+R+1.|.Q+}.P+[.O++@z+<@Z.N@/.x e b 0 8 } | 1 1 1 2 _ 3 4 ,@b.^ ] { { ~ ~ { { ] ^ 4 _ | B.O.3@c.F.F.F.,.,.f.f.q.q.x >.>.h.h.;.;.-.-.).=.=.*.*.&.&.&.c@c@v.q+q+q+q+q+q+1$_$@$'$S##$)$T#$$!$U#$%_%]%/%m=4%5%B=A%t%J%X%)+E+, 6 6 6 |&> > > j j ; ; $ $ $ $ ; j > , 5 ~ ++z.2 } 8 0 c.F.,.,.,.,.,.,.,.,.,.,.,.,.,.,.,.,.,.",
"a a a a a a a a a a a a a a 0 9 i | _ / { ) ' 6 j $ # # # # $ ; j > , , ' 5 ) ! ~ { { ] ^ ^ / / 4 3 _ 2 1 } i 8 0 a c.b F.F.c ,.,.,.,.f.f.q.q.x x >.>.x x q.q.q.q.q.q.f.,.F.c.O.N.m.[ : T ( ^ ~ 5 6 ; # d&          . . . + + + # # $ $ ; ; ; j j > > > j j j ; ; $ $ # # + + . . .                               . . . . . . . . . . . . .         @ @ @ @ @ @                 @ @ @ k k k k k k k k k k k k k k k k k k k k k k k k k k k k k l l k k @   . + # $ ; j > 6 , 5 ) ! { ] ^ / 4 3 _ 2 1 | } i 8 9 @+c.F.f.q.x >.h.h.h.h.>.>.>.>.>.x x x q.q.f.f.,.,.F.F.c.a a 0 0 0 9 9 9 8 8 8 8 i i | 2 ( ^ { ! 5 ' 6 > j ; $ $ $ ; > ' L.^ A.[ N.F.u+;.=.W X $.#.@.@.+. .....E.E.E.E.m+T.T.T.'-'-'-'-y=m#R+R+R+R+R+R+R+R+R+R+R+R+R+R+R+R+#@1.|.Q+}.P+[.O+<.z+S@Z.N@/.i.].b 0 8 } 1 _ 3 3 4 / / ^ ] w M.L.! ) )+5 5 ) ) ! ~ ] ]+T [ B.N.O.@+9&c.F.F.,.n+f.q.x >.h.;.;.-.).).=.*.&.W W %.%. + + +}@}@<.>%O+O+<.<.N+q+1$_$@$'$S#Z=#$)$$$!$*%$%_%]%/%3%[%f%d=I%d#X%)+E+l., 6 6 6 > > j j ; ; ; $ $ ; ; j 6 ' ) { ^ 3 1 i 9 a b ,.,.e f.f.f.f.f.f.f.f.f.f.f.f.f.f.f.",
"a a a a a a a a a a a a a a 0 9 i | _ / { ) ' 6 j $ # # # # $ ; j > 6 , , ' 5 ) ) ! ~ ~ { { ] ^ / 4 3 _ 2 | } i 9 0 a a b b F.c ,.,.,.f.f.q.q.x x >.>.x x q.q.q.q.q.q.q.f.,.F.c.O.N.B.m.| 2 ( ] ! , > $ +   @ @ @ @ @ @ @ @       . . + + # # $ $ $ $ $ $ $ # # # + + + . . .       @ @ @ @ @ @ @ @ @ @ @ @ @ @                                       @ @ @ @ @ @ @ @ @ @ @ @ @ k k k l l l l l l l l l l l k k k k k k k k k k k k k k k k k l l l k k @   . + # $ ; j > 6 , ' ) ! ~ { ] ^ / 4 3 _ 2 1 | } i N.0 c.F.,.q.x >.>.>.>.>.>.>.>.>.>.x x x q.q.f.f.,.,.F.F.c.a a 0 0 9 9 8 8 i i } } | | 2 3 / ] ~ ) ' , 6 > j ; ; ; ; j 6 5 M.]+: B.@+f.>.-.*.%.$.#.#.@.@.+.+.........F@F@E.E.T.T.T.T.'-y=y=2.2.1.1.1.1.1.1.1.1.1.R+R+R+R+#@#@1.|.Q+}.P+[.O+<.N+v.,*5#.#H.].j.0 8 | 2 3 ,@^ ] ] { ~ ~ ! 5+) 5 ' , , 6 6 , , ' 0.! ] 4 T [ m.B.N.O.@+@+c.F.,.n+f.q.>.h.;.-.).=.*.&.W %.X $.$.#.#.-#(#y@y@P+P+P+P+[.[.O+<.N+0$q+1$_$@$@$'$O$)$T#!$2$$%_%]%m=0%f%/$Z#'#<#5+5 ' ' , 6 6 > j j ; ; ; ; ; ; j > , 5 ! { / _ | i 0 c.c e f.f.f.f.f.f.f.f.f.f.f.f.f.f.f.f.f.",
"a a a a a a a a a a a a a a 0 8 i | _ / { ) ' 6 j $ # # # # $ ; j > > 6 , , ' ' 5 ) ) ! ! ~ M.{ ^ / 4 3 T 1 | } 8 9 0 a a b b F.c ,.,.f.f.q.q.x x >.>.x x q.q.q.x x x q.q.f.,.F.c.@+9 N.B.} 2 / M.5 6 ; +   k k l l l l l l k k k @ @     . . + + + + + + + . . . . . .       @ @ @ @ k k k k k k k k k k k k k @ @                                     @ @ @ @ @ k k k k k k l l l l m m l l l l l l m =;l l l l l l l l l l l l l l l l l l l l l k k @   . + # $ ; j > 6 , ' 5 ! ~ { ] ^ / 4 3 _ 2 1 | } i 8 O.@+F.,.f.q.x >.>.>.>.>.>.>.>.>.x x x q.q.f.f.,.,.F.F.c.a @+0 9 9 8 8 i } | | 1 1 2 _ 4 ^ { ! 5 ' 6 > j j ; ; ; j > , ) ] A.[ O.F.u+;.=.&.X $.#.@.@.@.@.+.+.+. . . ...F@F E.E.########2.2.1.1.1.1.1.1.1.1.1.1.1.1.1.1.1.p@|.2+B+P+[.O+<.N+q+p+y+(.o+G.j.s.8 } 2 3 b.] ~ ! ) ) 5 5 5 ' , 6 > > j j j j > 6 , 5 L.#+( T < [ m.B.N.O.@+c.F.,.f.q.x h.-.).=.*.&.W %.$.#.@.@.+.>#>#7#7#=#'@;$Q+B+}.@@P+[.O+O+<.N+N+q+u$1$_$'$S#)$T#!$2$$%{%:=]$}$H$c#++{ ~ ) 5 ' , 6 > > j j ; ; ; ; j g+6 , 5 L.] 4 2 } 8 0 b ,.f.f q.q.q.q.q.q.q.q.q.q.q.q.q.q.q.q.",
"a a a a a a a a a a a a a a 0 8 i | _ / { ) ' 6 j $ # # # # $ $ ; j > 6 6 6 , , ' ' ' 5 ) ) ! ~ ] ^ / 4 _ 2 1 | i 8 9 0 a a b F.F.,.,.f.f.q.q.x x >.>.x x q.q.q.x x x x x q.f.,.F.c.@+0 9 B.| 3 ] ) 6 ; +   k l l l m m m m m l l k k @ @ @       . . .                   @ @ @ @ k k k k k ,#l l l l l l k k k k @ @ @                                 @ @ @ @ k k k l l l m m m m m m m m m m m m m m m m m m m m l l l l l l l l l l l l l l l l k k @   . & # $ ; j > 6 , ' 5 ) ! ~ { ] ^ / 4 3 _ 2 1 | } 8 9 @+c.,.f.q.x x >.>.>.>.>.>.>.>.x x x q.q.f.f.,.,.F.F.c.a 0 0 9 9 8 i } | 1 2 2 _ 3 4 / ] ~ ! 5 ' 6 > > j j j j > 6 ' L.7 : B.@+f.>.-.*.J+>@#.@.@.@.@.@.@.` +.+.+.+. . .....E.E.E.##3.3.3.1.1.1.1.1.1.1.1.1.1.1.1.p@|.|.2+2+'@q@[.O+<.N+q+1$_.A#x+^.W.r.V.} 1 3 ^ { ! ) 5 ' , , , 6 6 > j ; ; $ $ $ $ ; j > , ) i#7 A.T : [ m.B.N.O.@+c.F.,.q.x h.-.).*.&.W %.$.#.@.+...@#E.##3.C+|.|.|.|.|.Q+Q+}.P+P+[.[.O+O+<.<.N+q+1$_$'$S#)$T#!$%$l=7$e$[$:+z./ ++{ ~ ) 5 ' 6 > > j j ; ; j j > 6 ' ) ~ ] 4 2 } 9 a j.e f q.q.q.q.q.q.q.q.q.q.q.q.q.q.q.q.q.",
"a a a a a a a a a a a a a 0 0 8 i | _ / { ) ' 6 j $ # # # # $ $ ; j > > > 6 6 6 6 , , ' ' 5 ) ! { ] ^ 4 3 _ 2 | } i 8 9 0 a c.b F.F.,.s+f.q.q.x x >.>.x x q.q.q.x x x x x x q.f.,.F.c.a 0 N.u _ ] ) , ; +   k l l l m m n n n m m l l ,#k k @ @ @       @ @ @ @ @ @ @ @ @ @ @ @ @ k k k k k k k k k k k k k k k k @ @ @ @                               @ @ @ k k l l m m m n n n n n n n n n n n n n n n n n n n m m m m m m m m m m m m m m m l l k k @   . # $ $ ; j > > 6 , ' ) ! ~ { ] ^ / 4 3 _ 2 1 | } i N.0 c.F.f.q.x x x >.>.>.>.>.>.x x x x q.q.q.f.,.,.F.F.c.a 0 0 9 8 i } | 1 2 _ 3 3 4 / ^ { ~ ! 5 ' , 6 > > > > > 6 , 0.{ ( < N.F.q.-;;;&.l+$.@.@.@.@.@.@.@.@.@.@.` ` +.+. .......@#@#@#3.C+C+|.|.|.|.|.|.|.|.|.|.|.|.|.2+Q+'@q@K@]#<.N+w$A=_$E$M$u.G.>;,;U.;+_ / { ! 5 ' 6 > > > > > j j ; $ $ # # # # $ ; j 6 x.L.] ]+( T : < [ B.N.O.@+c.,.f.x h.;.).*.&.W X $.@.+...E.T.C.'-y=2.1.1.1.1.|.|.2+Q+}.}.P+P+[.[.[.O+O+<.N+q+_$@$'$#$)$$$B#:$g#h#S.;+2 3 4 ^ { ! ) ' 6 > j j j j j j > , ' ) ~ ^ 3 7+} 9 a c f.q.g x x x x x x x x x x x x x x x x ",
"a a a a a a a a a a a a a 0 9 8 i ;+_ / { ) ' 6 j $ # # # # $ $ ; j j > > > > > > > 6 6 , ' 5 ) ~ { ^ / 4 3 2 1 | } i ';9 0 a c.b F.,.,.f.q.q.x x >.>.x x q.q.x x x >.>.>.>.x q.f.,.F.b a 9 } _ ^ ! , j #   @ k l l m m n n n n n m m l l k k k @ @ @ @ @ @ @ @ @ @ @ @ @ @ @ @ @ @ @ k k k k k k k k k k k k k @ @ @ @ @ @ @ @ @ @ @ @ @ @ @           @ @ @ k k l m m n n o o o o o o o o o o o o o o o o o o n n n n n n n n n m m m m m m m m l k k @   . # $ $ ; j > > 6 , ' 5 ) ! ~ { ] ^ / 4 3 _ 2 1 [ i 8 O.@+F.,.I+q.x x x x x x x x x x x x q.q.q.f.f.,.F.F.c.a 0 0 9 8 i } | 2 _ 3 4 / ^ ^ ] { ~ ! ) 5 ' , 6 6 6 6 6 , 5 ! #+A.m.@+s+);!;~;W >@#.@.+.+.@.@.@.#.#.#.Z {;@.@.` +.+.+.>#..@#8#8#8#|.|.|.|.|.|.|.Q+Q+Q+Q+Q+Q+Q+Q+}.q@P+[.O+<.N+q+1$@$B%C%y$!%n%V.} 2 4 ] ~ 5 , 6 j ; ; ; ; ; ; ; $ # # + + + + # $ ; > , ) M.#+]+( A.: < [ B.N.O.c.F.f.q.>.;.).=.&.W X $.@. .E.T.C.-+'-'-2.2.1.1.1.1.|.|.Q+Q+}.}.P+P+o$[.[.[.[.O+<.q+1$_$@$'$M$g$a$)#>+n%p.8 } 1 _ ]+] ~ ) ' 6 > j j j j > 6 , ' ) { ^ 3 1 i 9 c.c ].g x x x x x x x x x x x x x x x x x ",
"a a a a a a a a a a a a a 0 9 8 } 1 _ / { ) ' 6 j $ # # # # # $ ; j j j j j j j j j j > 6 , ' ) ! 8@] ^ / 3 _ 2 1 } i 8 9 0 0 a c.F.F.,.f.q.q.x x >.>.x x q.q.x x >.>.>.>.>.>.x q.f.,.b a 9 } _ ++! , j #   @ k l l m m n n n n n n m m l l l k k k k k k k k @ @ @ @ @ @ @ @ @ @ @ @ @ @ @ @ @ @ @ @ @ @ @ @ @ @ @ @ @ @ @ @ @ @ @ @ @ @ @ @ @         @ @ @ k l l m n n o o o p p p p p p p p p p p p p p o o o o o o o o n n n n n n n n m m m l k k @   . + # $ ; j j > 6 , ' 5 ) ! ~ { ] ^ / 4 3 _ 2 1 | } B.N.@+c.,.f.q.];x x x x x x x x x x x x q.q.f.f.,.F.F.c.a 0 9 9 8 i | 1 2 3 4 / ^ ] ] { ~ ~ ! ) 5 ' , , , , , , ' ) ~ 7 :+B.c.I+^;/;6&%.Y @.+.+.+.@.@.#.#.#.Y #.#.#.#.{;@.@.;#+.+.>#>#$@$@$@Q+Q+Q+Q+Q+Q+Q+}.}.}.}.}.}.@@P+[.[.O+<.N+q+1$_$'$M$D%(;Q$g#U.;+_ / { ) ' 6 j ; $ $ $ $ $ $ $ # # + + + + + # # $ j J.5 L.w 7 ]+( A.: < m.B.N.@+c.,.q.>.;.).=.&.W X Y @...E.T.-+-+-+'-y=2.1.1.1.1.p@|.|.Q+;$}.P+P+P+P+P+P+P+[.O+<.N+w$q+1$_$E$B%x$u.^.].j.s.8 } 2 4 ] ! 5 , 6 > j j j > 6 , 5 ! { ^ 3 1 i O.b ,.f x x _;>.>.>.>.>.>.>.>.>.>.>.>.>.>.>.",
"a a a a a a a a a a a a 0 0 9 8 } 1 _ / { ) ' 6 j $ # # # # # $ ; ; j j j j j j ; ; j j > $+' 5 ) ~ { ] ^ / 3 _ 2 | } i 8 9 0 @+c.b F.,.f.q.q.x >.>.>.x x x x x x >.>.>.v+>.>.x q.f.,.b @+N.| 3 ] ) , ; &   @ k l l m m n o o o n n n m m l l l l ,#k k k k k k k @ @ @ @ @ @ @ @ @ @ @ @ @ @ @ @ @ @ @ @ @ @ @ @ @ @ @ @ @ @ @ @ @ @ @ @ @ @ @ w#      @ @ k k l m m n o o p p p p p p p p p p p p p p p p p p p p p o o o o o n n n n n n m m m l k @   . . + # $ ; ; j - > 6 , ' 5 ) ! ~ { ] ^ / 4 3 _ 2 1 | m.B.O.@+F.,.f.q.q.q.x x x x x x x x x x x q.q.f.,.F.F.c.a 0 9 9 8 } | 1 _ 3 / ^ ] { ~ ~ ~ ! ! ) 5 ' , , , , , ' 5 ) { / : B.c.q._@;;:;l+#.o&+.+.+.@.#.#.$.$.$.$.$.$.$.$.#.#.<;@.;#;#;#7#=#=#}.}.}.}.}.}.P+P+P+P+P+P+[.[.O+O+<.N+q+1$_$@$'$S#)$a$!%[;};|;7+z.^ ~ 5 , > ; $ # # # # $ # # # + + + + + + + # $ j 6 x.L.w #+7 ]+( A.: < m.B.O.c.,.q.>.;.).*.&.%.X #.` ..E.T.-+-+-+'-y=2.1.1.1.1.1.|.|.Q+Q+B+}.}.}.}.}.}.P+P+[.O+O+<.<.N+N+q+S@3#Z.N@~.h f.b 9 } 2 ]+{ ! ' , 6 > > > > 6 , 5 ! { b.3 1 i 0 b ,.q.x x >.>.>.>.>.>.>.>.>.>.>.>.>.>.>.>.",
"a a a a a a a a a a a 0 0 0 9 8 } 1 _ / { ) ' y.= $ # & & # # $ $ ; j j j j ; ; ; ; j j > 6 , ' ) ! ~ { ] ^ / ( _ 1 | } i 8 9 0 @+c.F.,.f.q.x x >.>.>.>.x x x x >.>.>.>.>.>.>.x q.f.c c.0 8 | 3 ] ) 6 ; +   k l l m m n n o o o o n n n m m m m l l l l k k k k k k k k k k k k @ @ @ @ @ @ @ @ @ @ @ @ @ @ @ @ @ @ @ @ @ @ @ @ @ @ @ @ @ @ @ @ @ @ @ @ @ @ k k l m m n o o p p p p p p p p p p p p p p p p p p q q p p p p p o o n n n n n m m l l k @   . . + # $ $ ; = j - y.6 , ' 5 ) ! ~ { ] ^ / 4 3 _ 2 1 | m.B.O.c.F.,.f.f.q.q.q.q.q.q.x x x x x x x q.f.,.,.F.c.a 0 0 9 8 H+| 1 _ 4 / ^ { ~ ~ ! ! ! ) 5 ' ' , , J., , ' 5 ) M./ 2 B.c.q.-;=.W >@{;+...E +.@.#.$.X X X %.%.X X X X $.$.#.-#-#_#_#x@x@P+P+P+P+[.[.[.O+O+O+O+O+z=<.<.N+q+1$_$@$'$1;#$)$a$.%2%`$@%G$2;,@] ! ' 6 j ; $ # # # # # # # + + + + + + + # # $ j 6 5 L.w #+#+7 ]+( A.: < m.N.@+F.q.>.;.=.*.W %.$.#.+...E.T.'--+'-y=y=2.1.1.1.1.1.1.|.|.|.Q+Q+}.}.}.}.}.}.P+P+[.[.[.m$O+L@}@+@w@~@1@%+U >.f b 9 | _ ^ ~ ) ' 6 > > > > 6 , 5 ! { / _ ;+i 0 b e f x h >.>.>.>.>.>.>.h.h.h.h.h.h.h.h.h.",
"0 0 0 0 0 0 0 0 0 0 0 0 0 0 9 8 } 1 _ / { ) ' y.= $ # & + & # # $ ; ; ; ; ; ; ; ; ; ; j > 6 , ' 5 ) ! ~ ~ { ] / 3 _ 1 | } i 8 9 0 c.F.,.f.q.x >.>.>.>.>.>.>.>.>.>.>.>.>.>.>.x q.f.,.F.a 9 i 1 4 { 5 > $ . @ l m m m n n n o o o o o n n n m m m m m m l l k k k k k k k k k k k k k k k k k k k k k k k k k k k k k k k k k k k k k k k k k @ @ @ @ @ @ @ k k k l m m n o o p p p p q q q q q q q q q q q q q q q q q q q p p o o n n n n m m l l k @ @   . . + # # $ * ; = j > 6 , ' 5 ) ! ~ { ] ^ ^ / 4 3 A.T : | m.N.@+c.F.,.f.f.f.f.q.q.q.q.x x >.>.>.x x q.f.,.F.c.a 0 0 9 8 } | 1 _ 4 / ] { ! ! ) ) ) 5 ' ' , 6 6 6 6 6 , ' ) ~ 7 T m.c.I+h.=.W $.@.+... .` #.$.X X %.%.W W W W %.%.X X d+$.`.(#(#y@y@[.[.[.O+O+>%<.<.N+N+N+N+N+q+q+1$_$@$'$S##$)$T#$$.% %C#h#e$7+3 b.{ ) ' 6 j ; $ # # # # # k++ + + + + + # # # $ ; - , 0.L.w #+#+#+7 ]+( T : [ B.O.F.w+>.-.=.&.%.X $.@.+...E.T.T.C.'-y=2.2.1.1.1.1.1.1.1.|.|.|.Q+Q+Q+Q+}.}.}.}.P+P+P+P+P+[.[.o@e@n@U+.+w.S U h e a 8 1 4 ] ! 5 , 6 > > > 6 , 5 ! { / _ | 8 0 b e f g h >.>.>.>.>.h.h.h.h.h.h.h.h.h.h.h.",
"0 0 0 0 0 0 0 0 0 0 0 0 0 0 9 8 } 1 3 / { ) ' y.= $ & & + + # # $ ; ; ; ; ; ; ; ; ; ; j > 6 6 , ' 5 ) ) ! ~ { ^ / 3 2 1 | } i N.O.a F.,.w+x >.>.>.h.h.>.>.>.>.>.>.h.h.>.>.x x q.f.,.c.0 8 } 2 / ~ ' > #   k l m m n n n n o o o o o o n n n n n n n m m l l k k l l l l l l l ,#k k k k k k k k k k k k k k k k k k k k k k k k k k k k k k k k @ @ @ @ @ k k l l m m n n o o p p q q q q q q q q q q q q q q r r r r r q q p p o n n n m m m l k k @ @   . . + + # # $ $ * = j > 6 , ' 5 ) ! ~ { ] ^ ^ / / 4 3 T : [ B.N.@+c.F.,.,.,.f.f.f.q.q.x x >.>.>.x x q.f.,.F.c.a 0 9 8 i } | 2 3 4 ^ { ~ ) 5 5 5 ' ' , 6 6 > > > > 6 6 3;5 ! ++A.} @+f.h.).W >@@.+. .+.@.#.$.X %.W &.&.&.&.&.&.W W %. +X d+d+/#o@o@O+O+<.<.N+N+q+q+q+1$1$1$_$_$C$@$'$S##$)$T#$$!$2$:$l=F$Z$[$b#,@++~ ) , > j ; $ # # # + + + + + + + # # # $ $ ; j > l.) M.w #+#+#+#+7 ]+( T < m.O.F.f.>.-.*.W %.$.#.@.+...E.########y=2.1.1.1.1.1.1.1.1.1.p@|.|.|.Q+Q+Q+}.}.}.}.}.P+P+P+P+P+y@/#e@!@U+Q.w.%+y g c 0 } _ / { ) ' 6 > > > 6 , 5 ! ] / _ | 8 0 b e f g x h >.>.>.h.h.h.h.h.;.;.;.;.;.;.;.",
"0 0 0 0 0 0 0 0 0 0 0 0 0 0 9 8 } 1 _ / { ! ' 6 = $ # & + + # # $ $ ; ; ; ; ; ; ; ; ; j j > 6 , , ' 5 5 ) ) ~ { ^ 4 _ 2 1 | m.8 O.@+F.,.f.x >.>.>.>.>.>.>.>.>.>.h.h.h.>.>.x q.q.f.F.c.O.B.| _ ^ ! , j #   k m m n n n n n n o o o o o o n n n n n n n n m l l l l l m m m m l l l l l k k k k k k k k k k k k k k k k k k k k k k k k k k k k k k k k k k k l l m m n n o o p p q q q q q q q q q q q q q 5$r r r s s r r q q p o n n n m m m l k k @ @     . . + + # # % $ * = j > 6 , ' 5 ) ! ~ { ] ] ^ ^ / 4 A.T < [ B.O.9&c.F.F.,.,.,.f.f.q.q.x b+>.>.x x q.,.F.c.a 0 9 8 i } | 1 _ 4 ^ ] ~ ) 5 ' , , , 6 6 > j j j j j > 6 , 5 ! ] 3 [ O.,.G+-.&.%.Y @.` @.#.$.X %.W &.*.*.*.*.*.*.&.&.W W %. + +}@}@<.<.N+N+q+q+1$1$_$_$_$@$@$'$'$S#S##$)$T#$$!$2$%$$%V#(=Z$o#}$z.b.{ ! 5 , > ; $ $ # # # + + + + # # # # $ ; ; ; j > 6 x.K.M.#+#+#+w #+#+7 ( A.k$m.O.c.f.4@).*.W X $.#.` E ..E.E.######3.2.1.1.1.1.1.1.1.1.1.1.1.|.|.|.Q+Q+}.}.}.}.}.}.}.}.}.x@)@y@/#8.k.9.Q.V z '.f b 8 1 4 ] ! 5 , 6 6 6 , ' 5 ~ ] / _ | 8 0 b e f g x h >.>.>.h.h.h.h.;.;.;.;.;.;.;.;.",
"a a a a a a a a a a a a a 0 9 8 } 1 _ / ] ! 5 6 j * % # & & # # 4;$ $ $ $ $ $ $ $ $ ; ; j > > 6 6 , , ' ' 5 ) ~ ] / 3 _ 2 < } B.N.@+c.,.f.q.x >.>.>.>.>.>.>.>.>.h.h.h.>.>.x q.q.,.F.@+9 m.1 3 ] ) , ; +   k m m m m m n n n n n n o o o o o o o o o o o n m m m m m m n n m m m m m l l l l l l l l l l l l l l l l l l l l l l l l l l l l l ,#k k k k k l l m m n n o o p p %&q q r r r r r r r r r r r r r s s s s r r q q p o n n n m m m l l k k @ @     . . + + & # % $ ; = - > 6 , ' 5 ) ! ~ { ] ] ^ 7 ]+( A.: [ m.N.@+@+c.F.F.F.,.,.,.f.q.x x x x x q.f.,.F.c.@+9 8 i } | 2 _ 4 b.] ~ ) 5 , 6 6 > > j j ; ; ; ; ; ; j > 6 ' K.w ( < N.c.q.L+=.&.X $.#.#.$.X %.W &.*.=.=.=.=.=.=.=.*.*.&.U@_+_+w@+@N+z+q++%1$_$_$@$@$@$'$'$S##$#$)$T#$$!$2$%$$%5;6;]%/%*$r%}$H$,@] ~ ) ' 6 j ; $ # # + + + + # # # # $ $ ; j j > > 6 ' 0.L.w #+#+#+w #+#+7 ( A.: m.2@c.f.h.).*.W X $.#.+.....E.E.######3.2.1.1.1.1.1.1.1.1.1.1.1.|.|.|.Q+Q+}.}.}.}.}.}.}.}.}.}.x@)@7.'+8.k.9..+S U h c 9 | _ / { ) 5 , , , ' 5 ) ~ ] 4 _ | 8 0 b ,.f g x h >.>.>.h.h.h.h.;.;.;.;.;.;.;.;.",
"a a a a a a a a a a a a a 0 0 8 i | _ 4 ] ! 5 , > ; $ # # # # # # $ $ $ $ $ $ $ $ $ $ ; ; j j > > 6 6 , , ' 5 ! { ^ / 3 _ : [ m.N.@+c.,.f.q.x x >.>.>.>.>.>.>.>.h.h.h.>.>.x q.f.,.F.@+8 [ 2 / { 5 6 ; + @ l m m m m m m m m m n n n o o o o o p p p p p o n n n n n n n n n n n n n m m m l l l l l l l l l l l l l l l l l l l l l l l l l l l l l l l l l m m n n o o p p p q q r r s s s s s s s s s s s s s s s s r r q q p o n n n m m m l l k k k @ @ @     . . + + # % $ ; j > > 6 , ' 5 ) ! ~ { { ] ^ 7 ]+3 T < m.B.O.@+@+c.c.c.F.F.,.n+f.q.<%<%<%q.q.f.,.c.@+O.8 i } 1 2 A.4 ^ w ~ ) ' , > j j ; ; $ $ # # # # $ $ ; j 6 ' ) { ]+: m.@+,.x ;.=.&.%.X X X %.W &.*.=.).).-.).).).).=.=.*.-@-@c@c@v.v.1$7;_$Y$@$'$'$S#S##$#$)$T#T#$$!$2$%$$%_%{%]%/%m=1=[%Q%H$,@++i#! 5 , > ; $ # # + + + # # # $ $ ; ; j g+> 6 6 , ' 5 ! M.w #+#+#+w #+#+7 ( A.: m.2@c.f.h.).*.W X $.#.+.....E.E.######3.2.1.1.1.1.1.1.1.1.1.1.1.|.|.|.Q+Q+}.}.}.}.}.}.}.}.}.}.x@)@(#7.'+'+k.I.w.z '.e 0 } 2 4 ] ~ ) 5 ' ' 5 5 ! { ^ 4 _ | 8 0 b ,.f.q.x x >.>.>.h.h.h.h.;.;.;.;.;.;.;.;.",
"b b b b b b b b b b b R@a a 0 9 i | 2 4 ^ ~ ) , > j ; $ # # # # # # # # # # # # # # $ $ ; ; ; j j > > 6 6 , ' ) ~ ] ^ 4 A.T < m.B.O.@+F.,.f.q.x x x x x x x x >.>.>.>.>.>.x q.f.,.c.O.B.< A.^ ~ ' > $ . @ l m m m l l l l l m m m n n o o p p p q q q q p p o o o p p p p p o o o o n n m m m m m m m m m m m m m m m m m m m m m m m m m m m m m m m m m m m n o o p p p q q r r r s s s s t+t+t+t+t+t+t+t+s s s s s r r q q p o n n n m m m m l l l k k k @ @     . . + + # # $ ; j j > 6 , ' 5 ! ! ~ { { ] ^ / ( A.: [ m.N.O.O.@+@+c.c.c.F.1+n+f.w+w+w+f.n+,.F.@+O.N.i | 1 _ 3 4 ^ { ! ) ' 6 > j j@$ # + + . . . . + + # $ j > , ) M.7 A.;+N.c.f.x ;.).*.&.W W W &.*.=.-.-.;.;.;.-.-.-.-.).t@=.Y+Y+*-*-_.@$@$'$'$S#S##$#$)$T#T#$$!$2$%$$%_%8;&${$9;m=8%[%7%f%G%c#++r#! )+' 6 j ; $ # # # # # $ $ ; ; j j > 6 6 , ' ' 5 ) ! ~ w #+#+#+#+w #+#+7 ( A.: m.|+c.f.4@).*.W X $.#.+.....E.E.######3.2.1.1.1.1.1.1.1.1.1.1.1.|.|.|.Q+Q+}.}.}.}.}.}.}.}.}.}.q@x@6.D+7.'+k.9.A S y f a U.1 3 ^ { ! ) ) 5 ) ) ~ { ^ 4 _ | B.0 c.c f.q.x x >.>.>.h.h.h.h.;.;.;.;.;.;.;.;.",
"b b b b b b b b b b b b b a 0 9 8 } 2 3 ^ { ) ' 6 j ; $ $ # # # # # # # # # # # # # # $ $ $ ; ; ; ; j j > 6 , 5 ! ~ ] / ( A.: < m.N.O.c.F.,.f.f.q.q.q.q.q.q.q.x x x x x x q.f.,.F.@+N.} 2 4 ] ! , j # . @ l m m m l l l l l l l m n n o o p q q r r r r q q q q q q q q q q q p p p o o n n m m m m m m m m m m m m m m m m m m m m m m m m m m m m m m m m n n o p p q q q r r s s s t+t+t+t+t+t+t+t+t+t+t+t+t+s s s r r q q p o n n n m m m m m l l l l k k k @ @     . . + # # $ ; j j > 6 , 5 ) ! ! ~ ~ { ] 7 ]+8+T < m.B.N.O.O.@+@+@+@+9&c.F.1+,.,.,.,.F.c.@+O.8 m.| : _ 3 / ^ { ! 5 ' 6 j ; $ # + .     @ @ @     . + # ; > , 5 L.] ]+T [ N.@+,.<%h.-. @*.*.*.*.=.-.;.;.h.h.h._@;.;.;.-.D@a@t@M+y+f+A#S##$#$)$)$T#T#$$$$!$I=2$%$$%_%{%]%/%m=3%4%5%6%B=m%s%q#|%i#X%)+' , > j ; $ $ $ $ $ ; j j > 6 6 , ' ' 5 5 ) ) ! ! ~ { ] #+^ #+#+w #+#+7 ( A.: m.|+c.f.4@).*.W X $.#.+.....E.E.######3.2.1.1.1.1.1.1.1.1.1.1.1.|.|.|.Q+Q+}.}.}.}.}.}.}.}.}.}.q@_#6.6.D+D+'+9.Q.4+U g b N.| _ 4 ] { ~ ! ! ! ! { ] / 4 2 | i O.c.c f.q.x x >.>.>.h.h.h.h.;.;.;.;.;.;.;.;.",
"b b b b b b b b b b b b b a s.9 8 } 1 3 / { ! 5 , > j ; $ $ # # # # # # # # # # # # # # # $ $ $ $ $ ; ; j > 6 ' ) ! { #+/ ( A.: h+m.{@O.@+g@F.,.,.,.,.,.,.,.f.f.q.q.q.q.I+f.,.F.c.O.B.| _ / { 5 6 ; +   k l m m l l k k k k k l l m n o p p q r r s s s r r r r r r r r r r r q q q p o o n n n n n n n n n n n n n n n n n n n n n n n n n n n n n n n n n o o p p q q q r r s s s t+t+t+t+t+t+t+t+t+t+t+t+t+t+t+s s r r q q p o n n n m m m m m m m J$l l l k k @ @     . . + + # $ ; ; j > $+' 5 ) ) ! ~ ~ w #+7 ( A.: [ m.B.N.N.O.O.O.O.O.F%@+c.c.c.c.c.@+O.N.B.m.< 2 A.4 / ] { ! 5 l.6 j $ # + .   @ k k l l l k @   . + $ j 6 ' ) M.#+]+T < B.O.F.f.G+h.-.).).).D@;.h.h.h.>.>.v+h.h.h.;.;.:@:@:@Y.g$)$T#T#$$$$0;!$I=2$%$%$$%_%_%{%]%/%m=3%4%5%6%B=a;j%t%u%J%z%}-W%6@, 6 > j j ; ; j j > 6 , ' 5 ) ) ! ! L.~ ~ ~ ~ { { w ] ^ ^ 7 #+#+w #+#+7 ( A.: m.|+c.f.h.).*.W X $.#.+.....E.E.######3.2.1.1.1.1.1.1.1.1.1.1.1.|.|.|.Q+Q+}.}.}.}.}.}.}.}.}.}.q@_#6.6.D+D+'+=+I.V U h c 9 } 2 3 / ] { ~ ~ ~ { ] ^ / 3 2 | i 9 a c f.q.x x >.>.>.h.h.h.h.;.;.;.;.;.;.;.;.",
"c c c c c c c c c c b b b b a 0 8 i | _ / ] ! 5 , > j ; ; $ $ # # # + + + + + + + + # # # # # # # # $ $ ; j > , ' ) ~ w #+]+( A.: < m.B.2@@+c.c.c.c.F.F.F.F.F.F.,.,.,.,.,.F.F.c.O.N.} : ( #+! ' > $ + @ k m m m l l k k @ @ k k l m n o p q r r s s t+t+s s s s s s s s s s s s r r q p o o n n n n n n n n n n n n n n n n n n n n n n n n n n n n n n o o o p p q q r r r s s t+t+t+t+Z+Z+Z+Z+Z+Z+Z+Z+Z+Z+t+t+t+s s r r q q p o n n n m m m m m m m m m l l l k k @ @       . b;+ # $ ; j > 6 , ' 5 5 ) ! ~ M.w ^ ]+A.T < [ m.B.N.N.N.N.B.{@N.N.O.O.O.O.O.N.B.m.[ : T 3 ]+^ ] ~ ! 5 6@6 j $ + .   @ k l m m m n m m l k   . # ; > , x.) L.w 7 A.: [ N.9&,.q.>.h.;.;.;.h.>.>.x x x x >.>.>.h.h._@c;c;d;e;6$B#2$U#%$%$$%$%_%_%{%f;]%/%m=g;3%4%h;f%g%A%j%t%u%v%z%s#W%#;`%6 > > > j > > 6 , ' 5 ) ~ { ] ^ ^ 7 / 7 ^ ^ ^ ^ ^ ^ ^ ^ ^ 7 7 #+#+w #+#+7 ( A.: m.|+c.f.h.).*.W X $.#.+.....E.E.######3.2.1.1.1.1.1.1.1.1.1.1.1.|.|.|.Q+Q+}.}.}.}.}.}.}.}.}.}.q@_#6.6.D+D+'+k.B w.z >.e 0 i 1 _ 4 ^ ] ] { { ] ^ / 4 3 2 | i 9 a F.f.q.x x >.>.>.h.h.h.h.;.;.;.;.;.;.;.;.",
"c c c c c c c c c c c c b b a 0 9 i | _ / ] <#5 , 6 j ; ; $ $ # # + + + + + + + + + + + + + + + + # # # $ ; j > , 5 ! ~ w #+7 ( A.T < [ m.N.O.O.O.@+@+@+@+@+@+c.c.c.F.c.c.9&@+O.B.m.1 A.7 { ) , j # . @ l m m m l l k k @ @ @ k l m n o p q r s t+t+Z+Z+Z+t+t+t+t+t+t+t+t+t+t+t+s s r q p o o o o o o o o o o o o o o o o o o o o o o o o o o o o o o o o p p p q q r r r s s s t+t+Z+Z+Z+Z+Z+Z+Z+Z+Z+Z+Z+Z+Z+t+t+s s r r q q p o n n n m m m m m m m m m m l l k k @ @ @ @     . . + # $ ; j > 6 , ' 5 5 ) ! ~ { #+7 ( T : < [ m.B.B.B.m.m.m.m.m.B.B.B.B.B.m.[ < : A.( / ^ { ~ ! 5 ' 6 j $ + . @ k l m n o o o o o n m l @ . + $ j 6 , ' 0.! M.#+( T < B.F%F.f.q.x >.x x q.q.].f.f.q.q.q.x x G+b+i;K+6#U#:$3$V#V#{%;%]%]%/%/%m=m=3%4%4%5%6%B=m%i%k%5=>-X=z%s#S%#;`%T%j#g+j j j > 6 , ' ) ! { ^ 4 _ 2 : 1 7+2 2 _ _ 3 ( 4 4 / / / / / ^ #+#+#+#+7 ( A.: m.O.c.f.4@).*.W X $.#.`  ...E.E.######3.2.1.1.1.1.1.1.1.1.1.1.1.|.|.|.Q+Q+}.}.}.}.}.}.}.}.}.}.q@_#6.6.D+D+D.k.B A z '.e a i | _ 3 / ^ ^ ] ] ^ ^ / 4 _ 2 | i 9 a F.f.q.x x >.>.>.h.h.h.h.;.;.;.;.;.;.;.;.",
"c c c c c c c c c c c c c b a 0 9 i | _ / ] ! 5 , 6 j ; $ $ # # + + + + + + + . . . . . . . . . + + + + # $ ; j 6 ' 5 K.L.M.] 7 ]+( T : < } m.B.B.8 N.N.N.V.O.O.0 @+@+0 O.N.U.m.[ : A./ { 5+' > ; +   @ l m m m l l k k @ @ @ k l m n p q r s t+t+Z+Z+i@i@i@i@i@i@i@i@i@i@i@Z+Z+Z+t+s r q p p o o o o o o o o o o o o o o p p p p p p p p p p p o o p p p p q q q r r r s s s t+t+Z+Z+Z+Z+Z+Z+Z+Z+Z+Z+Z+Z+Z+Z+t+t+t+s s r r q p o o n n m m m m m m m m m m l l k k @ @ @ @       . . + # $ ; j 6 , , ' 5 ) ! L.M.w #+]+3 T : < [ } m.[ [ | < < | | | | | < < : T 3 ]+7 ] { ~ ) 5 ' 6 j $ # . @ k m n o p p p q p p o n m k   + # ; - y.J.l.x.K.M.#+]+A.< m.N.@+c.1+,.,.F.F.b r.b F.F.c ,.f.f.f.I+n+1+n#b$7$D#W#*$*$3%]$]$[%[%e%7%-=f%g%h%i%j%t%u%v%w%y%=-h-d-`%T%U% &h@; ; j - 6 , 5 K.~ ] ,@_ 1 m.8 N.V.8 8 i } | 1 7+2 _ 3 3 4 4 / 7 ^ #+#+7 ]+( _ 1 m.9 c.f.>.-.*.W %.$.#.@.+...E.E.E.}+3.3.l#1.1.1.1.1.1.1.1.1.1.1.p@|.|.2+Q+Q+Q+}.}.}.B+;$;$}.=#=#%@%@6.c+o.D.R B A S ~.f a 8 u 2 3 4 / ^ ^ ^ ^ / / 4 _ 2 | i 9 a F.f.q.x x x >.>.>.h.h.h.;.;.;.;.;.;.;.;.",
"c c c c c c c c c c c c c b a 0 8 } 1 3 / { ! 5 , > j ; $ # # + + . . . . . . . . .         . . . . . . + # $ ; j 6 , 5 ) ! ~ w #+/ 4 A.T : < | [ } m.i B.B.8 N.N.N.N.8 B.m.[ : _ 4 ^ { K.' 6 j $ +   @ l l m m l l l k k k k l m n o p q s t+Z+Z+i@P#P#P#P#P#P#P#P#P#P#P#P#P#i@i@Z+t+s r q q p p p p p p p o j;p p p p p p q q q q q q q q %&p p p p q q q q r r r r s s s s t+t+Z+Z+Z+Z+Z+Z+Z+Z+Z+Z+Z+Z+Z+Z+Z+t+t+t+s s r q q p o n n m m m m m m m m m l l k k @ @ @ @           . + # $ ; j > 6 , ' 5 ) ) ! ~ { ] 7 ]+3 T : 1 < < < 1 : : 2 2 T T T T _ A.3 4 / ^ a.M.! ) 5 ' 6 > ; # .   k m n o p q r r r r q p o m l @ . + $ ; j > y.J.' 0.L.w 7 3 2 ;+m.B.N.O.N.N.U.B.8 N.N.O.0 a c.b F.`+9&F%{@e$E#X#Q%^$f%9%F#G%G%d=d=O%H%t%o%J*v%G#z%*;s#S%d-N%`%T%U%1#j@j@$ $ $ ; > J.x.! { ^ z.2 } N.a F.c c c F.c.@+9 8 i } | 1 2 _ 3 4 ]+/ 7 7 7 ]+( T < m.9 c.f.>.-.V &.%.X $.Z P E ..a#@#@#9#3.C+1.1.1.1.1.1.1.1.1.1.1.1.|.|.|.|.Q+Q+Q+Q+Q+Q+Q+Q+Q+Q+5.5.T+T+c+c+o.R =+Q.S y t.b 9 } 1 _ 4 / ^ ^ ^ ^ ^ / 4 _ 2 | i 9 a F.e q.q.x x x >.>.>.h.h.h.;.;.;.;.;.;.;.",
"e e e e e e e e e e d c c c a 0 8 } 2 3 ^ ~ ) ' 6 j ; $ # # + + . . .               @ @ @ @           . . + # $ ; j > , ' 5 K.L.{ ] ^ / 4 3 _ T 2 1 < | } m.i i i i i } | 7+T z.b.] ~ )+l.j#j $ # .   @ k l m m l l l l l l l m n o p q r s t+Z+i@P#.$.$.$.$.$.$.$.$.$.$.$.$.$.$P#i@i@t+s r r q q q q p p p p p p p p q q q r r r r r r r r q q q q q q r r r r r s s s s s s t+t+Z+Z+Z+Z+i@i@i@i@i@i@i@i@i@Z+Z+Z+t+t+t+s r r q p o o n n m m m m m m l l k k @ @ @                   . + $ ; j > 6 , ' 5 ) ) ! ! ~ { ] 7 ]+( A.T 2 2 2 T _ _ A.3 ( 4 4 4 ,@/ 7 ^ ] { ~ ! ) ' , 6 > ; $ +   @ l m o p q r s s s r r q o n l k   . # $ ; ; j > 6 ' 0.! { ^ ]+3 T : < < < 1 : : 1 < | } i 8 9 O.O.9 N.S.h+6+E%Y%c#q#Z#Z#|%|%#%d#d#7=7=X%X%}-r+W%d-#;`%`%T%|#e# &2#V@# $#$## $ ; > l.) M.7 3 1 S.p.F.].x >.>.>.i.g f.,.F.a 0 9 i } 1 2 _ ( 4 / / ]+4 3 T < m.9 c.e h U S A W %.R #.@.P E E ..a#@#4.C+p@1.1.1.1.1.1.1.1.1.1.1.1.1.|.|.|.|.|.|.|.|.|.|.|.2+2+8#3+3+0#P o.D.=+Q.4+g.x c 0 i 1 _ 4 ^ ^ ] ] ] ^ / 4 3 2 | i 9 a F.,.f.q.q.x x x >.>.h.h.h.;.;.;.;.;.;.;.",
"e e e e e e e e e e e e c c a 0 8 | 2 4 ] ~ 5 , > j $ # + + . . .           @ @ @ @ @ @ @ @ @ @ @ @     . . + # $ ; j > 6 , ' ) ! ~ { ] ^ / / 4 3 A._ 2 1 | | [ } | | 1 :+A.,@++i#! 5 , > ; $ # + .   @ k l l m m m m m l m m n o p q r s t+Z+i@P#.$.$#&#&#&#&#&#&#&#&#&#&#&#&#&.$P#P#Z+t+s r r r r q q q p p p p q q q r r r r r r r r r r r r r r r r r r s s s s s s s s s t+t+Z+Z+Z+i@i@i@i@i@i@i@i@i@i@i@Z+Z+Z+t+t+s s r q p o o n n m m m m l l l k k @ @     . . . . .         . + $ ; j > 6 , ' 5 ) ) ! ! ! ~ { ] ^ / 4 3 3 A.3 3 3 4 4 / 7 ^ ^ ++] ] { { ~ ! ) 5 ' , 6 > ; $ + . @ k m n p q r s s t+s s r q o n l k @ . + # $ $ ; j > 6 ' 5 ! ~ ] ^ ]+( ( 3 ( 4 4 4 4 3 _ 2 1 [ } i i } [ 1 /+,@++'#i#{+<#X%5+5+k;)+)+E+E+}#6@u#$+|#j#j#e#g+1#h@j@H*V@$#k@k@+ + # ; y.x.L.++z.< B.@+,.t.h.-.).).).!.-.~.>.x f ,.b 0 8 } 1 2 _ 3 4 4 4 3 A.2 < m.9 a e h y S *.Q.%.X $.Z ` P 0#0#0#3+8#C+p@1.1.1.1.1.1.1.1.1.1.1.1.1.1.1.p@p@|.|.C+p@U*U*C+C+C+4.4.3+l;0#c+D.k.I.4+U h d s.8 | _ 4 ^ ] ] ] ] ^ / 4 3 2 | B.9 a F.,.f.q.q.q.x x _;>.>.h.h.;.;.;.;.;.;.;.",
"e e e e e e e e e e e e e c a 0 i | _ 4 ] ! 5 , > ; $ # + . . .         @ @ @ @ k k k k k k k k k @ @ @   . . + + # $ ; j > 6 l.5 ) ! ! ~ { ] ] ^ / 4 3 _ 2 2 2 : 2 :+/+z.b.] ~ ) ' 6 > ; % + . .   @ k k l l m m m m m m m n n o p q r t+Z+i@P#.$.$#&#&$&$&$&$&$&$&$&$&$&$&$&#&#&.$P#i@Z+t+s s r r r q q q p q q q q r r s s s s s s s s s s s r r r r s s s s s s s s s s s t+t+Z+Z+Z+i@i@i@i@i@i@i@i@i@i@i@i@Z+Z+t+t+s s r q p o o n n m m l l l k k k @ W@  . . . + + + . . .   . + # $ ; j 6 , ' 5 5 ) ) ) ! ! ! ~ { ] ^ / / 4 4 4 ]+/ / ^ ] ] { { M.~ ~ ! ! ) 5 5 ' , > j ; $ # .   k l n o p q r s t+t+s s r q o n l k @   . + # $ ; ; j y., ' 5 5+~ { ] #+^ ^ #+] ] ] ^ / 4 3 _ 2 1 1 1 1 2 3 / '#<#5+)+5 E+m;6@n;$+o;j#j#g+g+- h@h@; j@j@j@j@V@V@# $#k@. . . . + $ j , ) w ( : P@@+d i.;.).*.&.&.&.&.*.=.-.;.'.x f c 0 8 } 1 2 _ 3 3 3 3 _ 2 1 } N.a c g y z V &.W %.R D.o.P P 0#0#0#3+4.C+1.1.1.1.1.1.1.1.1.1.1.1.1.1.1.1.1.1.1.1.1.1.1.p@p@C+4.4.3+l;0#c+D.=+Q.4+U h e a 8 | _ / ^ ] { { ] ] ^ 4 3 2 | 8 O.a F.,.f.q.q.q.x x >.>.h.h.;.;.;.;.;.;.;.;.",
"e e e e e e e e e e e e e c a 0 i | _ / ] ! 5 6 j ; # + + . .       @ @ @ @ k k k k k l l l l k k k @ @ @   . . + + # $ $ ; j > 6 , ' 5 5 ) ! ~ ~ { ] ^ / 4 3 3 3 3 4 / ^ '#~ ) ' 6 j ; # + .     @ @ k l l m m m n n n n n n o p q r s t+Z+i@P#.$#&#&$&$&$&$&$&$&$&$&$&$&$&$&$&#&#&.$P#i@t+t+s s s r r q q q q q q r r r s s s s s s s s s s s s s s s s s s s s s s s s s s t+t+Z+Z+Z+i@i@i@i@i@i@i@i@i@i@i@Z+Z+Z+t+t+s s r q p o n n m m m l l k k k @     . . + + # # # + + + + + # $ ; j > 6 , ' 5 ) ) ) ) ) ! ! ! ~ { ] ] ^ ^ ^ ^ ^ ] ] { ~ ~ ! ! ! ) ) 5 5 ' ' , 6 > j ; $ + .   @ l m n o q q r s s s s r q p o n l k @   . + # $ ; j > > 6 , ' 5 ) ! L.~ M.M.M.~ ~ ~ { ] ^ r$4 3 3 _ _ 3 4 / ] <#)+' , $+6 p;g+j q;; r;$ V@# # $#$#+ + + + + k@k@k@. %#    . + # ; y.x.M.]+T m.F%d i.g.=.&.W %.X %.%.W &.*.).-.h.x f.b 9 i | s;_ t;3 3 3 _ 2 1 } 8 0 c g y z V A W %.R D.o.P P P 0#0#3+4.C+1.1.1.p@p@p@p@p@p@p@p@p@p@p@p@p@p@p@p@p@p@p@p@p@p@C+4.4.3+l;u;v;'+=+.+4+g.i.d s.8 1 _ / ^ ] { { { ] ^ / 3 2 | 8 O.a F.,.f.q.q.x x x >.>.h.h.;.;.-.-.-.-.-.-.",
"e e e e e e e e e e e e e c a 0 i | _ / { ! ' 6 j $ # + + . .       @ @ @ k k k k l l l l l l l l k k t$@ @     . . + + # $ $ ; j j > 6 , , ' 5 ) ) ! ~ { ] ^ ^ ^ ^ ^ ] { <#) ' 6 j ; # + .     @ @ k k l m m n n n n n n n n o p q r s t+Z+i@P#.$#&#&$&$&$&-&-&-&-&-&-&-&-&$&$&$&#&.$P#i@Z+t+t+s s r r r q q q q r r r s s s s s s s s s s s s s s s s s s s s s s s s s s s t+t+Z+Z+Z+i@i@i@i@i@i@i@i@i@i@i@Z+Z+t+t+s s r q q p o n n m m l l k k @ @ @   . . + # # $ $ $ $ $ # # $ $ ; j > 6 , ' 5 ) ) ) ) ) ) ) ! ! ! ~ { { { ] ] ] { { ~ ! ! ) ) 5 5 5 ' ' , , 6 > j ; $ # + .   @ k l n o p q q r r r r r q q p n m l k @   . + # ; j > > 6 6 , ' 5 5 ) ) ) K.K.K.K.! ! ! ~ { ] ^ / / 4 / / ^ ] ~ )+6@6 > j h@; $ # $#+ I#. %#        W@                      . + $ - l.K.#+A.[ O.,.x g.=.&._+X $.$.$.X %.W &.=.).U '.q.c 0 8 } 1 2 _ 3 3 3 _ _ 1 | i 0 b f '.z =.A Q.B X D.o.o.P P P T+5.$@|.|.U*U*|.|.|.|.|.|.C+C+p@p@p@p@p@p@p@p@p@p@p@p@p@C+4.4.L#l;T+c+w;R B A %+y g c 0 i 1 3 / ] { { { { ] ^ / 3 2 | 8 p.a c f.q.q.x x x >.>.h.h.;.;.-.-.-.-.-.-.-.",
"e e e e e e e e e e e e e c a 0 i | _ / { ! ' 6 j $ # + + . .     @ @ @ k k k k l l l l l m m l l l l k k @ @       . . . + + # # $ ; ; j > 6 6 , ' 5 ) ! ~ ~ { { { { ~ ! )+' 6 g+; # + .     @ @ k k l m m n n n o o n n n n o p q r s t+Z+i@P#.$#&#&$&$&-&-&-&-&-&-&-&-&-&-&$&$&#&.$P#i@Z+Z+t+t+s s r r r r r r r r r s s s s s s s s s s s s s s s s s s s s s s s s s s s t+t+Z+Z+Z+i@i@i@i@i@i@i@i@i@i@i@Z+t+t+s s r q q p o o n m m l l k k k @ @   . . + # $ ; ; ; ; ; ; ; ; ; j > > 6 , ' 5 ) ) ! ! ! ! ! ) ! ! ! ~ ~ ~ ~ { { ~ ~ ! ! ) ) 5 5 ' ' , , 6 6 > > j ; $ # + .   @ k l m n o p p q q q q q q p o n m l k @   . + # $ ; > > 6 , , , ' ' 5 5 5 5 5 0.) ) ) ) ! ! ~ { { ] ^ ^ ^ ] { ~ ) ' 6 > j ; $ # + .   @ @ k k k ,#,#,#,#k k k k O#@ @ @ @     + % = J.0.w ( < N.F.x ;.=.&.%.X $.$.#.$.$.X %.W *.=.z ;.x e a 9 i | 1 2 _ 3 3 3 _ 2 | i 9 r.f '.U S V A W =+R D.o.o.c+c+c+T+5.$@|.|.2+2+2+2+2+2+2+2+2+2+2+2+2+2+2+2+2+2+2+2+2+2+2+x;5.y;T+z;M#'+A;B;V z '.f b 9 m.1 3 / ] { { { { ] ^ / 3 2 | 8 0 c.c f.q.x x >.>.>.h.h.;.;.-.-.).).).).).).",
"e e e e e e e e e e e e e c a 0 i | _ / { ) ' 6 j $ # + + . .     @ @ k k k k k l l l m m m m m m m l l k k @ @ @ @         . . . + # # $ ; ; j > 6 , ' x.5 ) ! ! ! ! ) 5 ' , > ; $ + . .   @ @ k k k l m m n n o o o o n n n o p q r s t+Z+i@P#.$#&#&$&$&-&-&-&-&-&-&-&-&-&-&$&$&#&#&.$P#i@Z+Z+t+t+s s s r r r r r r r s s s s s s s s s s s s s s s s s s s s s s s s s s s t+t+Z+Z+Z+i@i@i@i@i@i@i@i@i@i@C;Z+t+s s r 5$q p p o n m m l l l k k @ @     . + # $ ; j j > > > > > > > 6 6 , , ' 5 ) ) ! ! ! ! ! ! ! ! ! ! ! ~ ~ ~ ~ ~ ~ ! ! ) ) 5 5 ' ' , , 6 6 > > j ; ; $ # + .   @ k l l m n o o p p p o o o n n m l k @   . + # $ ; j > 6 , , , ' ' ' 5 5 5 5 5 5 ) ) ) ! ! ! ~ ~ { ] ] ] ] ] { ! 5 , > j ; $ # k@  @ k l l m m m m m m m m l l l k k k @ @   . # ; 6 5 M.]+: Q@F.u+;.=.W X $.Y #.Z @.#.#.$.X %.&.*.=.-.>.f b 0 8 } 1 2 _ 3 3 3 _ 2 1 } 8 a e h y z S V A B =+R '+D.D.D+D+6.%@'@Q+Q+Q+'@'@'@'@'@'@'@'@'@'@'@'@'@'@'@'@'@'@'@'@'@'@'@D;%@E;M#F;G;H;h*j*U h f.c.9 } 2 4 ^ ] { ~ ~ { ] ^ / 3 2 | 8 0 c.,.f.q.x >.>.>.h.h.;.;.-.-.).).).).).).).",
"e e e e e e e e e e e e e c a 0 i | _ / { ) ' 6 j $ # + . .     @ @ @ k k k k l l l m m m m n n n m m m l l k k k @ @ @ @ @ @ @     . . + # # $ ; j > > 6 , ' ' 5 5 5 ' ' , > j $ # + .     @ @ k k k l m m n n o o o o n n o o p q r s t+Z+i@P#.$#&#&$&$&-&-&-&-&-&-&-&-&-&-&$&$&$&#&.$P#P#i@Z+Z+t+t+t+s s s s r r r s s s s s s s s s s s s s s s s s s s s s s s s s s s s t+t+Z+Z+Z+i@i@i@i@i@i@i@i@i@i@Z+Z+t+s r q q p p o n m m l l k k k @ @ @   . + # $ ; j > 6 6 , , , , , , ' ' ' 5 5 ) ! ! ! ~ ~ ~ ~ ~ ~ ~ ~ ~ ~ ~ ~ ~ ~ ~ ! ! ) ) ) 5 5 ' ' , , 6 6 > > j ; $ $ # + . .   @ k k l m m n n n m m m l l k @ @   . + # # $ ; j > 6 , ' ' ' 5 5 5 5 ) ) ) ) ) ! ! ! ~ ~ ~ { { ] ] ] ] ] ] { ! 5 , > j $ # + . @ k l m n n o o o o n n n m l l l k k @   . # ; y.E+M.7 u@B.c.q.;.=.W X Y #.@.@.@.+.@.@.#.$.X %.&.*.).h.g c @+N.m.| 2 _ _ 3 3 3 _ 2 | i 0 F.f '.y z S V A Q.B =+=+k.k.8./#(#x@q@q@q@q@q@q@q@q@q@q@q@q@q@q@q@q@q@q@q@q@q@q@q@q@q@I;)@)@7.F;G;A;B;A 3-y g ,.@+8 | _ 4 ^ ] { ~ ~ { ] ^ / 3 2 | 8 0 c.,.f x >.>.>.h.h.;.;.-.-.).).=.=.=.=.=.=.",
"e e e e e e e e e e e e e c a 0 i | _ / { ) ' 6 j $ # + . .     @ @ k k k k l l l l m m n n n n n n n n m m l l k k k k k k k k k k @ @   . + + # $ ; j j > 6 , , ' ' , 6 6 j ; $ + . .     @ @ @ k k l m m n n o o o o n n o o p q r s t+Z+i@P#.$#&#&$&$&-&-&-&-&-&-&-&-&-&-&-&$&$&#&#&.$P#P#i@i@Z+Z+t+t+s s s s s s s s s s s s s s s s s s s s s s s s s s s s s s s s s s t+t+Z+Z+Z+i@i@i@i@i@i@i@i@i@i@Z+t+s r r q p p o n [#m l l k k k k @ @     . + $ ; j > 6 , ' ' 5 5 5 5 ) ) ) ) ) ! ! ~ ~ ~ ~ { { { { { { { { { { ~ ~ ~ ~ ! ! ! ) ) ) 5 5 ' ' , , 6 6 > j j ; $ # # + + .     @ @ k k k k k k @ @     . . + # # $ $ ; ; j > 6 , ' 5 5 5 ) ) ) ! ! ! ~ ~ ~ { { { ] ] ] ] ^ ^ ^ ^ ^ ^ ] { ~ ) l.> j $ # +   @ l m n o p p p p p o o n m m l k k @   . # ; j#E+M.]+u@=@c.q.;.=.W X #.@.` +.+.+.+.+.+.@.#.$.%.W *.).;.x e c.9 i | 1 _ _ 3 3 3 _ 2 1 } 8 a e g '.y U z S V A Q.I.I.I.9.!@e@]#[.[.[.[.[.[.[.[.[.[.[.[.[.[.[.[.[.[.[.[.[.[.[.[.[.]#|@|@8.G;J;H;.+V z '.f F.p.i 1 _ / ^ { { ~ ~ { ] ^ / 3 2 | 8 0 b ,.q.x >.h.h.h.;.;.-.-.).).=.=.=.*.*.*.*.",
"e e e e e e e e e e e e e c c.0 i | _ / { ) ' 6 j $ # + . .   @ @ k k k l l l l m m m n n o o o o o o o n n m m l l l l l l l l l l l k @     . + # # $ ; j j > 6 6 6 6 6 > j ; # + . .       @ @ k k l l m m n n o o h&n n n o p q r s t+Z+i@P#.$#&#&$&$&-&-&-&-&-&-&-&-&-&-&-&$&$&$&#&.$.$P#P#i@i@Z+Z+t+t+t+s s s s s s s s s s s s s s s s s s s s s s s s s s s s s s s s t+t+Z+Z+Z+i@i@i@i@i@i@i@i@i@i@Z+t+s r q q p o o n m l k k k @ @ @ @ @   . + # $ j > 6 ' 5 ) ) ! ! ! ~ ~ ~ ~ ~ ~ ~ ~ { { { { ] ] ] ^ ^ ^ ^ ] ] { { { ~ ~ ~ ! ! ! ! ) ) ) 5 5 ' ' , , 6 > j ; ; $ # # # + + + . . .       . . + + # # $ $ ; ; j j j > > 6 6 , ' 5 5 ) ) ! ! ~ ~ { { { ] ] ^ ^ / / / / / / / 4 ,@/ / ^ ] ~ ) ' 6 j ; # +   @ l m o p p q q q p p o n m l l k @   . # ; y.x.~ b.:+P@c.q.;.E@J+>@#.` +.+.+...........+.@.#.X %.&.=.-.>.f.F.p.B.[ 1 2 _ 3 3 3 3 _ 2 | i 9 b e f h '.y U z S V V w.&..+&@+@}@O+O+O+O+O+O+O+O+O+O+O+O+O+O+O+O+O+O+O+O+O+O+O+O+L@L@L@e@!@J;9.I.A S U h f b 9 } : 3 / ] { { ~ ~ { ] ^ / 3 2 | 8 0 b e q.>.h.h.;.;.U -.-.).=.=.=.*.*.*.*.&.&.",
"e e e e e e e e e e e e e c b 0 U.| _ / { ! ' 6 j $ # + . .   @ @ k k l l l l m m m n n o o p p p p p p o o n n m m m m m m m m m m J$l k @ @   . + + # $ ; j j > 6 6 > > j ; $ # + . . .       @ @ k k l l m m n n n n n n n o p q r s t+Z+i@P#.$.$#&#&$&$&-&-&-&-&-&-&-&-&-&-&$&$&$&#&#&.$.$P#P#i@i@Z+Z+Z+t+t+t+s s s s s s s s s s s s s s s s s s s s s s s s s s s s s s t+t+Z+Z+Z+i@i@i@i@i@i@i@i@i@i@Z+t+s r q p p o n m m l k k @ @ @ @ @ @   . + $ ; > 6 ' 5 ) ! ~ { { { ] ] ] ] ] ] ] ] ] ] ] ] ] ^ ^ / / / / / ^ ^ ] ] { { { ~ ~ ~ ~ ! ! ! ) ) 5 5 ' ' , $+6 > j ; ; $ $ $ $ $ # # # # # # # $ ; ; j j > > > 6 6 6 6 6 , , ' ' 5 5 ) ! ! ~ ~ { ] ] ^ ^ / / 4 4 3 3 3 3 3 3 3 3 3 4 4 / ^ ] ! 5 , > j $ + . @ l m o p p q q q p p o n m l k @   . + ; > ' ! ^ T m.@+I+_@E@%.K;@.+.L;..........E.E.....+.Z $.X W *.-.h.q.F.@+8 } 1 2 _ 3 4 4 4 3 _ 2 | i 9 a c e f g '.y U !.z %+4+Y+<@m@[@N+<.<.N+N+N+N+N+N+N+N+N+N+N+R#<.<.<.<.<.<.<.<.<.R#R#R#n@U+U+I..+V z y h e a 8 } 2 3 / ^ ] { { { { ] ^ / 3 2 | 8 0 b f.x >.h.;.;.-.-.).).=.=.*.*.*.&.&.&.&.&.",
"f f f f f f f f f.e e e e c b 0 8 | 2 4 ] ! 5 6 g+; # + + .   @ @ k l l l m m m n n o o p p q q q q q p p o o n n n m m n n n n n m m l l k @     . + # $ $ ; j > > > > > j ; $ # + + . . . .     @ @ k k l l m m m n m m [#n o p q r s t+Z+i@P#.$.$#&#&$&$&$&$&-&-&-&-&-&-&-&-&-&$&$&$&#&#&#&.$.$P#P#i@i@Z+Z+t+t+t+t+t+t+s s s s s s s s s s s s s s s s s s s s s s s s s s t+t+Z+Z+Z+i@i@i@i@i@i@i@i@i@i@Z+t+s q %&p o o n m l ,#k @ @ @ @ @ @     . # $ j 6 , 5 ) ~ { ] ] ^ ^ ^ / / ^ ^ ^ ^ ^ ^ ^ ^ ^ ^ / / 4 4 4 4 4 4 / / ^ ] ] ] ] { { { { { ~ ~ ! ! K.) )+5 ' , 6 > > j j j j j j j ; ; ; ; h@j > 6 6 , , , , ' ' ' ' ' ' ' 5 5 5 ) ) ! ! ~ { ] ] ^ / 4 4 3 A._ 2 2 2 2 2 2 2 2 2 _ _ A.3 4 ^ { ! x., > ; # +   k m n o p p q q p o o n m l k @ . + $ > l.! ] 3 [ p.f.h.=.J+K;M;+.............E.E.E.E...+.@.#.X %.&.).h.g ,.a N.} < 2 l$4 4 / / / 4 3 2 1 } 8 p.a b e f g h '.y g.!.v@z@p+v.q+0$0$q+q+q+q+q+q+q+q+q+q+q+q+N+N+N+N+N+N+N+N+N+N+[@M@M@&@&@.+A V z y g e a 8 } 2 3 ,@^ ] { { { { ] ^ 4 3 2 u 8 0 F.f h h.;.;.-.-.).).=.=.*.*.&.&.&.W W W W ",
"f f f f f f f f f f e e e c b 0 8 | 2 4 ] ~ 5 , > ; $ # + .   @ @ k l l m m n n o o p p q q r r r r r q q p p o o n n n n n n n n n m m l k @ @   . + # # $ ; j j > > > > j ; $ $ # + + + + . . .   @ @ k k k l l l m m m m m n o q r s t+Z+i@P#P#.$.$#&#&$&$&$&$&$&-&-&-&-&-&-&-&-&$&$&$&#&#&#&.$.$P#P#i@i@Z+Z+Z+t+t+t+t+t+t+s s s s s s s r r r r r s s s s s s s s s s s s t+t+Z+Z+Z+i@i@i@i@i@i@i@i@i@i@Z+t+s q p p o o n m l k k @ @ @         . + # ; > , ' ) ~ { ] ^ / / 4 4 4 4 4 4 4 / / / / / / / 4 4 3 3 3 3 3 3 3 4 ,@/ / ^ ^ ^ ^ ^ ^ ] ] '#{ i#~ ~ <#! ) 5 ' , , 6 6 6 6 6 6 6 6 6 6 6 6 , ' 5 5 ) ) ) ) ) ) ) ) ) ) ) ) ) ) ) ! ! ~ { ] ^ / 4 3 _ _ 2 1 1 | | | | | | | | | 1 1 2 _ 3 4 ^ ~ ) ' 6 > ; # . @ l m n o p p p p o n m l k @   + $ j , ) { 4 1 N.,.>.).:;$.o&................E.E.E.E.E...+.#.$.%.&.=.;.x ,.a 9 i | 2 3 4 / ^ ^ ^ ^ / 4 A.2 | } 8 9 a b e f g i.{.h..#f+Z.p+1$+%+%1$1$1$1$1$1$1$1$1$1$1$1$q+q+q+q+q+q+q+q+q+q+z+m@m@&@.+.+w.S U '.g e a 8 } 1 _ 4 / ^ ] ] ] ] ] ^ 4 3 2 } 8 a c q.>.;.-.-.).).=.=.*.*.*.&.&.&.W W %.%.%.",
"g g g g g g g f f f f f e e b 0 8 } 2 4 ^ ~ ) , > j $ # + .   @ k k l m m n n o o p q q r r r s s s r r q q p p o o o o o o o n n n m m l k t$@   . + # $ $ ; j j > > > g+j ; ; $ # # # # # + + . .     @ @ @ k k k l l l l m n o p r s t+Z+i@i@P#P#.$.$.$#&#&$&$&$&$&$&-&-&-&-&-&-&-&$&$&$&#&#&.$.$P#P#i@i@i@Z+Z+Z+Z+t+t+t+t+N;s s s s r r r r r r r r s s s s s s s s s s s t+t+Z+Z+Z+i@i@i@i@i@i@i@i@i@i@Z+t+r q p o o n n m l k k @ @           . + $ j > , 5 ! { ] ^ / 4 3 3 _ _ _ 3 3 3 3 3 4 4 4 4 4 3 3 _ _ _ 2 2 2 2 _ 3 3 4 4 4 4 4 4 / / / b.^ ++++] '#{ ~ ! ) 5 5 ' ' ' ' ' ' ' ' ' ' ' 5 ) K.! ~ ~ ~ ~ ~ ~ ~ ~ ! ! ! ! ! ! ! ! ! ~ { ] ^ / 4 3 _ 2 1 | } } i i i i i i i } } } | | 1 2 A.]+] ~ ) ' 6 j $ +   k l m n o o o o n n m l k   9+$ j 6 5 { / 2 i c.t.-.6&X @...E.E.............E.E.E.E.E...+.@.Y X W =.U h e c.9 i | 2 3 4 ^ ] ] { { w ] ^ 4 3 2 1 } 8 9 a b c e f t.H.x+f+_._$1$1$7;_$_$_$_$_$_$_$_$_$_$1$1$1$1$1$1$1$1$1$v.v.:.m@c@~@.+A V S U '.g c a 8 } 1 _ 3 / ^ ^ ] ] ] ^ / 4 3 2 } 8 a ,.g h.U -.).).=.=.*.*.&.&.&.W W W %.%.%.X ",
"g g g g g g g g g f f f f e c a 8 } 2 3 ^ ~ ) ' 6 j ; # + + .   @ k l m m n o o p q r r s s s s s s s s r q q p p o o o o o o o n n n m l k k @   . + # $ ; ; j j > > > j j j ; $ $ $ # $ $ # # # + + . .     @ @ @ @ k k k l m o p q s t+Z+i@i@i@P#P#P#.$.$#&#&#&#&$&$&$&-&-&-&-&-&-&-&$&$&$&#&#&.$.$P#P#i@i@i@Z+Z+Z+Z+t+t+t+s s s s r r r r r r r r r r s s s s s s s s s s t+t+t+Z+Z+Z+Z+i@i@i@i@i@i@i@Z+Z+s r q p o o n [#m l k k @ @           . # $ j 6 ' ) ~ ] ^ / 4 3 _ _ 2 2 2 2 _ _ _ _ _ 3 3 3 _ _ _ 2 2 2 1 1 1 1 1 2 T _ _ _ _ _ _ 3 3 3 z.4 ,@,@/ b.^ ] { ~ ! ! ) ) ) ) ) ) ) ) ) ) ) ! ~ ~ { { { { { { { { ~ ~ ~ ~ ! ! ! ! ! ! ~ { ] ^ 4 3 _ 2 1 | } i 8 8 8 9 9 8 8 8 8 8 i i } } | 2 3 / ] ~ ) ' 6 j # .   k l m n n n n n m m l @   + ; > ' ! ^ _ [ p.f.h.=.%.Z ..E.T.E.E...........E.E.T.E.E...+.@.#.X W *.-.h f.b 9 i | 2 3 / ] { ~ ! ! ! ! ~ { #+/ 3 _ 1 } i 9 0 a j.d G.H.,+'$@$_$_$_$_$_$_$@$@$@$@$@$_$_$_$1$1$1$1$1$1$1$1$1$1$v.v.~@~@~@w.V S U '.q.c a 8 } 1 2 3 4 / ^ ^ ^ ^ ^ / 4 3 1 } 9 a e x y -.).=.=.*.*.*.&.&.&.W W W %.%.X X X ",
"h h h h h h h g g g g f f e c a 8 } 2 3 ^ ~ ) ' 6 j ; $ # + .   @ k l m n n o p q r r s t+t+t+t+t+t+t+s s r O;q p p p o o o o o o n n m l k k @   . + # $ ; ; j j j j j j j j ; ; $ $ $ $ ; ; $ $ $ # # + + . . .       @ t$k m n p q r s t+Z+Z+i@i@i@P#P#P#.$.$.$#&#&#&$&$&$&-&-&-&-&-&$&$&$&#&#&.$.$P#P#i@i@i@Z+Z+Z+Z+t+t+t+s s s r r q q q q q r r r r s s s s s s s s s s s t+t+t+Z+Z+Z+Z+Z+Z+Z+Z+Z+Z+Z+t+s r p o o n n m m l k k @ @         . + # ; > 6 ' ! { ] / 4 3 _ 2 2 1 1 1 1 2 2 2 2 2 2 _ _ 2 2 2 2 1 1 | } } } } | | 1 1 1 1 1 1 2 2 2 :+_ /+/+3 z.4 / ^ ] { ~ ~ ~ ~ ~ ~ ~ ~ ~ ~ ~ ~ ~ { { ] ] ] ] { { { { ~ ~ ~ ! ! ! ! ! ! ! ~ { ] ^ 4 3 _ 2 | } } i 8 9 9 9 9 9 9 9 9 8 8 8 i i } | 2 3 / ] ! 5 , > ; # . @ k l m m n n m m l k @ . # j , ) { 4 1 8 F.x -.&.$.+.E.T.-+T.E.E.E...a#E.E.E.T.T.E.E...` #.$.%.*.-.>.f b 0 8 | 2 3 ^ { ! ) 5 ' ' ' 5 ) ! ~ ] ^ 4 _ 1 | i 8 p.r.>+G.o+S#'$@$@$@$@$@$@$@$@$C$_$_$_$_$t=1$1$1$1$1$1$1$1$1$1$v.v.~@~@.+w.V %+U h f c 0 8 } 1 2 _ 3 4 / ^ ^ ^ ^ / 4 _ 1 } 9 b f.h ;.).=.V *.*.&.&.&.W W W W %.%.X X X X ",
"'.'.'.'.>.h h h h g g g f f c a 9 } 2 3 ^ ~ ) ' 6 j ; $ # + .   @ k l m n P;t Q;R;r s t+t+Z+Z+Z+Z+t+t+t+s s r q q p p p p p o o o n n m l k k @   . + # $ ; j j j j j j j j j ; ; ; ; ; j j j j j j ; ; $ % # # + + . .     k l n o p r s t+t+Z+Z+Z+Z+i@i@i@P#P#.$.$.$#&#&$&$&$&$&$&$&$&$&$&$&#&#&.$.$P#P#i@i@i@Z+Z+Z+Z+t+t+t+s s r r q q p p q q q r r r r r r r r r r r r s s s t+t+t+t+t+t+t+t+t+t+t+t+t+s r q p o n n n m m l k k @ @       . . + # ; > , 5 ! { ^ / 3 _ 2 2 1 1 1 1 1 1 1 1 1 1 7+2 2 1 1 1 1 | | } i 8 8 8 i i } } } } } } } | | | 1 1 7+2 :+_ 3 4 / ^ ] ] ] { { { ] ] ] ] { { { ] ] ] ] ] ] { { { ~ ~ ~ ! ! K.) ) ) ! ! ~ { ] ^ / 3 _ 2 | } i i 8 9 9 0 0 0 9 9 9 9 9 9 8 8 i } 1 2 3 7 { ! 5 6 j $ +   @ k l m m m m m l k @ . $ > ' ! ^ _ } @+f.h.=.%.Z F@T.-+-+H T.E.E.E.E.E.E.G T.T.E.E...+.{;$.%.*.z '.f b 0 8 | 2 4 #+~ ) ' , 6 > > > 6 , ' ) ~ { ^ 4 _ 7+| i V.9&>+)%C%S#'$@$@$@$@$@$_$_$_$_$_$_$t=1$1$1$1$1$1$1$1$1$1$1$v.c@c@~@.+A V z y h f b 0 8 } | 2 _ 3 4 4 / ^ ^ / / 4 _ 1 i 0 b f '.U S V *.&.&.&.&.W W W W %.%.%.X X $.$.",
"y '.'.'.'.'.'.h h h g g g f c a V.} 2 4 ^ ~ ) ' 6 j ; $ # + .   @ k l m n o p q r s t+t+Z+Z+Z+Z+Z+Z+t+t+s s r r q p p p p p p o o n n m l k k @   . + # $ ; j j j j j j j j j j j j j j > > > 6 6 6 y.> j j ; $ $ # # + + . @ k m n p q r s s t+t+t+t+Z+Z+Z+i@i@P#P#.$.$#&#&#&$&$&$&$&$&$&$&$&#&#&.$.$P#P#i@i@i@Z+Z+Z+Z+t+t+t+s r r q q p p p p p q q q r r r r r r r r r r r r s s s s s s s s s s s s s s s O;p o n n m m m l l k k @ @     . . + # $ ; > , 5 ! { ^ 4 3 _ 2 2 1 1 | | | | 1 1 1 1 1 1 1 ;+| | | } } i 8 9 0 p.9 9 V.8 8 8 8 8 8 8 i i S.} u | | 1 2 _ 3 4 / / ^ ^ ^ ^ ^ ^ ^ ^ ^ ] ] ] ] ] ] ] { { { ~ ~ ! ! ! ) ) ) ) ) ) ! ~ { ] ^ / 3 _ 1 | } i 8 8 9 0 0 0 0 0 0 0 0 0 9 9 9 8 i } 1 _ 4 ^ { ) ' > ; # .   @ k l l m m l l k   + $ 6 5 { 4 1 N.F.x -.&.^++.E.-+<+<+-+T.T.E.E.E.E.E.T.T.T.E.E...+.@.$.%.&.z '.f c 0 8 } 2 4 ] ! 5 , > j ; $ ; ; j > 6 ' ) ! { ^ 4 _ < S.V.n%B#d$#$S#u='$'$@$@$@$_$_$_$_$1$1$1$1$1$1$1$1$1$1$1$1$1$v.c@m@.+.+w.V z y h e b 0 8 } | 1 2 _ 3 4 / ^ ^ / / 3 _ 1 i 0 c q.'.z =.*.&.&.&.W W W W W W %.%.X X d+$.$.",
"y y y y '.'.'.'.h h h g g f c a 8 } 2 4 ] ~ 5 , > j $ # # + .   @ k l S;n o p q r s t+Z+Z+i@i@i@Z+Z+Z+t+t+s s r q p p p p p p o o n n m l k k @   . + # $ ; j j j j j j j > > > > > > 6 6 , , ' ' ' ' , , 6 > > j ; ; $ # + . @ l m o p q r r s s s s t+t+t+Z+Z+i@i@P#P#.$.$.$#&#&#&#&$&$&#&#&#&.$.$P#P#i@i@Z+Z+Z+Z+t+t+t+t+s s r q q p o o o o p p q q q q r r r r r r r r r r r r r r r r r r r r r r r r r q p n n m m m l l k k @ @     . . + + # $ j > , 5 ! { ^ / 3 _ _ 2 1 1 1 | | | | | | | | | | | } } } i i V.0 a a a a a 0 0 0 0 0 0 0 0 O.9 9 8 8 i i } | 1 2 _ 3 3 4 4 4 4 4 4 / / / ^ ^ ^ ] ] ] { { { ~ ~ ! ! ) ) ) 5 5 5 5 ) ) ! ~ ] ^ / 3 2 1 | } i 8 9 0 0 0 a a a a a a 0 0 0 0 p.9 i } 1 _ 4 ] ~ 5 6 j # +   @ k k l l l l k @   # j , ! ^ _ } @+f.h.=.%.#...T.-+<+<+-+T.T.E.E.E.E.E.T.T.T.E.E...+.@.$.%.&.).h.g c a 9 } 2 4 ] ! ' 6 j $ # # + # # $ ; > 6 ' ) ~ ] / /+7+e$~#:$!$T#)$#$#$S#1;'$@$@$_$_$_$_$1$1$1$1$1$1$1$1$1$1$1$1$v.v.~@~@s@w.S z h.g e b O.8 } | 1 2 _ 3 4 / / / / 4 3 _ | i 0 c g h.z V A &.Q.W W W W W W %.%.%.X X $.$.$.",
"y y y y '.'.'.'.h h h g g f c a 8 | :+4 ] ! 5 , > ; $ # + + .   @ k =;S;P;t Q;R;T;U;t+Z+Z+i@i@i@Z+Z+Z+t+t+s s r q p p p p p p o o n n m l k k @   . + # $ ; ; j j j j > > > 6 6 6 6 , , ' 5 5 ) K.! ! ) ) 5 ' , 6 > j ; $ # +   k l n o p q q r r r r s s s t+t+Z+Z+i@i@P#P#P#.$.$.$#&#&#&#&#&.$.$P#P#i@i@Z+Z+Z+t+t+t+t+s s s r q q p o o o o o o p p p q q q q q q q q q q q q q q q q q q q q q q q q q q q p o n m m l l l k k @ @     . . + + # $ ; j 6 , 5 ! { ^ / 4 3 _ _ 2 1 1 1 1 | | | } } } } } } i i i 8 9 0 a b c c c b b b b b b b b b b a a 0 0 9 9 8 i } | 1 2 2 _ _ _ 3 3 3 3 4 4 / / ^ ^ ] { { { ~ ~ ! ! ) ) 5 5 5 5 5 5 5 ) ! ~ ] ^ 4 _ 2 | } i 8 9 0 a a a a a a a a a a a a a a 0 9 8 } 1 3 / { ) , j $ + . @ k k l l l l k @ . $ > 5 { 4 1 N.j.b+!.&.X ` E.H <+<+<+-+T.T.E.E.E.E.E.T.T.T.E.E...+.@.$.%.&.%+y g e a 9 m.: 4 ] ! ' 6 ; $ + . . . . + + $ ; > J.E+! { 7 A.7+8$b$:$V;$$W;W$)$#$S#S#'$@$@$_$_$_$_$_$_$_$_$_$_$_$_$_$p+X;S@~@w.w.4+%+U '.g c a 9 i } 1 2 2 _ 3 4 / / / / 4 3 _ | i 0 c g y z V A Q.W W W W W W W %.%.%.X X $.$.$.",
"y y y y '.'.'.'.h h h g g ].c s.8 | _ / { K.' 6 j $ # + + .   @ k l =;S;P;t Q;R;T;U;t+Z+Z+i@i@i@Z+Z+Z+t+t+s s r q p p p p p p o o n n m l k k @   . . + # $ ; ; j j > > 6 6 , , , ' ' 5 ) ! ~ { { ] ] { { ~ ! ) 5 , 6 > j ; # .   k l n o o p p q q q r r r s s t+t+Z+Z+Z+i@i@P#P#P#.$.$.$.$.$P#P#i@i@Z+Z+t+t+t+t+s s s s r r q q p o o n n n n o o o p p p p p p p p p p p p p p p p p p p p p p p p p p p o o n m m l l k k @ @       . . + + # $ $ j > 6 ' 5 ! { ] ^ / 4 3 _ _ 2 2 1 1 1 | | } i i i i i 8 8 9 9 0 a b c e e e e e e c c c e e e e c c b b a a 0 9 8 i m.} | | 1 1 2 2 _ _ 3 3 4 / / ^ ] { { ~ ~ ! ! ) ) 5 5 5 ' ' 5 5 5 ) ! ~ ] ^ 4 _ 1 } i 9 0 a a b b b b b b b b b b b b b b a 0 9 8 u 2 4 ] ! ' > $ + . @ k m&l l l k @   + ; 6 K.^ _ m.s.q.;.Y+%.#. .G -+<+<+-+-+T.G E.E.E.E.E.T.T.T.E.E...+.@.$.%.&.S ;.h e b 0 i 1 3 ] ! ' 6 ; # + .   @ @ @   . + $ = y.6@K.i#7 E%k$Z${%$%*%I=!$$$T#)$#$S#S#'$@$@$_$_$_$_$_$_$_$_$_$_$_$_$p+p+1@1@4+%+z y h f c a 9 i | 1 2 _ _ 3 4 / / / / 4 3 _ | i 0 c g y z V A Q.W W W W W W W %.%.%.X X $.$.$.",
"y y y y '.'.'.'.h h h g t.].j.0 i 1 3 ^ M.) , > ; V@+ + .     @ k l =;S;P;t Q;R;T;s t+Z+Z+i@i@i@Z+Z+Z+t+t+s s r q q p p p p p o o n n m l k k @   . . + # $ ; ; j > > 6 6 , ' ' ' 5 ) ! ~ { ] ^ / ,@4 / / ^ ] { ! ) ' , > j $ # . @ k l m n o o o p p p q q r r s s t+t+t+Z+Z+Z+i@i@P#P#P#P#P#P#i@i@Z+Z+t+t+s s s s r r r r q q p p o n n n n n n n o o o o o o o o o o o o o o p o o o o o o o o o o o o o n n m m l l k k @ @     . . . + + # # $ ; j > 6 ' 5 ! ~ ] ^ ^ / 4 3 3 _ 2 2 2 1 | | } i 8 8 8 8 9 9 0 a b c e f f f f f f f f f f f f q.f f f.e c c b b a 0 0 9 8 i i } | | 1 1 2 _ _ 3 4 / ^ ] { { ~ ~ ! ! ) ) 5 5 5 5 ' 5 5 5 ) ! { ] / 3 2 | i 9 0 a b c c c c c c c c c c c c c c c c b a 9 i 1 3 ^ ~ 5 > $ +   @ k l l l l k @ . V@j ' ~ 4 1 V.c {.%+W $.@...T.-+-+-+-+T.}+E.E.E.E.E.E.T.T.T.E.E...+.@.$.%.&.=.U >.f c 0 8 ;+3 ^ ~ 5 6 j $ + .   @ k k k @   . # = y.l.K.w +&p#E#W#]%_%$%%%*%!$$$T#)$#$S#'$'$@$@$@$@$@$@$@$@$@$@$@$@$_._.z@z@%+!.g.'.g e b 0 8 i | 1 2 _ _ 3 4 / / / / 4 3 _ | i 0 c g y z V A &.W W W W W W W %.%.%.X X $.$.$.",
"y y y y '.'.'.'.h h h g t.].j.0 i 1 3 ^ ~ 5 , - ; # + .     @ @ k l =;m n t Q;Y;r s t+Z+Z+i@i@i@Z+Z+Z+t+t+s s r q q p p p p p o o n n m l k k @   . . + # $ $ ; j > > 6 , ' ' 5 ) ) ! ~ ] ^ / 4 3 _ :+_ _ 3 4 ^ { ~ ) ' , > j $ +   @ k l m n n n o o o p p q q r r s s s t+t+t+Z+Z+i@i@i@P#i@i@i@Z+Z+t+t+s s c%r r r q q q q p p o o n n m m m m n n n o o o o o o o o o o o o o o n n n n n n n n n n n n m m m l l k k @ @     . . + + + # # $ ; j > 6 , ' 5 ! ~ { ] ^ ^ / 4 4 3 _ _ 2 1 | } i 8 8 9 9 9 0 0 a b c e f g g g g g g g g g g h h h h g g f f e e c c b c.a 0 9 9 8 i } } | 1 2 _ _ 3 / ^ ] { { ~ ~ ! ! ) ) ) 5 5 5 5 5 5 ) ! ~ { ^ 4 _ 1 i 9 0 b c e e e e e e e e e e e e e e e e c c b 0 8 | _ / ~ 5 > $ +   k l l l l l k   + ; 6 ) ] _ } a q.g.w.9.#.+.E.T.-+-+-+T.E.E.....E.E.E.E.T.T.T.E.E...+.@.$.%.&.=.U '.q.c a 8 | _ / i#) , > ; # .   @ k k k k t$  9+% = J.x.L.p%Y%^$]$m=^%Z;`;H=%%2$!$$$T#)$#$x$S#'$'$'$'$'$'$'$'$'$'$y+y+5#v@N@g.y '.h f c b 0 8 i | 1 2 _ _ 3 4 / / / / 4 3 _ | i 0 c g ~.z V A &.Q.W W W W W W %.%.%.X X $.$.$.",
"y y y y y '.'.'.'.h h g t.].j.p.S.7+4 ] ! 5 6 j $ + .     w#@ k k l =;m n o p q r s t+Z+Z+Z+i@Z+Z+Z+Z+t+t+s s r q q p p p p p o o n n m l k k @   . . + # # $ ; j > > 6 , ' 5 ) ! ~ { ] ^ 4 3 2 1 | | | | 1 _ 3 / ] ~ ) ' , > ; # .   @ k l m m m n n n o o p p q q r r r s s t+t+Z+Z+Z+i@i@i@i@Z+Z+t+t+s s r r r q q q q p p p o o n n m m m m m m n n n n P.n n n n n n n n n n n m m m m m m m m m m m m m l l k k k @ W@  . . . + + # # # $ ; j j > 6 , ' 5 ) ~ ~ { ] ] ^ / 4 4 3 _ 2 1 | } i 8 9 9 0 0 0 a b b c e f g h h h h h h h h h '.'.'.'.'.h g g f f e e e c c b a 0 0 9 8 i } | 1 2 _ 3 4 / ^ ] ] { { ~ ~ ! ! ! ) ) ) ) ) ) ! ~ { #+]+3 : } 8 0 b e f q.g f f f f f f f f f f f f f f e c b a 8 | _ / ~ ' > $ . @ k l m m l l @   # j , ! / 7+8 c h %+W $.@...E.T.T.T.G E... .+. .....E.E.G T.T.E.E...+.Z $.%.&.=.U '.g e a 9 } 2 4 ] ! 5 , > ; # k@  @ k k l k @ i$& *  >l.) M.-$Y#f%[%3%m=/%]%{%_%$%%$B#6$a$d$g$#$S#A#A#A#A#A#A#A#A#A#(.Y..#~.{.h g f e b a 0 8 i } | 1 2 _ 3 4 / / / / 4 3 _ | i 0 c g h.z V A &.&.W W W W W W %.%.%.X X $.$.$.",
"y y y y y y '.'.'.h h g t.e b 9 } 2 4 ] ! ' 6 ; # + .   @ @ @ k k l =;m n o p q r s t+t+Z+Z+Z+Z+Z+Z+Z+t+t+s s r r q q p p p p o o n n m l k k @   . . + + # $ ; j > 6 , ' 5 ) ! ~ { ] ^ 4 3 2 | } i 8 8 i } | 2 3 / ] ~ ) ' 6 j $ + .   @ k l l m m m n n n o o p p q q q r r s s t+t+Z+Z+Z+Z+Z+Z+t+t+s s s r r q q q p p p p o o n n n m m m m m m m n n n n n n n n n n n n m m m l l l l l l l l l l l l l l k k @ @ @   . . + + + # # $ $ ; ; j > 6 6 , ' 5 ) ! ~ { { ] ] ^ / 4 3 3 _ 1 | } i 8 9 0 0 a a b b c e f g h '.'.'.h h h '.'.'.'.y y y '.'.h h g g f f f e e c c b a 0 9 8 i } | 1 2 _ 3 4 / ^ ^ ] ] { { ~ ~ ~ ! ! ! ! ! ! ~ { ] / 3 2 [ 8 0 b e g h h h h g g g g g g g g g g g g f f e c a 8 | _ / ~ ' j #   t$l m m m m l @ . $ > ' M.4 | 0 f y V 9.#.+...E.E.E.E...E +.@.@.+.+...E.E.E.T.G E.F ..` Z $.%.&.=.U '.g e b 0 i 1 3 / { ! 5 , > = V@+ . @ k k k @   + $ j J.5 L.'#q#Y#f%5%4%3%m=/%]%;%l=$%%$B#6$a$d$g$#$x$x$x$x$x$x$x$x$x+/.H.i.g f e c b a 0 9 8 i } | 1 1 2 _ 4 / / / / 4 3 _ | i 0 c g h.z =.*.&.&.&.W W W W W %.%.%.X X $.$.$.",
"y y y y y y y '.'.h h g f e b 9 } T / { ) ' > ; # .   @ @ k k k l l m n P;t p q r s s t+t+Z+Z+Z+Z+Z+Z+t+t+s s r r q q p p p p o o n n m l k k @   . . + + # $ ; j > 6 , ' 5 ) ! ~ ] ^ 4 3 2 | } 8 9 0 0 9 8 i | 2 3 / ] ! 5 , > ; $ +   @ k k l l l m m m n n n o o p p q q r r s s t+t+Z+Z+Z+t+t+s s s r r r q q q p p p o o o o n n m m m l m m m m n n n n n n m m m m m m m l l l k k k k k k k l l l k k k k @ @ @     . . + + # # $ $ ; ; j j > 6 , , ' 5 ) ! ! ~ { { ] ^ ^ / 4 3 _ 2 | } i 9 0 0 a a b b c e f.g h '.'.'.'.'.'.'.'.y y y y y y y '.'.h h g g g f f f e e c b a 0 9 8 i } 1 2 _ 3 3 4 / / ^ ^ ] ] ] { { { { { { { { ] #+/ ( T < i O.b e g '.y y y '.h h h h h h h h h h g g g f e c a 9 } _ / ~ ' j #   k m n n n m k @ + ; 6 ) ] _ i b i.z .+R @.E ..E.E.F ..+.+.@.Z {;@.+.....E.E.T.G E.F@ .` #.^+%.&.S U '.g e b 0 8 | _ 4 ^ { <#)+6@6 j $ # .   @ @   . + $ j 6 x.5+i#o%O%g%f%7%[%]$1=a%:=(=&$V#3$U#B#6$a$d$d$d$d$d$d$d$d$d$.@^.t.].e c b b a 0 O.9 8 i i } | 1 2 _ 3 4 / / / 4 3 _ | i 0 c q.h.-.=.*.*.&.&.&.W W W W %.%.%.X X $.$.$.",
"y y y y y y y '.'.h g q.f c a 8 | _ / { ) , > $ + . @ @ k k l l l m m n o p p q r r s s t+t+Z+Z+Z+Z+Z+t+t+s s r r q q p p p p o o n m m l k k @     . + + # $ ; j > 6 , ' 5 ! ~ { ] / 3 _ 1 } 8 p.a b b a 0 9 i | 2 3 b.{ ! 5 , > ; # .   @ k l l l m m m m n n n o o p p q q q r r s s t+t+t+t+s s r r r r q q q p p p o o o o o n n n m m m m m m m n n n n m m m m m m m l l k k k k k k k k k k k k k k k k @ @ W@    . . + & # # $ $ ; ; j j j > 6 6 , ' 5 ) ) ! ~ ~ { { ] ^ / 4 3 _ 2 | } i 9 0 a a b c c e f f g '.'.y y y y y y y y y U U U U y y '.'.h h g g g g f f e e c b a 0 9 8 } | 1 2 _ 3 4 4 / / ^ ^ ^ ^ ^ ^ ^ ^ ^ ^ ^ ^ / ]+3 T < m.9 c.e g '.y U U U y h.'.'.'.'.'.'.'.>.h h h g q.f c c.9 } 2 / ~ ' j #   k m n n n l k   # j 6@! / 1 9 e h.=.B D.+...F E.E.a#..+.+.@.@.@.@.+...E.E.T.T.T.E.F@ .` Y X W *.).;..>g e b 0 8 | 2 3 / ] { <#)+' 6 g+; # + . . . + # ; > , 5 5+i#|%H%Y#g%f%Q%X#[%r%]$,%Z$d%&$V#n#f#!%6#)#)#6#6#6#6#6#6#W.n+d j.b a s.0 9 9 9 8 8 i i } | 1 2 _ 3 4 / / / 4 3 _ | i 0 F.f >.U ).=.*.*.&.&.&.W W W W %.%.X X X $.$.",
"U U U U U U y y '.h g f e b 0 i 1 3 ^ ~ 5 6 j $ +   @ k l l m m m m n n o p p q q r r s s t+t+t+t+t+t+t+s s r r q q q p p p o o n n m m l k k @     . . + # $ ; j > 6 , ' ) ! ~ ] ^ ,@3 2 | i 9 a b c c c b a 9 i | 2 3 ^ { ! x.6 j $ +   @ k l l m m m n n n n n o o o p p p q q q r r r s s r r r q q q q q p p p p o o o o o o n n n n m m m n n n n n n m m m l l l l l l k k @ @ @ @ k k k k k k l l l k k @ @   . . + + # # $ $ $ ; ; ; j j j j > 6 , ' E+5 ) ! ! ~ { { ] ] ^ / 4 _ 2 1 } i 9 0 a b b c e f g h '.'.y U U U U U U U U U U U U U y y '.'.h h h g g g f f e e e c b a 0 9 i } | 1 2 _ 3 4 4 / / / / / / 4 4 4 4 4 ( 3 3 _ : | m.N.@+c q.h y U z ).).z U U ;.;.;.y y y ~.h.'.>.h g f e b 0 i 7+4 { 5 > #   k m n n m l @ . $ 6 0.] 3 } a g -.A R D E E.E.E.E.E.E...E +.+.+.+.....E.E.T.T.T.m+F@ .@.$.%.&.=.z y h q.+>b 0 i | 2 3 / ^ ] i#<#) 5 , 6 > ; $ $ $ ; h@> 6 ' ) <#w -$O%Y#F#p#b#^$}$}$X#[$r%<$e$D#7$F%9&n#`+`+`+n#n#n#n#n%n%9&s.s.0 9 9 8 8 8 8 i i i } } | 1 2 _ 3 4 / / / 4 3 _ 1 i 9 b f.h ;.-. @=.*.*.*.&.&.&.W W W %.%.X X X X ",
"U U U U U U U y >.g f e b a 8 } 2 4 ] ! ' 6 ; # . @ k l m m n n n n o o o p p p q q q r r s s t+t+t+t+t+s s r r q q p p p o o o n n m m l k k @ @   . . + # $ ; j > 6 , 5 ) ! ~ ] ^ 4 _ 1 } 8 0 r.c e e e e c a 9 i | 2 3 ^ { ) ' > ; # . @ k l m m n n n n n n o o o o o p p p p p q q q q q q q q %&p p p p p p o o o o o o o o o o n n n n n n n n n n @>m m l l l l k k k @ @     @ @ @ k k k k l l l l l k @     . + + # # $ $ $ ; ; ; j ; ; ; j j > 6 , ' 5 ) ! ! ~ { { ] ] ^ / 4 3 2 1 } i V.0 a b c e f g h '.y y U U z z z z z z z z z U U U y y '.'.'.h h g g f f e e e e c c b a 0 8 i } 1 2 _ 3 3 4 4 4 4 4 4 3 3 _ _ 2 2 : 1 < | m.B.O.@+F.f.x h.;.z S =.=.=.S S ).).z -.-.U U ;.y h.>.h g f.c 0 8 | 3 ] ) 6 $ . k m n n m k   + j l.~ / 1 V.d '.S B D.*+F G T.T.T.T.G E.E.F F@..F E.E.E.T.T.T.T.m+F  .{;^+W *.i&-.#>_;f c a 9 i | _ 3 / ^ ++] { ~ L.5+) ' , 6 6 6 6 $+6@E+) ! { ++]+z./+p#b#b#b#b#b#b#:+:+7+k$h+u S.U.V.V.V.V.V.V.V.V.V.V.V.8 8 8 U.i i i i } } } } } | | 1 2 _ 3 4 / / / 4 3 _ 1 } 9 a ,.g h.;.).).=.=.*.*.&.&.&.W W %.%.%.X X X ",
"z z z z z U U y h g e c a 9 i | _ / { ) 6@> $ +   k l m m n n o o o o p p p p p p p q q r r s s t+t+t+s s r r q q p p p o o o n n m m l l k k @ @   . . + # $ ; j > 6 ' 5 ) ! { ] ^ 4 _ 1 S.V.s.b c e f f f e c a 9 i | 2 4 ^ ~ 5 , j $ . @ k l m n n o o o o o o o o o o o o o o p p p p p p p p p p p o o o o o o o o o o o o o o o o o o n o o o n n n m m l l k k k k @ @ @           @ @ k k l l l l l l k @   . . + + # # $ $ ; ; ; j j ; ; ; ; j > 6 , ' 5 ) ) ! ~ { { ] ] ^ / 4 3 2 1 | i 8 0 a b c e g h '.y U U U z z S S S S S S z z z U U y y '.'.'.h h g f f e e e e e c c b a 0 9 8 } | 1 _ 3 3 4 4 4 4 3 _ _ 2 1 | } } m.i B.8 9 @+c.F.f.x >.;.-.).=.*.*.*.*.*.*.V =.=.).).z -.;.;.h.>.g f c a 8 | _ ^ ! 6 ; . @ l /&n m k . # > 5 ] 3 } a t.U A =+o.E E.T.T.C.H T.T.T.T.T.T.T.T.T.T.T.T.T.H T.T.E.+.Z X W *.).;.'._;$>%>&>8 } 1 _ 4 / b.^ ^ ] ] ] ] { ~ L.! ) ) ) ) 5+! ~ { ] / z._ :+2 :+:+_ /+/+A.A./+_ T 2 7+< | u u u u u u u u u } } } } } } } } } } } } } | | | 1 2 2 _ 3 4 / / / 4 3 _ 1 } 8 @+c q.>.;.-.-.).=.=.*.*.*.&.&.W W %.%.%.%.%.",
"z z z z z z U '.h f c b 0 8 } 2 3 ^ M.) , j $ . @ k l m n o o o p p p p p p p p p p p q q r r s s s s s s r q q p p p o o o o n n m m l l k k @ @     . + # # ; j > 6 , 5 ) ! ~ ] ^ 4 _ 1 S.V.s.b d f f g g f e b a 9 i 1 _ / { ) ' > $ +   k l m n n n o o o o o o o o o o o o o o o o o o o o o o o o o o o o o o o o o o o o o o o o o o o o o n n n m m l l k k @ @ @ @     . . . .     @ @ k k l l l l l k @   . + + # # $ $ ; ; ; j j j ; ; ; ; ; j 6 , ' 5 5 ) ! ~ { { ] ^ ^ / 4 3 2 1 | i 8 9 a b c e g h y y U U z z S S S S S S S z z z U U y y '.'.h h h g f e c c c c c c c b b a 9 8 } | 1 _ /+3 4 4 4 3 _ 2 1 | } i 8 N.9 O.O.@+c.F.,.f.q.>.h.U ).=.=.*.&.&.W W &.&.*.*.=.=.).).-.;.h.>.x f c a 8 | _ ^ ! , ; + @ l m m l @ . $ 6 K.^ 2 U.F.h S Q.R P F G T.T.H -+-+-+H H H T.T.T.T.T.T.T.-+-+T.T.E.+.#.X &.=.-.;..>g f.b 0 8 } 1 _ 3 4 / / / / / 4 4 4 / ^ ^ ] ] '#'#'#'#] ^ / 4 _ 2 1 1 2 2 _ _ 3 3 3 3 3 3 /+_ _ 2 2 2 2 2 2 2 2 2 2 1 1 1 | | | | | | | | | | | | | 1 2 _ 3 4 4 / / / 4 3 _ 2 | 8 0 b f.x h.;.-.-.).=.=.=.*.*.&.&.W W W %.%.%.",
"z z z z z z y '.g e b a 9 i | _ 4 ] ! 5 6 ; # . @ l m n n o o o p p p p p p p p p p p q q q r r s s s s r r q q p p o o o o n n n m m l l k k @ @     . + + # $ ; > 6 , ' ) ! ~ { ^ / /+7+} 8 0 r.c e f g g g f c b 0 8 } 2 4 ] ! ' 6 ; #   @ k l m n n n n n n n n n n n n n n n n n n n n n n n n n n n n n n n n n n n n n n n n n n n n n n n n n m m l l k k @ @       . . . + . . .     @ @ k k l l l l k @   . + + # # $ $ ; ; ; j j j ; ; $ ; ; j > 6 , ' 5 ) ! ~ { ] ++^ / 4 3 _ 2 1 } i 8 9 0 b c e g h '.y U U z z S S *>V V S S z z U U y y '.'.'.h h g g f e c c c c c c c b a 0 9 U.} ;+2 _ 3 3 3 3 3 _ 2 1 | } i 9 0 0 a c.c.F.F.,.f.q.x h.;.-.).=.*.*.&.W W %.W W &.&.*.*.=.).).-.;.{.x ].F.0 i < 3 #+) 6 ; + @ l m m l @ + ; , ! / 1 9 ,.'.S B D.P F G T.T.T.T.T.T.T.T.T.T.T.T.T.T.T.T.-+-+T.T.E.+.#.X &.=.-.y .>g e b 0 8 } 1 2 3 3 4 4 4 3 3 _ _ 2 _ _ A.3 z.4 ,@,@,@,@4 3 _ 2 1 | | 1 1 2 2 _ _ 3 3 3 3 3 3 3 3 3 3 3 3 3 3 3 3 3 _ _ 2 2 1 1 | | | | | | | | | 1 1 2 _ 3 4 / / ^ / / 4 3 2 | i 9 c.e x >.h.;.-.-.).).=.=.*.6&&.&.W W W %.%.",
"S S z z z U y h f c a p.8 } 2 3 ^ { ) ' > $ +   k l m n o o o o p p p p p p p p p p p p q q r r r r r r r q q p p o o o o n n n n m m l l k k @ @     . . + # $ ; j > , ' 5 ) ~ { ] / 3 2 | i 9 a c e f g g g f e b a 9 } 1 3 ^ ~ 5 6 j # .   k l l m m m n n n n n n n n n n n n n n n n n n n n n n n n n n n n n n n n n n n n n n n n n n n m m m l l k k @ @       . . + + + + + + . . .     @ @ k k k k @ @   . + + # # $ $ ; ; ; j j j ; ; $ ; ; j > 6 , ' 5 ) ! ~ { ] ^ / 4 3 _ 2 1 | } i 8 9 0 a b e f h '.y U U U z z S S S S S S z z U U y y '.'.h h g g f e c b b b b c b b b a 0 V.i u 1 2 _ 3 3 3 3 3 _ 2 < } i 9 0 a b F.F.,.,.f.f.q.x >.h.-.).).=.*.*.&.W %.%.%.W W &.&.*.*.=.).!.;.{.g e b 9 } 2 4 w )+6 $ + @ l l l k   + = , ~ 4 | 9 e y V B D.P E E.G G T.T.T.T.T.T.T.T.T.T.T.T.T.T.T.-+T.T.E.+.#.X &.=.-.y >.g e b 0 8 i | 2 _ _ 3 3 _ _ 2 1 | [ } | | | 1 1 7+2 :+_ _ :+2 1 | =>| | | 1 1 2 2 _ _ 3 3 3 4 4 / / / / / / / / / 4 4 3 _ 2 2 1 1 | | | | | | | | 1 1 2 _ 3 4 / ^ ^ ^ / 4 3 :+1 i 9 a ,.q.>.h.;.;.-.-.).).=.L&*.*.&.&.W W W W ",
"S S S z z U y h f b 0 8 } 1 _ 4 ] ~ 5 6 j $ . @ k m n n o o o o p p p p p p p p p p p p q q q r r r r r q q p o o o n n n n n n m m m l l k k @ @     . . + # $ ; j > 6 , 5 ) ! ~ ] ^ 4 _ 1 } 8 0 b e f g g g f e c a 9 i 1 _ / { ) , > $ +   @ k k l l m m m m m m m m m m m m m m m m m m m m m m m m m m m m m m m m m m m m m m m m m m m m m l l l k k @ @     . . + + + # # # # + + + . .     @ @ k k k @   . . + + # # $ $ ; ; ; j j j ; ; $ ; ; j > 6 , ' 5 ) ! ~ { ] ^ 4 3 _ _ 2 1 | } i i 8 9 0 R@c e g h '.y y U U z z S S S z z z U U y y '.'.h h g g f f e c b a b b b b b a 0 9 8 } ;+7+_ 3 3 4 4 3 3 _ 1 | } 8 9 a b c e e f.f.q.x x >.h.;.-.).=.=.*.*.&.W %.%.%.W W &.&.*.*.=.%+!.g.{.g d a 8 | _ / ~ 5 > $ . @ k l l k   # j ' i#( | 0 ].y V B D.` E F E.E.E.E.E.E.E.E.E.E.E.E.E.E.E.T.T.-+T.T.E.+.#.X &.=.-.y >.g e b 0 9 i } 1 2 2 2 2 2 1 | } i 8 8 N.8 8 8 i i } | | 1 1 | | } } } } } | | 1 1 2 2 _ 3 3 4 / / ^ ^ ^ ^ ^ ^ ^ ^ / / 4 3 _ 2 1 1 | | | | | | | | 1 1 2 _ 4 / ^ ] ] ] ^ / 4 _ 1 } 8 @+c q.x >.h.;.;.-.-.).).=.=.*.*.&.&.W W W ",
"S S S z z U '.g e c.9 i | 2 3 ^ { ) ' > ; # . @ l m n o o o o o p p p p p p p p p p p p q q q q q r q q q p t o n n n n n n n n m m m l l k k @ @     . . + + # $ ; j > , ' 5 ! ~ { ^ ,@3 7+} 8 0 b c f g g g g f e b 0 8 | T 4 ] ! ' > ; # .   @ @ k l l l m m m m m m m m m m m m m m m m m m m m m m m m m m m m m m m m m m m m m m m m m l l l k k @ @     . . + + # # # # # # # # # + + . .     @ @ @ @ @   . . + + # # $ $ ; ; ; j j j ; ; $ ; ; j > 6 , ' 5 ) ! ~ { ^ / 4 3 _ 2 2 1 1 | } } i 8 9 0 a c e g h '.'.'.y y U U U U U U U y y '.'.h h g g f f e e c b a a a a a a a a 0 9 i u 1 :+/+z.4 / 4 4 3 _ 2 | i 8 0 a c e f q.q.x x >.>.h.;.-.).).=.=.*.*.&.W %.%.%.W U@&.6&*.=.=.).!.;.{.t.c 0 i 1 3 ] ! ' j # . @ k l k @ . # g+E+{ 3 } a f g.A =+D.D E ..F F E.E.E.E.E.E.E.E.E.E.E.E.E.T.T.-+T.T.E.+.#.X &.=.-.h.h q.e b 0 9 i } | 1 1 1 1 | | i 8 9 0 a a c.a a a 0 9 8 i } } } i i i i i } } } | | 1 2 2 _ 3 4 / / ^ ^ ^ ^ ^ ^ ^ ^ / / 4 3 _ 2 1 1 | | | | | | | | 1 2 _ 3 4 / ] ] { ] ] ^ 4 3 2 } 8 0 F.f.x >.h.h.;.;.-.-.).).=.=.*.*.&.&.W W ",
"*>S S S z U '.g c a N.} 1 _ / ] ! 5 6 j $ +   k l n n o o o o o p p p p p p p p p p p p p q q q q q q q p p o n n n m m m n n m m m m l l k k @ @       . . + + # $ j > 6 ' 5 ) ! { ] / 3 2 | i 9 a c f g h h h g f c a 9 } 2 4 ^ ~ 5 6 j $ + .     @ k k l l l l l l l l l l l l l l l l l l l l l l l l l l l l l l l l l l l l l l l l l l l k k k @ @     . . + + # # $ $ $ $ $ $ # # # + + + .     @ @ @ @   . . + + + # # $ ; ; ; j j j ; ; $ ; ; j > , l.' 5 ) T${ ] ^ / 4 3 l$_ 2 2 2 1 1 | | } i 8 0 a c e f g g h h {.'.'.y y y y '.'.'.h h g g f f e e c c b a 0 0 0 a a a a 0 9 8 i | 7+_ z./ b.^ ^ / 4 3 2 1 } 8 0 b c f g x >.>.h.h.;.;.-.).).=.=.*.*.*.&.W W W W &.&.*.*.=.=.).!.U ~.h f j.0 m.2 ,@{ ) 6 ; # . @ k k k @ . $ > 5 ] _ i r.g U A =+D.D  .E ........................E.E.E.T.T.-+T.T.E.+.#.X ->=.-.h.h f c b 0 9 8 i } | | | | } i 8 O.a b c e e e e c c a 0 9 i i i 8 8 8 8 8 i i } } | | 1 2 2 _ 3 4 4 / / / / / / / / 4 4 3 _ _ 2 1 | | | | | | | | | 1 2 _ 3 / ^ ] { { { ] ^ / 3 2 | i p.b f.q.>.>.h.h.;.U -.-.).).=.=.*.&.&.Q.W ",
"V V S S z U '.f F.0 B.| T 4 ^ ~ ) , > ; # . @ l m n o o o o o o p p p p p p p p p p p p p p p q q q p p p o n n m m m m m m m m m m m l l k k @ @         . . + # $ ; j 6 , ' ) ! ~ ] ^ 4 _ 1 } 9 a c f g h h h h g e b 9 i 1 3 ^ { ) , > ; # + .     @ k k l l l l l l l l l l l l l l l l l l l l l l l l l l l l l l l l l l l l l l l l k k k @ @     . . + + # # $ $ ; ; ; ; $ $ $ $ # # # + . .             . . . + + # # $ ; ; ; j j j ; ; $ ; ; j > J.l.' 5 ) ~ { ] ^ / / 4 3 3 _ _ _ _ _ 2 2 1 | } 8 9 a b c e e f f g g x h h h h h h g g g f f e e c c b a a 0 0 9 0 0 0 0 0 0 9 8 } ;+2 3 ,@^ ] ] ] ^ / 4 _ 1 } 8 0 b c f x >.h.;.;.-.-.-.).).=.=.*.*.*.*.&.&.&.&.&.*.*.=.=.).).-.U ;.'.x e b 9 } _ ^ ~ x.> ; +   @ k k k   + $ j#) ++:+U.F.i.z .+=+D.o.P  .+.+.+.+.+.+.+.+.+.+. .....E.E.T.T.-+T.T.E.+.#.X ->=.-.h.x f c a 0 9 8 i } } } } } i 8 9 a b e f g g h g g f c b 0 9 8 8 9 9 9 9 9 8 8 i i } } | 1 1 2 _ _ 3 3 3 3 3 3 3 3 3 3 _ _ 2 2 1 1 | | | | | | | | | 1 2 _ 4 / ^ { ~ ~ ~ { ] ^ 4 _ < i 9 c.,.q.x >.>.h.;.;.;.-.-.).).).=.*.&.&.&.",
"V V S z U y h f.c.9 m.7+3 / { ! ' 6 j # .   k l m n o o o o o o p p p p p p p p p p p p p p p p p p p p o o n n m m m m m m m m m m m l l k k @ @           . . + # $ h@> 6 ' 5 ) ~ { ^ / 3 2 } 8 0 b e g h h h h g f F.0 8 | _ / ] ! ' 6 j $ # + .   @ @ k k k k k k k k k k k k k k k k k k k k k k k k k k k k k k k k k k k k k k k k k k k @ @     . . + + # # $ $ ; ; ; ; ; ; ; $ $ $ # # # + + . ,&      . . . + + + # # $ ; ; ; j j j ; ; $ ; ; j > 6 , ' 5 ) ! ~ { ] ^ / 4 4 4 3 3 3 3 3 3 _ T : | } 8 9 a b b c c c e e f f f q.g q.f f f e e c c b b a a 0 0 9 9 9 9 9 0 0 0 9 8 i u 1 _ 4 b.] { ~ { { ] / 3 2 | i 9 b e q.h h.;.-.D@).).).=.=.=.*.*.*.*.*.*.*.*.*.*.=.=.).).-.-.;.y h.h t.d a 8 | 3 ] ! , - $ +   @ k k @   + ; 6 ) ^ 7+N.j.h z .+=+D.o.P P P @.@.@.@.@.@.@.@.@.+.+.....E.T.T.T.T.G E.+.#.X &.=.U '.g e F.a 0 9 8 i i i i i i 8 9 0 b c f g >.'.y '.'.h f c a 0 9 9 0 0 0 0 9 9 8 8 i i } } | | 1 1 2 2 2 2 2 2 2 2 2 2 2 2 2 2 1 1 1 | | | | | | | | | 1 2 3 4 / ] { ~ ~ ~ ~ { ^ / _ 1 } N.a c f.q.x >.>.h.L+;.;.-.-.-.).=.*.&.&.&.",
"S S S z U '.g c @+B.| T 4 ] ~ 5 , > $ +   @ l m m n o o o o o o p p p p p p p p p p p p p p p p p p o o o n n m m l l l l m m m m l l l k k @ @             . . + # $ ; j 6 , ' 5 ! ~ ] ^ 4 _ 1 i 9 b c f g h h h g f c a 8 } 2 4 ^ ~ 5 , > ; $ # + .   @ @ @ @ t$@ @ @ @ @ @ @ @ @ @ @ @ @ @ @ k k k k k k k k k k k k l l l k k k k k k k k @ @   . . + + # # $ $ ; ; j j j j j ; ; ; ; $ $ $ # # + + . . . . . . + + + + # # $ ; ; j j j j ; ; $ $ ; j > 6 , ' 5 ) ! ~ { ] ^ ^ / / 4 4 4 4 4 4 4 3 3 _ : | } 8 9 0 a a b b b c c e e e e e e e e c c b b b a 0 0 9 9 8 8 8 8 9 9 9 9 8 U.} | 2 3 / ] { ~ ! ~ ~ ] ^ 4 2 | i 0 b e g >.y -.).).=.=.=.=.*.*.*.*.*.*.*.*.*.=.=.=.=.).).-.-.;.h.h.>.x f c 0 i 1 4 { ) , j $ +   @ @ @   . # j , ! b.7+V.j.i.!.A B R D.o.o.Z #.#.#.#.#.#.#.#.#.#.@.+.E ..E.T.T.T.E...@.$.%.*.).;.h f ,.b 0 9 8 i i i i i 8 8 9 0 b c f g '.y U U U y '.h f.b a 0 0 0 a a 0 0 9 9 8 8 i i } } | | | 1 1 1 1 1 1 1 1 1 1 1 1 1 1 1 1 | | | | | | | | | | 1 2 3 4 / ] { ~ ~ ~ ~ { ] / 3 2 u 8 0 F.,.w+q.x >.>.h.;.;.;.-.-.).=.*.*.&.&.",
"S z z U '.g e a N.} : 3 7 { ! ' 6 ; # .   k l m m n n n n n o o o p p p p p p p p p p p p p p p o o o o n n m m m l l l l l l l l l l k @ @     . . . . . . . . + + # $ j > 6 , ' ) ! ~ ] / 3 2 } 8 0 b e f g g g f e c a 9 i 1 A./ { ! ' 6 j j@# + . .       @ @ @ @ @ @ @ @ @ @ @ @ @ @ @ @ @ @ @ @ @ @ k k k k l l l l l l l l l k k k k k @   . . + # # $ $ ; ; j j > > > > j j ; ; ; ; ; $ $ # # # + + + + + + # # # # # $ ; ; ; j j j j ; $ $ $ ; j > 6 , ' 5 ) ! ~ ~ { ] ^ ^ ^ / / / / / / 4 4 3 _ 2 1 [ i 8 9 0 0 a a a b b b c c c c c c b b b b a a 0 0 9 9 8 i i i 8 8 8 8 8 8 i | : _ 4 ^ { ! ) ) ! ~ { ^ 4 :+| 8 0 b e g '.;.-.).=.=.=.=.=.*.*.*.*.*.*.*.=.=.=.).).).).-.-.;.h.h.>.x q.e b O.i 2 4 { 5 6 j $ +     @     + $ > ' <#/ 7+8 F.g U V Q.=+R Y D.$.R X X X X X X X X $.(+Z @.+...E.E.E...+.#.X ->=.;.>.g e c a 0 8 i i } } i i 8 9 a b c f g h y U z S z U y '.g e b a a a b a a 0 0 9 9 8 i i i } } } | | | | | | | | | | | | | | | | | | | | | | | | | | | 1 2 _ 4 / ^ a.8@~ ~ { { ] / 3 2 | i 9 c.F.,.f.q.x >.>.h.;.;.-.-.).=.*.*.&.&.",
"z U y '.g e b O.m.1 A./ ] ~ 5 , j $ +   @ k l m m n n n n n n o o p p p p p p p p p p p p o o o o o o n n n m m l l l l l l l l k k k @ @   . . . + + . . . . . + + # $ ; j 6 J., ' ) ! ~ ] / 3 1 i 9 a F.e f f f e e b a 9 i | 2 4 ] ~ 5 , > ; $ # + . . .                                           @ @ @ k k l l l m m m m l l l l k k k @ @   . + # $ $ ; ; j j > > > 6 6 > > j j j ; ; ; ; $ $ $ $ # # # # # # $ $ $ $ $ ; ; ; j j j j j ; $ $ $ ; ; j > 6 ' 5 ) ) ! ~ ~ { ] ] ^ ^ ^ / / / / / 4 ( A.T : | } B.N.9 0 0 0 a a a a b b b b b b a a a a a 0 0 9 8 8 i i } } i i 8 8 i i } 1 _ 4 ^ { ~ ) 5 5 ) ! { ^ 4 2 | 8 0 c f h h.U ).=.=.=.=.=.=.*.*.*.*.*.*.~;=.).).-.-.-.-.-.;.;.h.>.x q.f.F.a N.} 2 / ~ 5 6 j $ + .       . # ; 6 E+~ / 7+U.a f '.z V Q.B =+=+%.%.W W W &.&.W W W %.X $.#.@.+. .....+.@.$.%.*.-.h.x f.c b 0 9 i } } } } } i 9 0 b c f g h y U z S S S z U '.g f c b b b b b a a 0 9 9 8 i i i } } } } } } } } } ;>| | | | | | | | | | | | | | | | | | | | 1 2 _ 3 0@^ ] { { { { ] ^ / 4 _ 1 } 8 0 c.F.,.f.q.x >.h.;.;.-.-.).=.*.*.&.&.",
"U y '.h f c 0 i | _ 4 #+~ ) ' y.; # . @ k l m m m m m m m m n n o p p p p p p p p p p p o o o o o n n n n m m m l l l l l k k k k k @     . . + + + + + . . . . + + # $ ; j > 6 6 , ' 5 ! ~ ] / _ | i 9 a b c e e e c b a 0 8 } 1 3 / { ) ' 6 j ; $ # + + + + . . . . . . . . . . . . . . . . . . .       @ @ k l l m m m m m m l l l k k k @   . + # $ $ ; j j > > > 6 6 6 6 > > j j j j j ; ; ; ; $ $ $ $ $ $ $ $ $ $ $ $ ; ; ; j j j j j ; ; $ $ $ $ ; j > 6 , ' 5 ) ! ! ~ ~ { { ] ] ^ ^ ^ / / / 4 4 3 T : < [ i 8 8 9 9 9 0 0 0 0 a a a a a a a a a 0 0 0 9 V.8 i i } } } } i i i } } | 2 3 / ] ~ ! 5 5 5 5 ! { ^ 4 2 } V.a c f h y -.).=.=.=.=.=.=.*.*.*.*.*.*.*.=.).-.-.-.-.-.-.;.h.>.h q.f.,.c.O.B.| _ ^ ~ 5 6 = # + .     . + # ; 6 5 ~ / :+} p.c g y z V A Q.Q.&.&.*.*.=.=.=.=.*.*.&.W %.X $.#.@.+.` @.#.X ->=.;.x ].,.b a p.8 i } | | | } i 9 a c f.g h '.U z S V V S z U y h f e c c c c b b a 0 9 9 8 i i } } } } | | | | | | | | } } } =>| | | | | | | | | | | | | | | 1 2 _ 3 4 / 9@a.a.{ a.] ^ / 4 _ 2 | i N.@+c.F.,.f.q.x >.h.;.-.-.).=.*.*.&.&.",
"~.'.h f c a 8 } 2 4 ^ { ! ' 6 j $ +   k l m m n n n [#m m m n n o o o p p p p p p p o o o o o n n n n n m m m l l l l l k k k k k @ @   . . + + + # + + + . . . . + + # $ ; j > > 6 , ' 5 ) ~ ] 4 2 | i 9 a b c c c c b a 0 9 i | _ 4 ] ! 5 , > j ; $ # # # k++ + + + + + + + + + + + + + + + + . . .     @ @ k l l m m m m m l l ,#k k k @   . + # $ ; ; j j > > 6 6 6 6 6 6 6 > j j j j j ; ; ; ; ; ; ; ; ; ; ; ; ; ; ; ; ; ; ; j j j j j ; $ $ # # $ $ ; j 6 , ' 5 ) ) ! ! ~ ~ { { ] ] ] ^ ^ ^ / / 4 3 A.T : | } i i 8 8 8 9 9 9 9 9 0 0 0 0 0 0 0 0 0 0 0 9 8 i i } | | | | } } } | 1 2 _ 4 ^ { ! ) 5 ' ' 5 ! ~ ^ 4 2 } 9 a e g {.y -.).=.=.E@=.*.*.*.*.-@&.&.*.*.=.).-.-.-.-.-.-.;.h.>.x q.,.b @+8 } 2 4 ] ! ' > ; # . .       . # ; 6 ' ! ++3 1 i 0 c g '.;.z ).S ).).-.-.-.;.;.-.-.).=.*.&.W X $.#.#.#.#.X %.*.).h.x f.F.c.0 9 i } | | | | } i 9 a e f h '.y z S V V V V S U y '.g f e e e c c b a 0 9 8 i i } | | | 1 1 1 1 1 1 < | | | | | | | | | | | | | | | | | | | | | 1 1 2 _ 8+/ ^ 9@a.a.a.] ] ^ / 3 _ 1 } B.O.@+c.F.,.f.x >.h.;.-.-.).=.*.*.*.&.",
"{.h g e b p.i 1 3 ^ { ) ' 6 j $ +   @ l m n n n n n n n n n n n n o o o o o o o o o o o o n n n n n m m m m m l l l l k k k k k @ @ @   . . + + + + + + + . . . . + + # # $ ; j j > > 6 , ' ) ~ ^ 4 2 u 8 0 b c c c c c b a 9 i | 2 3 ^ { ) ' , > j ; $ $ $ # # # # # # # # # # # # # # # # + + + . . .   W@@ k k l l l l l l l k k @ @     . + # $ ; ; j > > 6 6 6 6 6 6 6 6 > > j j j ; ; ; ; ; ; ; ; ; ; ; ; ; ; ; ; ; ; ; ; ; ; ; ; ; ; ; $ # # # # $ ; j > 6 6@' 5 ) ) ) ! ! ~ ~ { a.] ] ^ ^ / / 4 ( 3 _ 2 1 | } } } i i i 8 8 8 8 8 9 9 9 p.0 0 0 0 0 9 9 8 i } } | | 1 | | | | 1 2 _ 4 ^ { ! ) 5 ' ' ' 5 ! { ^ 4 2 } 9 b e g '.;.z =.*.*.*.*.*.-@&.&.&.U@U@&.&.*.=.).).).).).-.;.h.h q.f.F.@+N.m.1 A./ ~ 5 6 j $ + .   @ @   . + $ j , )+~ ^ 3 1 i p.b e g >.h.h.h.h.>.>.>.x >.>.h.;.-.).=.&.W %.X $.$.^+%.W *.-.4@q.,.F.a O.8 i } | 1 | | } 8 0 b e g h y U z S V V V V S U y '.h g f e e e c b a 0 9 8 i } | 1 2 2 _ _ _ _ _ _ 2 2 1 1 | | | | | | | | | | | | | | | | | | 1 1 2 _ 3 0@>&9@] a.{ a.] ^ / 4 A.2 | m.N.O.@+c.,.f.q.x >.h.;.-.).=.=.*.*.*.",
"i.g ].c s.8 | _ / { ! ' 6 j $ + . @ k m n o o o o o o n n n n n n n n n n n n n n n n n n n n n n m m m m m l l l l k k k k k k @ @ @     . . + + + + + . . . . . . + + # $ $ ; ; j j g+> 6 6@) ~ ^ 3 : } 9 a b c e e c b a 0 8 } 1 _ ,@] ~ ) ' , > j j ; ; $ $ $ $ $ $ $ $ $ $ $ $ $ $ # # # # + + . .     @ @ k k k k k k k @ @     . . . + # $ ; j j > 6 6 6 6 6 6 6 6 6 > > j j ; ; ; ; ; ; ; ; $ $ $ $ $ $ $ $ $ $ $ $ ; ; ; ; ; ; ; ; $ $ # + + # # $ ; > 6 , ' 5 5 5 ) ) ! ! ~ ~ { { ] ] ^ ^ / / 4 ( A._ 2 1 ;+| | } } } } i i i 8 8 8 9 9 0 0 0 0 0 9 9 8 i } | | 1 1 1 1 1 2 _ 3 4 b.] ~ ) 5 ' ' ' ' 5 ! { ^ 3 1 i 9 b e g '.U ).=.*.&.&.&.&.&.U@W W _+_+W W &.*.=.=.=.=.).-.;.v+x f.c a 9 i < _ / w ) , > * # .   @ k k @   . # ; > , ) { ^ 3 2 } 8 0 b ,.f.].q.f.f.f.f.,.f.f.q.x >.;.D@=.&.W %.X X %.W &.=.-.>.q.,.b @+9 8 } | | | | } i 8 0 b e g '.y U S s=V V V V S U y '.h g f f f e c b a 0 9 i } 1 2 _ 3 3 4 4 4 4 4 4 3 3 _ 2 1 1 | | | | | | | | | | | | | | | | 1 1 2 _ 3 4 >&9@] { { { { ] ^ / ( _ 1 [ B.N.O.c.F.,.f.x >.h.;.-.).).=.=.=.=.",
"].].c a 9 } : 4 ] ! 5 6 j $ # .   k l m o p p p p p o o n n n n n m m m m m m m m m m m m m m m m m m m m l l l k k k k k k k k @ @ @     . . + + + + + + . . . . . + + # # $ $ $ ; ; ; j j 6 ' ) { ^ 3 1 i 0 a c e e c b a 0 9 i | 2 3 b.{ <#) ' , 6 > > j j j j j j j j j h@; ; ; ; $ $ $ $ # # + + . .       @ @ @ @ @ @     . . + + # # $ $ ; j > > 6 6 6 6 6 6 6 6 6 > > j j ; ; ; ; $ $ $ $ $ $ $ $ $ $ $ $ $ $ $ $ $ $ $ $ $ $ $ $ $ $ # + + + + # $ ; j > 6 , ' 5 5 5 ) ) ! ! ~ ~ { { ] ] ^ ^ / / 4 3 A._ 2 1 1 1 | | | | } } } i i 8 8 9 0 0 0 0 0 9 9 8 i } | 1 1 2 2 2 _ _ 3 4 ^ ] ~ ! 5 ' ' , , ' 5 ! { ^ 3 1 i 0 b e g '.U ).V A &.&.&.W W _+_+%.%.%.%.%.W &.&.*.*.=.).-.;.>.q.,.c.O.i | _ 4 ] ! ' 6 ; # . W@k k l l k k   . # ; > ' ) ~ ^ 4 _ 1 } 8 O.@+c.c.c.c.c.@+@+c.c.F.n+q.>.h.-.=.*.&.W W &.6&=.).;.>.q.,.c.0 8 i } | | | | } i 9 a c f g '.g.z S V V A V V S U y '.h g g f f f e c a 0 8 i | 1 _ 3 4 / ^ ^ ^ ^ ^ ^ / 4 3 _ 2 1 1 | | | | | | | | | | | | | | | | 1 2 _ 3 4 / ^ ] { { { { { ] ^ / 3 2 < m.B.N.O.c.F.,.f.x >.h.;.-.-.).).).).",
"j.r.s.9 i 1 A.7 ~ ) , > ; # .   @ k l n o p p q p p p o o n n m m m m m m m m m m m m m m m m m m m m m l l l k k k k k k k @ @ @ @     . . + + + # # # + + + + + + + + # # # $ $ $ $ $ ; ; j 6 ' ! { / _ | 8 0 b c c c c b a 9 8 } 1 _ 4 ^ { ~ ) 5 ' , 6 6 > > > > > > > > > > > j j j j ; ; $ $ # # + + . . . .       . . . + + # # $ $ ; ; j > > 6 6 , , , , 6 6 6 > > > j j ; ; $ $ $ $ $ $ $ $ $ $ $ $ $ $ $ $ $ $ $ $ $ $ $ $ $ $ $ $ # + + . . + + # $ j > 6 , , ' ' 5 5 ) ) ! ! ~ ~ { { ] ] ^ ^ / ]+4 3 _ _ 2 2 1 1 1 | | | | } } i i 8 9 0 0 0 0 0 9 V.8 i } | 1 2 2 _ _ 3 4 / ^ { ~ ! 5 ' l., , , ' 5 ! { ^ 3 1 i 0 b f.h h.U S *.&.&.&..+W W _+_+%. + +%.%.%.W &.&.*.=.).-.h.u+,.c.O.i < _ ]+] ! 5 6 ; # . @ k l m m m l l k   . # ; > , 0.~ ] / z.T < [ m.B.B.B.B.B.B.B.N.O.@+c.F.f.x h.-.).=.=.=.=.).-.;.v+x f.F.@+9 i } | | | | } i 8 9 a c f h '.U z S V V A V V S U y '.h h g g g f e c b 0 N.i | 1 _ 3 / ^ ^ ] ] { ] ] ^ / 4 3 _ 2 1 1 1 | | | | | | | | | | | | | | 1 2 _ 3 4 / ^ ] { ~ ~ ~ ~ { ] ^ ]+A.2 < [ B.N.O.@+F.,.f.q.x v+h.;.;.;.-.-.",
"p.9 U.} 1 _ / { ! ' 6 j $ + .   @ k l n o p q q p p p o o n n m m l l l l l l l l l l l l m m m m m l l l l l k k k k @ @ @ @       . . + + k+# # $ $ $ $ k## # # # # # # $ $ $ $ $ $ $ $ $ ; > , 5 ! ] 4 2 } 8 0 b c c c b a 0 9 i } 1 _ 4 ^ ] M.! ) 5 x.' ' , , , , , , , , , , , 6 6 > > > j j ; ; $ V@# # $#+ + + + # # # $ $ ; ; j j > > 6 6 , , ' ' ' , , , 6 > > j j ; ; $ $ $ $ # # # # # # # # # # # # # # # # # # # # # # # # # # # + .     . + # $ ; j > 6 , , ' ' 5 5 ) ) ! ! ~ ~ { { ] ] ^ ^ / 4 4 3 _ 2 2 2 1 1 1 | | | } } i i 8 9 9 0 0 0 0 9 8 i } }&| 1 2 _ 3 4 / ^ ] ~ ! ) 5 ' , , 6 6 , ' 5 ! { ^ 3 1 i 0 b f h y U ).V *.&.&.&.U@W W _+_+%.%.%.%.%.W W &.*.=.).;.x f.c.O.m.1 A./ w ! ' 6 ; # . @ k m n n n n n m l k   . # ; > , 5 ) ~ ] b.( _ 2 : : : < < < < [ m.B.N.@+F.f.x >.h.;.;.;.;.L+h.>.x q.,.c.O.B.} | 1 1 | | } i 9 0 b e f h '.U z S V V A V V S U y '.h h g g g g f e b a 9 i } 1 2 3 4 / ^ ] { { { { ] ^ / 4 3 _ 2 1 1 1 | | | | | | | | | | | | | 1 2 2 _ 4 / ^ ] { ~ ! ! ! ~ { w ^ ]+3 T : [ m.B.N.@+c.F.,.f.q.x >.>.h.h.h.",
"} u ;+2 3 / ] ! 5 6 j $ # .   @ @ k l m o p p p p p p o n n m m l l l l l l l l l l l l l l l l l l l l l l k k k k @ @ @       . . + + # # $ $ $ ; ; ; ; ; ; ; ; ; ; $ $ $ $ $ $ # # ~+$ $ ; j > , 5 ~ ^ 3 2 } 8 0 b c c c b a 0 9 i | 1 _ 3 / ^ ] { ~ ! ) ) ) ) ) ) ) ) ) ) ) 5 5 5 ' ' , , 6 j#> - j ; ; ; ; * $ $ ; ; ; ; j j > > 6 6 , , ' ' ' 5 5 5 ' ' , , 6 > j j ; $ $ $ # # # # # # # # # # # # # # # # # # # # # # # # # # # # # + .         . + # $ ; j > 6 , , ' ' 5 5 5 ) ) ! ! ~ ~ { { ] ^ ^ / 4 3 _ _ 2 2 1 1 1 | | | } } i i 8 9 9 0 0 0 0 9 8 i } | 2&[&>>(@4 / ] { ~ ) 5 ' , 6 6 6 6 6 6 , 5 ! { ^ 3 1 i 0 b f h h.U ).=.*.*.&.&.&.&.U@W W W _+%.%.%.W W &.*.=.-.v+q.F.O.m.: 3 7 M.) 6@> ; # . @ l m n o p p o o n m l O#  . # ; j 6 , 5 ) ~ ] ^ / ]+4 ( ( ( A.A.T : < m.B.O.c.,.I+q.x x x x x q.f.f.,.F.@+N.} < 1 s;1 | | i 8 0 a c e g h y U z S V V A V V S U y '.h h g g h ,>g f c a 0 8 i | 2 _ 3 / ^ ] { { { { ] ^ / 4 3 _ _ 2 1 1 1 | | | | | | | | | | | | 1 1 2 _ 4 / ^ { ~ ! ! ) ) ! ! ~ { #+/ ( A.T < [ m.B.O.@+c.F.,.f.I+q.x x x ",
"_ _ 3 4 ^ ] ~ 5 , > ; $ + .   @ @ k l m n o p p p p o o n m m l l l k k k k k k k k k l l l l l l l l l ,#k k k @ @ @       . . + + # # $ $ ; ; j j j > > > > > j j j j ; ; ; $ $ V@# $ $ $ ; j > 6 ' ) { 7 3 1 m.9 a b c c c b a 0 8 i } 1 2 _ 4 / ^ ] ] { { ~ ~ { { { { M.~ ~ ~ ~ ! K.) 5 5 ' ' , , 6 6 > > > > > > > > > > 6 6 , , ' ' 5 5 5 ) ) ) ) 5 5 ' , 6 > > j ; $ # # # # + + + + + + + + + + + + + + + + + + + + + + + + + + + + + .   @ @   . + # $ ; j > |&6 , , ' ' ' 5 5 ) ) ! ! ~ ~ { { ] ^ / 4 3 _ _ 2 2 1 1 1 | | | } } i i 8 9 0 0 0 0 0 9 9 8 i }&2&[&_ 8+/ 9@{ ! ) ' , 6 > > > > > > 6 , 5 ! { ^ 3 1 i 0 b e g '.U z ).=.*.*.*.*.&.&.&..+W W W W W W W &.*.).;.x ,.@+m.: ( 7 M.0.l.> ; # . @ l m o p p q q p o o n m l @   . # $ ; > 6 6@5 ! ~ { w ] #+#+#+7 7 ]+I@T 7+[ B.O.c.F.,.,.,.,.,.F.F.F.c.c.@+O.i | 2 _ 2 2 1 } i 9 0 b c f g h y U z S V V V V S z U y '.h h g h h h g f e b a 9 8 } | 2 _ 4 / ^ ] { { { ] ^ / / 4 3 _ _ 2 1 1 1 | | | | | | | | | | | 1 1 2 _ 3 / ^ { ~ ! ) ) 5 l*) K.L.M.w 7 ]+( A.: < [ m.B.N.O.@+c.F.,.,.f.f.",
"/ ^ ^ ] i#! 5 , y.j $ # + .   @ @ k k m n o o p p o o n n m l l k k k k k k k k k k k k k l l l l l l k k k k @ @ @     . . + + # # $ j@; h@j g+> > j#6 6 6 6 6 6 j#> > j j ; j@$ $ V@$ $ ; ; ; j > 6 ' ! ] / _ | i 9 a b c c c b a 0 8 i } | 1 _ 3 4 4 / ^ ^ ^ ^ ^ ^ ^ ^ ^ ^ ^ ] ] { { ~ ! K.) 5 5 ' ' , , , , , , , , , , , ' ' 5 5 )+) ) ) ! ! ! ) ) 5 5 ' , 6 > j ; $ # # + + + + . + + + + + + + + + + + + + + + + + + + + + + + + + . .   @ @ @ @   . + # $ ; j > 6 6 , , , ' ' ' 5 5 ) ) ! ! ~ { ] ] ^ / 4 3 _ 2 2 1 1 | | | } } i i 8 8 9 0 0 0 0 0 0 9 8 i } 2&[&_ 8+>&a.~ ) ' , 6 > j j j j j > 6 , ' ) M.^ 3 1 i 9 b e g '.y U z ).=.=.=.*.*.*.&.&.&.&.W W W W &.*.=.-.4@w+c.{@< A.7 M.0.l.> ; # . @ k m n o p q q q p p o n m l k @   . + # ; j > , ' 0.K.! L.L.M.M.w '>#+]+( T : [ B.N.O.@+@+@+@+]@O.O.O.|+N.N.i | 2 _ 3 _ 2 1 } 8 9 a c e f g >.y U z S V V V V S z U y '.h h x h h >.h g f c b s.9 8 } | 2 _ 3 / ^ ] ] ] ^ ^ / / 4 3 3 _ 2 2 1 1 1 | | | | | | | | | | | 1 2 _ 3 4 ^ ] ~ ! ) 5 5 5 5 5 ) ! ~ w #+7 ]+( A.: < [ m.B.N.O.@+@+c.b F.",
"~ ~ ! ) 5 ' , y.j * # + . i$    @ @ k l m n n o o n n n m l l k k k @ @ @ @ @ @ @ @ @ k k k k k l l k k k @ @ @ W@    . + + # % $ j@; h@g+g+j#j#6 $+$+$+, , , , $+$+J.j#j#g+j h@j@* * j@; ; j j j > 6 , )+~ ] 4 2 [ 8 0 b c c c b b a 0 V.i } | 1 2 _ _ 3 3 3 3 3 3 3 3 3 3 4 4 4 / 7 ++] { ~ ~ ! ! ) ) 5 5 7@' ' ' ' ' 5 5 5 ) ) ! ! ! ~ ~ ~ ~ ~ ! ! ) 5 ' , 6 > j ; $ # # + + . . . . . . . . . . . . . . . . . . . . . . . . . . . . . .     @ @ @ @   . + # $ ; j j > 6 6 , , , , ' ' ' 5 5 ) ! ! ~ { ] ^ / 4 3 _ 2 1 1 | | | } } i i 8 8 9 9 0 0 a a a 0 9 8 i } | [&(@4 ^ { ! 5 , 6 > j ; ; ; ; j j > 6 ' ) ~ ] 4 2 } 9 a c f h '.y U -.).).).=.=.*.*.*.&.&.&.Q.W W &.*.).;.x ,.O.[ T ]+{ K.l.y.; # 9+  k l @>o p p q q q p p o n n m l k @   . + # ; j > , ' 5 5 0.K.K.L.L.M.w #+]+3 T 1 [ m.B.B.B.B.m.m.m.i+[ [ [ [ < 2 A.( 4 3 >>1 } 8 0 b c f.q.x '.y U z ).S =.V =.S z U y '.h h x h >.'.>.x q.e c b a 0 8 i u 1 2 3 4 / ^ ^ / / 4 4 4 4 3 A._ T 2 1 1 1 | | | | | | | | | | 1 1 2 3 4 ^ ] ~ ! ) 5 ' ' ' ' x.0.K.L.M.w #+7 ]+( A.T : < [ m.B.N.9 O.O.",
"' ' ' , $+6 > j * % & 9+.         @ @ k l m m n n m m m l k k k @ @ @ @ @ @ @ @ @ @ @ @ @ k k k k k k k @ @ @     . . + & % $ j@= h@g+U%j#$+$+`%6@6@6@6@6@6@}#}#}#}#6@u#$+j#e# &h@2#2#= j g+> > j j > , ' ) { ^ 3 1 } 9 a b c c c b a a 0 9 8 i } | 1 1 : 2 2 2 2 2 2 2 2 2 2 T _ A.( ]+7 #+] w { M.~ ;&! /@) ) ) ) ) ) ) ! ! ~ ~ { { { { { { { ~ ! ! ) 5 ' , > j ; $ # # + . .                 . . . . . . . .                               @ @ k @ @   . + # # $ ; j > > 6 6 6 , , , , , ' ' 5 ) ! ~ { ] ^ / 4 3 _ 2 1 1 | | } i i i 8 8 9 9 0 0 a a a a a 0 9 8 } | [&_ 4 ^ { ! 5 , > j ; ; ; ; ; ; j > 6 , 5 ! ] / _ | 8 0 b e g h '.h.;.;.-.-.).).=.=.*.*.&.&.&.&.&.*.=.-.h.q.c.B.: ( w ! ' 6 = $ + . @ k l n o o p q q p p o o n n m l l k @   . + $ ; j > 6 , ' x.x.0.K.K.L.M.w 7 4 3 T : < | | < < : : T T T T T T (@8+0@/ 0@8+_ 1 } 8 0 b e f g h >.h.;.-.).).S S S ).-.U y '.>.h x h >.'.>.h g f f e c b a 9 8 m.| : _ 3 4 4 4 4 4 4 4 4 3 3 A._ T 2 1 1 1 | | | | | | | | | | 1 2 _ 4 / ] { ! ) 5 ' , , , , l.x.0.K.L.M.w #+7 ]+( A.T 2 1 | } i i B.",
"> > > j j ; ; $ # & 9+. i$          @ k k l m m m m l l k k @ @ @                     @ @ @ @ k k k k @ @     ,&. 9++ # % * = h@g+U%|#$+`%#;#;#;E+E+E+E+E+t#t#W%t#t#d-#;}#`%T%U%E-1#1#g+y.6 6 6 > > > 6 ' 5 ! ] / _ | i 9 a b c c b b a 0 0 9 8 i } } } } [ | | | | | | | | | < 1 : T A.( ]+7 ^ #+] ] { 8@~ ;&;&! ! L.~ ~ { { ] ] ] ^ ^ ^ ] ] { ~ ! ) 5 ' , 6 j ; $ # # + . .   @ @ @ @ @ @ @                       @ @ @ @ @ @ @ @ @ @ @ @ @ @ k k @ @   . . + # $ ; ; j > > 6 6 6 6 6 6 6 , , ' 5 ) ! ~ { ^ / 4 3 _ 2 1 1 | } } i 8 8 8 9 9 9 0 a a a b a a 0 9 8 i | 1 _ 4 ^ 8@) x., > j ; $ $ $ ; ; ; j > , ' 5+{ b.3 1 i 9 a c f g i.>.h.h.;.;.-.).).=.*.*.&.&.&.&.&.*.).;.>.f.@+m.T 7 M.0., - ; # +   @ k l m n o o p p o o n n n m m m l k k @   + # $ ; j > 6 , l.l.x.0.0.K.L.{ #+b.4 3 _ _ T T A.A.( ( ]+]+]+]+]+]+]+7 9@9@>&0@(@1 } 8 0 b e f g h >.h.;.-.-.).).).).z U ;.y '.>.h x >.>.'.'.>.h x g f ].e c r.0 9 B.} < 2 T _ A.A.3 3 3 4 ( 3 3 A.T T 2 1 1 )>| | | | } } } } | | 1 _ 3 / ^ { ! ) 5 ' , 6 6 6 J.l.l.x.0.K.L.M.w #+7 / 4 3 _ 2 1 1 | | ",
"$ $ $ $ $ $ # & + 9+. i$            @ @ k l l l l l l k k @ @ @                           @ @ @ @ @ @ @     . . + # # $ * = 1#e#U%T%`%N%M%W%L%L%}-L%L%L%L%L%L%}-s#s#L%S%W%d-V%!>D-D-D-|#$+6@6@, 6 6 6 6 , ' ) ~ ^ 4 2 | 8 0 a b b b b b a a 0 9 9 8 8 B.B.B.B.B.B.B.B.B.B.i i m.} [ < : A.( 4 ]+/ / ^ 9@] a.w { { { { ] ] ^ ^ / / / / / / ^ ] { ~ ! ) ' , 6 j ; $ # + . . .   @ @ k k k k k @ @ @ @ @         @ @ @ @ @ @ @ @ @ @ @ @ @ @ @ @ k k k @ @   . . + # # $ ; j j > > > > > > > > 6 6 , ' 5 ) ! { ] ^ / 3 _ 2 2 1 | } i i 8 8 9 9 9 0 0 a a b b b b a 0 9 i } 1 _ 4 ^ { ! 5 , > j ; ; $ ; ; ; ; j > 6 ' ) ~ ^ 3 1 } 8 0 b ,.f q.x >.>.h.;.;.-.).=.=.*.*.&.&.&.&.*.).;.x ,.O.[ A.-$L.5 J.j * # + .   @ k l m n n n n n n n m m m m m l l k k @ . + # $ ; j > 6 J., l.x.0.) ! ~ { #+^ / 4 4 4 4 / 7 #+#+w w { w w w w w w a.#+/ 3 : [ 8 0 b e f g x >.h.;.;.-.-.-.-.-.-.U y h.'.>.>.>.>.v+h.h.h.'.>.h x g f e c b a O.B.m.< : : 2 T _ _ 3 3 3 3 3 A._ T 2 1 1 1 | | | | } } } } } | 1 2 _ 4 ^ ] ~ ) 5 ' , 6 6 6 6 J., l.x.5 0.K.L.M.w ] ^ / 4 4 3 _ 2 2 ",
"+ + + + + + + 9+. i$i$        @ @ @ @ @ k k l l l l k k k @ @     !+. . . . . . . . .           @       . . + # # $ * ; h@- e#|#!>V%J-M%L%*;*;y%*;*;*;*;*;*;*;y%K%K%K%y%*;=-S%d-V%!>!>V%t#)+)+5 ' , 6 , , ' 5 ! { ^ 3 2 | B.9 0 a c.b b b b a a 0 0 9 9 9 9 9 9 9 9 9 9 9 9 N.N.B.m.[ < : T A.3 ( 4 0@/ >&^ 9@9@9@^ ^ b./ 4 4 3 3 3 3 4 4 / ^ { ~ ) 5 , 6 j ; # + . .       @ k k l l l l l k k k k @ @ @ @ @ @ @ k k k k k k k k k k k k k k k k k @ @     . + + # $ $ ; ; j j > > > > j j > > 6 , ' 5 ! ~ { ] / 4 3 _ 2 1 | } } i 8 8 9 9 9 0 0 a b b b b b b a 9 8 } 1 _ 4 ^ { ! 5 l.6 j j ; ; ; ; ; ; j j 6 , 5 <#] 4 2 | i 9 a b ,.f.q.x >.>.h.;.-.).=.=.*.&.&.&.&.&.*.).;.x ,.O.[ A.7 M.0., > ; $ # + .   @ k k l l m m m m l l m m m m m m l l k   . + # $ j - > 6 J.l.' x.0.) ! ~ { ] ^ ^ ^ ^ ] w M.~ L.K.) ) K.K.! L.L.;&M.w ^ ( >>| B.0 b ,.f g x >.h.h.;.;.-.-.-.-.;.;.y h.'.>.>.>.>.h.h.y h.h.'.'.h h g q.f.,.b a O.B.m.[ < 1 : 2 _ _ 3 3 3 A.A._ T 2 1 1 1 | | | =>} } } } } | | 2 _ 3 / ] { ! ) ' , 6 6 6 6 6 J., l.' x.0.K.! ~ M.{ ] ^ ^ / 4 4 4 ",
". . . . . . .           w#@ @ @ @ @ @ k k k k k k k k k k @ @     . . . . . . . . . . . .           . . + # # $ ; ; j - g+e#|#!>V%J-h-=-y%w%w%'='='=w%w%w%w%w%'=v%v%v%v%v%w%x%=-h-M%M%S%X%{+<#! )+' ' , , ' 5 ) ~ ] / 3 2 | i 8 0 s.a b b b b b a a a @+@+@+@+@+@+@+@+@+@+@+0 O.O.N.B.m.< : 2 T _ A.3 ( 0@]+]+]+]+,@4 z.3 _ _ 2 2 2 _ 3 4 / ^ { ! 5 ' 6 j $ # + .   @ @ @ k k l l m m m m m l l l l k k k @ @ k k k k k k k k k k k k k k k k k k @ @ @     . . + + # $ $ ; ; j j j j j ; ; ; j > 6 , ' ) ! ~ { ^ / 4 3 _ 2 1 | } i 8 8 8 9 9 0 a a b b c c c b a 0 9 i | 2 3 / ] ~ ) E+, > j j j j j ; ; j j > , 5 ! { / _ 1 } 8 0 a F.,.f.q.x >.>.h.;.-.).=.*.&.&.&.&.&.*.).;.x ,.O.[ T 7 M.K.x.J.- ; $ # u&+ . .   w#@ @ k k k k k l l m m m m m l k @   . + $ ; j > y.6 , l.' 5 0.) ! ~ ~ { { { { ~ ! ) 5 x.' l., l.' x.5 0.) /@M.#+]+_ < i O.c.,.f.q.x >.>.h.h.;.;.;.;.;.;.y h.h.h.'.>.h.h.h.;.;.;.y h.h.'.>.h g q.f.,.b @+N.B.m.[ | < 7+2 T _ A.A.A._ _ T 2 1 1 1 | | | } } } } } } } | 1 2 3 4 ^ ] ~ ! 5 ' , 6 6 6 6 6 J., l.' 5 0.) ! ! ~ ~ { { ] ^ ^ ^ ",
"                w#w#@ @ @ @ @ @ @ k k k k k k k k k k k @ @ @   . . + + + + + + + + + . . . . . . . + & # $ ; ; j > > j#|#|#!>V%M%1---;-X=>-u%u%u%u%u%>->->->-5=P=k%k%k%t%P=u%v%w%y%y%G#`#|%++'#<#) 5 ' ' ' ' 5 ! ~ ] / 3 2 | } 8 9 a b b c c c c b b b b c.c.c.c.c.c.c.c.c.c.c.@+O.N.B.m.[ < 1 : : T _ A.A.3 3 A./+_ :+7+1 1 | 1 1 2 _ 3 / ] { ) ' 6 j ; # .   @ k k k k l l m m n n n n n m m m m l l k k k k k l l l l l l l l l l l l l k k k @ @ @       . . + k+# $ $ $ ; ; ; ; ; $ $ $ ; j > 6 , 5 ) ! ~ ] ^ / 4 3 2 1 | } i i 8 8 9 9 0 a a b c c c c c b a 9 U.} 1 _ 4 ^ { ! ) ' 6 6 > > > j j j j j > , 5 ! { ^ 3 2 | i 9 0 a F.,.f.q.x >.h.;.-.).=.*.&.&.&.&.&.*.).;.x ,.@+m.: ]+#+L.0.' J.> j q;r;$ A&# # + + . .       @ k l l m m m m m l k @   + # $ ; j > 6 6 , , ' x.5 ) ) K.! ! ! ) ) 5 ' , 6 > > > > y.6 , l.x.0.L.w 7 A.: m.N.a F.f.q.q.x >.>.h.h.h.h.h.h.h.h.h.h.h.h.h.h.L+;.;.;.;.;.;.h.h.>.>.x g q.f.F.c.O.N.B.m.} [ < : : T T _ _ _ _ 2 2 1 1 1 | | | } } i i i } } | 1 2 _ 3 / ^ { ~ ) 5 ' , J.6 6 6 , , , ' ' 5 5 ) ) K.! ! ~ ~ { { { ",
"@ @ @ @ @ @ @ @ @ @ @ @ @ @ @ @ @ k k k k k k k k k k @ @ @     . . + + + + + + + + + + 9+9+9++ + & # $ $ ; j > > 6 $+$+u#V%J-h-=-y%X=>-P=k%j%i%i%i%i%j%k%k%i%i%m%m%B=B=g%m%i%k%P=u%u%t%O%/$/$c#++i#! ) 5 5 5 5 ) ~ { #+/ 3 2 | i 8 0 a b c e e e ,.c ,.,.,.,.,.,.,.,.,.,.,.F.F.F.c.@+O.N.B.m.[ [ < < : : : :+:+: 7+< ;+u } } } } | 1 T 3 / ] ~ ) l.> ; # +   @ k l l l l l m m n o o o o n n n n m m l l l k k l l l l l l l l l l l l l l l k k k @ @ @       . . + + # # $ $ $ $ $ $ # # # $ ; j > 6 ' 5 ) ! { ] ^ / 3 _ 2 1 | } i 8 8 9 9 0 a b b c c e c c b a 0 8 } 1 _ 3 / ] ~ ! 5 , , 6 6 6 > > j j > 6 , 5 ! { ^ 4 2 1 } 8 9 0 a b ,.,.f.q.x h.;.-.).=.*.*.&.&.*.=.).;.x ,.@+B.< A.7 w L.K.x.l.o;p;> @&j h@; ; $ $ # # + . .   k k l m m m m m l k @ . + $ ; j j > > 6 6 , , , ' ' ' ' E+' ' , 6 > > j ; ; ; ; j > > 6 l.x.K.M.#+( T [ B.@+F.,.f.q.q.x >.>.>.h.h.h.h.h.h.h.h.h.h.;.;.;.-.-.-.-.U ;.;.h.h.>.>.x q.f.,.F.@+O.N.B.m.m.[ < : : T T T T 2 2 1 1 1 | | | } } i i i i i } } | 1 2 _ 4 / ] { ! ) 5 ' l., , , , , , ' ' ' 5 5 5 ) ) ) ) ! ! ! ! ",
"@ @ @ @ @ @ @ @ @ @ @ @ @ @ @ @ @ @ @ @ @ @ @ @ @ @ @ @ @ @     . + + + + + + + + + + + + + + & # $ $ ; ; j > 6 6 , 6@}##;t#S%~>w%v%P=k%i%{>B=6%6%6%6%6%6%6%6%5%5%4%4%4%4%4%5%6%B=g%g%f%}$[$7+:+z.b.] { ! ) ) ) ! ! ~ { ^ / 3 2 | i 9 a b c e e f f f ].f.f.f.f.f.f.f.f.f.f.f.f.,.,.F.c.@+O.N.N.B.B.m.m.[ [ [ [ u u S.i 8 8 8 8 i } 1 2 3 ^ { ! 5 , j $ # . @ k l m m m m m n n o o p p o o o o n n n m J$l l l l l l l l l l l l l l l l l l l k k k k @ @       . . + + # # # # # # # + + + # $ ; j 6 , ' 5 ! ~ { ] / 4 3 _ 7+| } } i 8 8 9 0 a b b c c e e c b a 0 8 i | 2 3 4 ^ { ! ) ' ' , , , 6 6 > > > 6 , 5 ! { ^ 4 _ 1 | i 8 9 0 @+c.F.,.f.q.x 4@;.-.).=.=.=.*.=.=.-._@x f.c.N.[ : A.]+#+M.L.) 5 m;n;, , 6 6 > > j j ; j@$ # .   @ k l m m m m l k @   . # $ $ ; j j > > > > > 6 6 6 6 6 6 > > j ; ; $ # # # $ ]>; j > J.l.0.L.w ]+T < B.O.c.F.,.f.f.q.x x x >.>.>.>.h.h.h.;.;.;.;.-.-.-.-.-.-.-.-.;.;.h.h.>.x x q.f.,.c.@+O.N.B.m.m.[ < < : : 2 2 2 1 1 1 | | } } } i i 8 8 8 i i } | | 2 _ 3 4 ^ ] { ~ ) ) 5 ' ' ' ' ' ' ' ' ' 5 5 5 5 5 5 5 5 5 )+) ",
"@ @ @ @ @ @ @ @ @ @ @ @ @ @ @ @ @ @ @ @ @ @ @ @ @ @ @ @ @     . . + + + + + + + + + + + & & # % $ ; ; j > > 6 , , ' E+0.r+s#K%G#u%k%i%B=6%4%G=3%3%^>g;m=m=m=m=/%^%]%Z;{%Z;]%/%m=3%8%]$*$@%d%@%u < T ( 7 ] { ~ ! ! ! ~ ~ ] ^ / A.1 } 8 0 b c e f f f g g g x x x x x x x x x u+q.q.f.f.,.F.c.c.@+@+O.O.N.N.B.B.B.N.N.V.O.0 0 0 9 8 } 1 _ 4 ^ ~ ) ' 6 j $ +   t$l m n n n n n n o o p p p p p p o o n n n m m l l l l l l l l l l l l l l l l l l l l l k k @ @ W@    . . + + + + + + + + + . + + # ; j > 6 , 5 ) ! ~ ] ^ / 4 _ 2 1 | } i i 8 9 0 a a b c c e e c b a 0 9 i } 1 _ 4 / ] ~ ! 5 5 ' ' ' , , 6 6 6 , ' ) ! { ^ 4 _ 7+| } i 8 N.O.@+@+c.F.,.w+x >.h.;.-.).).).).).-.h.>.f.F.@+B.[ : A.( 7 #+w ~ T$5+) ) 5 5 ' ' , , 6 > j ; # +   @ k l l m m m l k @   + # # $ ]>; ; ; ; ; ; ; ; ; ; ; ; ; $ $ # # + + + + # $ $ ; j y.J.x.K.M.7 A.: m.N.@+c.F.F.,.f.f.q.x x x >.>.h.h.;.;.-.-.-.-.).).).-.-.-.-.;.;.h.h.>.>.x q.f.,.F.c.@+O.N.B.m.m.[ < < 1 1 1 1 1 | | | } } i i 8 8 8 9 8 8 i i } | 1 2 _ 3 4 ^ ] { ~ ! ! ) 5 5 5 ' ' ' ' 5 5 5 5 5 5 5 ' ' ' ' ' ",
"@ @ @ @ @ @ @ @ @ @ @ @ @ @ @ @ @                             . . + + + + + + + + + + & & # % * ; j > > 6 6 , ' ' 5 ) 5+X%7=`#o%j%m%F=5%3%/%]%{%{%{%{%_%_%_%_%$%%$*%2$2$2$2$%$$%8;V#V#V#n%n%/>p.U.u 1 _ 4 ^ ] { ~ ~ ~ ~ { ] ^ 4 2 | i 9 a c e f f g g x h >.>.>.>.>.>.>.>.>.>.>.x x q.q.f.f.,.W+F.F.c.@+@+@+F%@+@+@+s.c.c.a a 0 8 } 1 _ / w ! 5 , j $ # . @ k m n o o o o o o o p p q q q q p p o o o n [#m m l l l l l l l l l l l l l l l l l l l l l k k @ @ w#    . . . . . + . . . . . . + # $ ; j > , ' 5 ) ~ { ] ^ 4 3 _ 2 | } } i 8 9 0 j+a b c c e c c b a 0 9 8 } | 2 3 / ^ { ~ ) 5 5 5 ' ' ' , , , ' 5 ) ~ { ^ 4 _ 2 1 } m.i B.8 N.O.@+c.F.,.f.x >.h.;.;.-.-.-.-.;.h.>.q.,.c.O.B.m.< : T z.]+b.^ ] { { i#~ ~ ! K.) 5 ' , 6 j $ + . W@k k l l l l l k   . + + # # $ $ $ $ $ # # # # # # # # # + . . . . . . + # $ ; j - y.l.0.L.#+( T [ B.O.@+c.c.F.,.,.f.q.q.x x >.h.h.;.-.-.).).).).).).).-.-.-.-.;.;.h.h.>.>.x q.f.F.c.@+O.O.N.B.m.m.[ [ | | | | | | } } } i i 8 8 9 9 9 9 8 8 i i } | 1 2 _ 3 4 / ^ ] { ~ ~ ! ) ) 5 5 5 5 5 5 5 5 5 ' ' ' , , , , ",
"@ @ @ @ @ @ @ @ @ @ @ @ @ @ @ @                               . . + + + + + + + + + + & # % * ; j > 6 6 , , ' 5 5 ) ! <#r#`#I%j%g%6%4%m=]%8;$%%$%$2$2$2$!$!$!$$$T#W$)$)$)$)$T#$$!$V;B#B#)#G.W.j.c.O.B.| 2 3 / ^ ] { { { { ] ^ 4 _ ;+i 9 a b c e f g g h >.>.>.h.h.h.h.h.h.h.>.>.>.>.x x x q.q.f.f.,.,.F.F.c.c.c.F.F.F.F.c b a 0 8 } 2 3 ^ ~ ) , > ; # +   k l m o o p p p p p p q q q q q q q q p p o o n n m m l l l l l l l l l l l l l l l l m m m l l ,#k k @ @       . . . . .           . + # $ ; > 6 , 5 ) ! ~ ] ^ / 4 _ 2 1 | } i i 8 9 0 a b c c c c c b a 0 9 8 i | 1 _ 4 / ] ~ ! ) ) (>5 5 ' ' ' ' 5 ) ! ~ ] ^ 4 3 2 1 | } } m.m.B.B.N.O.@+F.,.f.x >.>.h.;.;.;.;.;.h.>.x f.,.c.@+N.B.m.[ < 2 _ 3 4 4 / / ^ ^ ] ] { ~ ! ) ' 6 j $ # .   @ k l l l l k @   . + + + # # + + + . .     . . . . . .           . + # $ ; = j > J.x.K.w +&A.< m.N.O.@+@+c.F.,.,.f.q.q.x >.v+L+;.-.).).=.=.=.).).).).-.-.-.;.;.h.h.>.>.x q.f.,.F.c.@+O.O.N.B.m.m.[ [ [ [ [ } } } i i i 8 8 9 0 0 0 9 9 8 8 i } } | 1 2 _ 3 3 4 / ^ ] { 8@~ ! ! ) ) ) ) ) ) 5 5 5 ' ' , , 6 6 ",
"@ @ @ @ @ @ @ @ @ @ @ @ @ @ @ @                             . . . + + + + + + + + + + # % $ ; j > 6 , , ' 5 5 ) ! ! ~ w p%Z#O%g%7%4%m=]%_%%$!$$$$$T#T#)$)$#$#$S#'$'$@$@$@$@$'$S##$g$_>u.u./.H.t.].j.@+N.} 1 _ 3 4 7 ^ ] ] ] ^ 4 _ 1 } 8 0 a c e e f q.g h >.>.h.h.h.h.h.h.h.h.h.>.>.>.>.x x x q.q.f.f.,.,.,.F.W+,.,.,.,.c c a 0 U.| _ / { ) ' 6 j $ +   @ k m n o p q q p p p q q r r r r r r q q p p o o n n m m l l l l l l l l l l l l l l m m m m m m l l k k @ @                 @ @ @ @   . + $ ; j 6 , ' 5 ! ~ { ] / 4 3 _ 1 | } } i 8 9 0 a b c c c c c b a 0 9 8 i } 1 2 3 / ^ { ~ ! :>) ) ) 5 5 ' 5 5 ) ! v ] ^ 4 3 _ 2 1 | | [ [ [ m.B.N.O.@+F.,.f.q.x >.h.h.;.;.;.h.>.x q.f.,.g@@+@+O.N.B.m.[ | 1 : 2 2 _ _ 3 3 4 / ^ { ! 5 , > ; # + i$@ @ k k k @ @   . . . + . . . .   @ @ k k @ @           @       . + # $ ; = j - y.l.0.M.#+( T [ m.N.O.O.@+c.F.,.,.f.q.x x >.;.-.).).=.=.=.=.=.).).).-.-.-.;.;.;.h.h.>.>.x q.f.,.F.c.@+O.O.N.B.B.m.m.} } } } } i i i 8 8 9 0 0 0 0 0 9 9 8 i i } | | 1 2 2 _ 3 3 4 / ^ ] ] { M.~ ~ ! ! ! ! ) ) 5 5 ' , 6 6 6 ",
"@ @ @ @ @ @ @ @ @ @ @ @ @ @ @ @           . . . . . . . . . . . . + + + + + + + + + + # $ * = - 6 , ' ' 5 ) ) ! ~ { '#++b.c#G%^$0%m=]%_%%$0;T#)$#$S#S#'$'$@$_$_$1$q+q+q+q+q+u$D$C$B$y+y+5#N@g.~.{.g e b 0 8 } 1 2 3 4 / ^ ^ ^ 4 _ 1 } 8 9 a b b c e e f g x >.>.>.>.>.>.>.>.>.>.>.>.>.>.>.>.x x x q.q.f.f.,.,.,.,.,.,.,.,.F.a 9 i 1 3 ^ ! ' 6 j $ + . @ k l m o p q q q q q q q r r r r r r r r q q p p o o n m m l l l l l l l l l l l l l l m m m m m m l l l k k @ @ @       @ @ @ @ k k @ @   + # $ j > 6 ' 5 ) ! { ] ^ / 3 _ 2 1 | } i 8 9 0 a b b c c c c b a a 0 9 8 } | 2 _ 4 <>] v [>! ! ) ) ) 5 5 5 ) ! ~ { ] ^ 4 3 _ 2 1 1 1 < < < [ m.B.N.O.c.F.,.f.q.x >.>.h.h.h.h.>.>.x q.f.,.,.F.b c.@+0 9 8 8 i i m.} } | < 1 :+3 4 ^ ~ ) ' 6 j $ # .   @ @ @ @     . . . . .     @ @ k l l l l k @ @ @ @ @ @ @     . + $ ; = j j j > J.5 L.w ]+A.< i+B.N.N.O.@+c.F.,.f.q.q.x h.;.-.).=.=.*.*.*.=.).).).-.-.-.U ;.;.h.h.>.>.x q.f.,.,.F.c.@+O.O.N.B.B.i m.m.m.i i i 8 8 8 9 0 0 a a a 0 0 9 8 8 i i } | | 1 1 2 2 :+_ 3 4 / / ^ #+] ] { { ~ ~ ! ! ) 5 ' , 6 6 6 ",
"@ @ @ @ @ @ @ @ @ @ @ @ @ @ @ @         . . . . . . . . . . . . + + + + + + + + + + # % $ ; - 6 , ' 5 ) ) ! ~ v { ] ^ b.,@H$^$E#*$(=_%%$$$)$S#'$@$@$_$1$1$q+N+N+<.O+O+O+O+O+O+<.N+z+v.S@<@1@z@v@U y h f c a 9 i } 1 _ 3 / / / 4 _ 1 | i 8 0 a a b b c e f g x >.>.>.>.>.>.>.>.>.>.>.>.>.>.>.>.x x x q.q.f.f.f.f.f.f.,.,.c b 0 8 | _ / { ) , j $ + . @ k l m n o p q r r r r r r r s s s s s r r q q p p o o n n m l l l l l l l l l l l l l l m m m n m m m l l k k k @ @ @ @ @ @ k k k k k k @   . + # ; j 6 , ' ) ! ~ { #+/ 4 3 _ 1 | } i 8 9 p.0 a b b c c b b a 0 0 9 8 i | 1 _ {#/ }>{ ~ [>! ! ! ) ) ) ) ! ! ~ { ] ^ / 4 3 _ 2 2 2 : : : < [ m.B.N.@+c.F.,.f.q.x >.>.h.h.h.>.>.x x u+q.q.f.f.e ,.c b b a a a 0 0 O.9 8 i } | 2 3 / { ! 5 , > ; $ + .       . . . . . .     @ k k l m m m l l k @ @ @ @       . + # ; j j j j j > J.x.L.w 7 A.: [ m.B.N.O.@+c.F.,.f.q.x >.h.;.-.).=.*.*.*.*.=.).).).-.-.-.-.;.;.;.h.h.>.x x q.f.,.F.F.c.@+O.O.N.N.B.B.B.B.B.B.8 8 8 9 9 0 a a a a a 0 9 9 8 i i i } } | | | 1 1 2 2 _ 3 3 4 4 / ^ ^ ] ] { ~ ~ ! ) 5 ' , 6 6 ",
"@ @ @ @ @ @ @ @ @ @ @ @ @ @ @ @         . . . . . . . . . . + + + + + + # # # # # # $ ; j > 6 , ' 5 ) ! ~ { { ] ^ / ,@z./+}$[$*${$l=%$!$)$S#@$_$1$q+N+N+<.O+O+[.P+P+}.}.}.}.P+y@h$o@}@+@w@&@~@w.4+z U '.g e b 0 8 } 1 _ 8+,@/ 4 _ 2 | } i 8 9 0 a c.b ,.f.q.x x >.>.>.>.>.>.>.>.>.>.>.>.>.>.>.x x x x q.q.f.f.f.f.e ,.c b a 9 } 1 3 ++! ' > ; # .   k l m n o p q r r r r r r r s s s s s s r r r q q p p o n n m l l l l l l l l l l l l l l l m m m m m m l l l k k k @ @ @ k k k l l l l k k @   . # $ ; > 6 ' 5 ) ! { ] ^ / 4 _ 2 1 | } i 8 9 0 0 a b b b b a a 0 0 9 8 i | 1 _ 3 / }>{ ~ [>! ! ! ! ! ! ! ~ ~ { ] ^ ^ / 4 3 3 _ _ _ T T T : < [ m.N.O.@+c.F.,.f.q.x >.h.h.h.h.v+>.>.>.>.h h x x g q.f e e e e c c c b b a 0 8 i ;+_ 4 ] ~ ) ' 6 j ; V@& + + + + + + . .     @ k k l m m m l k @ @       . . + + # $ j > > > > > 6 l.0.L.w ]+A.: [ m.B.N.O.@+c.F.n+w+q.x 4@;.-.).=.=.*.*.*.*.=.).).).-.-.-.-.;.;.;.h.h.>.x x q.f.,.,.F.c.c.@+O.O.N.N.N.N.8 8 8 8 9 9 0 0 0 a a b b a 0 9 9 8 8 i i i } } } } | | | 1 2 2 _ _ 3 3 4 4 / ^ ] { ~ ! ) 5 ' , 6 6 ",
"@ @ @ @ @ @ @ @ @ @ @ @ @ @ @ @ @       . . . + + + + + + + + + + # # # # $ $ $ $ ; ; j 6 , ' 5 ) ! ~ { ] ] ^ / 4 3 /+:+7+o#8$7$V# %!$T#S#@$1$q+N+<.O+[.[.P+P+}.}.Q+Q+Q+Q+Q+Q+=#q@x@y@o@^#U+I..+h*V S U '.q.c a 9 i | 2 3 4 4 4 3 _ 2 1 | i 8 9 0 a b c e f.q.x G+>.>.>.>.>.>.>.>.>.>.>.>.>.>.>.x x x x q.q.f.f.f.,.c b a 9 i 1 _ / { 5 6 j # +   @ l m n o p q r s s s s s s s s s s s s s r r q q p p o o n m m l l l l l l l l l l l l l l l l m m m m l l l k k k k k k k k l l l m m l l k @ @ . + # $ j > , ' 5 ! ~ { ] ^ 4 3 _ 2 1 | } i 8 9 9 0 0 a a a a 0 0 9 9 8 } | 1 _ 4 / ] { ~ [>! ! ! ! ~ ~ ~ { { ] ] ^ ^ / 4 4 4 3 3 3 A.A.T : < [ m.B.N.O.c.F.,.f.q.x >.>.h.h.h.h.h.h.h.h.h.h.h.'.'.4&h g g g g V*f f f e c F.a 0 8 } 2 3 / ] ~ ) ' 6 > ; $ $ # # # + + + . .   @ t$k l l l k @   . . + + # # $ $ ; j > 6 , , , , ' 0.! w 7 ( T < m.B.N.O.@+c.,.f.q.x >.h.;.-.).=.=.*.*.*.*.=.=.).).).-.-.-.-.-.;.;.;.h.>.>.x q.f.,.,.F.F.c.c.@+O.O.O.2@N.N.N.9 9 9 0 0 a a a b b b a 0 9 9 8 8 i i i i } } } } } } | | 1 1 2 2 2 _ 3 4 / ^ ] { ~ ) 5 ' , , , ",
"k k k k k k k k k k k k k k @ @ @     . . . + + + # # # # # # # # # # $ $ ; ; j j > > , ' 5 ) ~ { ] ] ^ / / 4 3 _ 2 1 | S.U.~#C# %!$T##$@$1$N+<.O+[.P+P+}.}.'@Q+Q+Q+|.|.|.|.$@Q+Q+=#_#)@|@e@!@9.I.h*V z y h e b 0 i | 1 _ 3 4 4 4 3 _ 2 1 | } i 9 0 a b c f.q.q.x >.h.h.h.h.>.>.>.>.x x x x x x x x x x q.q.f f.e c b a 9 i | _ / { 5+' > $ +   @ k l m n o p r s s t+s s s s s s s s s s r r r q q p p o o n m l l k k k k k k k k k k k k k l l l l l l l l k k k k k k k l l m m m m m m l l k @   . + # ; j 6 , 5 ) ! ~ { ] / 4 3 _ 2 1 | } i i 8 9 9 0 0 0 0 0 9 9 8 i } | 2 l$4 ^ ] v ~ ! ! ! ! ~ ~ { { ] ] ] ^ ^ ^ / / / / 4 4 4 ( A.A.T : < [ B.N.O.@+c.F.,.f.q.x >.h.h.;.;.;.;.-.-.-.-.U U U y '.'.h h h h h h g g g f e c a p.i | 2 3 / ] ~ ) ' , > j h@; $ $ # # + + . .   @ @ k @   . + # # $ ; ; j j > > 6 , , ' x.5 0.K.L.w 7 ]+A.: [ B.N.O.@+g@,.f.q.b+h.;.-.-.).=.=.*.*.*.=.=.=.).).).).-.-.-.-.-.-.;.;.h.>.x x q.f.,.,.F.F.c.c.c.@+@+O.O.O.O.O.O.0 0 0 a a a b b b b a 0 9 9 8 8 i i i i i i i } } } } } | | | | 1 1 2 _ 3 / ^ { ~ ! 5 ' ' , , ",
"k k k k k k k k k k k k k k @ @ @     . . + + # # # $ $ $ $ $ $ $ $ $ ; ; j > > 6 , ' 5 ) ~ { ] ^ / 4 4 3 3 _ 2 1 | } U.V.g#n%Q$)#T##$'$7;N+O+[.P+P+}.}.Q+Q+Q+Q+|.|.|.|.|.|.|.|.$@$@5.%@)@7.8.k.9.I.A S U h f c 0 8 } 1 2 _ 3 4 4 4 3 3 _ 2 | } 8 9 0 c.F.,.f.q.x >.h.h.h.h.>.>.>.x x x x x x x x x x q.q.q.f.e ,.b a 9 8 | 2 4 ] ! 5 6 ; # . @ k l m n o p q r s t+t+t+t+s s s s s s s s r r r q p p p o n n m l l k k k k k k k k k k k k k k k k k k k k k k k k k k k l l m m n n n n m m l l k @   . + $ ; > 6 ' 5 ) ! ~ { ^ / 4 3 2 1 | | } } i i 8 8 9 9 9 9 9 8 i } | 1 _ 3 / ^ { ~ ! ! ! ! ! ~ { ] ] ] ] ] ^ ^ ^ ^ ^ ^ ^ / / ]+4 ( A.T : < [ m.B.O.@+c.F.,.f.q.x >.h.h.;.;.-.-.-.).).).z z -.U y y '.'.'.'.'.'.'.'.h h h g ].c a 9 i | 2 3 / ] ~ ) 5 , 6 > j j ; ; $ $ # # + . . . . + # $ ; j > > 6 6 , , ' ' 5 5 ) ! L.M.w #+]+( T : [ B.N.O.@+F.,.f.x >.h.;.-.).=.=.*.*.*.*.=.=.).).).).).).-.-.-.-.-.-.;.;.h.>.x q.q.f.,.,.F.F.F.c.c.c.@+@+@+@+@+0 0 @+a a a b b b b c b a a 0 9 8 8 i i i i i i i i i i i i } } } } } | 1 2 _ 4 7 ] ~ ! ) 5 ' ' ' ",
"l l l l k k k k k k k k k k @ @     . . + + # # $ $ ; ; ; ; ; ; ; ; j j > 6 , , ' 5 ) ! { ] ^ / 4 3 _ _ :+2 1 | } i N.p.s.!#z$)#y$C%'$_$q+<.[.P+}.}.Q+Q+Q+|.|.|.|.|.|.|.|.|.|.|.C+C+$@5.%@6.7.'+k.=+Q.V z y g e b 9 i | 1 _ 3 {#4 4 4 4 3 _ 2 | } 8 9 @+c.F.,.f.x >.>.h.h.>.>.>.x x x x x x x x q.q.q.q.f.f.,.c b a 9 8 } 2 3 ^ ~ 5 , j $ +   k l m n o p q r s t+Z+Z+Z+t+t+s s s s s s s r r r q q p p o o n m l l k k k k k k k k k k k k k k k k k k k k k k k k k l l l m m n o o o n n m m l k k @   . # $ j 6 , ' 5 ) ! { ] ^ / 3 _ 2 1 1 | | } } i i i 8 8 8 8 i i } | 2 _ 4 / ] { ~ ! ! ! ! ! ~ { { ] ] ] ] ] ] ] ] ] ] ] ^ ^ 7 / ,@( A.T : < m.B.N.O.@+c.F.,.f.x >.>.h.h.;.;.-.-.).).).).z z -.U y y y y y y y y y y y '.'.h g f.c a 9 i | 2 3 / ] ~ ) 5 ' , 6 6 > > j j ; ; $ $ # $ ; j > 6 , ' ' 5 5 ) ) ! ! ! ~ ~ { #+7 ]+( A.: < [ B.N.F%c.F.,.f.x >.h.;.-.).=.*.*.*.*.*.=.).).).).).).).).-.-.-.-.-.-.U ;.h.>.x q.f.f.,.,.F.F.F.F.c.c.c.@+@+@+@+@+@+a a a b b b b c c b b a 0 9 9 8 8 8 8 8 8 8 8 8 8 8 8 8 8 8 8 8 i i } ;+2 3 4 ^ { ~ 5+) 5 5 5 ",
"m m l l l l l l k k k k k @ @   . . + # # $ $ ; ; ; j j j j > > > > 6 J., ' 5 ) ) ! ~ ] ^ / 3 _ 2 2 1 1 | | } i 8 9 s.r.j.W.G.X.C%A#@$1$N+O+P+}.;$Q+Q+|.|.|.|.|.|.|.|.|.|.|.|.|.C+C+4.8#7#T+c+D+D.R =+Q.V !.'.g c a 9 i | 2 _ 3 4 4 4 4 4 3 _ 2 | } 8 9 @+c.F.f.q.x >.>.>.>.>.x x x q.q.q.q.q.q.q.f.f.f.,.,.F.c.0 9 i } 7+3 / { ) ' > ; +   @ l m n o p p q r s t+Z+Z+Z+Z+t+t+t+t+t+t+s s s r r q q p p o o n n m l l l k k k k k k k k k k k k k k k k k k k k k k l l l m m n o o o o o n n m m l k @   . + $ ; > 6 , 5 ) ! ~ { ^ / 4 3 _ 2 2 1 1 | | | } } H+i i i } } | 1 2 3 4 ^ ] ~ ! ) ) ) ) ! ! ~ { { { { { { { { { { { { w ] #+7 ]+( A.T : < [ m.N.O.@+c.F.,.f.q.x >.>.h.h.h.;.;.-.-.z z z z -.U U U U U U U U U U U U U y y '.h g e b 0 8 } 1 _ 3 / ] { ! ) ) 5 5 ' ' , , 6 y.> > > 6 , ' 5 ) ! ! ~ { { w ] ] ] ^ ^ / ( A.T : < [ m.N.O.@+c.F.n+q.x >.h.;.-.).=.*.*.*.*.*.=.).).-.-.-.-.).).).).-.-.-.-.-.-.;.h.>.x q.f.f.,.,.F.F.F.F.c.c.c.a @+@+@+@+a a a a b b b b c c F.b a 0 0 9 9 9 8 8 8 8 8 8 8 8 8 9 9 9 9 9 9 9 8 i } 1 2 3 / ] { ~ ! ) ) 5 ",
"n n m m m J$l l l k k k @ @   . . + # $ $ ; ; j j > > > 6 6 6 , , ' ' 5 ) 5+! ~ { ] ^ / 4 _ 2 1 | | } } i i 8 9 0 a j.d ].)%X.C%A#@$1$q+<.[.P+}.Q+Q+Q+|.|.|.|.|.|.|.|.|.|.|.|.|.C+C+C+8#3+0#0#c+c+o.R =+Q.=.U '.g c a 9 } < 2 _ 3 4 4 4 4 4 3 _ 2 | } 8 O.@+F.,.f.q.x x x x x x q.q.q.q.q.q.q.f.f.,.,.F.F.c.@+O.8 i | 2 3 / ] ! ' 6 ; # . @ ,#m n n o p q r s t+Z+i@i@i@Z+Z+t+t+t+t+t+t+t+s s r r q q p p o o n m m l l l l l l l l l l l l l l l l l l l l l l l l l l m m n n o p p p o o n n m l l k @   + # ; j 6 , ' 5 ) ~ { ] ^ / 4 3 _ _ 2 2 1 1 1 | | | [ } } | | 1 2 _ 3 / ^ { ~ ! ) ) ) ) ) ! ! ~ ~ ~ ~ ~ ~ ~ ~ ~ ~ ~ ~ ~ { ] #+7 ]+( A.T : [ m.B.N.O.@+c.F.,.f.q.x x x >.>.h.h.;.;.;.-.-.-.-.U U U U U U U U U U U U U U U y '.h g f c a O.8 } | 2 3 4 / ++] { i#~ L.! K.) 5 5 5 5 ) ! ~ { ] ] ^ 7 / ,@4 4 3 3 3 _ T : < [ m.B.N.O.@+c.F.,.f.q.x >.h.;.-.).=.=.*.*.*.=.=.).-.-.;.;.;.-.).).).).-.-.-.-.-.-.;.h.>.x q.f.f.,.,.F.F.F.F.c.c.c.a @+@+@+@+a a a a b b b b c c c b b a a 0 0 0 9 9 9 9 9 9 9 9 0 0 0 0 0 0 0 0 9 8 i } 1 _ 4 / ] { ~ ! ! ) ",
"n n n n m m l l k k k @ @   . + # $ * ; j j > > 6 6 , , , ' ' 5 ) ) ! ~ ~ { ] ^ ^ / 4 3 2 1 | } i i 8 8 8 9 9 0 b c e t.^.H.,+(.E$_$q+N+O+o$}.}.Q+Q+Q+Q+|.|.|.|.|.|.|.|.|.|.|.|.C+C+C+8#3+3+0#0#0#P o.R B A S U '.f c 0 8 } 1 2 _ 3 4 4 4 4 4 3 _ 2 | m.8 O.c.F.s+I+q.q.q.q.q.q.q.f.f.f.f.f.f.,.F.F.c.@+@+O.N.i } 1 2 3 / ] ! 5 6 j $ . @ k m n o o p q r r s t+Z+i@i@i@i@Z+Z+Z+Z+Z+Z+t+t+t+s s s r r q q p o o n m m l l l l l l l l l l l l l l l l l l l l l l l l m m n n o p p p p p o o n n m l k @   . + $ j > 6 , 5 ) ! ~ ] ^ ^ / 4 3 3 _ _ 2 2 2 2 1 1 1 1 1 1 1 2 2 3 4 / ] { ! ) 5 5 5 5 5 ) ) ) ! ! ! ! ! ! ! ! ! ! ! ! ~ { ] 7 ]+( A.T : < [ B.N.O.@+c.F.F.,.f.q.q.q.q.x x >.>.h.h.;.;.;.;.U U U U U U U U U U U U U U U U y y '.g f e b a 0 V.i } 1 2 _ 3 4 4 / / ^ ^ ] ] { { { ] ^ / 4 4 3 A._ :+2 2 1 1 1 | | } i B.N.O.@+c.F.F.,.f.q.x >.v+h.;.-.-.).=.=.=.=.=.).).-.;.h.h.h.;.;.-.D@-.-.-.-.-.-.-.;.;.h.>.x q.f.f.,.,.F.F.F.F.c.c.c.a @+@+0 0 a a a a b b b b c c c F.b b a a a a a 0 0 0 0 0 0 s.a a a a a a a a 0 9 8 i | 2 _ 4 ^ ] { ~ ! ! ",
"o o n n m m l m&k @ @     . + # $ ; j j > > 6 6 , , ' ' 5 ) ) ! ~ { ] ] ^ / 4 4 3 _ 2 1 | } i 8 8 9 9 9 9 0 a b c e t.i.H.x+(.y+,*1$N+<.[.P+}.}.}.}.Q+Q+Q+|.|.|.|.|.|.|.|.|.|.|.C+C+C+4.3+3+a#E E 0#` D.R.B A %+y h f b 0 8 } 1 2 _ 3 4 4 4 4 3 3 T 1 [ i N.@+c.,.f.f.q.q.q.f.f.f.,.,.,.,.,.F.F.c.@+O.N.B.m.[ < 2 A.4 ^ { ! 5 , j $ +   k m n o p p q r r s t+Z+i@P#P#P#i@i@Z+Z+Z+Z+Z+Z+Z+t+t+t+s s r r q q p o n n m m m m l l l l l l l l l l l l l l l l l l l m m m n n o o p q q q p p o o n m m l k @ . + # ; j 6 , ' 5 ! ~ { ] ^ / / 4 4 3 3 _ _ _ _ 2 2 2 2 2 2 2 2 _ 3 4 ^ ] ~ ! ) 5 5 5 5 5 5 5 5 5 0.0.5 5 5 5 ) ) ) ) ) ! ~ w #+7 ]+( A.T < [ m.B.N.O.@+c.F.F.,.f.f.f.f.q.q.x x >.>.h.h.h.y y y y y y y y y y y y U U U U U U U y '.h g f e c b a 9 8 i } | 1 1 2 2 _ _ 3 z.4 4 4 3 _ T 2 1 1 | | } } i i B.8 8 V.9 0 @+c.F.F.,.f.f.q.x x >.h.h.;.-.-.).).).=.=.=.).-.;.;.h.>.x x >.h.;.-.-.;.;.;.;.;.;.;.h.>.>.x q.f.,.,.,.F.F.F.F.c.c.c.a @+@+0 0 a a a a b b b b c c c c c b b b b b b b b b b b b b b b b b b b b b a 0 9 i } 1 _ 3 / ] { ~ ~ ! ",
"P.n n m m l k k @   r&. + |># $ 1>2>> 6 6 , , X@' 5 5 ) ) ! ~ { ] / 4 4 3 _ 2 2 1 | } i i 8 9 9 9 0 0 0 0 a a 3>e f i.{./.Y.5#_.X;q+N+O+[.P+R$}.}.}.}.B+Q+Q+|.|.|.|.|.|.|.|.|.|.C+C+C+8#3+3+0#E E E P o.R B Q.V -.'.g e b 0 8 } | 2 _ 3 3 4 4 4 3 _ 2 < } B.O.@+F.,.,.f.f.f.f.,.,.F.F.F.F.c.c.@+O.Q@m.[ < : T A.]+7 ] ~ K.5 , g+$ +   k m n o p q q r r s t+Z+i@i@P#P#P#P#i@i@i@i@i@i@Z+Z+Z+t+t+t+s s r r q q p o n n m m m m m m m m m m m m m m m m m m m m m m m m n n o o p q q q q q p p o o n m l k @   . # $ j > 6 ' 5 ) ! { { ] ^ ^ / / 4 4 4 3 3 3 3 _ _ _ _ _ _ _ 3 4 / ] { ~ ) 5 ' ' ' ' ' ' ' ' ' ' ' ' ' ' ' ' 5 5 5 5 ) L.M.] 7 ]+( A.T : < m.B.N.O.O.@+c.4>F.W+,.,.,.f.f.q.q.x x >.>.>.'.'.'.'.'.'.'.'.'.'.'.y y y U U U U U U y '.'.h g g f e c b a 0 9 8 8 i } } [ | 1 1 1 1 1 | } i i 8 8 9 9 0 0 0 a a c.b F.F.,.,.f.f.q.x x >.>.>.h.h.;.;.-.-.D@).).).).).-.;.h.>.x q.w+q.<%>.h.h._@h.h.h.h.h.h.>.>.x x q.q.f.,.,.,.F.F.F.F.c.c.c.a @+@+@+@+a a a a b b b b c c c c c c c c c c c c c c c c c c c c b b b b b b a 0 9 8 } 1 _ 3 / ] { ~ ! ! ",
"n n m m l k @ 5>r&I#+ # $ $ ; j > 6 , , ' ' ' 5 5 ) ) ! ~ { ] ^ 4 3 T 2 1 | } } i 8 N.9 0 0 0 0 0 0 0 0 0 a b c e g h {..#N@M+3#v.z+<.O+[.P+P+P+P+P+P+}.B+Q+Q+|.|.|.|.|.|.|.|.|.C+C+4.8#3+0#0#0#0#P P o.R =+Q.V z y '.g e b 0 V.i | 1 _ 3 3 4 6>3 _ T 1 [ i N.O.c.F.F.,.,.,.,.F.F.c.c.@+@+@+O.N.m.[ < : A.( ]+++w M.! 0.' 6 j $ +   k ^@n p q q r r r s t+t+Z+i@P#.$.$.$P#P#P#P#i@i@i@i@i@Z+Z+Z+t+t+s s r r q q p o n n n n n n n n n n n n n n n n n n n n n n n n n n o o p p q r r r q q p p o n n m l k @ . + $ ; > 6 , ' ) ! ~ { ] ] ^ ^ / / / / 4 4 4 4 3 3 3 3 _ _ _ 3 4 ^ ] ~ ! ) ' ' , , , , , , , , , , , , , , , ' ' ' ' 5 K.~ w #+7 ]+( A.: < [ m.B.N.O.O.@+c.c.F.F.F.F.,.,.f.f.q.q.q.x x x h h h h h h h h h h h '.'.y y y y U U y y y '.'.h h g t.f e c F.b a a 0 0 9 9 8 8 i B.8 N.9 p.0 a a r.b j.c ,.e e f f f q.q.q.x x >.>.>.h.h.h.h.;.;.;.-.-.-.-.).).-.-.;.h.>.x f.,.,.,.f.q.x >.>.>.x x x x x x x q.q.f.f.f.,.,.,.F.F.F.F.c.c.c.c.@+@+@+@+a a a a b b b b c c c c e e e e e e e e e e e e e e e c c b b b b a a 0 9 8 } 1 _ 4 / ] ~ ! ) ) ",
"m m m l k @   . + # $ ; h@@&> 6 , ' ' 5 5 5 ) ) ! ! ~ { '#^ / 4 _ 1 | } i U.8 9 0 0 a a a a a a 0 0 0 0 0 a a c e g h h..#f+M+p+v.N+<.O+[.y@P+P+P+P+P+x@}.Q+Q+2+|.|.|.|.|.|.|.|.C+C+4.3+>#T+c+P P P o.Q R =+W A S U y h g ].c a 9 i | 1 _ _ 3 3 3 3 _ : < m.B.N.@+c.c.F.F.F.F.c.c.@+O.O.N.N.B.m.< : A.( ]+#+w M.K.0.x., y.j $ # . @ l n p q r r s s s t+Z+Z+i@P#.$.$.$.$.$.$.$P#P#P#P#i@i@i@i@Z+Z+t+t+s s s r q p o o o o o o o o o o o o o o o o o o o o o o o o o o o o p p q r r r r r q p p o o n m l k @   + # ; j > , ' 5 ) ! ~ { ] ] ^ ^ ^ ^ / / / 4 4 4 4 4 3 3 3 3 4 / ^ { ~ ) 5 ' , , , , 6 6 , , , , , , , , , , , , , l.' 0.! M.#+7 ]+( A.T : | m.m.B.N.O.O.@+@+c.c.c.c.F.F.,.,.,.f.f.f.f.f f f f f f f f f f f q.g g h h '.'.'.y y y y y y y '.'.'.h h g t.f f.e d c j.b c.a a a a c.b F.c c e e f f g g g h h h >.>.>.>.>.v+h.h.h.h.h.;.;.;.;.;.;.-.-.-.-.-.;.;.h.x q.f.,.c.c.c.F.,.w+q.q.q.q.q.q.q.q.f.f.f.f.,.,.,.,.,.F.F.F.F.R@c.c.c.a @+@+@+@+a a a a b b b b c c c e e e f f f f f f f f f f f f f e c c b b b a 0 0 V.i } 1 _ 4 ^ { ~ ) ) 5 ",
"l l ,#t$w#%#k@$#V@j@h@g+j#$+, ' E+)+) ) 5+! ! <#~ i#'#] ^ / z._ 1 } i 8 9 9 0 a a b b b b b a a 0 0 9 9 0 0 a b ,.f x {.L+:@M+b@v.z+R#O+]#y@K@K@y@y@P+x@}.'@$@$@2+|.|.|.|.|.2+|.C+4.8#3+T+c+c+c+c+o.o.D.R =+B A V z U y '.g f F.0 8 } | 2 _ _ 3 3 (@_ 2 < [ m.8 O.0 @+c.c.c.a @+O.9 N.B.B.m.[ < T A.]+7 w M.L.K.x.l.J.> j * # . @ k m o q r s s t+t+t+Z+i@i@P#.$.$#&#&#&#&#&.$.$.$.$P#P#P#P#i@i@Z+Z+t+t+t+s s r q p o o o o o o o o o o o o o o o o o o o o o p p p p p p q q r r s s r r q q p p o n m l k @   + # $ j > 6 , 5 ) ! ~ 8@{ ] ] ] ^ ^ ^ / / / / 4 4 4 4 4 4 4 / ^ ] { ! ) 5 ' , 6 6 6 6 6 6 6 6 6 6 6 6 6 6 6 6 6 6 , , x.K.L.w #+7 ]+( _ : < [ m.m.B.N.N.O.O.0 @+@+@+@+c.c.c.F.F.F.F.F.F.F.c c c c c c c c c c c e e f f g g h h '.'.'.y y y y y y '.'.'.h h h g g f f e e ,.c ,.e f.f.f f g g 7>h h '.'.y y y y y h.h.h.;.;.;.;.;.;.;.;.;.;.;.;.;.;.;.;.;.h.>.x q.f.F.c.@+O.O.@+c.,.,.,.,.,.,.,.,.,.c F.F.F.F.F.F.F.F.F.F.c.c.c.c.a @+@+@+@+@+@+@+a a a c.b b b c c ,.e e f f q.g g g g g g g g g g q.f e c b b a a 0 9 8 } | 2 3 / ] ~ ! 5 ' ' ",
"O#O#8>9>0>@;.;H*.&g+j#$+6@E+E+)+5+H#<#{+i#i#i#'#'#++Z#b.,@z./+2 | i 8 9 0 a a b b b b b b a a 0 9 9 8 8 8 9 0 a b e q.i.4@L+a@t@<@m@+@}@o@y@(#)@(#(#)@x@=#5.$@$@8#4.4.4.8#$@$@8#8#8#5.T+;#c+o.o.o.o.D.D.R =+B A V S z U y '.g e a 9 i } 1 2 _ _ _ _ _ 2 1 [ m.B.8 9 O.O.0 p.O.9 N.B.i m.[ < : T ( ]+#+w M.K.0.x.l.J.> j ; $ +   @ l n p O;s t+t+Z+Z+i@i@P#P#.$.$#&#&$&$&#&#&#&#&#&#&.$.$.$P#P#i@i@Z+Z+Z+Z+t+s r q p p o o o o o o o o o o o o o o o p p p p p p q q q q q r r r s s s r r q q p p o n m l k @   . & $ ; j 6 , ' 5 ) ! ~ { { ] ] ^ ^ ^ / / / 4 4 4 / / / / / ^ ] { ~ ! ) 5 ' , 6 6 > > > 6 6 6 6 6 6 6 > > > > > > 6 6 l.5 K.M.w #+/ ( A.T 7+< [ m.m.B.B.N.N.9 O.O.O.O.O.O.O.O.O.O.p.p.0 0 0 0 0 0 0 0 0 0 0 0 0 s.a r.b c e e f g g h h '.'.y y y y y y y y '.'.'.h h g g g f q.q.g g x h h h '.'.'.y y y U U U U U U U -.-.-.X+;.;.;.;.y y y y y y y h.'.>.x q.,.F.c.@+O.N.N.O.0 a c.c.c.c.a a a a a a a a a c.c.c.c.c.c.c.@+@+@+@+0 0 O.O.O.0 0 @+@+a a b b F.c ,.e e f f V*g g x x x x x x h h x g f e e c b b a 0 8 i | 1 _ 4 ^ { ! 0.' , , ",
"a>b>0>c>W-U-2# &U%T%`%#;W%}-X%{+7=r#d#p%|%|%Z#Z#H%c#/$/$H$/+:+;+u i 8 9 0 a r.b b r.r.a s.0 9 N.8 i i i i i 8 9 a F.e q.i.h.:@a@b@~@&@4#e@|@(#(#)@)@6._#T+5.3+8#8#8#8#8#3+3+3+3+3+5.7#T+c+o.D+D.D.D.D.R =+=+B Q.A S z z U '.h e b 0 8 } | 1 2 _ _ _ 2 2 1 | } m.i B.8 8 8 8 8 B.i } [ < : T A.( 7 #+w L.K.0.x., 6 > j ; $ # +   k m o p r s Z+Z+i@i@P#P#.$.$#&#&$&$&$&$&$&$&$&$&$&$&#&#&#&.$.$P#P#i@i@i@Z+Z+t+s r q p p p p p p p p p p p p p p p p p p p q q q r r r r r s s s s s s r r q q p o o n m l k @   . + # ; j > 6 , ' 5 ) ! ~ { ] ] ^ ^ / / 4 4 4 4 4 / / / / ^ ^ ] { ~ ! ) ' , , 6 > > > > > 6 6 6 6 > > > > > > d>j > > J.' 0.! M.w ^ ]+3 T : < < [ [ m.m.B.8 8 8 8 8 8 8 B.B.B.B.B.i i i i S.m.} } } } } } m.i i i 8 8 9 0 a c.b c e f g i.h '.'.y y y y y y y y y y '.'.h h h x x x _;h h >.'.'.'.'.y y y y y U U U -.-.-.-.-.-.;.;.;.h.h.h.'.'.'.'.>.h x g f.,.F.@+O.N.B.B.i B.8 9 9 9 9 9 9 9 9 9 9 9 9 9 O.0 0 @+@+@+@+@+O.O.O.O.9 9 9 9 9 O.O.0 @+a a b b c c ,.e f.q.q.g x x h h h h h h h h h x g f e c c b a 9 8 } 1 _ 4 ^ ] ~ ) ' , 6 6 ",
"e>e>W-X-P-O-f>I-f-d-S%s#K%7=d#J*o%I%q#H%c#O%d=/$G%G%9%9%Q%}$[$;+} i 8 9 0 a a a a s.0 p.V.8 i i } } | | | } } 8 9 a b e q.i.h.:@%+Y+.+_+!@'+D+-#6.6.c+T+0#3+3+a#a#a#a#3+3+>#0#0#T+T+T+c+o.D+D.D.D.N#R R =+B B Q.A V S z U y h f c a 9 i } 1 1 2 2 2 2 1 1 | | } } } i i i i m.} [ | 1 2 _ ( ]+7 #+M.L.K.0.l.J.y.> j ; $ # + . @ l n o q s t+Z+i@P#.$.$#&#&#&$&$&$&-&-&-&-&-&-&-&$&$&$&$&#&#&.$.$P#P#i@i@i@Z+Z+s r q p p p p p p p p p p p p p p p p p p q q r r s s s s s s s s s s s r r q q p o o n m l k @   . + # $ ; > 6 , ' 5 ) ! ~ { { ] ^ / / 4 4 4 3 4 4 4 / / ^ ^ ] ] { ~ ! ) 5 ' , 6 > > > > > 6 6 6 > > > > > j j j j j j y., x.0.L.{ #+/ ( A.T : < < < [ } m.i i i i i m.} } [ [ | | < 1 1 1 1 2 2 2 2 2 2 2 : 1 1 1 ;+| } i 8 9 0 a a b d f g g h h '.'.'.y y y y y y y '.'.h h h x x x h h h h h '.'.'.'.'.'.'.y y U U U U ;.;.;.h.h.'.>.>.h h x g g g f e ,.F.c.0 N.B.m.[ [ [ [ } m.i i i i i i i i i i B.8 8 N.9 9 O.O.O.9 9 N.N.N.N.8 8 8 N.9 9 O.0 @+a b b c ,.e f.f q.g x x h >.>.>.>.>.>.>.>.>.x x q.f e c b s.9 i | 2 3 / ] { ! 5 , 6 > j ",
"g>Q-Q-h>G-H-f-J-h-y%w%v%u%I%H%j%d=A%A%g%g%9%9%-=-=7%e%-%-%E#o#u S.U.8 9 0 0 s.0 0 9 V.U.S.} | 1 1 1 2 2 2 1 | } i 9 0 b ,.q.i.h.-.%+w.W 9.'+D+D+c+c+c+0#0#a#a#a#a#a#a#0#0#0#0#T+T+T+c+c+D+D+D.D.D.R R =+=+B B Q.A V S z U y h f c a 9 i } | 1 1 2 2 2 1 1 1 < | | | | | | | | | 1 : 2 A.( ]+^ w M.L.K.x.l.J.y.- = ; $ # + .   k m n p r s Z+i@P#.$#&#&$&$&$&$&-&-&-&-&-&-&-&-&-&-&-&$&$&$&#&#&.$P#P#P#i@i@i@Z+t+r q p p p p p p p p p p p p p p p p p q q r r s s t+t+t+t+t+t+t+s s s r r q q p o n n m l k @ @   + # $ ; j 6 , ' 5 ) ! ~ { ] ] ^ / 4 {#3 3 3 3 3 4 4 / / ^ ^ ] { { ~ ) 5 ' , 6 6 > > > > 6 6 6 > > > j j j j ; ; ; j - 6 l.5 K.~ ] ^ ,@3 _ 2 : : : < | [ } } } } | | | < 1 : 2 2 _ _ _ 3 3 3 3 3 3 3 3 3 3 3 3 3 _ :+2 1 | } i 8 9 0 a b c e f f g x h '.'.h.y y y '.'.h h x g g g q.g g g g g g g g g g g h h '.'.'.h.'.'.>.>.x x q.q.f ].e e e c c b c.a p.N.B.} [ < : : : : 1 1 < | | | | | | | | } } } i i 8 8 8 N.N.8 8 8 8 8 8 8 8 8 8 N.9 O.O.@+a b F.c ,.f.f.q.q.x x x >.>.>.>.>.>.>.>.>.>.h x g f e c b 0 9 } 1 _ 4 ^ ] ~ ) ' 6 j j ; ",
"i>h>j>k>t-f-|-=-;-v%t%j%A%g%9%f%-=6%7%7%e%-%[%0%0%4%1=1=,%,%e$S.U.U.8 9 9 9 9 9 8 i S.| 1 2 _ _ 3 3 3 3 3 _ :+1 | } 8 O.a c f i.~.-.S A B k.D.o.c+c+P 0#E b&a#a#b&E E 0#0#P P c+c+c+c+o.o.D+D.D.D.R R =+=+B B Q.A V S z U '.x f.F.a 9 8 } | 1 1 1 1 2 2 2 2 s;1 1 1 1 1 1 1 1 2 2 _ 3 4 / #+w ~ ! )+x.l.6 > j ; $ # # + .   @ l n o q r t+Z+i@.$#&$&$&-&-&-&-&-&!&!&!&!&!&!&!&-&-&-&$&$&#&#&.$.$P#P#P#i@i@i@Z+t+r q p p p p p p p p p p p p p p p p p q O;r s s t+t+t+Z+Z+t+t+t+t+s s r r q q p o n n m l k @ @   . # $ ; j > 6 , ' 5 ! ~ { ] ^ / 4 3 _ _ 2 2 2 _ _ 3 3 4 4 / / ^ ] { ~ ! 5 ' , , 6 6 > 6 6 > > > > j j j ; ; ; ; ; ; j > J.' 0.! { #+/ 4 A._ T T T 2 : 1 | | | | 1 1 : 2 T _ A.3 4 4 / / b.^ ^ ^ ^ ^ ^ ^ ^ ^ / / ,@4 3 _ 2 1 | } i 8 9 0 a b b c e e f g h h h '.'.>.h g g f f e e e e e e e e e e e e e e e f f f q.q.f f f.f.,.c F.b b c.a s.0 0 O.N.8 i } | 1 2 T A.3 ( ( 3 3 _ _ _ 2 2 2 2 2 1 1 1 | | } } i i i B.B.i i i i i i i i i B.8 N.O.O.@+a b F.c ,.f.q.q.x x x >.>.>.>.>.>.>.>.>.>.>.>.h g q.f c b 0 8 } 1 _ 4 ^ { ! 5 , > ; $ $ ",
"j>G-k>t-f-|---X=P=j%m%-=5%4%]$1=1=3%3%3%3%*$a%a%m=m=m=W#W#D#D#U.U.U.8 8 8 8 8 i } | 1 2 _ 3 4 / / ^ ^ 7 / 4 4 3 2 1 | i 9 a c f h y z V Q.=+D.o.o.P P 0#E E E E E E 0#P P P c+c+o.o.o.o.o.o.D.D.D.R R =+=+B B Q.A V S z y >.q.e b 0 9 8 } | | 1 1 1 2 2 2 2 l>l>2 2 2 2 2 2 _ _ _ 3 4 / ] { ~ K.0.x., 6 > = * $ # + .     @ l m o p r s t+i@P#.$#&$&-&-&!&!&!&!&!&!&!&!&!&!&!&!&-&-&$&$&#&#&.$.$P#P#i@i@i@Z+Z+s r q p p p p p p p p p p p p p p p p p q r r s s t+t+Z+Z+Z+Z+t+t+t+s s r r q q p o n n m l k @ @   . # $ ; j > 6 , ' ) ! ~ { ] ^ 4 3 _ 2 1 1 1 1 1 2 2 2 _ _ 3 3 4 / ^ w ~ ! ) 5 ' , 6 6 6 6 > > > j j j ; ; ; $ $ $ $ ; - 6 , 5 K.~ ] ^ ]+( 3 A.A._ _ T 2 : 1 1 2 2 2 _ _ 3 ( 4 / / ^ ] ] { { { { { { { { { { ] ] ] ^ / 4 3 _ 2 1 | u } i 8 9 0 s.a b c e ].f g g g g f f e c c b b r.a b b b b b b b b b b b b b b b b b b c.a @+0 O.9 N.8 B.i m.} [ | 1 : 2 _ 3 4 / b.^ ^ ^ 7 / / 4 4 4 3 3 3 _ _ _ 2 1 1 | | } } } m.m.} } } } } } } } i i 8 N.O.O.@+c.b F.,.f.f.q.q.x x >.>.>.>.>.>.>.>.>.>.>.>.>.h x g f e b 0 8 } 1 3 / ^ { ! 5 6 j $ # # ",
"H-t-u-g-h---X=P=A%6%[%3%W#(=]%]%]%]%{${$(=]%]%]%]%]%]%&$F$7$7$h#h#U.U.i i S.} | 1 _ 3 4 / ^ ] { { { { { ] ^ / ]+3 _ 2 | i 9 a c f h g.S A B R D.o.o.P P 0#E E E P P P P @.o.o.o.D+D.D.D.D+o.D.D.D.R R =+9.B Q.Q.A V S U h.x f c c.0 9 i } | | | 1 1 1 2 _ _ _ _ _ _ _ _ _ _ 3 3 3 4 / #+{ ~ ) 5 ' , 6 > = $ # # + .   @ k l m n p q r s Z+i@P##&$&-&-&!&!&!&!&m>m>m>m>m>m>m>!&!&-&$&$&#&#&.$.$P#P#i@i@i@i@Z+t+s r q p p p p p p p p p p p p p p p p p q r r s t+t+Z+Z+Z+Z+Z+Z+t+t+s s r r q q p o n n m l k @ @   . # $ ; j > 6 , ' ) ! ~ { ] / 4 _ 2 1 | | } } | | | | 1 1 2 2 _ 3 4 ^ ] ~ ! ) 5 ' , 6 6 > > > j j j ; ; $ $ $ ~+# $ ; j > 6 ' ) ! { ] 7 ]+4 ( ( ( 3 3 _ _ _ _ _ _ 3 3 4 4 / / ^ ] ] { ~ ~ ! ! ! ! ! ! ! ! ~ ~ ~ { ] ^ / 4 4 3 _ 2 1 1 | } i i 8 9 p.0 a b c ,.e e e c c b a @+0 9 9 9 9 9 9 9 9 9 9 9 9 9 9 9 9 9 9 9 9 V.8 8 i i } } | | 1 : 2 T A.3 ( 4 / ^ #+] { { M.~ M.{ { ] ] ^ ^ / / ,@4 4 3 _ _ 2 1 1 | | | | | | | | | | | } } } i B.N.9 O.@+c.b F.,.f.f.q.x x >.>.>.>.>.>.>.>.>.>.>.>.>.>.h x g f e b 0 8 } 1 3 / ] { ! 5 6 ; # + + ",
"g-g-|-1-;->-k%m%6%3%/%{%_%$%%$%$$%$%_%_%_%_%_%_%_%_%_%_%V#R%b$~#V.U.i S.u | 1 _ 3 4 ^ ] { ~ ! ! ) ) 5+! ~ { ] ^ / 4 3 2 | i 9 a c t.'.U V Q.=+R D.D.o.o.` P P P P o.o.o.o.D.D.D.D.R R D.D.D.D.D.R =+=+B B Q.A A V S z y >.q.e F.a 9 8 i } } | | | 1 1 2 _ _ 3 3 3 3 3 3 3 3 3 3 4 / ^ ] ~ ! )+' , 6 > j ; # + + .   @ k l m n o p q r t+Z+i@P#.$$&-&-&!&!&!&!&!&!&!&!&m>m>!&!&-&-&$&$&#&.$.$P#P#i@i@i@Z+Z+Z+t+s r q p p p p p p p p p p p p p p p p p q r s s t+t+Z+Z+Z+Z+Z+Z+t+t+s s r r q q p o n n m l k @ @   . # $ ; j > 6 , x.) ! ~ { ^ / 3 _ 2 | } } i i i i } } } } | | 1 2 A.4 ^ { ~ ! 0.' l., 6 > > j j j ; ; $ $ $ # # # # $ ; j > , x.) ~ { ] ^ / / / / 4 4 4 3 3 3 4 4 4 / / ^ ^ ] a.{ ~ ~ ! ! ) ) ) ) ) ) ) ) ! ! ! ~ { ] ^ / / 4 3 3 _ 2 2 1 | | } } i 8 9 0 0 a b b b a 0 0 9 8 i i } } } } } } } } } } } } } } } i i } } } u | | 1 1 2 2 _ 3 ( ]+7 ^ #+] { { ~ ! ! ) ) ) ) ) ) ! ! ~ ~ { { ] ^ ^ / 4 4 3 _ _ 2 7+1 1 1 1 1 1 1 1 1 1 | | } } i 8 9 O.@+c.F.F.,.f.q.q.x x >.>.>.>.>.>.>.>.>.>.>.>.>.>.h x g f e b a 8 } 1 3 / ] { ! ' 6 ; # + + ",
"----;-X=P=i%B=5%^>]%_%%$2$!$$$$$0;!$!$2$2$2$2$2$*%%$%$%$:$2%n%g#|+U.S.| 1 :+3 ]+^ { ~ ! ) 5 ' ' ' ' ' 5 ) ~ { ] ] ^ 4 3 2 | i 9 a e g y z V Q.B =+^+R D.D.Q o.o.Q D.D.D.D.R R R =+=+=+R R R R R =+B B Q.A A V S S z y '.g f.c c.0 9 8 i } } | | | | 1 1 2 _ 3 3 3 3 3 3 3 3 3 4 4 / ^ { ~ ) 5 ' , 6 j ; $ # + .   @ k l m m n o p q r s t+i@P#.$#&$&-&-&!&!&!&!&!&!&!&!&!&!&!&-&$&$&#&#&.$.$P#P#i@i@Z+Z+t+t+s r q q p p p p p p p p p p p p p p p p p q r s s t+t+Z+Z+Z+Z+Z+Z+t+t+s s r r q q p o n n m l k @ @   . # $ ; j > 6 , ' ) ! ~ { ] / 3 _ 1 | } i 8 8 8 8 8 8 8 8 i i } | 2 3 / ^ { ! ) 5 ' , 6 > j j j ; ; $ $ $ # # + + + # $ ; j j#, 5 ! ~ { ] ^ ^ ^ ^ ^ / / / / / / ^ ^ ^ ] ] { { ~ ~ ! ! ) ) ) ) ) ) ) ) ) ) ) ! ! ~ { { ] ^ / / 4 4 3 3 _ _ 2 2 1 1 | | } i 8 8 9 9 9 9 8 i } | 1 1 2 2 2 2 2 2 2 2 2 2 2 2 2 2 1 1 1 1 1 1 2 2 _ _ 3 3 4 4 / #+{ ~ ! K.) ) 5 5 ' ' , , , , , , ' ' 5 ) ) ! ~ { { ] ^ / 4 4 3 _ _ 2 2 2 2 2 2 2 2 2 2 1 1 | } i 8 N.O.@+c.F.F.,.f.q.q.x x >.>.>.>.>.>.>.>.>.>.>.>.>.>.h x g f e b a 8 } 1 3 / ] { ! 5 6 j $ # + ",
">->-P=k%m%6%4%n>{%$%2$$$)$#$#$#$#$)$)$)$T#T#T#$$$$$$!$.%B#z$f#n%~#U.u 1 _ 4 b.] ~ ) 5 ' , 6 > > > 6 , ' 5 ) ~ { { ] ^ 4 3 2 | i O.b e h y z V A Q.B B =+=+R R R R R R R =+=+=+B B B B =+=+=+=+=+B Q.A A V S z -.U y '.g f ,.b @+9 8 i } } } } } } } | 1 2 _ _ 3 3 3 3 _ _ 3 3 3 4 / ^ { ~ ) 5 , 6 > j ; # + .   @ k k l m n o p p q r s t+Z+i@P#.$#&$&$&-&-&-&-&-&-&-&-&-&-&-&$&$&#&#&.$.$P#P#i@i@Z+Z+t+t+s s r q q p p p p p p p p p p p p p p p p p q r s s t+t+Z+Z+Z+Z+Z+Z+t+t+s s r r q q p o n n m l k @ @   . # $ ; j > 6 , ' ) ! ~ { ] / 4 _ 1 | } 8 8 9 9 9 9 0 0 0 9 9 8 } | 2 3 / ] ~ ) 5 ' 6 > j j ; ; ; $ $ $ # # + + . + + # $ ; j 6 ' 5 ! ~ { ] ] ] ] ] ] ^ ^ ^ ^ ] ] { { { ~ ~ ! ! ! ) ) ) ) ) ) ) ) ) ) ) ) ) ! ! ~ { ] ] ^ / / ,@4 4 4 3 3 3 3 _ _ _ 2 1 1 | } } } } } | 1 2 _ A.3 4 4 4 4 ,@]+]+]+]+/ / 4 4 3 3 _ _ _ _ 3 3 3 4 4 / / ^ ] { L.) ' , , , J.6 6 > > > > g+> > > > 6 6 , ' 5 ) ! ~ { a.] ^ / / 4 3 3 _ _ _ _ _ _ _ _ _ 2 1 1 | m.B.N.O.@+c.F.F.,.f.q.q.x x >.>.>.>.>.>.>.>.>.>.>.>.>.>.h x g f e b a 8 } 7+3 / ] ~ ! 5 , > ; $ $ ",
"m%m%B=6%o>^>^%`;%$!$T##$S#@$@$@$@$@$'$'$1;S#S##$)$)$T#y$)%)#z$n#p.U.u 2 z.^ { ! 5 ' 6 > j ; ; ; ; j > J.' ) ! ~ { { ++/ 4 _ 2 | 8 0 c f h y z S V V A Q.Q.B B %.B B B B B Q.Q.Q.Q.Q.Q.Q.B B B Q..+A V S z U y y '.h g f c b a 9 8 i } } } } } } } } } | 1 2 _ _ _ _ _ _ _ _ 3 3 4 / ^ { ~ ) 5 , 6 > j ; # + .   @ k l m m n o p p q r r s t+Z+i@P#.$#&#&$&$&$&$&$&$&$&$&$&$&$&$&#&.$.$P#P#i@i@Z+Z+Z+t+t+s s r r q p p p p p p p p p p p p p p p p p p q r s s t+t+Z+Z+Z+Z+Z+Z+t+t+s s r r q q p o n n m l k @ @   + # $ ; j > 6 , ' 5 ) ~ { ] / 4 _ 1 | } 8 9 9 0 0 0 a a a a 0 9 i } : 3 / ] ~ ) 5 , 6 > j ; ; ; $ $ $ # + + . . . . . + # $ ; > , ' ) ! ~ { { { { { { { ] { { { ~ ~ ! ! ! ! ) ) ) ) ) ) ) ) ) ) ) ) ) ) ) ! ! ~ { { ] ^ / / / 4 4 4 4 4 4 4 4 4 4 4 3 3 _ _ 2 2 1 1 2 _ A.3 4 / ^ ] ] ] ] { { { { { { { ] ] ^ b./ ,@/ / / ^ ^ ] ] { { { ~ ) E+, > j j = h@; ; ; ; $ $ $ $ j@; ; ; j > 6 , ' 5 ) ! ~ { ] ] ^ / 4 4 3 3 3 3 3 4 3 3 3 _ 2 1 | } B.N.O.@+c.F.F.,.f.q.q.x x >.>.>.>.>.>.>.>.>.>.>.>.>.>.h x g f e b 0 8 } 2 3 / ] { ! 5 , 6 j j ; ",
"4%4%G=^>/%Z;H=*%$$)$S#@$_$1$q+q+q+1$1$1$_$_$@$'$'$S##$g$D%a$6#!#g#U.;+_ / '#! 5 , > j ; $ # # $ $ ; j 6 ' 5 ! ~ { { ] ^ / 3 _ 1 i 9 a c f h y U U z S S V A A Q..+A A A A *.V V V V V w.A A A w.V S z U y '.h g g f e c b 0 9 8 i } } } } } } } i i } | 1 2 2 2 T 2 2 2 2 _ _ 3 3 4 ^ ] ~ ) 5 ' , > j ; $ + .   @ k l m m n o o p p q r r s t+Z+i@P#P#.$.$#&#&#&#&#&#&#&#&#&#&.$.$.$P#P#i@i@Z+Z+t+t+t+s s r r q q p p p p p p p p p p p p p p p p p p q r r s t+t+Z+Z+Z+Z+Z+Z+t+t+s s r r q q p o o n m l k @ W@. + # $ ; j > 6 , ' 5 ) ! ~ ] ^ 4 _ 2 | } i 8 9 9 0 0 a a b a @+9 8 } 1 A./ ] ~ ) ' , 6 > j ; ; $ $ $ # + + . .       . . + # ; j 6 ' 5 ) ! ~ ~ ~ ~ ~ ~ ~ ~ ~ ~ ! ! ! ) ) ) ) 5 5 5 5 ) ) ! ! ! ! ! ! ! ! ! ~ ~ { ] ] ^ / 4 4 4 4 4 4 4 4 4 / / / / / / / 4 4 4 3 3 3 4 4 / ^ ] { ~ ~ ! ! ! ! ! ! ! ! ! ! ! ! ~ { { ] ] { { ~ ~ ! ! ) ) 5 5 , > = $ # # # # # # # # # # # # # # # % $ ; j > 6 , ' 0.! ! ~ { ] ^ ^ / / / / / / / / / 4 3 _ 2 < u B.N.O.@+c.F.F.,.f.f.q.x x x >.>.>.>.>.>.>.>.>.>.>.>.>.h x g f e b 0 8 } 2 3 / ] { ! ) ' , 6 > > ",
"]%]%]%`;H=%$I=p>X$S#@$_$q+N+N+<.<.<.N+N+N+q+1$,$_$@$'$S#,+o+G.>+g#U.;+3 ^ ~ 0., > j $ # + + + # # j@j 6 ' ) ! ~ { ] ] ^ / 4 _ 1 } 8 0 b d f g h '.'.y U z S S V S S S S %+z z z z z S S S S S %+z U y '.h g f e c b a 0 p.9 8 i } | | | | } } i i i i } | 1 1 2 2 2 2 2 2 2 2 _ 3 4 / ] { ! ) 5 , 6 > j $ # + .   @ k l m n n o o p p q q r r s t+Z+i@i@P#P#P#.$.$P#P#q>q>P#P#P#P#i@i@i@Z+Z+Z+t+t+s s s r r q q q p p p p p p p p p p p p p p p p p p q r r s s t+t+Z+Z+Z+Z+Z+t+t+s s r r q q p o o n m l k @   . + # $ ; j > 6 , ' 5 ) ! ~ { ^ / 3 _ 1 | i 8 8 8 9 9 0 a a a 0 9 8 } : 3 / ] ! 5 ' 6 > j j ; ; $ $ # # + . .           . + # $ j 6 , 5 ) ! ! ! ! ! ! ! ! ! ! ! ) ) ) 5 5 5 5 5 5 5 5 ) ! ~ ~ ~ { { { { { { { ] ] ^ / 4 4 3 3 3 3 3 3 3 4 4 4 / ^ ^ ^ ^ ^ ^ ^ ^ ^ ^ ^ ] ] { ~ ! ) ) 5 x.' ' ' ' ' ' ' ' ' ' ' 5 ) ) ) ) ) 5 5 ' ' , , 6 6 > j $ + .       . . . . . . + + + + + + + # # $ ; > 6 , ' 5 ) ! ~ { ] ] ^ ^ ^ ^ ^ ^ ^ ^ ^ / 4 3 T 1 [ S.N.O.@+c.F.,.,.f.f.q.q.x x x >.>.>.>.>.>.>.>.>.>.>.>.>.h g f c a 0 i | 2 3 / ] { ! ) 5 E+' ' , ",
"%$%$%$2$!$p>W$#$'$@$1$q+N+<.<.O+O+O+O+O+O+<.N+q+1$_$@$y+A#x+^.>+s.B.1 4 ] ! ' 6 j $ # + . . + + # $ j 6 ' ) ~ { ] ] ^ / 4 4 _ 2 | i 8 0 b c e f f g g >.y U U U U U g.y y ~.~.y y g.U U U U g.y y '.h g f e c b a 0 9 8 i i } | | 1 1 | | } } i i i i } } | | 1 1 1 1 1 1 1 2 2 _ 3 / ^ ] ~ ! ) 5 , 6 > ; $ # + i$w#t$k l m m n n o o p p p q r r s t+Z+Z+Z+i@i@i@i@i@i@i@i@i@Z+Z+Z+Z+Z+t+t+t+t+s s s r r r q q q p p p p p p p p p p p p p p p p p p q q r s s t+t+t+Z+Z+Z+Z+t+t+s s r r q q p p o n m l k @   . + # $ ; j > 6 , ' 5 ) ! ~ { ] / 4 _ 2 ;+} } i i i 8 9 0 0 0 O.N.i | 2 4 ^ { ) ' , > > j j ; ; $ $ # + . .     w#w#    . + # $ j 6 , 5 ) ! ! ! ! ! ! ! ) ) ) ) 5 5 5 5 ' ' ' ' ' 5 ) ! ~ { ] ] ] ++^ ^ ^ ^ ^ b./ 4 ( 3 _ 2 2 2 2 T _ _ 3 3 4 / ^ ] ] { { { { { ~ ~ ~ ~ ! ! ) 5 ' , 6 6 6 6 > > > > > > > j#6 6 , , , , J.6 > > j h@; * $ # + . W@k k k k @ @ @       . . . . . . . . + # $ ; j > , ' 5 ) ! ~ { { ] ] ] ] { { { { ] ^ / 4 A.: ;+m.{@O.@+c.F.,.,.f.f.q.q.q.x x x >.>.>.>.>.>.>.>.>.>.>.>.x g e c a 9 i | _ 4 / ] { ~ ! ! ) ) ) ) ",
"T#T#T#)$#$Z=1;@$_$1$q+N+<.<.O+[.[.[.P+P+[.[.O+<.N+q+p+_.y+x$.@n+s.i 7+4 { ) , > ; # + . . . . + # ; j , 5 ! { ] ^ ^ / 4 4 3 _ 2 1 } i 9 0 a b b c c e f g h h h h h g g t.t.t.g i.h h >.{.{.h i.i.g f e c b a 0 9 8 i } } | | 1 1 1 1 1 | } } i i i i i } } | | | | | | | | 1 2 _ 3 4 / ] { ~ ! ) 5 , 6 > ; $ # 9+i$w#t$k l m m n n n o o o o p q r r s s t+t+t+t+t+t+t+t+t+t+t+t+t+t+t+s s s s s r r r q q q q p p p p p p p p p p p p p p p p p p p q q r r s s t+t+t+Z+Z+Z+t+t+s s r r q q p p o n m m k @   . + # $ ; j > , l.' 5 ) ! ~ { ] ^ 4 3 _ 1 | | } } } } i 8 8 8 8 i [ : A./ w ! 5 , 6 > j j j ; ; $ # # + .     @ @ @     . + # ; j 6 l.5 ) ! ! ! ! ) ) ) ) ) 5 5 5 5 ' ' ' ' ' ' ' 5 ) ! { ] ^ / / 4 4 4 4 4 4 3 3 _ _ 2 1 ;+| | | 1 1 2 2 _ 3 4 ^ ] { { ~ ! ! ) ) ) 5 5 5 ' ' , 6 > j j j ; ; ; ; ; ; ; ; ; ; j j j j j = ; $ $ # + + . .   @ k l m m m m l l k @ @                   . + # $ ; j > 6 , 5 ) ! ~ ~ { { { ~ ~ ~ ~ ~ { a.^ ]+3 T < m.{@O.@+c.F.,.,.f.f.f.q.q.q.q.x x >.>.>.>.>.>.>.v+'.>.h g f e b 0 8 } 1 _ 4 / ] { { ~ ~ ~ ~ { { ",
"'$'$'$'$@$@$_$1$q+N+<.<.O+O+[.P+P+}.}.}.}.P+K@]#<.N+q+p+_.Y.H.W.s.B.: / ~ 5 6 j $ + . . . . . + $ ; > , ) ~ ] ^ / 4 4 3 3 _ _ 2 1 | } i 8 9 0 0 0 0 a b c c e e c c b b r.r.r.b c d e e f.f.e e e e c F.b a 0 9 i } } | | 1 1 1 1 1 1 1 | } } i i 8 8 i i } } } } } } } } | 1 2 _ 3 4 / ^ ] { ~ ! ) 5 , 6 - ; $ & 9+i$w#t$k l m m n n n n n o o p p q q r r r c%4$r r r r r r r r r r r r r r r r r q q q q p p p p p p p p p p p p p p p p p p p p p p q q r r s s t+t+t+t+t+t+t+s s r r q q p p o n n m k @   . # $ ; j > 6 , ' ' 5 ) ! ~ { ] ^ / 3 _ 2 1 1 1 1 1 | | } } } [ < : A.]+] ~ ) ' 6 > j j j j ; ; $ # + .     @ @ @ @     . + $ ; > , ' 5 ) ! ! ! ! ) ) ) ) 5 5 5 5 E+' ' ' ' ' ' 5 5 ! ~ ] / 4 3 3 _ _ _ _ _ 2 2 2 1 1 | } } i i i } } | 1 2 _ ( / ] { ~ ! ) 5 5 ' , , , 6 6 > > j ; $ $ $ $ # # # # # # # # $ $ $ $ $ $ # + + .   @ @ k k l m n o o o o o n m l l k @ @ @ @ @ @ @ @ @   . + # $ ; j > 6 , 5 ) ! ! ~ ~ ~ ! ! ! ! ! ~ { ] 7 ( T k$c${@O.@+`+F.,.,.f.f.f.f.f.q.q.q.x x x >.>.>.>.>.>.>.>.x q.e F.a 9 i | 1 _ 3 / ^ ^ ] ] ] ^ ^ ^ ^ ",
"1$1$1$1$q+q+N+N+<.O+O+[.[.P+P+}.}.'@Q+Q+Q+'@}.P+[.<.N+v.*-f+o+].9&B.: / ~ ' 6 ; $ + . . . . + # $ j 6 ' ! ] / 4 3 3 _ _ _ 2 2 1 1 | } } i i i i i i 8 8 9 0 0 O.9 8 8 B.i i B.8 9 0 0 s.a a a a a a a a 0 9 9 i } | | 1 1 1 7+2 7+1 1 | | } i i i 8 8 i i i i i i i i } } | 1 2 _ 3 4 / ^ ] { { ~ ! ) 5 , 6 - ; V@& 9+i$w#@ k l m m n n n n n o o p p p q q q q q q q q q q q q q q q q q q q q q q p p p p p p p o o o o o o o o o o o o o o o o o p p %&q r r s s s t+t+t+t+t+t+s s r r q q p p o o n m l @   + # $ ; j > 6 , ' 5 5 ) ! ~ { ] ^ / 4 3 _ 2 2 2 2 2 2 2 2 2 2 _ A.4 / ] ~ ) ' , > j ; ; j j ; ; $ # + .   @ @ @ @ @   . + # ; j 6 , 5 ) ! ! ! ! ! ) ) ) 5 5 5 5 5 5 5 ' ' ' ' 5 5 ) ! { ^ 4 _ 2 : 1 1 | | | | | } } m.i 8 8 9 9 9 8 8 i } | : _ 4 ^ w ~ K.5 ' , 6 > > j j j ; ; $ # # + + + + + + + + + + + + + + + + + . .   @ k l m /&n o o p q q q q p o o n m l k k k @ @ @ k k @ @   . + # $ ; j > 6 , ' 5 ) ! ! ) ) 5 5 ) ) ! ~ w ^ 4 /+7+u B.O.@+g@F.,.,.f.f.f.f.f.f.f.q.q.x x x x x x >.>.>.x q.f.F.a O.8 } | 2 _ 3 4 4 / / / 4 4 3 3 3 ",
"N+N+N+<.<.<.O+O+[.[.P+P+q@}.}.Q+Q+Q+$@|.|.2+Q+}.P+]#<.z+<@M+/.w+r.U.7+/ ~ ' j#; $ + + + + + # $ j > , ) { ^ 4 _ 2 2 1 1 1 1 1 1 | | | | | | | | 1 1 < | u } } | < 1 2 2 :+:+2 1 | } m.i i U.8 8 V.9 9 9 9 8 8 i | | 1 1 2 2 2 2 1 1 1 | } } i i 8 8 8 8 i i i i i 8 i i } | 1 2 _ 3 4 / ^ ^ ] ] { { ~ ) 5 , 6 j ; % + .   @ t$k l m m n n n n n o o o o p p p p p p p p p p p p p p p p p p p p p p o o o o o o o o o o o o o o o o o o o o o o o o o p p q q r r r s s s t+t+t+s s s r r q q p p o o n m ,#@   + # ; j j > 6 , ' 5 5 ) ! ~ { ] ^ / 4 3 _ _ 2 _ _ 3 3 3 4 4 / / ^ ] { ! ) ' , > j ; ; ; ; j ; $ # + . .   @ @ @ @     + # ; j 6 , ' ) ! ! ~ ~ ! ! ) ) ) ) ) 5 5 5 5 5 5 5 5 5 ) ) ! { ] 4 _ : | } } i i 8 8 8 8 8 8 9 9 0 0 a a a a 0 9 8 i | 2 3 / ] ~ ) 5 , 6 j ; ; $ $ $ # # + . . . . . . . . . . . . . . . . . .     @ k l m n o p q q r r s s s r r q p o n m l l k k k k k k k @   . . + # $ ; j > 6 , ' 5 5 5 5 5 ' ' 5 5 ) ~ { ^ ]+A.: [ B.|+@+c.F.,.,.,.,.,.f.f.f.f.f.q.q.q.q.x x x x x x q.f.F.a O.8 m.| 1 2 _ _ 3 3 _ _ _ 2 2 1 1 1 ",
"O+O+O+[.[.[.P+P+P+}.}.'@Q+Q+Q+Q+|.|.|.|.p@p@|.2+}.K@O++@v.M+x+G.r.U.7+/ ~ ' 6 j $ # + + # # $ j > , 5 ~ ] 4 _ 1 | | } } } | | | | | | | 1 7+2 _ _ _ _ _ _ _ _ 3 4 / / ^ ^ ^ b.]+3 _ 2 2 1 1 | u } i i i 8 i i } | 1 1 2 2 2 1 1 1 | | } } i i i 8 8 8 8 i i i 8 8 8 8 i } | 1 2 _ 3 4 / / ^ ^ ^ ] ] { ~ ) 5 , 6 j $ # + .   @ k l m m n n n n n n n n o o o o o o o o o o o o o o o o o o o o o o o o o n n n n n n n n n n n n n n n n n n n n n n o o o p q q r r r s s s s s s s s r r q q p p o n n m k @   + $ ; j > > 6 , ' 5 5 ) ! ~ { ] ^ / 4 3 _ _ _ _ 3 4 / / ^ ] { M.~ ! ) 5 ' , 6 g+j ; ; ; ; j ; $ # + .       @ @     . # $ j 6 , 5 ) ! ~ ~ ~ ~ ~ ! ! ) ) ) ) ) ) ) ) ) ) ) ) ) ! ! ~ ] / 3 2 | i 8 9 0 0 a a a a a a a c.b c c c c c c b a 9 i | T ( ^ { ! 5 , > ; $ # # + + + . .                                   @ @ k l m n o p q r s s t+t+Z+Z+Z+t+s r q p o n m m l l l l l l k k @   . + + # $ ; j > 6 , ' ' ' ' , , , ' 5 ) ! { ] / 3 2 [ B.V.@+c.F.,.,.,.,.,.,.,.,.,.f.f.f.f.q.q.q.q.q.q.q.f.F.@+O.B.m.| 1 1 2 2 2 2 : 1 | | } } i i i ",
"P+P+P+P+}.}.}.Q+Q+Q+Q+|.|.|.|.|.|.|.p@1.#@#@1.U*Q+q@[.}@z+b@.#<%!#V.1 ,@~ 5 6 j ; $ # # $ ; j > , 5 ! w / _ 1 } i i 8 8 8 i i i } } | 1 2 2 _ 3 4 4 / / / / ^ ] { ~ ~ ! ! ! ! ~ ] ^ / 4 3 3 _ 2 1 | } } i i i } | 1 1 1 1 1 1 1 | | } } } i i i i 8 8 i i i i 8 8 8 8 8 i | 1 2 _ 3 4 / / / ^ ^ ^ ^ ] { ~ ) 5 , > ; $ # .   @ k l l m m n n n n n n n n n n n n n n n n n n n n n n n n n n n n n n n n n n n n n n n n n n n n n n n n n n n n n n n n o p p q q q r r r s s s s s r r q q p p o o n m l k @ . + $ ; j > 6 6 , ' 5 5 ) ! ~ { ] ^ / 4 3 3 _ _ 3 4 / ^ ] { ~ ! ) 5 ' ' , 6 > > j ; ; ; ; ; ; ; $ # + . .         . + # $ j 6 ' 5 ) ! ~ { { { { { ~ ! ! ! ! ! ! ! ! ! ! ! ! ! ! ~ ~ ] ^ 4 2 | i 9 0 a b c c e e e d c e e f.f f g g g f e c b O.i < _ ]+] L.5 , > ; $ + + . .     @ @ @ @ @ @ @ @ @ @ @ @ @ @ @ k k k l l m n o p q s t+t+Z+i@i@i@P#i@i@Z+t+s r q p o n n m m m l l l l k @ @   . + + # $ ; j > 6 6 , , , 6 6 6 , ' 5 ! ~ ] / 3 2 < m.N.F%c.F.F.,.,.,.,.,.,.,.,.,.,.,.f.f.f.f.f.f.f.,.F.@+V.B.} | 1 1 1 1 1 1 | } i 8 8 9 9 0 0 0 ",
"}.}.B+Q+Q+Q+Q+|.|.|.|.1.1.1.1.1.1.1.1.#@R+R+#@1.|.}.y@L@z+3#Y.^.j.V.;+( { )+, > ; $ $ $ ; j > , 5 ! { / _ < i 8 9 0 0 0 0 9 9 8 8 i } | 2 _ 3 4 ^ ^ ] { { ~ ~ K.5 ' l., , , , ' 0.! ~ { ] b.4 3 _ 2 1 | } } } } } | | | | | | | } } } i i i i i i i i i i i i 8 8 9 8 8 i | 1 2 _ 3 4 / / / / / / / ^ ] { ~ ) ' 6 j ; # + .   k l l m m n n n n n m m m m m m m m m m m m m m m m m m m m m m m m m m m m m m m m m m m m m m m m m m m m m m m m m n n n o p p q q q r r r r r r r r q q Q;p p o n n m l k   . # $ ; j > 6 6 , ' 5 5 ) ! ~ { ] ^ / 4 3 3 _ 3 3 4 / ^ { ! )+' , , 6 6 > > j j j ; ; ; ; ; ; ; $ # + + + . . + + # $ ; > J.' ) ! ~ { ] ] ] ] ] { { ~ ~ ~ ~ ~ ~ ~ ~ ~ ~ ~ ~ ~ { { ] ^ 4 _ 1 i 9 a b e f q.g g h i.g g g h h '.'.'.y h.'.h g e b O.i < A.b.{ K.' 6 j $ + .     @ @ k k k k k k k k k k k k k k l l l m n n o p q s t+Z+i@P#P#.$.$.$.$.$P#P#i@t+s r q p p o n n m m m m l l k @     . + # # $ ; j j > > > > > > 6 6 , 5 ) ~ w 7 ( T < m.B.O.@+c.F.F.F.F.F.F.F.F.F.F.,.,.,.,.,.F.F.F.F.c.@+N.m.| 1 : : 1 1 | | } i 8 p.s.a b b b c c ",
"Q+Q+Q+Q+|.|.|.|.1.1.1.1.R+R+R+R+R+1.R+R+z#d@z##@|.Q+P+o@+@<@f+H.d p.u 3 ] K.' 6 j ; ; ; j > , 5 ! { / /+1 i 9 a b b c b b a a 0 9 8 i | 1 _ 4 / ] { ~ ! ) 0.' , 6 > j ; ; ; j > 6 , 5 ) ~ { ^ / 3 _ 1 | } } i i } } } } } } } } i i i i i i i i i i i i i i i 8 8 9 8 8 i | 1 2 _ 3 4 4 / / / 4 4 4 / ^ ] { ! 5 , > ; $ + .   k l l m m n n n n m m m m m m m m m m m m m m m m m m m m m m m m m m m m m m m m m m m m m m m m m m m m m m m m m m m m n o o p p p q q q r r r q q q q p p p o o n m l k @   . # $ ; j > 6 6 , ' 5 5 ) ! ~ { ] ^ / 4 3 3 _ 3 3 4 / ] ~ ) ' 6 6 > > j j j j j j j j j j ; ; ; $ $ # # # # # $ $ ; g+6 , 5 ! ~ { ] ^ / / / / ^ ^ ] { { { { { ] ] ] ] ] ] ] ] ] ^ ^ / 3 2 } 9 a c ].g h '.y y y y y y y U U z z z z z z U y h f F.O.i 1 3 ^ ~ ) , j $ # .   @ k k l l l l l l l l l l l l l l l m n o p q q r t+Z+i@P#.$#&#&$&$&$&$&#&#&.$P#i@Z+t+s r q p o o n n n m m l k k @   . . + # # $ ; ; j j j j j j > 6 , ' ) ! { ^ 4 A.: [ B.N.@+c.c.F.c.c.c.c.c.F.F.F.F.F.F.F.c.c.@+@+@+O.N.m.< 2 T T 2 1 | } i 9 0 a b c e f f f f f ",
"2+|.|.|.|.|.1.1.1.1.R+R+R+R+R+R+R+R+R+x#d@d@d@R+1.Q+x@]#+@S@v@{.].s.S._ ^ ! 5 , > j j > > , ' ! { / A.1 i 0 b c e f f f e e c b a 0 8 } 1 _ 4 / ] ~ ! ) x., 6 > ; $ # # + + # $ ; g+6 ' ) ! { ^ 4 _ 2 1 } } i i i i i i i i i i i i i i i i i i } } } } i i i 8 8 9 8 8 i | 1 2 _ 3 4 4 4 4 4 4 4 4 4 / / ] { ) ' 6 j $ + .   k l l m m n n n m m m l l l l l l l l l l l l l l l l l l l l l l l l l l l l l l l l l l l l l l l l l l l l l l l l m m m n o o p p p q q q q q q q p p p o o o n m m l k @   + # $ ; j > 6 6 , ' 5 5 ) ! ~ { ] ^ / 4 3 3 _ 3 3 4 / ] ~ 5 , > j j j ; ; ; = j j j j j j j j ; ; $ $ $ $ ; ; j > 6 ' 5 ! ~ ] ^ / 4 4 3 3 3 4 4 / ^ ] ] ] ] ^ ^ ^ ^ ^ ^ ^ ^ ^ / / 4 3 :+| i 0 F.f x '.y U z S S S S S S V V *.A A A A V V S U '.f F.O.m.: 4 ] ! E+6 ; # .   @ k l l l l m m m m m m m m l l m m n o p q r s t+Z+P#.$#&$&-&-&r>!&-&-&-&$&#&.$P#i@Z+t+s r q q p o o n n m m l k @ @   . . + # # $ $ $ ; ; ; ; ; j > 6 ' 5 ! { #+]+A.: < m.N.O.@+c.c.c.c.c.c.c.c.c.c.c.c.c.@+@+O.O.N.N.B.m.< T A.3 _ 2 1 } i 9 a c e f g h h h h h h ",
"|.|.|.|.p@1.1.1.R+R+R+R+x#d@d@x#R+R+R+d@d@d@d@R+1.Q+x@]#n@c@v@/.f c.i 2 / ~ ) ' 6 > > 6 , ' ) ~ ^ 3 1 i p.b e g h h h h h g f e c a 9 i | 2 3 / ] ~ ! 5 ' 6 > ; $ # + . . . . + $ ; > , 5 ! { ^ 4 _ 2 | } i i 8 8 8 8 8 8 8 8 8 8 i i i i } } } | | | } } i i 8 8 9 8 8 i | 1 2 _ 3 4 4 4 4 4 3 3 3 3 3 4 / ] L.5 6 j $ # .   k l l m m n n n m m l l l l l l l l l l l l l l l l l l l l l l l l l l l l l l l l l l l l l l l l l l l l l l l l l l l m m n n o o p p p q q p p p p o o o n n [#m l k @   . + # $ ; j > 6 6 , ' 5 5 ) ! ~ { ] ^ / 4 3 3 _ 3 3 4 / ] ~ 5 , > > j j j j j j j > > > > > > j j j j h@j j > 6 , ' 0.! i#] ^ 4 3 _ _ 2 2 2 2 _ 3 4 / / ^ / / / 4 4 4 4 4 4 4 4 4 4 3 _ 1 } 9 a e g '.U z V V A A A &.Q.Q.Q.B B B =+=+B B Q.A V -.'.f b 9 } 2 4 { ) , j $ +   @ k l l m m m m m m m m m m m m m n o p q s t+Z+i@P#.$#&$&-&!&!&m>m>m>!&!&-&$&#&.$P#i@Z+t+s r r q p p o o n m l l k @     . . + + # # # # # $ $ $ ; j 6 , 5 K.M.#+/ ( T < [ B.O.@+@+@+@+@+@+@+@+c.c.c.c.c.@+O.2@N.B.m.m.[ < 2 A.( 4 3 2 | i 9 a c f g h '.y y y y y y ",
"|.|.C+C+1.1.2.2.R+R+x#x#d@d@d@x#R+R+R+x#d@d@d@R+p@Q+x@]#n@m@z@.#t.b 8 1 ,@{ ) ' , 6 6 6 ' 5 ~ ] 4 2 } 9 b e g '.y ;.U y y '.h g f.c a 9 i | 2 3 b.] ~ ) ' , > ; $ + . .     . + # ; > , 5 ! ] / 3 _ 1 | i i 8 8 8 8 8 8 8 8 8 i i i i } } | | 1 1 1 1 | } i i 8 8 9 8 8 i | 1 2 _ 3 4 4 4 4 4 3 3 _ _ _ 3 4 ^ { ) , > ; # .   k l l m n n n n m m l l a&k k k k k s>s>s>s>l l k k k k k k k k k k l l l l l l k k k k k k k k k k k k k k k k k k k l l l m m n n o o o p p p p p o o o n n n m m l l k @   . + # $ ; j > 6 6 , ' 5 5 ) ! ~ { ] ^ / 4 3 3 _ 3 3 4 / ] ~ ) ' , 6 6 > > > > > 6 6 6 J.6 6 6 6 > > > > 6 , , 5 ) L.{ ^ / 3 _ 2 1 1 | | | | | 1 2 _ 3 4 4 4 3 3 3 3 3 3 3 3 3 3 3 _ _ 2 | i 0 b f h y z V A Q.B B =+=+=+=+=+R R R D.D.C R =+B Q.V U '.f b 9 | _ / ~ 5 6 ; # . @ k l l l m m m m m m m m m m m m n o q r s t+Z+P#.$#&$&-&!&m>m>t>t>t>m>m>!&-&$&#&.$P#i@Z+t+s r r q p p o n n m l k k @     . . + + + + + + + # # $ j > , E+) ~ ] 7 ( T : [ B.N.O.@+@+@+F%O.@+@+@+@+@+@+@+O.N.B.m.[ h+< : T A.( 4 4 _ 2 } 8 0 b f g '.y y y U U U U U ",
"C+C+C+C+1.2.2.2.R+x#x#x#x#x#x#x#R+R+R+x#x#d@x#2.C+'@x@o@n@m@z@g.i.c 9 1 4 w ! 5 , 6 6 , 5 ! { / _ | V.a e h y U z S S S z U y '.g f c a 9 i | :+( 7 { ! 5 , 6 j $ # + . . . . + # ; > l.) { ^ 4 _ 1 | } i 8 9 9 9 9 9 8 8 8 i i i } } | 1 1 2 2 _ :+2 1 | } i 8 8 9 8 8 i | 1 2 _ 3 4 4 4 4 3 3 _ _ 2 2 _ 3 / ] ! ' > ; # .   k l l m n n n n m l l k k k k k k k k k k k k k k k k k k k k k k k k k k k k k k k k k k k k k k k k k k k k k k k k k k l l m m n n n o o o p o o o n n n m m m l l k k @   . + # $ ; j > 6 6 , ' 5 5 ) ! ~ { ] ^ / 4 3 3 _ 3 3 4 / ^ { ! ) 5 ' ' l., , , , , l.' ' ' ' , , , , , ' x.5 ! ~ ] ^ 4 _ 1 | [ } i i 8 8 8 8 i i } 1 2 _ _ _ _ _ 2 2 2 2 2 _ _ _ 2 2 : 1 } 8 0 c f '.U S A Q.B =+R R R R D.D.D.o.o.o.o.o.o.D.R =+Q.=.U h e a 8 | 3 ^ ! ' > ; + . @ k l l m m m m m m m m m m m m n o q s t+Z+i@P#.$#&$&-&!&m>t>t>t>t>t>t>m>!&-&$&#&.$P#i@Z+t+s r r q p p o n m m l k @ @     . . . . . . . . + + # ; > 6 ' ) ~ w 7 4 A.: < m.N.O.O.F%O.O.O.O.O.@+@+@+@+O.N.B.m.[ < : T A.3 ( 4 4 3 _ 1 i 9 a e g '.y y U U U U U U U ",
"C+C+C+C+2.2.2.2.x#x#x#x#x#x#x#x#2.2.2.2.x#x#2.C+$@%@y@e@U+~@z@g.i.c 9 | 4 ] ! 5 , , , ' 5 ! ] 4 2 i @+,.g y z S V A A A V S z U '.i.f c a 9 i | 2 3 ^ { ! 5 , > ; $ # + + + + # ; j 6 5 ~ ] 4 _ 1 | i 8 8 9 9 9 9 9 9 8 8 i i i } } | 1 2 _ _ 3 3 3 _ 2 1 } i 8 8 8 8 8 i | 1 2 _ 3 4 4 4 4 4 3 _ 2 2 2 2 _ 4 ] ! ' > ; # . 5>k l l m m n n m m l k k k @ @ @ u>u>u>u>k k k k k k @ @ @ @ @ @ k k k k k k k k k k @ @ @ @ @ @ @ @ @ @ @ @ @ @ @ @ @ k k l l l m m m n n o o o o o n n n m m l l l k k @     . + # $ ; j > 6 6 , ' 5 5 ) ! ~ { ] ^ / 4 3 3 _ l$3 4 / ^ ] { ! ! ) ) ) 5 5 5 5 5 5 5 5 5 5 5 5 5 ) ) ! ~ { ] / 3 2 | m.8 9 9 0 0 @+a a a 0 0 9 8 i } | 1 1 1 1 1 1 1 1 1 1 1 2 1 1 1 | i N.a c g '.U V Q.B =+R D.D.Z o.o.o.P P P *+E E P P o.R %..+S U h e a i 1 4 { ) , j $ +   @ k l l l m m m m m m m m m m n o q s t+Z+i@P#.$#&$&-&!&m>t>t>v>v>v>t>t>m>!&-&$&#&.$P#i@Z+t+s r q q p o o n m l l k @ @                   . . # $ j 6 ' ) ! { ^ ]+3 T < [ B.N.O.O.O.N.N.O.O.O.O.O.O.N.B.m.[ : T A.( ( ]+]+4 4 3 2 u 8 0 c f h y U U U U U U U U U ",
"3.l#2.2.2.2.y=y=y=y=m#m#y=y=y=2.2.3.3.l#2.l#C+$@%@(#e@4#&@1@a@~.g c 9 1 4 { ! 5 , 6 6 , 5 ! ] 4 1 N.b f '.!.V A Q.Q.B Q.Q.A V ).U h.h f j.@+N.} 1 _ 4 ^ ~ ) ' 6 > ; $ $ # # $ ; > J.x.! '#/ A.2 | m.8 9 9 0 0 0 9 9 N.8 8 i i } [ | 1 2 _ 3 ( 4 4 4 4 _ 2 | } i 8 8 8 i } | 1 2 _ 3 4 4 4 4 4 3 _ 2 2 2 2 _ 4 ] ! ' > ]>|>,&q&k m&l m m m m m l s>u>@ @ 5>5>5>5>5>u>u>u>u>k k u>@ @ @ @ @ @ @ @ @ k k k k k k k @ @ @ @ @ @ @ @ @ @ @ @ @ @ @ @ @ @ t$k k l l l l m m n n n n n n n n m m l l k k k @ @   . . + # $ ; j j > 6 , ' ' 5 ) ! ~ { ] ^ / 4 3 3 _ _ 3 4 4 / ^ { ~ ~ ! ! ! ) ) ) ) ) ) ! ! ! ! ~ ~ ~ { { ] ^ 4 3 2 | i 9 a b c c c c c e e c c b a 0 9 8 i S.} } } } } } [ | | < 1 1 | | } i 9 a e g '.-.V Q.B X $.#.o.o.P P P  .E E F F F F E P o.R 0+&.S y g c 9 u _ ^ ! ' > ; # .   @ k k l l l l l l m m l m m n o q s t+Z+i@P#.$#&$&-&!&m>m>t>t>v>v>v>t>t>m>!&-&$&.$P#i@Z+t+s s r q p o o n m m l k k @ @         @ @ @     . + # ; > , 5 5+~ ] 7 4 A.: ;+m.B.N.N.N.B.B.N.N.N.N.N.8 B.m.< : T A.( ]+]+]+]+( 3 2 | i p.b f.h y U -.U U U U U U U U ",
"y=y=y=y=y=y=y=y=y=y=y=y=y=l#3.3.C+8#8#8#8#8#7#_#(#^#U+U@1@%+g.{.f b 8 1 / { ) ' 6 > > 6 ' ) { 4 < 9 c h U S A B B =+=+=+%.B Q.*.S -.h.x f.b 0 8 } : 3 / ] ~ ) ' J.y.- j j j > 6 ' 0.L.] / 3 2 | m.8 9 O.0 0 0 0 9 N.8 8 B.i m.} | 1 2 _ 3 4 / 7 ^ ^ / 4 _ 1 | } i 8 8 i } | 1 2 _ 3 4 4 / / / 4 3 _ 2 2 2 _ 4 ] ) =&@&4;b;w>u>s>m&J$J$J$J$J$m&s>u>5>r&,&,&,&,&,&5>5>x>u>u>u>u>u>@ 5>        @ @ @ @ k k k k k @ @             @ @ @ @ @ @ @ @ @ @ @ k k k k l l l l l m m n n n n n n m m l k k @ @ @     . . + + # $ ; j > 6 6 , ' 5 ) ! ~ { ] ^ / 4 3 _ _ _ 3 3 4 / ^ ] { ~ ! ! ! ! ! ! ! ! ~ ~ { { ] ^ ^ / 4 3 _ 2 1 } 8 0 c.c f g g g g g g g g g f f e c b a 0 9 9 8 8 8 B.i i m.} | | | | | } i 9 c.e g h.-.=.A B =+R D.o.@.P +.E E ..F E.G G G }+F E o.Y B A z '.].a i 2 / ~ 5 , j $ + .   @ k k k k l l l l l l l l m o p r s t+Z+i@P#.$#&$&-&!&m>t>t>v>v>v>v>t>m>!&-&$&#&.$P#i@Z+t+s r q p o o n m m l k k @ @ @ @ @ @ @ @ @ @     . # $ j 6 ' 5 ! { #+/ ( _ : | m.i i i m.m.i B.8 B.B.m.[ < 2 A.( ]+/ / / ]+( _ 2 | i 9 r.e g '.U z z z -.-.-.-.-.-.-.",
"r=r=r=r=f=f='-'-^=######3.9#@#8#3+7#7#7#7#;#6.`. +_+-@Y+).g.{.t.d s.i 2 ^ ~ 5 , > j j > , 5 ~ ]+< O.e '.z *.B =+=+R R R R X %.W A =.-.h.g e c.O.i < T ( 7 w ~ K.5 ' l., , l.x.) L.w 7 4 _ : | m.8 9 O.@+@+@+@+p.9 N.8 B.i m.} [ < : T A.( ]+7 #+] ] ^ / 3 2 1 | } i i i } | 1 2 _ 3 4 / / / / 4 3 _ _ 2 T t;/ { l*y>z>A>B>x>C>D>m&m&m&m&s>s>u>5>E>F>G>G>G>G>b;F>,&E>w>x>H>u>u>H>5>  ,&,&        @ @ k k k k k @     . . .       @ @ @ @ @ k k k k k k k k k k k l l l l m m m n n n n m l l k @ @       . . . + + + # $ ; j > 6 , ' 5 ) ! <#{ ] ^ / 4 3 _ _ _ _ 3 4 / ^ ] { ~ ! ! ) ) ) ! ! ~ { { ] ^ 4 3 _ 2 1 [ i 8 0 c.c ].g >.h.y y y y y y y y '.'.h g q.f e c b r.a 0 0 9 N.8 B.m.} | | | | } i 9 c.e g '.U ).*.Q.%.X $.#.@.P +.E ..F E.G T.H H H T.E.E D R Q.S y t.b 8 1 4 { ) ' > ; $ + .   @ @ @ @ k k k k k k k l m n p q s t+t+Z+i@P##&$&-&-&!&m>t>t>v>v>v>t>m>!&-&$&#&.$P#i@Z+t+s r q p o n n m m l ,#k k @ @ @ @ @ @ @ @ @ @   . + # ; > 6 ' ) ~ { ^ / 3 T 1 | [ } [ | [ } m.i m.} | : _ 3 ]+7 ^ ^ 7 / 4 _ : | B.p.r.d <%{.;.z ).S ).z z z z z z z ",
"j-j-j-j-I f='-C.####E.@#@#8#>#>#;#;#-#-#-#(#d+ +W -@=.-.;.>.t.e b 9 | 3 ] K.' > j ; ; j 6 ' ! / 1 O.f.h.S &.=+R R R D.D.D.D.$.X %.&.=.-.'.q.,.@+N.m.1 _ ( 7 a.M.L.K.K.K.K.! M.w 7 ( _ : < [ m.N.O.@+@+c.c.c.@+@+O.N.B.B.B.m.m.[ < : T A.4 / ^ #+] ] ] ^ 4 _ 2 | } } i i } | 1 2 _ 3 4 / / ^ ^ / 4 3 3 _ 3 4 ^ I>J>d>K>G>E>H>C>D>D>D>n&u>H>5>E>F>L>M>N>K>K>4;M>|>L>F>B>E>O>x>x>w>,&,&I#. . . .     @ @ @ k k @ @   . . . . . ,&    @ @ @ k k k k k k k k k k k k k k k l l l m m m n m m l l k @ @     . . . . . . + + # ; j > 6 , ' 5 ) ! ~ { ] ^ / 4 3 _ _ _ _ _ 3 4 ^ ] { ~ ! ) ) ) ) ! ! ~ ] ^ / 3 _ 1 } U.9 @+b ,.f h '.U z ).S S S S S %+z z z U U y ~.'.h h g f e c b a @+0 9 N.i } [ | | | } i 9 c.,.q.>.;.-.=.A W 9.$.#.@.` +.....E.E.T.H -+-+d.-+H m+ .Q 0+*.U i.c 9 | 3 ] ! 5 6 j ; # + .       @ @ @ @ @ k k k k l n o q r s s t+Z+i@.$#&$&-&-&!&m>t>v>v>v>t>m>!&-&$&#&.$P#i@Z+t+s r q p o n n m m l l k k @ @ @ @ @ @ @ @ @ @ @   . + $ j > , 5 ) ~ { ^ / 3 T 1 1 1 1 1 1 | | } | 1 2 _ 4 / ^ ] ] ] ^ ]+3 2 | 8 0 b f.x 4@;.a@=.=.=.S ).).).).).).).",
"<+j-j-j-I -+C.T.}+E.a#..>#>#;#;#-##.`.`.d+d+%.U@*.).:@h.G+q.,.c.O.i 1 4 { 5 , g+; $ $ ; > , ! ^ : O.f.y =.Q.=+D.D.D.D.o.@.@.o.#.R %.&.=.;.>.q.F.@+B.[ : T ( ]+#+w M.M.M.w w #+]+A.: < [ m.B.N.O.@+c.c.F.F.F.c.@+O.N.N.B.B.B.m.[ < : T A.( ]+7 ^ #+] ^ / 4 _ 2 1 | } } } } | 1 2 _ _ 3 4 / ^ ^ / / 4 4 4 4 / P>Q>=&R>A>G>w>O>H>H>x>w>,&B>b;L>M>K>z>S>T>U>U>R>V>]>W>M>L>G>F>B>B>B>b;G>|>+ + + + . .     @ @ @ @   . + + + + . .       @ @ @ k k k k k k k k k k k k k k k k l l m m m m m l k k @       . . . . . . . + # $ j > 6 , ' 5 ) ! ~ { ] / 4 3 _ _ 2 2 _ _ 3 4 ^ ] ~ ! ) ) 5 5 ) ! ~ { ] / 3 2 | i 9 a c f g '.U z V A Q.Q.Q.Q.Q.A A V V S S S z z U U y y '.h g f e c b a 0 9 8 m.} | | | } i N.@+F.f.x h.g.).*.&.%.X D.Z @.+.....E.G T.-+<+<+<+<+d.T.F@D ^+A z >.d p.u /+^ ~ 5 , > j $ # + .         W@@ @ @ @ k k l m o p q r s t+Z+i@P#.$#&$&-&-&!&m>t>v>v>t>m>!&-&$&#&P#i@Z+Z+t+s r q p o o n n m m l l k k k @ @ @ @ @ @ @ @ @ W@. + # ; j 6 ' 5 ! ~ ] ^ 4 3 _ 2 2 2 2 2 2 1 1 1 2 3 4 / ] { { { ] ^ 4 _ 1 i O.b f.x 4@;.a@=.*.*.*.=.=.=.=.=.=.=.=.",
"j-j-j-I -+C.T.}+E.....+.+.;#@.#.`.d+X  + +_+&.Y+).;.>.u+f.F.a O.i | _ ^ ! ' 6 j $ $ $ ; j , ) ^ : O.f.~.=.Q.R D.D.o.o.P +. .+.` Z $.%.&.=.;.>.I+F.@+N.m.< T A.]+7 7 #+#+7 7 ]+A.: [ m.B.N.O.@+c.F.F.,.,.,.,.F.c.@+@+O.N.N.N.B.m.[ < : T A.E%( ]+/ / / 4 3 2 1 | | } } } | | 1 2 _ _ 3 4 4 / / / / / / ^ ^ { ! m;p;]>|>b;,&r&r&B>G>|>4;r;z>R>d>X>Y>=&Z>Z>=&`>y>X>U>R>]>W>4;A>A>A>4;4;4;4;# # # + + . . .       . + + + + + + . .     @ @ @ k k k k @ @ @ @ @ @ @ @ @ k k k k l l m m m m l k k @ @             . . + + # ; j > 6 , ' 5 ) ~ { ] ^ ,@3 _ _ 2 2 2 _ _ 3 4 ^ { ! ) 5 5 5 5 ) ! ~ ] ^ 4 _ 1 i 9 b e g '.U S V Q.B =+R R R =+B Q.Q.A V V V *>S S S z z U U y '.h g e c b a O.8 i } | | )>| } B.O.c.,.q.>.;.-.=.&.%.X $.{;` +...E.E.T.-+-+<+<+ ,.,<+H F ` ^+K$).'.f.@+} _ / { ) ' 6 j $ # + . .         @ @ @ @ k k l m n p q r r s t+Z+P#.$#&#&$&-&!&+,m>t>t>m>!&-&$&#&.$P#i@Z+Z+t+s r q p p o n n m m l l l k k k k k k k k k k k @   . # $ ; > , ' ) ! ~ ] ^ 4 3 _ _ _ 3 3 _ _ _ _ 3 4 ^ ] { v ~ { ] ^ 4 _ | 8 a ,.q.>.;.a@t@*.&.&.&.*.*.*.*.*.*.*.*.",
"-+-+-+C.T.}+E.a#..+.+.@.@.-##.$.X  +%.W U@&.=.D@h.x q.,.c.@+N.m.< _ / { ) , j ; $ # # $ j , ) #+2 V.e h.S Q.R D.o.o.P +.E F F E P o.R %.&.=.;.>.q.F.@+N.m.< : T I@( ]+]+]+( A.T < m.B.N.O.@+c.F.,.f.f.f.f.f.s+,.F.c.@+@+O.O.N.B.B.m.[ < : : T A.A.A.A._ 2 1 1 | | | | | | 1 7+2 _ _ 3 3 3 4 4 / / ^ ] { ~ ! 5 =&j $ |>b;b;b;u&A&]>@&p;=&n;3;@,#,#,$,$,$,#,#,@,3;3;=&y>p;d>T>R>R>R>R>; ; ; ; $ $ # # + + + + + + # # # # # + + . .     @ @ @ @ @ @ @ @ @ @ @ @ @ @ @ @ @ @ k k l l m m l l k k k @ @ @ @ @     . . + # $ ; j 6 , ' 5 ) ! ~ ] ^ / 3 _ _ 2 2 2 2 2 _ 3 / ] ~ ! 5 5 ' ' 5 ) ! { ] / 3 2 } 8 a e x y U S A B =+%,Q o.o.D.R =+B Q.A V V V V V S S S S z z U y '.h q.e c b 0 N.i | | 1 1 1 | } 8 @+F.s+u+>.;.).*.W X $.Z @.+...E.E.T.-+<+<+ , , ,<+H E.P R Q.S '.].s.S.:+/ { ! ' 6 g+; # + . .         @ @ @ @ k k l m n o p q r s t+Z+i@P#.$#&$&$&-&!&!&m>m>!&-&-&$&#&.$P#i@Z+Z+t+s r q q p o o n n m m m l l l k k k l l l l l k k @ . + # ; j 6 , ' ) ! { ] / 4 4 3 4 4 4 4 3 3 4 / ^ ] { ~ ~ ~ ~ ] / 3 2 } 9 b f.x h.-.).Y+&.W W W &.&.&.&.&.&.&.&.",
"T.T.T.T.E.E.....+.+.@.@.#.`.$.X %.W &.-@*.=.-.h.x f.F.@+2@B.[ : _ 4 ] ! ' > ; $ # # # $ j 6 ) ] T 8 c '.%+Q.R D.o.D P E F G G F E P Z R %.&.=.:@>.q.,.c.|+B.[ < T A.A.A.A.A.T : [ m.N.O.@+c.F.,.f.q.q.q.q.q.q.f.,.F.F.c.@+@+O.O.N.B.B.m.m.[ [ < < < < < | | | | | | | 1 1 2 2 2 _ _ _ _ _ 3 3 4 ^ ] { ~ 5+5 , > ; $ # # # $ ; g+o;' ) ! ~ &,{ P>] ] P>P>{ &,~ ! w=) 5 @,' 3;, =&6 y>> > > j j j ; ; $ $ $ V@# $ $ $ $ $ # # # + + . .     @ @ @                         @ @ @ k k l l l k k k k k @ @ @ @ @   . . + # ; j > 6 , ' 5 ) ~ { ^ / 4 _ 2 2 1 1 1 2 2 _ 4 / ] ~ ) 5 ' ' ' ' 5 ! { ^ ]+_ 1 } 9 b f >.U z V Q.B R D.o.o.o.D.R =+Q.A V V V V V V V S S S S z z U y '.g f ,.b 0 8 m.| 1 2 2 2 2 < } N.p.g@f.x h.-.=.&.%.$.#.@.+...E.E.T.-+<+<+ , ,.,<+H F P C Q.S ~.f a i 2 4 ] ! 5 , > ; # + . .         @ @ @ @ k k l m n o p q r s t+Z+i@P#.$.$#&$&$&-&-&-&-&-&$&$&#&.$P#P#i@Z+Z+t+s s r q q p o o P.n m m m l l l l l l l l l l l k @   + # $ ; > 6 , 5 ) ! { ] b./ / / / / / / / ^ ] { ~ ~ ! ! ! ~ ] / 3 1 i 0 F.q.>.;.-.=.*.W W %.%.W W W W W W W W ",
"}+E.E.E.....+.+.@.@.#.#.$.$.X %.U@*.Y+=.).-.h.x n+c.O.B.m.< T ( / ] ! 5 6 = $ # + + # $ j 6 5 ] _ U.c h z Q.R o.D P E F G G G G F E P #.^+%.&.=.:@>.q.,.c.2@B.[ < : T T T T : < [ B.N.O.c.F.,.f.q.q.x x x x q.q.f.,.,.F.c.c.@+@+O.O.O.N.N.B.B.B.m.m.m.m.m.} } } | | 1 1 2 2 2 _ _ _ _ _ 2 _ A.4 / ] ~ ! 5 ' 6 > j ; * ; = - J.' K.{ ] / ,@4 3 3 3 3 z.4 4 / / ^ ] '#{ ~ ~ ! ! ) 5 ' ' , , , 6 6 > > g+j j j = ; ; ; ; ; ; $ $ # # + + . . .   . . . . . . . . . . . . . .     @ @ @ k k @ @ @ @ @ @ @ @ @ w#  . + # $ ; j 6 , ' 5 ) ! { ] / 4 3 2 1 1 | | 1 1 2 _ 4 b.{ ! 0.' ' , , ' 5 ! ~ ] / _ 1 } 9 b f h y z S A Q.=+R C D.R R =+Q.A V S S S S S S S S S S S S z U y '.h f c b 0 8 } 1 2 _ 3 3 3 T 7+[ B.O.c.n+x h.a@*.W X $.#.` E ..E.T.-+d.<+<+<+<+d.H F P D.B =.y q.b 8 1 4 ] ~ 5 , > ; $ + . .         @ @ @ @ k k l l m n o p q r s t+Z+i@P#.$#&#&$&$&$&$&$&$&#&#&.$.$P#i@i@Z+Z+t+t+s r r q q p p o n n n m m m l l m m m m m m l l @   . + # ; j > 6 , 5 ) ~ { ] ^ ^ ^ ] ] ] ] ] { { ~ ! ) ) ) ! ~ ] / _ | B.@+,.g h.;.).*.&.W %. +%.%.W W W %.%.%.%.",
"E.F ....E +.+.@.@.#.#.$.X X %.&.*.=.).-.;.h.x ,.c.O.m.| 2 3 ]+#+{ ! 5 6 j $ + + + + # $ j 6 5 { A.i b h z Q.R o.P E 0&&+G H H G }+..+.@.Y X W *.).;.>.q.F.@+N.m.[ < : T T T : < [ B.N.O.c.F.,.f.q.x x x x x x q.f.,.,.,.F.F.F.c.c.c.@+@+@+@+O.O.O.O.9 N.8 8 i } | 1 1 2 2 _ _ _ _ _ 2 2 1 2 2 3 / ] ~ ) 5 , 6 > > > > 6 , x.K.M.7 ( T : 1 | | | | | | < 1 7+2 T /+3 ( 4 / 7 ^ w M.! ! ) ) ) 5 5 ' ' , , , 6 6 6 > > > > j j ; ; $ $ $ # # + + + + # # # # # # # # # # # + + + . .                 @ @ W@    . . + # $ j > 6 , ' 5 ! ~ { ^ ,@3 :+1 | [ } | | 1 2 _ 4 ^ { ! 5 ' ' , , ' 5 ) ~ ] / 3 2 } 8 a c f h y U S V A Q.B B Q.Q.A V S z z U z z z z z z S S S z z U y '.g f c a 9 i 1 2 3 4 / / / 4 3 T < m.2@c.s+x _@).*.W X $.@.+...E.T.C.-+<+<+<+<+-+T.F P D.B V U g b 8 1 3 ^ ~ ) ' 6 j $ + . .         @ @ @ @ k k k l m n o p %&q r t+Z+i@P#P#.$#&#&#&#&#&#&.$.$.$P#P#P#i@i@i@Z+Z+t+t+s r r q q p p o o n n m m m m m m n n n m m l k @ . + # $ ; j > 6 , 5 ) ~ { { ] { { { { { ~ ~ ! ) 5 5 5 ) ! ~ ] 4 2 [ 8 c.e x h.-.).*.&.%.X X X %.%.%.%.%.X X X ",
"E  .+.+.+.@.@.#.#.$.$.X  +%.&.*.=.-.;.h.>.q.,.c.N.m.< _ 4 ^ { L.) ' 6 j # + . . . . + $ ; 6 5 { 3 } a g -.&.R o.7&E F G C.H H C.}+a#+.@.#.R %.->*.).;.x f.c.O.B.m.< : : T T : < [ m.B.O.@+F.,.f.q.x x x x x x q.f.f.,.,.,.,.,.,.,.F.F.F.F.F.F.F.F.b c.a 0 9 8 } | 1 2 _ _ l$3 _ _ 2 2 1 1 1 7+_ / ] ~ ) ' , J.6 , , ' 0.L.w 7 ( : } 8 9 9 O.O.O.O.O.O.O.9 N.8 B.m.} [ < 1 : T 3 / ^ ] ] { { ~ ~ ! ! ! ) ) 5 5 ' ' ' , , 6 6 > > j j j ; ; ; $ $ ; ; ; ; ; ; ; ; ; ; ; ; ; $ $ $ # # + + + + . . . .     . . . + # $ ; j > , ' 5 ) ! { ] / 4 _ 1 | } i i } | 1 2 _ 4 ^ { ! ) ' ' , , ' 5 ) ! { ^ 4 _ 1 } 8 0 b e q.h '.g.z ).S S S z z U U y y y y y y U U U z z z z U U y h g e b 0 8 | 2 3 / ^ ] { { ] ^ ]+A.: i+N.3@s+x _@).*.W X $.@.+...E.T.C.-+-+-+-+-+T.F P D.B *.U h c 9 | _ / { ! ' 6 j $ # + .         @ @ @ @ k k k l m m n o p q r s t+Z+i@P#.$.$.$.$.$P#P#P#P#P#i@i@i@i@i@i@i@Z+Z+t+s s r r q q p p o o n n n m m n n n n n n m m l @   . + # $ ; j > 6 , 5 ) ! ~ ~ ~ ~ ~ ! ! ! ) 5 ' ' ' ' 5 ) ~ ] 4 2 } 9 b f.h y -.=.*.W %.X X X  +%.%.%.X X X X ",
"` @.@.@.@.#.#.#.$.X X %.%.W *.=.-._@>.x q.,.c.O.m.: A.]+#+M.! 5 , > ; # +         . + $ ; 6 5 { z.} a f U A R o.E F G O H H C.C.}+a#+.@.#.$.X W &.=.-.4@q.W+@+N.m.[ < : : T : < [ m.B.N.@+c.,.f.q.q.x x x x x q.f.f.,.s+f.f.f.f.f.f.f.f.f.f.f.f.f.e ,.b a 0 8 i | 2 _ 3 3 3 3 3 _ _ 2 1 | | 1 _ 4 ] ~ ) x., , ' 5 ) ~ ] 7 ( : } V.c.c e e f.f.f.f.f.f.e ,.,.,.F.c.c.@+O.O.N.m.| 2 _ 3 4 / / / ^ ^ ] ] { { ~ ~ ! ! ) ) 5 5 ' ' , , 6 6 > > > > > > > > > > > > > > > > > > > j j ; ; ; $ $ # # # + + + . + + + # # $ ; j 6 , ' 5 ! ~ a.^ 4 _ 2 | } i 8 i i } | 2 _ 4 ^ { ! ) 5 ' , , l.' 5 ) ! { ^ 4 _ 1 | i N.0 r.c e q.x h '.'.>.h h h h h h h h h '.'.y y y U U U y y '.g f c a 8 } 7+3 / ] { ~ ! ! L.M.w 7 ( u@i+Q@3@s+x ;.).*.W X Y @.+...E.m+T.T.T.T.T.E...P D.%.A z h e 0 } _ / ] ! 5 , > ; # + . .       @ @ @ @ k k k l l m n n o p q r t+Z+i@i@P#.$.$P#P#i@i@i@i@i@i@i@i@i@i@i@i@i@Z+Z+t+s r r q q p p o o o n n n n n n n n n n n m l k   . + + # $ ; j > 6 ' 5 ) ) ! ! ! ) ) ) 5 ' ' , 6 , , ' ) ~ ] 4 2 m.9 b f h y -.=.*.W %.X X X X %.%.%.X X X $.",
"#.#.#.#.#.$.$.$.X %.%.W .+*.=.-.;.>.q.f.,.c.O.m.< A.]+] ~ ) ' , > ; $ +   @ @ @   . + $ j 6 5 { 4 | 0 f.y V =+o.7&F G C.H H C.T.E...+.` {;$.X %.W *.).;.x f.g@O.B.m.< k$: : : < [ m.B.N.@+c.,.f.q.q.x x x x x q.f.f.f.f.q.q.q.q.x x x x x x x x x g f ,.b 0 8 } 1 2 3 3 4 4 4 4 3 _ 2 1 | | 1 _ 4 ] ~ ) 5 ' ' 5 ! { ^ ( 2 [ U.@+d x '.y #>h.h.h.h.h.h.h.h.h.>.>.x q.q.f.,.F.a 9 i | 1 2 _ _ 3 3 4 / / / ^ ^ ] ] { { ~ ~ ! ! ) ) 5 5 ' ' ' ' , , , l.' ' ' ' ' ' l., , , , , , 6 6 > > j j ; ; $ $ # # # # # # # $ ; j > 6 , ' ) ! { #+/ 3 2 1 } i 8 8 8 i } | 2 _ 4 ^ ] ~ ) 5 ' ' , , , ' x.0.! M.] / 4 3 2 1 } i N.0 a b c c c c c c c ,.e e f f g g h h '.'.'.y '.'.h g f c a 9 i 1 _ / ] ~ ! ) 5 x.5 0.! M.#+Y%u@i+N.c.f.x ;.).*.W X $.Z `  ...F E.m+G E.E.E ` D.B A z h e 0 } 2 4 ] ~ 5 , > ; # + . . .       @ @ @ @ k k l l m n n o p q r s t+Z+i@P#P#P#P#i@Z+Z+Z+Z+Z+Z+Z+Z+Z+i@i@i@Z+Z+t+t+s r r r q q p p o o o n n n n o o o n n n m l k @   . + + # $ ; j > 6 , ' 5 5 5 5 5 5 ' ' , 6 6 > > 6 , 5 ! ] 4 2 } 9 b f h y -.S *.&.%.*,X X X %.%.X X X X X ",
"$.$.$.$.$.X X X %.%.W &.&.=.).;.>.q.n+F.c.O.B.< A.]+#+~ ) ' , > ; $ # .   @ @ @   . # $ j 6 5 { 4 | 9 ,.'.S B D.P k*t&O C.C.C.T.E... .+.@.#.$.X %.&.=.-.v+q.,.3@N.B.[ < < : : < [ m.B.O.@+F.,.f.f.q.x x x x x q.q.f.f.q.q.x x >.>.>.v+h.h.h.h.>.>.x q.e b 0 8 } 1 _ 3 4 / / / / 4 3 _ 1 1 | 1 _ / ] ~ ! ) 5 ) ! '#/ A.1 m.O.F.q.'.-.=.V V =.=.=.=.=.=.=.=.=.S ).-.!;;.h.>.x f.F.@+N.i } | 1 2 T _ 3 3 4 4 4 4 4 / / ^ ^ ] ] { { ~ ~ ! ! ! ) ) ) ) ) K.! ! ! ! ! ) ) ) ) 5 5 5 ' ' , , 6 6 > j j ; ; $ $ $ $ $ $ ; ; j > 6 , 5 ) ~ ] / 3 T 1 } i 8 9 9 9 8 } | 1 _ 4 / ] ~ ! 5 ' ' , J.6 J., l.' 5 ) <#{ ] ^ ]+3 _ 2 ;+} i 8 8 8 8 8 V.9 0 a c.b c e f f g h h h h h x g f e b 0 8 | 2 4 #+~ ) 5 , , 6 J.l.x.K.M.#+( u@i+2@g@f.>.;.).*.W %.X Y Z `  ...F@E.E...+.o.R B V U h e 0 } 2 4 ^ ~ ) ' y.h@$ # + . . .       @ @ @ k k l l m n n o p q r s t+Z+Z+i@i@i@i@Z+Z+t+t+t+t+t+t+Z+Z+Z+Z+Z+Z+Z+t+s s r r 5$q q p p p o o o o n h&o o o n n n m l k @   . . + # # $ ; j > 6 , , ' ' ' ' , , , 6 6 > j > > 6 ' ) { / 2 } 9 b f h y -.).*.&.W %.X X X X X X X X X X ",
"X X X X %.%.%.W W &.&.*.=.).-.h.<%s+F.@+2@B.F+T ]+#+M.K.x., > j $ # +   @ @ @ @   + # ; > , ) { 4 1 8 b i.z Q.=,o.7&F G C.C.T.T.E... .+.@.#.$.X %.W *.)._@G+f.g@]@N.m.[ < < < [ m.B.N.O.c.F.,.f.f.q.q.x x x x q.q.q.q.q.x >.>.h.h.;.;.;.;.;.;.h.h.h g e b 0 8 } 2 3 4 / ^ ] ^ ^ / 3 _ 2 1 1 2 3 / ] ~ ! ! ! ~ w / _ < B.@+,.<%h.).A 9$%.%.%.%.-,9$W W 9$B B W Q.&.*.L&=.).-.h.g ,.c.0 8 i } | 1 2 _ _ _ _ _ _ _ _ _ 3 3 z.4 / / ^ ^ ++] ] { { { { ] ] ] ] ] ] ] ] { { ~ ~ ! ! ) ) ) 5 ' ' , 6 6 > j j ; ; ; ; ; ; j j > 6 , 5 ) { ^ 4 _ 1 } i 9 9 0 0 9 8 i | 1 _ 3 / ++{ ! ) 5 , 6 6 > > > > y.6 J., ' 0.! ~ { ] / 4 3 _ 2 1 1 1 1 1 | } U.9 0 a b c e e f f f f f f e c b 0 8 } 1 3 ^ { ) ' , > > j - y.J.l.0.M.#+( : m.O.F.I+>.;.).=.&.W %.X Y Z ` +.....+.@.D.=+Q.S U h c 0 } 2 4 ^ { ) ' 6 j $ # + + . . .     @ @ @ @ k l l m n n o p q q r s t+Z+Z+Z+Z+Z+t+t+t+t+t+t+t+t+t+t+t+t+t+t+t+s s r r r q q q q p p p o o o o o h&n n n n m m l k @     . . + # # $ ; j j > 6 6 6 6 6 6 6 6 6 > j j j j 6 , 5 ~ / _ | N.a e g '.;.z =.*.&.W %.%.X X X X %.%.%.%.",
"W W W W U@&.&.*.*.=.=.).-.;.h.x f.F.@+N.m.[ T ( 7 M.K.5 , 6 j ; $ + .   @ @ @   . + $ ; > , ) { ]+2 i a f ;.V !*D.P 0&G G T.T.}+E.....+.@.#.$.$.X %.&.=.-.v+u+,.3@O.B.m.[ < < [ m.B.N.@+c.F.,.f.f.q.q.x x x x x x x x x >.>.h.;.-.-.).).).-.-.;.h.>.g f.b 0 8 | 2 3 / ^ ] { ] ] ^ 4 3 _ T 2 _ 4 ^ { ~ ~ ~ ~ w / A.< B.@+,.x ;.=.&.X $.#.Z Z Z #.#.(+Y D.D.D.D.$.^+0+%.W &.*.).~.x e b a 9 8 } | 1 2 2 2 2 2 1 1 1 1 1 1 1 2 2 _ _ 3 3 4 4 / / / 4 4 4 4 3 3 3 4 4 / / ^ ] w { { ~ ~ ! ! ) 5 ' , 6 6 > > j j j j j j j > 6 , 5 ! { / 3 7+} i 9 0 0 0 0 9 8 } | 1 2 3 4 ^ { ! ) ' , 6 > j = ; * * ; ; j g+6 , ' 5 K.~ { ] / 4 4 4 4 4 3 _ 2 | } i 9 0 a b b c c c c c b r.a 0 8 } 1 A./ { ! ' 6 > j ; * ; = - y.l.e+M.7 E%< B.@+F.f.x h.-.).=.*.K$%.X $.#.@.@.@.D.^+B A z y g c 0 } 2 3 ^ { ! 5 6 j ; $ # + + + . .       @ @ k l l m n o o p p q r s s t+t+t+t+t+t+s s s s s s s s s s s s s s s r r q q q q q q p p p o o o o o n n n n n m m l k @ @     . + + # # $ $ ; ; j j j > > > > > > j ; ; ; j > 6 ' ! ] 3 1 i 0 c f h h.;.-.).=.*.&.W W %.%.W W &.&.&.",
"=.=.=.=.=. @).a@-.;.;.h.h.>.q.,.c.F%N.m.< : A.7 w L.0.' J.> j $ # + .   @ @ @   . + $ ; > , 0.~ / _ } 0 e '.S Q.R D E F G G T.}+E.E...+.@.{;#.$.X %.W *.)._@G+f.F.@+N.B.} [ [ [ m.B.O.@+c.F.,.f.f.q.q.q.x x x x x >.>.>.h.h.;.-.).=.=.*.=.=.).-.;.h.x ].j.0 8 | 2 3 / ] { { { ] ^ / 4 3 3 _ 3 / ^ { ~ ~ { ] ^ ( : i @+,.x ;.=.W X #.+.L;..F@F@L;L;+.+.+. .E  .+.` Z (+>@l+W *.).y x e F.a 9 8 } | 1 2 1 1 1 | | } } i } } | | | 1 1 2 2 T _ _ _ 2 2 2 1 1 1 1 1 2 2 _ 3 4 / / ^ ^ ^ ] { ~ ! ) 5 ' , 6 6 > > > j j j j > 6 , 5 ! ] 4 2 | i 9 0 a a 0 0 9 8 } | 1 2 3 4 ^ { ! 5 ' 6 > j ; $ % & & + + # $ ; j > 6 ' 5 ! ~ { ] ^ ^ ^ ^ ^ / 3 _ 2 | } i 8 9 p.0 0 0 0 9 9 8 8 S.| 2 3 / ] ! 5 6 g+; $ # # % $ = - J.x.K.G@7 A.< B.]@F.f.q.>.h.;.-.).L&6&W %.X $.R =+B A S U '.f b 9 } 2 3 ^ { ! 5 , > ; $ # # + + . . .       @ @ k l m n o o p p q r r s s s t+t+s s s s s s s s s s s s s s s r r r q q q q q q q p p p p o o o o n n n n m m l l k @ @     . . . + + # # # $ $ ; ; ; ; j j j j ; $ $ $ ; j > , ) { / T [ 8 a c f x >.h.;.-.).).=.*.*.*.*.*.=.=.=.",
";.;.;.;.L+h.4@>.b+x q.q.f.,.F.c.O.B.m.< T A.]+#+M.K.x.l.6 > j $ # + + .   W@    . + # * j 6 ' ! ] 3 < N.c h z A =+a+7&F G G T.T.E.E.....+.@.#.#.$.X _+&.=.-.v+q.,.c.O.B.m.[ [ m.B.N.O.@+c.F.,.f.f.q.q.q.x x >.>.>.>.h.h.;.-.-.t@*.&.&.&.&.&.*.=.).;.{.q.c a 8 } 2 3 / ] { ~ ~ { ] ^ / 4 4 3 4 b.] { ~ { { ^ ]+_ [ <&F.q._@ @->X <;+.;,>,,,,,,,,,,,E.E.E.E.E.E.E.F@L;o&{;(+l+W *.-.h.g e b 0 9 i } f$1 1 1 | | } i 8 8 8 8 i i i } } } | | | | | } } } i i B.i i i } | 1 2 T _ A.3 3 4 / ^ ] ~ ! 5 ' , , 6 6 > > j j j > 6 , 5 ~ ^ 3 1 } 8 0 a a a 0 p.8 i } | 1 _ 3 / #+~ ) 5 , > j * # & 9+.         . + $ ; > 6 ' 5 ! ~ { ] ] { { ] ] / 4 3 _ 2 1 | } } } } } } } | ;+1 2 /+4 ^ { ! 5 6 j j@# + 9+9++ # * = - J.x.K.w ]+T < B.O.c.F.f.q.x >.h.;.-.i&*.&.W W &.*.S -.y i.e b 9 } 1 3 / { ! 5 , > j ; $ # # + + . . .     @ @ k l m n n o o p q q r r s s s s s s r r r r r r r r r r r r r r r q q q q q q q p p p p p o o o o n n n [#m m l l k @ @ @       . . . . + + + # # # % $ $ ; ; ; $ # # # $ $ j 6 ' ! ] 4 2 } N.@+F.,.f.q.x G+>.h.;.X+-.-.-.-.X+;.;.",
"x x <%q.q.w+f.n+,.F.F.c.c.@+O.N.m.[ : T A.]+#+w L.0.x.l.6 > j ; $ # + . .       . + k+$ ; > , ) { / 2 i a g U V B D.P F E.G T.T.T.E.E...+.@.#.#.$.X %.W *.).;.x f.F.@+N.B.m.[ m.B.N.O.@+c.F.,.,.f.f.q.q.x x >.>.h.h.;.;.-.).=.*.&.W %.%.%.%.W &.4+!.~.i.e b 9 } 2 3 / ] { ~ ~ { a.^ ^ / / / / ^ { ~ ~ { ] / 3 : l&@+s+);!;e&',(+o&),>,!,~,~,~,{,],],],],],],],T.,,^,L;o&{;/,',&.S U '.f c a 9 i } | 1 1 1 | | } i 8 9 9 9 8 8 8 8 8 i i i i i 8 8 9 O.0 s.a a a 0 9 9 8 i } u | | 1 2 _ 3 / ] { ! 5 ' , , 6 > > j j j > 6 , 5 ~ / _ | 8 9 a a a a 0 9 8 i | 1 2 _ 3 / ] ~ ) ' 6 j ; # + .   @ t$k k k @   + # ; > , 5 ) ~ { { { ~ ~ ~ { ] ^ / 4 3 _ _ 2 2 2 2 2 _ _ /+3 z.,@b.] ~ ) ' 6 j $ # + . i$i$9+& % * - y.l.0.L.#+]+T < m.N.O.9&g@F.,.f.q.);h.;.-.).=.S z U y h f c a 9 } 1 3 / { ! 5 , 6 j ; $ $ # # + + . . .     @ k l m n n o o p p q q r r r s s r r r r r r r r r r r r r r r r q q q p p p p p p p p p p o o o o n n n m m m l k k @ @ @ @               . . . . + + + # # # # # + + + + # ; j J.5 ~ ^ ( : [ B.O.@+@+c.F.,.f.f.q.x x x x x x x x ",
"F.F.F.F.`+c.9&@+O.O.N.N.B.P@m.[ < u@A.( ]+7 w M.K.0.x.l.J.y.> j ; $ # # + . . . . . + # $ ; > ' ! ^ 3 | 0 e '.S Q.R o.E F E.T.T.T.E.E...+.@.Z #.$.$.*,W e&=.X+>.q.F.@+N.B.m.[ m.m.B.N.O.@+c.F.,.,.f.f.q.x x >.h.h.;.-.-.).=.*.&.%.X $.$.$.X X I.&.=.-.{.f j.0 i 1 3 / ] { ~ ~ ~ { ] ] ^ ^ ^ ^ ] { ~ ~ { ^ 4 _ | N.4>(,_@ @->_,:,<,[,!,},|,|,|,~,~,{,],],},},},],!,[,),<,:,/,*,->L&j&'.g e a 9 U.} | 1 2 1 1 ;+| i 8 8 9 9 9 9 9 9 9 9 9 9 9 0 0 a b b c e e e e d c b c.a 0 9 9 N.8 i | 2 _ 4 ^ { ! 5 ' , , 6 > j j j > 6 ' ) { 4 2 } 9 0 a b a a 0 V.i } | 1 2 _ 4 / { ! 5 , > ; $ + .   @ k l l l l k @   + $ > , 5 ) ~ ~ { ~ ~ ! ! ! ~ { { ] ^ / / 4 4 4 4 4 / / / ^ ++'#i#<#) ' , > ; # + . i$  i$9+& % * = - J.l.0.M.#+]+A.: [ m.B.N.O.@+c.F.,.f.q.>.h.y y h.'.h f e b 0 8 } 1 3 / { ! 5 , 6 > j ; $ $ # # + + + . .   @ k l m m n n o o p p q q r r r r r r q q q q q q q q q q q q q q q q p p p p p p p p p p p o o o o n n n m m l l k k @ @ @ @ @ @ @ @ @ @ @ @         . . + + + + + . . . + + # ; > , ) ~ ^ ( 2 < u m.B.N.N.O.@+@+c.g@F.F.W+,.,.,.,.",
"O.O.|+N.N.{@B.P@m.[ [ < < : 6+T A.( ]+7 #+w M.L.K.0.5 ' l., 6 > > j ; $ $ # + + + + + + # $ j 6 5 { / : 8 j.h z A =+Z +...E.E.G E.E.F ..+.@.#.#.$.X %.W &.=.-.>.q.F.@+N.m.[ < [ [ m.B.N.O.@+@+c.F.F.,.f.q.x >.>.h.;.-.).=.*.&.W X $.#.Z {;#.$.X I.w.%+y g d a 8 | _ 4 ^ { ~ ~ ~ { { ] ] ] ] ] { ~ ~ ~ { ^ 3 2 m.1,2,);!;3,',4,5,6,7,8,9,|,|,|,|,~,0,},~,~,|,~,},8,!,a,b,c,4,d,e,*.z y g e a 9 i | 1 2 _ _ _ 2 1 | } i 8 8 9 9 9 9 0 0 0 a a b b c e f g h h >.h h g g f f.e c c b c.0 N.S.< _ 4 ^ { ! ) 5 ' , 6 > > > > 6 ' ) '#4 1 i 9 a a b a 0 9 8 i } 1 2 _ 3 4 ^ { ) ' 6 j $ # .   @ k l m m [#m l k @ . # j $+5 ) ~ ~ { ~ ! ) ) ) ) ! ! ~ { { ] ] ] ^ ^ ^ ^ ] ] '#{ ~ <#) 5 6@6 > ; $ & + . . 9+9+& % * = - y.J.x.K.M.#+]+A.T < < [ [ m.B.{@2@@+c.,.f.q.g g q.f e F.a O.8 } 1 /+/ '#! 5 ' 6 > j ; ; $ $ # # k++ + . .   @ k l m n n n o p p p q q q r r q q q q q q q q q q q q q q q q p p p p p p p p p p p p p o o o o n n n m m l l k k @ @ @ @ @ @ k k k k k k @ @ @ @     . . . . . .   . . + # $ j 6 ' ) M.^ ( A.u@: < < [ [ m.m.B.B.B.N.N.N.O.O.O.",
"[ [ [ [ h+< k$: T *#A.( ( ( ]+]+7 7 #+#+w w M.L.L.K.0.0.5 x.' l., 6 6 > j ; $ # # + + + + + $ j , ) ] 3 } a f y V B D.` E ..E.E.E.....+.@.#.$.$.X %.%.W &.=.-.>.w+F.]@B.[ < : : < < [ m.m.B.N.O.@+c.F.,.f.q.x >.h.;.-.).=.*.W %.$.#.@.+.+.@.o.'+=+Q.4+U {.f b N.| 2 4 ^ ] ~ ~ ~ ~ { { { { { ~ ~ ! ~ ~ ] / _ < f,c.(,g,h,i,j,k,b,6,l,8,m,m,m,m,m,8,8,8,8,m,|,|,m,8,7,a,b,n,4,o,e,~;z h.g c @+8 } 7+_ 3 ( 4 4 3 _ 2 1 | } i 8 8 9 9 0 0 a b b c e f g h '.y U z z U U ;.y '.{.h h g f e b 0 8 u 2 3 / ] i#! ) 5 6@6 6 6 6 , 5 ! ] 3 1 i 9 a a a a 0 9 i } | 1 2 _ 3 ,@^ ~ ) ' 6 j $ + . @ k l m m n n n m l k   # ; 6 5 ! ~ { { ~ ) 5 5 5 5 5 5 ) ) ! ! ~ ~ { { ] ] ] '#{ i#<#5+) 5 ' , > j ; $ % % # % % * = = - - y.J.l.0.L.M.#+]+( A.A.A.T T : : < [ B.O.3@F.F.c c F.b a 0 9 i } 1 /+/ '#! 5 ' 6 > j j ; ; ; $ $ # # + + .   @ k l l m n n o o p p p q q q q q p p p p p p p p p p p p p p p p p p p p p p p p p p p p o o o o n n n m m l l k k @ @ @ @ O#k k ,#l l l k k k k @ @ @     . . .       . . + # $ j 6 l.) ~ #+7 ]+( ( A.A.A.T T T T : : : < < < < ",
"T T p#A.A.E%( Y%]+7 -$#+#+H@w w w w w w M.M.M.M.L.L.L.L.5+K.K.) ) 5 ' l.6 > j ; $ # + . . . + $ > ' ~ / 1 9 ,.'.).Q.^+o.+. .......+.` @.#.$.X X %.W W &.*.=.:@>.f.c.N.m.< T A.A.*#T : : < [ [ m.B.2@@+c.F.,.q.x >.h.;.D@=.&.W X Y @.+.....+.+.o.$.%.A %+y g c p.} 2 3 / ] { ~ ~ ~ ~ ~ ~ ~ ! ! ! ! ! ~ ] 4 2 } 9 F.];p,q,r,s,n,t,u,l,v,v,v,w,w,l,l,l,l,w,m,m,m,m,w,u,x,y,z,A,o,i,E@-.>.f b 9 i 1 _ 4 b.^ ^ ^ ^ / 3 _ 2 1 | } i 8 9 0 a a b c e g h '.y z S V *.A A *.V V S ).z -.U y '.g e c.9 i 1 _ 4 / ] { ! ) ' , , , ' ) ~ ] 3 1 i 9 0 a a 0 9 8 i } | 2 _ 3 4 / ] ~ ) , > ; $ + . @ k l m n n n n n m l @ + ; 6 5 ! ~ { { ~ ) ' ' , , , ' ' ' 5 5 ) ! ~ ~ { ] ] ] { i#~ ! ) ) 5 ' , 6 6 > - - - - - - y.y.y.y.y.J.l.x.K.L.M.#+7 7 7 7 7 7 ]+]+( A.: [ B.N.O.@+@+@+0 0 9 8 i u 7+/+/ '#! 5 ' 6 > > j j ; ; ; $ $ # # + + .   @ k l m m n n o o o p p p q p p p o o o o o o o o o o o o p p p p p p p p p p p p p p p o o o o n n n m m l l k k @ @ @ O#k k ,#l l l l l l k k k k @ @               . . + # $ $ j > l.0.L.w #+#+#+#+#+-$7 7 7 7 7 7 ]+]+( ( ( ",
"]+]+7 7 7 7 #+p%w M.M.L.L.L.L.L.L.L.L.M.M.M.M.M.M.M.M.{ w { { { M.~ L.! 5 ' , > ; $ + .     . + ; 6 )+] _ i b g U *.%.Y @.` +.+.@.@.#.$.X X %.W &.&.*.*.=.)._@x ,.@+B.< T ( ]+]+]+( ( A.A.T : < [ m.B.O.@+c.,.f.q.x h.-.).*.W X #.@.+.......+.` D.X Q.V U h e 0 i 1 _ / ] { ~ ~ ! ! ! ! ) ) ) ) ) ! i#^ 4 1 i @+B,v+h,C,D,E,n,x,u,F,w,w,F,F,u,G,G,G,u,F,l,v,v,l,F,H,t,I,J,s,r,K, @;.x ,.@+8 | _ ]+#+w M.M.M.{ ] ^ / 3 _ 2 1 | i 8 9 0 b c e f h '.U z V A Q.B 9.=+=+=+B B Q.Q.A A V ).g.>.f c @+8 } 1 _ 4 ^ ] ~ ) 5 5 5 5 ! ~ ^ 3 1 } 8 0 0 0 0 9 8 i | 1 2 _ 3 4 / ] ~ 5 , > ; $ + . @ k l m n n n n n n l @ 9+; J.5 ! { ] { ~ ) ' , 6 6 6 6 6 , , ' 5 ) ! ~ { ] ^ ^ ] '#{ ~ ~ ! ! ) ) 5 5 x.' ' l.l.l.l.l.l.l.J.J.l.l.x.0.K.L.M.w w w M.M.M.M.M.w #+]+A.: [ m.B.8 N.N.N.8 8 i u 1 /+,@] ! 5 ' , 6 > j j j ; ; $ $ $ # # # + . W@k k l m m n n o o o p p p p p o o o n n n n n n o o o o o o p p p p p p p p p p p p p o o o o n n n m m l l k k @ @ O#O#k ,#,#l l l l l l k k k k @ @               . . + + # # $ = y.l.0.K.L.L.L.L.L.L.L.L.L.L.L.{+M.M.w w w ",
"w w w w w M.M.L.L.K.K.0.0.0.0.0.K.K.! L.M.M.w w w #+#+#+7 7 7 7 7 ^ ++] ~ ! 5 , > ; # .   @   . # j ' ~ 4 [ 0 f y =.W X D.#.o.Z #.$.X 9.%.W &.*.Y+=.).).-.;.>.f.c.N.[ : ( 7 #+#+#+7 7 7 ]+( ( A.T k$[ m.{@O.@+F.,.f.x h.-.=.&.%.$.@.+.......E P #.R I.V z '.].a 8 < _ / ] { ~ ! ! ! ) ) 5 5 5 5 ) ! i#^ 3 1 8 c.(,_@h,L,o,J,I,x,u,F,F,F,u,H,x,x,x,x,x,H,u,F,F,F,G,x,y,z,A,o,L,M,N,v+q.b 9 } 2 4 #+M.! ) ) ) K.! { ] ^ 4 3 _ 1 | i 8 0 a c e g >.y z V A B =+R D.D.o.o.D.D.R R ^+=+B Q.V z y x e b p.B.| : A.4 ^ { ! ! ) ! ! { ^ 3 7+} 8 9 0 0 0 9 8 } | 1 2 _ 4 / ^ { ! 5 , > j $ + .   k l m m n n n n n m k . ; , ) ~ a.] ] ~ ) ' 6 6 > > > > 6 6 , x.) ! { ] ^ / / / ^ ^ ] ] ] w { { { i#~ ~ ~ L.L.L.K.K.0.0.x.x.x.x.0.K.K.L.L.M.L.L.K.0.0.0.0.0.K.M.#+]+A.: < [ m.B.8 8 i i u 1 _ ,@] <#) ' , 6 > > j j j ; ; $ $ $ # # + .   @ k l l m m n n n o o o p o o o n n n n n n n n n n o o o o p p p p p p p p p p p p p o o o o n n n m m l k k @ @ @ @ O#O#k ,#l l l l l k k k k @ @ @       . . . . . + + # # # % * j 6 l.x.0.0.0.0.0.0.0.x.x.x.`@0.0.0.0.0.r+",
"L.L.L.L.! K.K.0.0.5 x.x.x.x.x.x.0.) K.L.M.w w #+7 7 ]+( ( A.A.A.A.3 3 4 ^ ] ~ 5 , j $ +   @ @   + ; 6 ! / 1 9 ,.>.z A %.X $.$.$.X =+B Q.&.*.=.).!.-.;.;.h.>.w+F.O.m.: A.7 ] M.M.M.M.w w #+#+7 ]+( A.T : h+m.U.O.@+F.f.x h.z *.W X #.o&+.....+.@.#.X W *.z '.f a 8 | _ / ] 8@! ! ) ) 5 5 ' ' ' E+5 5+i#^ 3 | N.b q.-;M,O,s,P,Q,x,G,u,F,u,x,x,b,y,y,y,y,t,x,G,G,G,x,y,n,J,R,S,T,U,_@x ,.0 m.: ( #+~ 0.' l., , ' 5 ) ~ { ] / 4 _ 2 | i 9 a c e g '.U S *.Q.=+R Q o.P +.E +.P P o.o.D.Y =+B A S U {.q.,.a 9 i | 2 3 ^ ] { ~ ~ ~ { ^ 4 2 | i 8 9 0 9 9 8 i | 1 2 3 4 / ^ { ! 5 ' 6 j $ # .   @ k l m n n n n n m k . ; , ) { ] ^ ] ~ ) ' 6 > j j j j > 6 , 5 ! { ] / 3 _ _ _ 3 3 ( 4 4 4 4 4 4 4 4 4 ,@]+/ 7 #+w w M.L.K.K.K.K.L.L.L.L.L.K.0.x.l.J.J.6 6 , x.5+w 7 ( _ : | } i i i i } ;+:+4 ] ~ ) ' , 6 > > d>j j ; ; j@$ $ V@# + .   @ @ k l l l m n n n o o o o o n n n n n n n n n n n o o o o p p V,V,V,V,p p p p p p p o o o o n n m m l l k s&@ @ @ @ @ O#O#k k ,#l k k k k @ @ @ w#    . . . . + + + # # # # # # $ ; - 6 , l.l.l.l.l.l.l.Y@J.J.J.J.J.J.J.J.J.",
"0.0.0.0.0.x.x.x.' l.l.l.l.l.l.x.5 0.K.L.M.w #+7 ]+( A.T : : < < < < 1 2 3 4 ] ~ 5 6 ; # . @ @   + $ > 5 ] 2 B.b g ;.=.Q.B %.=+%.B Q.A V %+!.g.;.h.4@>.x q.f.F.]@B.< /+]+] ~ ! K.K.K.K.L.L.M.w w #+7 ]+( /+: ;+m.U.O.c.,.x y ).A %.$.{;o&+.+.@.Z $.=+Q.V z '.f b 8 | _ / ] ~ ! ) 5 5 ' ' , , , ' 5 5+i#^ /+| 9 F.u+-;M,O,_,W,c,b,6,G,G,6,x,b,5,c,c,n,c,c,b,t,t,b,y,c,W,s,r,K,X,X+G+f.c.B.1 3 ^ ~ 5 , 6 > > > 6 , ' ) ! ~ ] ^ 4 _ 1 } 8 0 b f.x h.-.=.&.B X D.o.P E ..F F F E E  .P @.D.R B Q.V z y h f c a 9 } 1 3 / ^ ] { { ] ^ 4 _ 1 } i 9 9 9 9 8 i | 1 2 3 4 / ] { ! ) ' 6 > ; $ + .   k l l m n n n n m k . ; , ! { ^ ^ ^ { ) ' 6 > j j j j > 6 ' ) ~ ] ]+_ 1 | } } | | | | | | | | u u [ [ | < 1 :+A.( ]+7 #+w w w w M.M.M.L.L.0.x.J.y.- = ; ; j y.l.0.M.#+]+_ : | } i i i } | 2 4 ++~ ) 5 , 6 6 > > j j h@; j@$ $ V@# $#+ .   @ @ k k l m m m n n n o n n n n m n n n n n n n o o o o p p V,V,q q q q q p p p p p o o o n n n m l l k k @ @         W@@ @ @ O#k @ @ @ @         . . . + + + # # # # $ $ $ $ $ $ ; j g+> y.y.y.y.y.y.y.y.y.y.y.y.- - - - - ",
"' ' ' ' l.l.l., , , , J.J., l.' 5 ) ! ~ { #+7 ]+A.T : < [ m.m.B.B.B.i } 1 _ 4 ] ! ' > $ .   @   . # j ' { 3 } 0 e >.U =.A &.Q.&.A V %+!.y '.>.i.<%q.f.f.,.c.O.B.[ T 4 #+~ ) 5 5 x.x.0.0.0.K.K.L.L.M.w #+b.( /+: [ S.9 c.e h g.=..+=+$.#.@.@.Z D.X %.&.V z '.f c.8 | _ / w <#) 5 ' ' , , 6 6 6 , E+) i#^ /+| 9 F.q._@ @->*,/,:,<,Y,6,6,b,<,c,:,Z,Z,W,Z,Z,`,:,:,:,Z,/,_,r,K,X,X+ 'I+g@N.[ _ / { ) , > j ; ; j j 6 , 5 ) ! ~ ] ^ 4 2 | 8 0 b e h y z V &.%.R Z P E F E.E.E.E.F F ..E +.` Z Y =+B &.=.z y h f.b p.i 1 _ 4 ^ ] ] ] ^ 4 _ 2 | i 8 9 9 9 8 i } 1 2 3 4 ^ ] { ! ) ' , > j $ # +   @ k l m n n n n m k + j ' ! ] ^ / ^ { ! ' 6 > j ; ; j > 6 ' ! { / _ 1 i 9 0 0 0 9 9 O.0 0 @+s.a a a s.s.0 9 B.m.< : T A.( ]+]+7 7 #+w M.L.0.l.y.- * % # & # * - l.0.~ #+4 T 1 } i 8 8 i } 1 3 ^ M.) 5 ' , 6 > > j j h@; j@j@$ V@# + + .   @ @ k k l l m m m n n n n n n m m m n n n n o o o o p p p V,q q 5$q q q q q p p p p o o o n n m m l k k @       . . . . %#            . . . . + + + + # # # $ $ $ ; ; ; $ $ $ $ $ ; ; = j j j - - - - - - - - - = = * * * * ",
", , J.J.J.J.J.6 6 6 6 6 J.J.l.' 5 ) ! ~ w ^ ]+3 T 1 [ m.B.N.9 O.0 0 O.9 i | _ / { 5 6 ; +       . # ; , ! / 1 8 a f.>.;.z %+S S z U y {.g f f.d ,.F.F.c.@+O.B.[ T ( 7 { ! 5 ' l.l.l.l.l.x.x.x.0.0.K.! M.w ++]+z.:+< m.O.b f '.-.V W X $.#.#.D.$.=+W A =.-.'.f a 8 1 3 ^ { ! 5 ' , , 6 6 > > 6 $+' )+~ ^ A.| N.b q.h.).e&J+p&Z,:,<,<,<,<,:,{;Z,/,p&_,_,_,p&/,.'p&*,J+i,E@D@_@G+f.g@O.} 2 ]+w ! ' 6 j ; ; ; j j 6 , ' ) ! ~ { ^ 4 _ | i 9 b e h y ).*.W X Y o.+...E.G T.T.G G E.E.F ....+.` o.$.X B &.=.U >.f b 9 } 1 _ 4 ^ ] ] ^ 4 3 2 | i 8 9 9 9 8 i } 1 2 3 4 ^ ] ~ ! ) ' , 6 j ; # + .   k l m n n n n m k + j ' ! ] ^ / b.w ! ' 6 > j ; ; j > , 5 ~ #+3 1 } 9 a c ,.c c ,.e e f f t.t.g g t.t.f d F.@+O.B.m.[ < : T A.( ]+7 H@M.K.x.y.= $ & 9+. + # ; y.l.K.w / _ 1 } i 8 8 8 i | _ / { ! 5 ' , 6 > > j j ; ; j@$ V@# # + + .     @ @ k k l l m m m n n n n m m m m n n n o o o p p p p q q 5$5$5$5$q q q q p p p o o o o n n m m l k @     . . + + + + + + + + + + + + # # # # $ $ $ $ ; ; ; j j j j j ; ; ; ; $ $ $ $ $ * * * * ; = = = = = = = * % % # & ",
"> > > > y.y.y.y.6 6 6 6 J., l.' 5 ) ! { ] 7 ( _ : [ m.8 9 0 a c.b b b a 9 i ;+3 ^ ! ' > $ 9+    . + $ 6 ) ] 3 | N.c.e g {.~.y y '.h g ].c b a s.@+p.O.N.B.m.| 2 ( 7 w ! 0.' , , J., J.J.J.J.J., l.' x.)+! M.] b.( T < B.0 c g y ).A B X R $.R X %.Q.*.S U h e a i 1 3 ^ ~ ) 5 , , 6 > > > > > 6 6@)+<#++3 1 B.a e >.-.=.->%.>@(+{;{;{;{;#.(+>@l+-,W :;W W J+W ->6&E@).X+v+u+,.c.N.} 2 4 ] L.5 , > j ; ; j > 6 , ' 5 ) ! ~ { ] / _ 1 i 9 b e h ;.%+A %.^+#.` E F E.T.T.T.T.G G G E.E.E.F ..E P Z $.%.&.=.U h e a 8 | 2 3 / ^ ^ ^ 4 3 2 | i 8 9 9 9 8 i } 1 2 3 4 ^ ] ~ ! ) ' , 6 j ; # + .   k l m n n n n m O#+ j ' ! w ^ / ^ w ! ' , > j ; ; j 6 , ) ~ / _ | 8 a e q.g h h h '.'.y y g.U U U U g.y '.x f ,.F.s.O.N.B.m.[ < T I@]+#+L.0.J.- * & . . . + $ j J.5 M./ _ 1 } 8 9 9 9 8 } 2 4 ++~ ) ' , 6 > j j ; ; j@$ V@V@# + + . .   @ @ @ k k l l l m m m m m m m m m m n n o o p p p q q q q 5$r r r r 5$q q q p p p o o o n n n m m l k @   . + + # # $ $ $ $ $ $ * ; ; ; ; ; ; j j j j > > > > 6 6 > > > j j j ; ; $ $ # # # # # % % $ * * ; ; ; * * % # & & ",
"j j j - - > > > y.6 6 6 , , ' 5 ) ! ~ { ^ / 3 T < } 8 9 @+c.b c e e c c a 9 m.2 4 { ) 6 ; # . . . + $ > ' ~ / _ | U.@+F.e f t.t.f e c a 0 V.U.B.i S.m.u | 1 T ( 7 w ~ ) ' , 6 6 6 6 6 6 > > > > > 6 J.l.5 ) ~ '#7 ( 2 [ 8 a e h U =.&.B =+=+=+%.W A V z y h e 0 i 2 4 ] ~ 5 ' , 6 > j j j j > 6 , 5 ! ] 4 2 } 9 F.q.h.z *.Q.%.^+$.Y Y $.$.X %.W &.*.=.=.=.=.=.).-.;..>x f.b O.B.| T 4 #+~ ) ' 6 > j j > 6 , ' 5 ) ! ~ ~ { { ^ / _ 1 } 9 b e h ;.=.&.%.$.Z +...E.G T.T.T.T.G G G T.T.T.G }+F ..+.@.$.%.A ).y g b 9 } 1 3 4 ^ ^ / 4 3 2 | i 8 9 0 9 9 8 } | 2 3 4 ^ ] ~ ! 5 ' , > j ; # + .   k l m n n n n l @ + = l.K.{ ^ 7 ^ { ! ' , > j ; j > 6 ' ) { 4 2 } p.c f >.y U U z z S S 4+V V w.w.*.V =.%+-.y '.i.t.].,.F.c.O.N.m.< *#]+w ! ' y.; # + . . + # ; y.E+~ b._ | i 9 0 a 0 9 i < _ / { ! 5 , 6 > j j ; ; $ $ # # & + . .     @ @ @ k k k l l l m m m m m m m m n n n o t p q q q r r r r r +'r r r q q p p p o o o o n n n m l l @   . + # # $ ; ; j j > > > 6 6 6 6 6 6 6 6 , , , , , ' ' ' , , 6 6 > > j j ; $ # + + + + + + & # % $ * ; ; * $ % # & & ",
"j j j j j j > > > 6 6 , , ' ' 5 ) ! { ] ^ 4 _ : | i 9 0 c.F.,.e f f f e c a 8 | _ ^ ~ ' > $ # + . + # j , ) { / A.< m.N.@+c.r.r.a 0 9 8 } | < 1 1 7+7+2 _ 3 4 ^ a.~ ) 5 , 6 6 6 6 6 6 > j j ; ; j j > 6 , 5 ) ~ ] / 3 1 } 9 b f '.U =.A Q.B B Q.Q.*.S U '.g c 0 } 2 4 ] ! 5 , 6 > j j ; ; ; j > , ' K.{ / _ | 8 a ,.g y z V &.9$%.=+=+0+B W &.V i&-.U ;.y y '.>.x f e b 0 8 } 1 A./ ] ~ ) ' , 6 > > 6 , ' ) ! ~ ~ { { w ] ] ^ 4 _ 1 } 9 c.e h g.=.Q.X Y @.+...E.T.T.T.T.T.E.E.G T.T.T.T.T.T.E...+.#.X W V U h c 0 i 1 _ 4 / / / 4 3 2 | i 8 9 9 9 9 i } 1 2 3 4 ^ ] ~ ! 5 ' 6 > j ; # + .   k l m n n n m l @ + = , ) M.] ^ ] { ) ' 6 > j j j > , 5 ! ] 3 1 i a e h y z S V A Q.Q.Q.I.B B B B B B W Q.A *.=.).z U y >.g f.F.F%B.F+T ]+{ ) , > $ # + . + # ; 6 5 ~ / _ | 8 0 a b a 0 8 } 2 4 ^ ~ 0., 6 > j j ; j@$ V@# $#+ + .     @ @ @ k k k k l l l m m m m m m m m n n o o p q q r r r r s s s s r r r q q p p o o o n n n n m m l k @   . # $ ; j > 6 6 , ' ' 5 5 5 5 5 5 5 5 5 ) ) ) ) ) ) ) ) 5 5 ' , 6 6 > > j $ # + . . . . . + & # % $ * ; ; $ $ # # # ",
"; ; j j j j > > 6 6 , , ' ' 5 ) ! ~ { ^ / 3 2 < } 8 0 a c e f g g h i.g f c 0 i 1 4 ] ) , j $ # + + # ; > ' ) M.^ ( T < u B.U.U.i } | 1 2 _ 3 3 z.z.z.4 4 / ^ { ~ ) 5 , 6 y.> > > 6 > j ; ; $ $ ; ; j > , ' 5 ! { ^ 4 _ ;+i 0 b f '.U S V A A A A V ).U '.g c 9 } 2 / ] ! E+, > j j ; ; ; ; ; j 6 , 5 ~ ] 4 2 } 9 a e g h.U S V A A A A *.V S U y h g g f f.d c b @+9 B.} 1 _ 4 ^ { ! )+' , 6 6 6 , ' 5 ! { ] ^ ^ ^ ^ ^ ^ ^ / 4 _ 1 } 9 a e h ;.=.Q.X #.@.+...E.T.T.T.T.T.E.E.G T.T.-+-+-+H T.E...@.$.B n.z '.e a 8 | 2 3 / / / 4 3 2 1 } 8 8 9 8 8 i | 1 _ 3 / ^ { ~ ) 5 , 6 > ; $ # + .   @ l m n n n m l @ + = J.0.L.{ { { ! 5 , 6 > j j g+6 , 5 ~ ^ 3 | 8 b f '.-.V A B =+=+R R R R D.D.D.D.D.R R R =+=+B Q.Q.*.S U h.t.,.@+B.< A.7 ~ 5 , j $ # # # ; j , ) { 4 2 } 9 a b c b a 9 i 1 3 / { ) ' 6 > j j ; ; $ V@# + + . .     @ @ @ k k k k l l l l m m m m m m m n n o o p q q r r s s s s s +'r r q q p p o o o n n n n m m m l k   . + $ ; j 6 , ' 5 ) ! ! ~ ~ { { { { { { { { { { { { { { ~ ~ ! ) 5 ' , , 6 > ; # + . . . . . + + # # $ $ $ $ $ $ $ # # ",
"j j j j j > > 6 6 , , ' ' 5 ) ! ~ { ^ / 4 _ 1 } 8 0 a c e f g h h '.'.h g f b 9 } 2 / M.5 6 j $ # + # $ ; > , 5 ! w 7 4 A.:+: : :+_ 3 4 / ^ ] ] ++++++++] ] { ~ ) 5 ' 6 6 > > > > > > j ; $ $ $ ]>; j > , ' 5 ! ~ ] / 3 2 | i 0 F.f h y z S V V V S z U '.f j.9 } _ / { ! ' , > j ; ; $ $ $ ; ; > 6 ' ) { ^ 3 1 } 9 a d q.h y U !.z z z U U h.h f e c r.s.p.V.U.m.| 1 2 3 4 ^ { ! )+' , 6 6 6 , , 5 ) ~ ] / 4 3 3 3 3 3 4 4 3 _ 2 | } 9 a ,.g y S &.X Y @.+...E.T.T.T.T.E.E.E.E.T.T.-+-+-+-+T.E...` Y 0+A ).h.f b 9 } 2 3 / / / 4 3 _ 1 | } i i i } | 1 2 3 4 / ] { ~ ) ' , > j ; $ # + .   @ k l m m m l k   + ; 6 ' ) ! ! ! ) ' 6 > j j j > 6 ' ) ~ ^ _ u 9 b t.y z A B =+D.D.o.o.o.o.D P P P P 5*D D D o.a+D.C =+9$n.).;.x ,.@+B.< 3 ^ ~ 5 , > j ; j > , 5 ! ^ 3 1 i 9 a c c c b 0 8 | _ ]+] ! 5 , 6 > j j ; $ $ # + + . .     @ @ @ k k k k l l l l m m m m m m m n n o o p q r r c%s s s s r r r q q p p p o o n n n m m m m l k @ . + $ ; > 6 ' 5 ) ~ { ] ^ / / / / / / / / / / 4 4 4 4 ,@/ ^ ] { ~ ! ) 5 5 ' 6 j j@# + k@. . + + + # # # $ $ $ $ $ $ $ $ ",
"j j j > > 6 6 , , ' ' 5 5 ) ! ~ { ] / 4 _ 2 | i 9 a b e f g h '.'.y y y '.g e a 8 | _ ^ ! ' 6 j $ # # # $ ; j 6 l.0.! i##+7 b./ 7 ^ ] { ~ ! ! ! L.~ ~ ~ ~ ~ ! ) 5 , 6 y>> j j j > > > j ; $ $ $ ; j > 6 , ' ) ! ~ { ^ / 3 2 | i p.b e g '.U z S S z z y '.f F.9 } _ / { ! ' 6 > j ; $ $ # # $ $ ; > 6 5 ! { / 3 1 } V.a j.e g h h '.'.'.h g f e b 0 9 U.} | 1 :+A.4 / ^ ] { ! )+' 6 > > > > 6 , 5 ! { b.3 2 1 | | | 1 2 2 _ _ 2 1 | i N.a c q.'.).&.%.$.{;+...E.}+T.T.T.E.E.E.E.T.T.H -+-+H T.E.E ` Y 0+K$S y g b 9 } 1 3 ,@/ / J#4 3 2 1 | | | | | 1 2 3 4 / ^ ] { ! ) ' 6 > ; $ # + + .   @ k ,#l l l k @   + ; > , ' 5 5 5 ' 6 > j j j > 6 , 5 ! { / _ } O.c g y S A =+R o.o.P P P P *+E E E E E E E 0&0&E 7&P o.R B A S y x ,.@+B.1 3 ^ ~ ) ' , J., ' )+! ] 4 2 | 8 0 b c c c b s.8 } 2 4 ] ~ 5 ' , 6 > j j ; $ # # + . .     @ @ @ k k k k l l l l m m m m m m m n n o o p q r r s s s s r r q q q p p p o o n n m m m m l l k @   + $ ; > , ' ) ~ { ^ / 4 3 _ 2 2 2 2 2 2 2 2 2 2 7+1 2 2 _ 3 4 / ^ ] ~ ~ ! 5 ' 6 j j@# $#$#+ + + # # # # # $ $ $ $ $ $ $ ",
"> > > > 6 6 , , ' ' 5 5 ) ) ! { ] ^ 4 3 2 < } 8 0 b e f g h '.y y U U U y '.g ,.a i 1 4 ] K.' > ; $ # # + # $ ; j 6 l.5 K.L.~ ~ <#! ) ) 5 ' ' ' 5 5 )+) ) ) 5 ' , 6 > > j j j j j > j j ; $ $ ; ; j 6 , ' 5 ) ! ~ { ] ^ / 4 _ 1 } 9 a c f h y U U U U y h f j.9 } _ / { ! ' J.> j ; $ # # # # # $ ; > , 5 ~ ] / _ 1 } 8 0 a F.d e f f f e c b a 9 i } 1 _ 3 ,@^ ] { ~ ! ) 5 ' 6 > j ; j j > , 5 ! ] / _ | i N.9 9 8 i } | < 1 1 | } i 8 0 b f >.-.*.B X #.@.+...E.E.T.E.E.....E.E.T.T.H H H G F  .@.Y 0+K$S y g c 0 i 1 3 4 / / / 4 3 _ :+2 1 1 2 2 _ 3 4 / ^ ] { ~ ! 5 , > j ; $ # + . .     @ k k k k @   . # j@j 6 , ' ' , 6 > j ; j j > 6 ' 5 ! { / 2 m.0 c g ;.S Q.=+D.o.P P P P E E E E F F F F t&G G t&F k*P o.R B *.z h.g c 0 m.2 4 ^ { ! ) ) ) ! { ] ,@_ < i 9 0 b c c c b a 9 } 1 3 ^ ~ ) ' , , 6 > j ; $ # # + . .     @ @ @ k k k k l l l l m m m m m m m n n o o p q r r r s s s r q q p p p o o o n n m m m l l l k @   . # ; > , 5 ! { ] / 3 _ 1 | } } m.m.} } } } } i i i i i } | 1 2 _ 3 / ^ ] { ~ ) ' j#j ; * $ $ $ # # # # # # # $ $ $ ; ; ; ",
"> > 6 6 6 , , ' ' 5 5 ) ) ! ~ { ^ / 3 T 1 } i 9 a c f g h '.y U U z z z U y '.f c 0 } 2 / { ) , > ; $ + + . + + $ ; - 6 l.x.5 5 x.' , , 6 6 6 6 , , ' ' ' ' ' , 6 > j j ; ; ; j j > > j = ; ; j > 6 , ' 5 ) ! ! ~ ~ { { ] ^ / 3 2 | i 0 b e g '.y y y '.h f j.9 } T / { ! ' 6 > j ; $ # + + + + # $ j > ' ) ~ ] / 3 2 | i 8 0 a a b b b a a 9 8 } | 2 3 / ^ { L.) 5 ' , , 6 > j ; $ $ ; j 6 ' K.w 4 2 } N.a b F.b a 0 9 8 i } } } } i 8 0 b e x ;.=.W X $.#.`  ...E.E.E.........E.E.T.T.T.G m+F@ .Z R 0+K$S U h d @+U.< _ 4 / ^ / / 4 3 3 _ _ _ _ 3 3 4 / ^ ] ] { ~ ! 5 , > ; $ # + + . .     @ @ @ @ @   . + # ; j > 6 , , 6 > j ; ; j > 6 , ' ) ~ ] 4 2 i 0 e h U V Q.=+D.o.P P P E E E E F F F F G G G G G G F E D Y 0+A S ;.h e a 8 | _ 4 ^ { ~ ~ { ] ^ 4 _ 1 } 8 9 a b c c c c a 9 i 1 3 / { ! 5 ' , 6 > j ; $ $ # + . .     @ @ @ k k k k l l l l m m m m m m m n n o o p q r r r s s r r q p p o o o n n n m m l l l k k @   . # ; > , 5 ! { ^ 4 _ 1 | i 8 9 9 O.p.9 9 9 9 9 p.0 0 0 9 9 8 i } 1 2 _ z./ ^ ] ~ ) ' 6 g+j h@; ; ; $ $ $ $ $ $ $ $ ; ; ; ; ",
"6 6 6 6 , ' ' 5 5 ) ) ! ! ~ { ] / 4 _ 1 | i 8 0 b e g h '.y U z z S S S S z y h f b 9 | _ 7 ~ ) , > $ # .     . b;# $ ; - y.6 6 6 > > j j h@j j > 6 6 , , , 6 6 > j ; ; ; $ ; ; j j > > > > > 6 , ' 5 ) ! ! ~ ~ ! ! ! ! ! ! ~ ] / 3 2 } 8 a c f i.'.'.'.h f c 9 } 2 / { ! ' 6 > j ; $ # + . . . + # $ j 6 ' ) ~ ] / 3 _ 1 | i 8 N.9 9 9 9 8 i | 1 _ 4 b.] ~ ) ' , > j j j ; ; $ $ $ $ ; > , ) { / :+} 9 b e q.g f e c a 0 8 8 i i i i 8 9 a c g y =.&.%.>@#.@.+.+.......+.+.+.....E.E.G G E.F E ` #.^+%.K$L&U h e a 8 | _ 4 / ^ ^ / / 4 4 3 3 3 4 4 / / ^ ] ] { ~ ~ ) ' 6 j ; $ # + . . .       @ @ @   . + # $ j > > 6 6 6 6 > j ; ; j > 6 ' 5 ) ~ ^ z.1 8 a e '.z V B R D.o.P P P E E E E 0&F F F F G G G G F 0&P o.R B A S y h ].b 9 } 1 A.4 ^ ] ] ^ / 4 _ 1 | i 9 0 a b c c e c b 0 i < _ / { ! 0.' ' , 6 > j ; $ # + . .     @ @ @ k k k k l l l l m m m m m m m n n o j;p q r r r s s r q q p o o o n n n m m l l k k @   . + # ; > , 0.~ ] / 3 2 | i 8 O.0 a b b b b b b b b b b b a a 0 0 9 8 i | 1 2 _ 3 4 ^ { 5+E+, 6 j#> > j j ; ; ; ; $ ; ; ; ; j j ",
"6 6 , , 6@' 5 5 ) ) ! ! ~ ~ { ^ / 3 2 1 } 8 9 a c f g '.y U z z S s=V V V S z y g e a 8 1 3 ^ ~ 5 6 j # .   @ @   . + # $ ; j j = ; ; $ $ $ $ ; j > > 6 6 6 > > j ; $ $ $ $ $ ; j j > 6 , , ' 5 ) ! ! ~ ~ ~ ~ ~ ! ) ) 5 ' ' 5 ) ~ ] ]+_ | U.0 b e g h h g f c 9 } 2 / { ! ' 6 > j ; # + . .   . . + # ; > 6 ' ) ~ ] / 4 3 2 1 | } i i i } | 1 2 _ 4 ^ { ! 5 , > j $ # # # # # # # # ; j J.0.~ 7 _ } 9 b f h '.y '.h f e b 0 9 8 i i i 8 9 0 b f '.z *.W %.X $.#.@.P +.+.` @.+.+.....E.E.E.F E +.o.Y X B &.=.U h e a 8 | _ 4 / ^ ^ ^ ^ / / / / / / ^ ^ ] ] { { { ~ ! ) ' 6 j $ # + + . . . .           . + # $ ; j > 6 6 6 6 6 > j ; ; j > , ' 5 ! { ^ 3 1 8 r.f '.z A B R D.o.o.P P P P E E E E E E E 0&F 0&E E P o.R B A S U '.g e b 9 i 1 _ 3 / ^ ^ / 3 _ 1 | i 8 9 0 a b c @'e c b 0 i | _ / ] ~ ) 5 ' , 6 > j ; $ # + . .     @ @ @ k k k k l l l l m m m m m m m n n o o p q r r r r r r q p o o n n n m m m l l k @ @   . + $ ; > l.) ~ ] 4 _ 1 } 8 0 a b c c c e e e e e e e c c c b b a a 0 9 8 i i } | 1 2 A./ '#! )+E+' , $+6 > > j j j j = j j j j j ",
", , , , ' ' 5 5 ) ) ! ! ~ ~ ] ^ 4 3 2 | i 8 0 b e f h '.U z S S V V V A V V %+U '.f F.O.} 2 4 ] 5+, > $ . @ k k k @   . + # $ $ $ # # # + + # $ ; j j > > j j ; ; $ $ # # $ $ ; j > 6 , ' 5 ) ! ~ 8@{ { { { ~ ! ) 5 ' , 6 6 6 , 5 ! { / _ | i 0 b e f g V*e b 9 } _ / { ! ' , > j ; $ + .       . + # $ j > , 5 ! ~ ] ^ 4 3 _ 2 1 | | | 1 1 2 _ 4 / ] ~ ) , > ; # + . . . . + + # $ j 6 x.L.++A.| 9 F.t.'.U z z -.y '.g e b 0 9 8 i i i 8 9 a c g y ).*.&.W %.X $.#.#.#.#.#.@.@.+.........+.+.@.#.$.0+W A S U h f b 9 } 2 3 / ^ ^ ^ ^ ^ ^ ^ ^ ^ ] ] ] { { { ~ ~ ~ ! ) ' 6 j $ # + + . . . . .       . . # $ ; j > > 6 6 6 6 6 > j j j j 6 , ' ) ! { ^ 3 | 8 b f '.z A B =+R D.o.o.o.o.D P P P P P P P P P o.o.D.D.=+B A S U '.g f c a 9 i | 2 3 4 / 4 3 _ 1 | i 8 9 0 a b c c e e c b 0 i | _ 4 ] ~ ) 5 ' , 6 > j ; $ # + . .     @ @ @ k k k k l l l l m m m m m m m n n o o p q q r r r r q q p o n n n m m m l k k @ @   . # $ j 6 ' ) ~ ^ 4 2 | i 9 a b c e e f f f f f f f f f e e c c b b b a a 0 9 9 8 8 i } ;+_ / ] ~ ! ) 5 5 ' , , 6 6 > > > > > > > > ",
", , ' ' ' ' 5 5 ) ) ! ! ~ ~ { ^ / 3 2 | i 8 0 b e g {.y U z S V V A A A V V S U '.g c a 8 | 3 ^ ~ ' > $ . @ k k k k @   . + k+# + + + + . . + # $ ; ; ; ; ; ; $ $ # # # # $ $ ; j > J.' 5 ! ~ ~ { { { { ~ ~ ! ) ' , 6 > j j j > , 5 ! ] 4 2 | 8 0 b c e e c a 8 | _ / { ! 5 , 6 j ; $ # + . . . . + # $ ; > 6 ' ) ~ { #+/ 4 3 _ 2 1 1 1 1 2 _ 3 / ^ { ! ' 6 j $ + .       . . + $ ; > l.K.#+( < N.b g y z V A *.V z U {.f c b 0 8 i i } i i 8 @+c q.>.;.D@=.*.&.W %.X p&$.$.#.#.@.@.+.+.` @.@.#.$.X %.W A S U h ].b 9 } 7+3 4 / ^ ^ ^ ^ ^ ^ ] ] { { ~ ~ ~ ~ ~ ~ ~ ! ) ' 6 j ; # # + + + . . . . . . . + # $ ; ; j > > > 6 6 6 > j j j > 6 , ' 5 ! { ^ 3 1 8 a e >.U V Q.B =+R D.D.D.D.Q o.o.o.o.o.o.D.D.R R =+%.B .+V z y h g e c a 0 8 } | 1 _ 3 3 3 _ 1 | i 8 9 0 a b c c e e e c b p.i | _ 4 ^ { ! ) 5 ' 6 > j $ # # + . .   @ @ @ k k k k k k l l l l l m m m m m m n n o o p q q q q q q p o o n n m m m l k k @   . + # ; j 6 ' ) { ^ 4 2 | 8 0 b c e f g g g g g g g g g g g f f e e c c c b b a a 0 0 0 0 9 i ;+_ ]+^ { ~ ~ ! ) 5 E+' , , 6 6 6 6 6 6 6 ",
"' ' ' ' ' ' ' ' 5 5 ) ) ! ~ { ] / 8+_ 1 } 8 0 b e g '.y z S V V A A A *.V S z y '.g c a 8 | _ b.~ 5 6 ; +   k k k k k @   . b;+ + . . . . . . + # # $ $ # # # # # # # # $ $ ; j > 6 , 5 ) ! ~ ~ ~ ~ ~ ! ) ) ' , 6 j ; ; $ $ ; j 6 ' ) { / 3 1 } 8 0 b b b a 0 i 1 3 / { ! 5 , 6 > > j $ # + + + + + # $ j > , ' ) ~ { #+/ 4 3 _ 2 1 1 1 1 2 _ 3 / ^ { ) ' 6 ; # .   @ @   . + # ; > , ) w 4 : B.c.q.y S A Q.B Q.A V z y h ].b 0 9 i } | | | [ i 9 c.,.I+x 4@;.).=.e&W J+%.X X $.Y #.#.#.#.#.$.$.X 9.I.&.*.).;.h e b 9 i 1 _ 3 4 / b.^ ^ ] ] { { ~ ~ ! ! ! ! ~ ~ ~ ~ ! 5 , > h@$ $ # # + + + + + . . . . + + # $ ; ; j > > 6 6 > > g+> > 6 , ' 5 ) ~ ] 4 2 i 0 c g y S A Q.B =+R R R R R D.D.D.D.C R ^+=+B Q.A V 4+z U '.g e F.a 0 9 8 i } | 1 2 2 _ 2 1 | i 8 9 0 a b c e e e e e c a 9 } 1 _ 4 ^ { ~ ) 5 ' 6 > ; $ # + . .     @ @ k k k k k k k k k l l l l l l l l l m m n n o o p p p p p o o n n n m m l k k @   . + $ ; > , 5 ! { ^ 3 2 | 8 0 b c f g g h h h h h h h g g g g g f f e e e e c c b b b a a a 0 9 m.1 _ 4 / ^ ] { ~ ! ! ) 5 5 ' , , , , 6 6 ",
"5 5 5 ' ' , , ' ' ' 5 5 ) ! ~ { ^ 4 3 2 | i 9 a e g '.U z S V A A A A V S z U '.h f c 0 B.| _ 7 ~ 5 6 ; #   @ k k k k @     . . . . . . . . . + + + + + + + . + + + # # $ ; j > 6 , ' ) ) ! ! ! ! ) ) 5 ' , 6 j ; $ # # # $ ; j 6 ' ) ~ ^ 4 2 | i 8 0 0 0 O.8 } 2 4 ^ { ! 5 ' , , 6 > j ; $ $ # # $ $ ; j 6 , 5 ! ~ ] ^ / 3 _ 2 1 | | | | 1 2 3 4 ^ { ) ' > ; # .   @   . + # ; > , ) { ]+2 i a f ~.S A B =+=+=+Q.n.S U '.f c a 8 } | 2 _ _ _ : | m.N.@+F.s+q.>.;.a@=.*.&.W %.X X X X X X X X X %.%.W &.=.z y x e c.9 i | 1 _ 3 4 / r$^ ] { { ~ ! ! ! ) ! ! ! ~ { { ~ ! ' 6 > j ; $ # # # # # + + + . . . . . + # $ ; j > > 6 6 > > > > 6 6 , ' 5 ! { / _ | N.b f >.U S A Q.B B B B B =+=+=+=+=+=+B Q.A V S z U y '.g f.F.a 9 8 i i } } } | | | 1 1 | } i 8 0 a b c e e f f f e c b 0 8 | 2 3 4 ^ ] { ! ) ' , > ; $ # + . .   @ @ k k k k k k k k k k k k k k k k k k l l l m m n n n n n n n n n n n m m m l k @   + # $ j > , 5 ! { ^ 3 2 | 8 0 b c f g g h '.'.'.'.'.h h h g g g f f f f f f e e e c c b b b b a 0 8 } 1 2 _ 3 4 / ^ ] { ~ ! ) ) 5 5 ' ' , , ",
"0.5 5 ' ' , , , , ' ' 5 5 ) ! { ] / 3 _ 1 m.9 a e g '.U S V V A A A V S z U y h g e b 9 i 1 3 ^ ~ 5 6 ; # .   @ k k k @     . . . . . . . . . . + + + . . . . . . + # $ ; j > 6 , ' 5 ) ) ) ) ) 5 ' , 6 > j ; # + . . . + # $ j > , 5 L.] / 3 2 | i 8 8 8 8 } 1 _ 4 ^ { ! ) 5 ' ' , , 6 > j j ; ; ; ; j 6 , ' ) ! { ] / 4 _ 2 1 | } } } } | 1 _ 3 / { ! ' 6 ; # .       + # ; > , 5 ~ b._ } 0 e '.%+Q.=+R D.D.R B A S U '.g e a 8 } 1 _ 4 / / 4 A.:+< m.N.@+F.f.x h.-.).=.&.&.W W %.%.%.%.%.%.-,W W &.*.).-.'.g ,.a 9 8 } | 2 _ 3 4 / ^ ] { ~ ! ) ) ) ) ) ) ! ~ { ] { ~ 5 , 6 > j ; $ $ $ # # # + + .   @ @ @   . + # ; j > 6 6 6 6 6 > > 6 6 , ' ) ~ ^ 3 1 i 0 c g '.U S V A A A A &.Q.Q.Q.Q.Q.A *.V z U y >.i.g f.c a 9 8 } } | | | | | } } } } } i B.9 0 a b c f.f g g g g f e b 0 8 | 2 3 4 / ^ ] ~ ) 5 , > ; # + + .     @ k k k k k k k k k @ @ @ @ @ @ @ @ @ k k k k l l l m m m m m m m n n n m m l k @   + # ; j 6 ' 5 ! { / 3 2 } 8 0 r.c e f g h '.'.'.'.'.'.h h h g g f f f f f f f f f e e c c b b b a a 9 8 } | 1 2 _ 3 4 / ^ ] { ~ ! ! ) 5 5 5 ' ",
") 5 5 ' , , , , , , ' 5 ) ) ~ { ] / 3 _ 1 } 9 a e g '.U S V V A A V V S z U '.h f c a N.} 2 4 ] ! 5 6 ; # .   @ @ k @ @     . . . . . . . . . + + + . . . . . . + # $ ; j > 6 , ' 5 5 ) 5 5 E+' , 6 > j ; $ # k@        . + $ ; > , 5 ! { ^ 4 _ 1 | } i i } | 2 3 / ] ~ ! ) 5 5 ' ' ' , 6 6 > > j j > > , ' 5 ! ~ ] ^ 4 A.2 1 | } i i i i } | 2 _ 4 ] ! 5 6 j $ + .   . + $ j 6 5 ~ ^ 3 | 9 c h !.A =+D.o.o.o.C =+Q.V z y i.e a 8 | _ 4 ^ ] ] #+7 ]+A.T < m.O.c.,.q.>.;.-.=.*.*.&.&.&.&.&.&.&.&.&.&.*.=.-.;.>.f c a 9 8 } | 1 2 3 4 / ^ { ~ ! ) ) 5 5 5 5 5 ) ~ { ] ] ~ ) ' 6 > j ; ; $ $ $ # # + . . @ k l l k @ . + $ j > 6 6 6 6 6 > > > > 6 , 5 ! { / _ | 8 a e g '.U z S S S S S S S S S S z U y '.g f e c b a p.8 } | 1 1 2 2 1 1 | } i i i 8 9 0 a b c e f g h '.'.'.h g e c a 8 } 1 _ 3 4 / ^ { ! 5 ' > ; $ # + . .   @ k k l k k k k @ @ @ @ @ @ @ @ @ @ @ @ @ k k k k l l l l l l l m m m m m l l k @ . # $ j 6 , 5 ! { / 3 2 } 8 0 b c f.g g h '.'.'.'.'.'.'.h h g g f f f f f g g g f f f e e c c c b b a 0 9 i } | 1 2 _ 3 4 / ^ ] a.{ ~ ! ) ) ) 5 ",
"5 5 5 ' , , , , , ' ' 5 ) ! ~ ] ^ 4 3 2 | i 9 c.e g '.U z S V V V V S z U y '.g e b 0 B.| _ / { ) ' > ; # .   @ @ @ @ @   !+. . + + + + + + + + + + + + + + + # # $ ; j > 6 , ' 5 5 5 5 ' , 6 > - = * $ # + .   @ @ @ @ . + # ; j 6 ' ) ~ ] / 4 _ 2 1 | | | 1 _ 4 ^ ] ~ ! ) 5 5 5 5 ' ' ' , , 6 6 6 6 , ' 5 ! ~ ] ^ 4 3 2 1 [ i 8 8 9 9 8 i } | 2 3 ^ { ) , j $ + . . + # ; y.' ! ] 4 7+B.r.q.y V B D.D P P o.D.R B A S y h e 0 i 1 3 / ] ~ ~ ~ M.w 7 ]+A.< m.N.@+,.q.>.h.-.).).=.=.=.=.=.=.=.=.=.=.).!.;.h.x f.b 0 9 i } | 1 _ 3 4 / ] { ! ) 5 5 ' ' ' ' ' 5 ! ~ { { ~ ) ' , > j ; ; $ $ # # + . .   k l m m l k   + # ; j > 6 6 6 6 > > > > > , ' ) ~ ^ 3 2 } 9 c.e g >.y ;.U y y y y y y y '.'.h t.e F.a 0 9 8 i } | 1 2 2 _ _ 2 2 1 | i 8 8 9 0 a b ,.f g h '.y y U U y '.h g e b 0 B.| 1 2 _ 4 / ] ~ ! 5 6 j ; # + + .   @ k k k k k k k @ @ @ @             @ @ @ @ @ k k k k l l l l l l l m m l l k @   + # ; > , 5 ! { ^ 3 2 | 8 0 b c f g h h '.'.'.'.'.'.'.'.h h g f f f f f f V*g g g g f f e e c c c b a 0 9 8 i } | 1 2 _ 3 4 / ^ ] { { ~ ! ! ! ! ",
"5 5 ' ' , , , , ' ' 5 ) ! ~ ] ^ / 3 _ 1 } 8 0 b e x '.U z S V V S S S z U y '.g e b 9 i 1 3 ^ ~ 5 , j $ + . @ @ @ @ @     . + + + # # # # # # # # # # # $ $ $ ; ; j > > 6 , , ' 5 5 E+, 6 g+h@j@V@# & 9+.     @ k k k @   + # $ j > , 5 ! { ] / 3 _ 2 1 1 1 2 3 / ^ { ~ ! ) ) 5 5 5 5 5 5 ' ' , , , , ' 5 ) ~ { ^ 4 3 2 1 } i 8 9 0 0 0 p.9 8 } | 2 4 ] ! ' > ; # + + # ; > , ) { / _ } p.d {.z .+R o.P E P P o.R B A S U h ,.0 } 2 4 ] ~ ! ) ) K.L.M.#+]+A.: m.N.3@,.q.x h.;.-.-.-.-.-.-.-.-.).).-.-.;.h.h q.,.c.0 8 i } 1 2 _ 3 / ^ ] ~ ! ) 5 ' , , , , , ' ) ! ~ ~ ! 0.' , > j ; ; $ # + + . .   @ l m n n m l @ . # j@j > 6 6 6 6 > > j j > 6 , 5 ! { / _ 1 i 9 b d f g h h h g g g g g f f e c b 0 9 i } | 1 2 2 _ _ 3 3 3 _ 2 2 | } 8 9 0 a b e f i.'.y U z z S S S z U y '.g e b 0 8 } | 2 _ 4 / ] ~ ) ' > j $ # + + .   @ k k k k k @ @ @ w#                  @ @ @ @ k k k k k k k k l l l l l k @   . + $ j 6 ' ) ~ ^ 4 T | i 9 a c f g h '.'.'.'.'.'.'.'.'.h h g g f e e e e f f V*g g g f f f e e c c b R@a 9 8 i i } | 1 2 _ 3 4 / ^ ] { { ~ ~ ~ ~ ",
"' ' ' ' , , , ' ' 5 ) ! ~ ] ^ / 4 _ 2 | i 9 s.c f h '.U z S S S S S z z U y '.g e a 9 } 2 4 ] ! 5 6 j $ +   @ @ @ @     . + # # # $ $ $ $ $ $ $ $ $ $ ; j j > > > 6 6 6 , , ' ' 5 ' 6@6 j * # & 9+9+i$    @ @ k k k k @   + # $ j > 6 ' ) ~ { ^ 4 3 _ 2 2 2 _ 3 / ] { ~ ! ! ) ) ) ) ) ) ) 5 5 5 5 ' 5 ) ! ~ { ^ / 3 2 1 } i 9 0 a a b b a 0 9 8 } 1 _ 7 ~ 5 6 j $ # # $ j 6 5 ! ^ 3 1 8 r.t.;.4+B D.P E E E P o.D.=+Q.S U h c 0 } _ ]+] ! ) 5 x.5 ) L.M.#+]+T < m.O.c.,.f.x >.h.h.h.;.;.;.;.;.;.;.;.h.'.h g e c a 9 8 } | 1 2 3 4 / ] { ~ ) 5 ' , 6 6 6 6 , ' 5 ) <#~ ! 5 ' , 6 > j ; $ # + . .   @ k m n o o n l @ . + $ j > 6 , , 6 6 > j j j > 6 ' ) ~ ^ 4 2 | B.0 c.c e f f e e c c c F.b a a 0 N.i | 1 T _ 3 4 4 4 4 4 4 3 _ 2 1 } i 9 0 b c f g '.U z =.V A A A A A V S z U '.g f.b 0 9 i | 1 _ 4 ^ { ! 5 , > ; $ # + .   @ k k k k @ @ @ W@        . .           @ @ @ @ k k k k k k k k k k k k @ @   + # ; > , 5 ! { / _ 1 i 9 a c e g h '.'.'.'.'.'.'.h h h g g f f e e e e e e f f f f f f f e e c c c b a 0 9 8 i H+} | 1 2 _ 3 4 / ^ ] { { { ~ ~ ~ ",
"' ' ' ' , , ' ' 5 ) ! ~ ] ^ / 3 _ 2 | } 8 9 a c f h '.U z z S S S S z z z U '.g e c.9 } :+,@] ! ' 6 j $ + .         . + # $ $ ; ; ; ; ; ; ; ; ; ; ; j > > 6 , , , , , , , , ' ' ' l.6 g+j@$#k@%#i$W@w#w#@ @ @ k k k @   . + # ; j > , ' ) ! { ] / 4 3 _ 2 2 _ 3 / ^ { ~ ~ ! ! ! ! ! ! ! ! ! ! ) ) ) ) ! ~ { ^ / 3 2 1 } i 9 0 a b c c c c b a 0 8 } 2 4 w ) l.> ; $ $ ; > ' ) { ,@2 } 0 d {.z .+X o.E E E E P o.D.=+Q.V U h e 0 } 2 4 ] ~ ) 5 x.5 0.K.M.w 7 ( : [ B.O.c.F.f.q.x x >.>.>.>.>.>.>.>.>.>.x q.f.c b 0 9 i } | 2 _ 3 4 ^ ] { ! ) 5 ' , 6 6 6 6 , , 5 ) ! ~ ! ) 5 ' , 6 > ; $ # + .     @ l m o o o n l @ . # ; > 6 , , ' , 6 > j j j > 6 , 5 ! ] / 3 1 } 8 0 a b c c b a a @+0 0 9 N.8 i u 1 _ 3 4 / ^ ^ ^ ^ / / 4 3 2 1 | i 9 0 b e t.h y z V A 8&B B B B B B Q.A V S U y h f c a 9 B.} 1 _ 4 ] ~ ) ' 6 j ; $ # + .   @ k k @ @ @ w#      . . . . . .         @ @ @ @ k k k k k k k k @ @ @     . + $ j 6 ' ) ~ ^ 4 2 [ 8 0 b e f g h '.'.'.'.'.h h h h g g f f e e c c c c e e e ].f f f e e c c b b a 0 p.9 8 i } | 1 1 2 _ 3 4 / ^ ] { { { v ~ ~ ",
"' ' ' , , ' ' 5 ) ! ~ ] ^ 4 3 _ 2 | } i 9 0 b e f h '.y U z S S S S S S S z U >.f b 9 } :+,@'#! ' 6 j $ + . . . . + + $ ; j g+> > > > 6 6 6 6 > > 6 6 , ' ' 5 5 5 ' ' ' , , , , , 6 > ; # .   W@w#w#@ @ @ @ @ @ @ @   . + # ; j > 6 , ' ) ! { ] ^ 4 3 _ 2 2 _ 3 4 ^ ] { { ~ ~ ~ ~ ~ ~ ~ ~ ~ ~ ~ ! ! ~ ~ { ^ / 3 _ 1 } U.9 a b c e f f f f.e c b 0 8 | /+^ L.x.6 j ; ; j 6 5 ~ ^ _ | V.b t.g.4+B D.P E F E E P o.Q R B A z '.f.a i 1 3 ^ { ! ) 0.0.K.K.M.w 7 ( T < m.N.O.c.F.,.f.q.q.q.x x x x x x x q.q.f.,.F.a O.8 i | 1 2 _ 4 / ^ ] ~ ! ) 5 ' , 6 6 6 6 , ' 5 ) ~ ~ ~ ! ) 5 ' , 6 > ; $ # + .   @ l m o o o n l @ . $ j 6 , ' 5 5 5 , 6 > > > > 6 , 5 ! { ^ 4 2 | i 8 0 a a a 0 9 9 8 8 i } } | 1 2 3 4 ^ ] ] { { { ] ^ / 3 _ 1 } i 9 a c f x '.U S A 8&=+R %,D.%,C R R =+B Q.A V z y >.q.,.c.O.B.| 2 3 / { ! 5 , > j ; $ # .   @ @ @ @ @ w#      . . . . . . . . .         @ @ @ @ @ k k k @ @ @       . + # ; > , 5 ! { / 3 1 i 9 a c e g h h >.'.'.h h h g g g g f f e e c c c b b c c c c c ,.c c b b a a 0 0 9 8 i i } | 1 1 2 _ 3 4 / ^ ] { ~ ~ ~ ~ ~ ~ ",
", , , , , ' ' 5 ! ~ { ^ 4 3 2 1 | } i 9 0 a c e g h '.y U z z S S V V V V V z y g c 0 S.2 ,@] ! E+6 j ; # + + + # V@$ j > 6 , , ' ' ' ' ' ' ' ' ' ' ' 5 ) ) ) ) ) 5 5 ' , , 6 6 > > ; $ +   w#@ @ @ @ @ @ w#        . + $ ; j > 6 , ' 5 ) ~ { ] ^ 4 3 _ 2 2 2 _ 3 / ^ ^ ] ] ] ] ] ] ] ] ] ] { { { { { ] ^ / 3 _ 1 } i 9 a b e f g h h h g f ].e b 0 i 2 ]+M.0., > ; j > ' ! ] 4 1 i a e {.z A =+o.E F F E E P o.o.R %.A S y f b 8 | _ 4 ^ { ~ ! ! L.M.w #+]+( T < [ B.N.O.@+c.F.,.f.f.f.f.f.f.f.f.f.f.,.,.F.c.0 9 i } | 1 _ 3 4 / ] { ~ ! ) 5 ' , , 6 , , ' ' ) ! ~ { { ~ ~ ! ) 5 ' 6 > ; $ # .   @ k m n o o m k   + ; > , 5 ) ) ! ) 5 , 6 6 6 6 6 , 5 ! { ^ 4 _ 1 } i 9 0 0 9 9 8 i } | | 1 2 _ _ 4 / ^ { ~ ~ ! ! ~ { ^ 4 _ 1 } 8 0 b e g '.y z V Q.B R Q D 5*5*D o.o.o.Q D.R =+Q.A S U '.g d c.O.i | T 4 ^ ~ ) ' 6 > j ; $ + .   @ @ @ @       . . . . . + . . . . . .         @ @ @ @ @ @ @     . . . + # $ j 6 ' ) ~ ] 4 _ | i 0 b c f g g h h h h h g g g f f f f e e c c b b b b b b b b b b b a a 0 0 O.9 8 8 i } | | 1 2 _ 3 4 / ^ ] { ~ ~ ! ! ! ! ! ! ",
", , , , , ' 5 ) ! { ] / 3 2 1 | } i 8 0 a b c e g h '.y U z z S V V A A Q.A V U {.e a i 7+z.++<#5 , > j $ # # $ $ ; > 6 , E+5 ) ) ) ) ) ) ) ) ) ) ) ! ! ! ! ! ! ) ) 5 ' , 6 > > j ; $ + . W@@ @ @ @ w#    . . . + + # $ ; j 6 6 , ' 5 ) ! ~ { ^ / 4 3 _ 2 1 1 2 3 4 / / / ^ ^ / / / / / / ^ ^ ^ ^ ++^ / 4 3 _ 1 | i 9 a b e f x h '.'.'.'.h g f e b N.< ( w K.6@y.j g+6 5 ~ b._ [ 9 c g y 4+I.R D E F F E P P o.o.D.=+Q.S y g c p.i 1 _ 4 ^ ] { { w w #+7 ]+A.T : [ m.B.N.O.F%@+c.F.,.,.,.,.,.,.,.F.F.F.c.c.@+9 8 i } 1 2 _ 3 / ^ ] { ~ ! ) ) 5 ' , , , ' 5 5 ! ~ { ] ] ] ] { ~ ! 5 ' 6 > ; $ + .   k l n n n l @ . $ j 6 ' ) ! ~ ~ ~ ) 5 , , 6 , , ' 5 ! { ] ]+_ 1 | i 8 9 9 9 8 i } | 1 2 _ 3 3 4 / ] { ~ ! ! ) ) ! { ^ 4 2 | 8 @+c f h y -.S A B =+D.D *+7&E E E E E E P P o.D.^+B &.=.-.h.g ,.c.9 m.1 A./ { ! 5 , 6 > j $ # .   @ @ @         . . . + + + + + + + . . . .         @ @ @ @   . . + + + # $ ; > , ' ! { ^ ( 2 } 8 0 b e f g g g g g g g g f f f f e e e c c F.b b a a a a a a a a 0 0 0 9 N.8 i i } } | 1 2 _ _ 3 4 / ^ ] { ~ ! ) ) ) ) ) ) ) ",
", , , , , ' ' ) ! { #+/ 3 2 | } i 8 9 0 a b c e g h '.y U U z S V V A Q.B Q.A S y f b 8 ;+z.^ i#) ' 6 > j ; ; ; j > $+' 5 5+! ~ ~ ~ ~ ~ ~ ~ ~ ~ ~ ~ ~ ~ ~ ~ ! ! ) 5 ' , 6 > j j ; $ # .   @ k O#@     . . + # # $ $ ; j > 6 , ' 5 5 ) ! ~ { ] ^ / 4 3 _ 2 1 1 2 _ 3 3 4 4 4 4 4 3 3 3 3 4 4 4 / / / 4 4 3 _ 1 | i 8 0 b e f h '.y y y y y '.h g f c O.[ A.#+L.x.6 > > , ) ] 4 7+i a e '.z A B D.P E F F E P D o.D.R =+.+S y x c 0 8 | 2 3 4 / ^ ^ ^ 7 ]+( A.T : < [ m.m.B.N.N.O.@+c.c.F.F.c.c.c.c.c.@+@+@+O.N.8 i } | 1 2 3 4 / ^ ] { ~ ! ! ) 5 5 ' ' 5 5 ) ) ~ { ] ^ ^ ^ ^ ^ ] { ! ) ' 6 j ; # +   @ k m m m k   + $ > , ) ! { { ] { ~ ) 5 ' , , ' 5 ) ! { ^ 4 _ 1 } i 8 9 9 8 i } | 1 2 _ 3 4 4 / ^ ] M.L.! ) ) ) ! { ^ 3 1 i 0 F.f h y z V &.B R D.5*7&0&F F F F F F F F E  .` #.R %.&.=.-.v+q.,.@+N.[ 2 4 #+~ 0.' J.> j ; # + i$            . . . . + + + # # # # + + + . . . .           . . + # # # $ $ j > , 5 ! { / 3 1 } 9 a b e f g g g g g q.f f f f e e e e c c c b b a a a 0 0 0 0 0 0 O.9 8 8 i i } } | 1 2 2 _ 3 4 / ^ ] { ~ ! ) 5 5 5 5 5 5 5 5 ",
"6 6 6 6 , , ' 5 ! { ] / 3 2 | } i 8 9 0 a b c e q.h '.y y U z S V A Q.B =+=+Q.V U g c 9 | /+/ '#! 5 ' 6 > > > > 6 , ' ) ! ~ { { ] ] ] ] ] ] { { { { { ~ ~ ! ! ) 5 ' ' , 6 > j ; $ # +   @ k k @ @   . + # $ ; j j > 6 6 , ' 5 5 ) ! ~ { { ] ^ / 4 3 _ 2 1 1 1 1 2 2 _ _ _ _ _ 2 2 2 2 2 _ _ _ 3 3 3 3 _ 2 1 | } 8 0 a c f h '.y U U U U y '.h g f c 0 } A.^ ~ 5 , 6 6 ' ! ^ 3 | V.b g y S A =+D.P E E E 7&P o.o.D.R B A S y x e a N.} < 2 A.3 ( 4 ( ( A.A.T : < [ [ m.m.l&B.N.N.O.@+c.c.@+@+@+O.O.N.N.N.N.B.B.m.} | 1 2 _ 3 4 / ^ ] { ~ ~ ! ! ) ) ) ) ) ) ! ~ { ] ^ / / 4 4 / ^ ] { ! 5 , > j $ k+.   @ l l l @ . # ; 6 ' ) ~ ] ] ^ ] { ! ) 5 5 5 5 ) ! { ] / A.1 } i 8 9 9 9 9 8 i } 1 2 _ 3 4 / / ^ ] { ~ ! K.) K.L.w / _ | 8 a f.h y z V &.B R D.@.E b&F t&G E.E.E.E.E.E.E... .` #.X J+e& @X+>.q.W+@+B.< A.7 8@K.x.J.y.j * % + . .       ,&. . . . + + & # # $ $ $ $ # # + + + . . . . . . + # # $ $ $ ; ; > 6 ' ) ~ ] / _ 1 i 9 a c e f g g g g f f f e e e e e e e c c b b a a a 0 0 0 0 0 0 9 9 8 i i } } | 1 1 2 _ 3 4 / ^ ] { ~ ! ) 5 E+' l., , , ' ' ' ",
"6 6 6 6 6 , ' 5 ) ~ ] / 3 2 1 } i i 8 9 0 a c e f g h '.y U U z S A Q.B =+=+B A z h e 0 } 2 4 ++i#! 5 ' , , , , ' 5 ) ! { ] ] ^ ^ ^ ^ ^ ] ] ] ] ] ] { ~ ! ) 5 ' ' , 6 6 > j ; $ # + .   @ k k @   . # $ ; > 6 , , ' ' 5 5 ) ) ! ~ ~ { ] ^ / / 4 3 3 _ 2 1 | | | 1 1 1 1 1 1 | | | | | | 1 1 1 2 2 2 2 1 1 | } 8 9 a b e g '.y U U U U U y '.h g f c 0 } _ 7 M.) ' , , )+{ / 2 } 0 c x y S A =+D.o.P E 7&P o.Z D.R =+I.V z y g e a 9 i } < : T T T T T : < < [ [ m.m.m.m.m.B.B.N.O.O.@+@+O.O.N.N.B.m.m.m.m.[ [ [ | | 1 2 _ 3 4 / ^ ] { { ~ ~ ~ ~ ! ! ! ~ ~ { { ] ^ / 4 4 3 3 4 4 b.] ~ ) ' 6 > ; # + .   @ k @   + $ j 6 5 ! { ] ^ / ^ ] ~ ! ) ) ) ) ! ~ ] / 3 2 } 8 9 0 0 0 0 9 9 8 } | 1 2 _ 3 4 / ^ ] w { M.L.! ! ~ ] 4 2 } O.c g h.-.=.A W =+$.o.P E F F E.E.E.E.E.E.,,,,>,^,..+.{;/,*,->E@/;;.);I+g@#'$'%'*@w  #x.J.&'= * % & + . . . . . . . . . + + # $ $ ; ; ; ; $ $ # # + + + + + + & # $ ; ; ; ; j j > , E+) ~ ] / _ 1 i p.b c e f g g g f f f e e e e e e e c c c b b a a 0 0 0 0 0 0 9 9 8 i i } | 1 1 2 _ 3 3 4 / ^ { ~ ! ) 5 ' , , 6 6 6 6 6 6 6 6 ",
"> > 6 6 6 6 , ' ) ! { ^ 4 _ 2 | } i 8 N.9 a b c e f g h '.y U z S V .+B =+R =+Q.S '.f a i 1 3 / ] ~ ! ) 5 ' ' 5 5 ) ! ~ { ] ^ ^ ^ ^ ^ ^ ^ ] ] ] ] { ~ ! ) ' ' , 6 6 > > j j ; $ + .   @ k k k @ . + $ j > , ' 5 ) ) ! ! ! ! ! ~ { ] ] ^ / 4 4 3 _ _ 2 2 1 | | | | | | } } } i i i i i i m.} } | | | | } } i 8 9 0 b c f h y U z z z U y ~.h g f e b 9 } _ b.{ K.5 ' ' ! ] 4 1 i @+e h U S A B R D.o.P ` o.D.D.R X B Q.V U '.g e b 0 8 i [ | < < < < [ [ m.m.B.B.B.B.B.B.B.B.B.N.N.O.O.O.N.N.B.m.m.[ < < < < < < < 1 1 2 _ 3 4 / ^ ] ] { { { { { { { { { ] ] ^ ^ / 4 3 3 _ _ _ 3 4 b.] ~ ) ' 6 j ; # + .       . # ; > , 5 ! { ^ / / / ^ ] ~ ! ! ! ~ ~ ] / 3 2 | 8 0 a b b b a a 0 9 8 } | 1 _ 3 4 / / ^ #+] w M.~ ~ { ^ 3 < B.a e h ;.).*.&.%.X #.@.+.....E.E.E.E.E.E.>,,,,,,,[,^,L;:,(+_,e,e&M,D@_@u+*'='-';'I@'> #`@J.&'>','% # & + + . . . . . . . + # # $ ; j j > j j ; $ $ # # # # # # $ $ ; j j j j > > 6 ' 5 ! { ^ 4 _ | i 0 b ,.f f g g g f f e e e c d e e e c c b b a a 0 0 0 0 0 0 9 9 8 8 i } | 1 2 2 _ 3 4 / ^ ] { ~ ) 5 ' , 6 > > > > > > > > > > ",
"6 6 6 6 6 6 , ' 5 ! ~ ] / 3 _ 2 1 | } i 8 9 0 a c e f g g h '.U z V A B =+R =+Q.S y g b 9 | 2 ( ^ ] ~ ! ) ) 5 ) ) ! ~ { { ] ++^ ^ ] ] ] ] { { { { ~ ! ) ' , 6 > > > j j j ; $ # + .   @ k k k @ . # ; > , 5 ) ! ~ ~ ~ ~ ~ ~ ~ { { ] ^ / 4 4 3 3 _ _ 2 2 1 1 | | | } } i i 8 8 8 9 9 9 9 8 8 8 i i i i 8 8 9 9 0 b c e g '.y U z z z U y '.h g f e b 9 [ _ / { ! 5 5 5 L.^ 3 1 8 a e h ;.S V Q.=+R D.D.D.D.R R =+=+B A S U '.g e b 0 9 8 i m.m.m.m.i B.B.N.N.|+N.N.N.N.B.B.B.B.B.N.O.O.N.N.B.m.m.[ < k$: : : 1 1 < 1 1 2 _ 3 4 / / ^ ] ] ] ] ] ] ] ] ] ^ ^ ^ / 4 4 3 _ _ 2 2 2 _ 3 4 ^ { ! 5 , 6 j ; $ + + . . + # ; > , 5 ! { ^ / 4 4 / ] { { ~ ~ { ] ^ 4 :+| i 9 a c c c c b b a 0 9 8 } | 2 _ 3 4 ]+/ 7 ^ #+w M.M.w / _ [ N.b f h.-.=.&.W %.$.#.@.+...F E.E.E.E.E.>,,,,,!,!,,,[,),o&Z,p&-,i,E@/;-;G+s+3@Q@''I@'> #`@&#- )'!'% # # + + b;. . . . . . + # $ ; j > 6 6 > > j j ; $ $ $ $ $ $ ; j j > > > > 6 6 , 5 ) ~ { ^ z.2 | 8 0 b e f f g g g f f e e c c c c c c c b b a a 0 0 0 9 9 9 9 9 8 8 i } | 1 2 _ 3 3 4 / ^ ] ~ ! ) 5 , 6 > j ; ; ; ; ; ; ; I*I*I*",
"6 6 6 6 6 6 , ' 5 ) ! { ^ / 3 _ :+2 1 | } i 8 p.a b c e f q.h '.U S V Q.%.=+=+Q.S U x c 0 i 1 _ 4 ^ ] ~ ! ! ) ) ! ! ! ~ { { { { { { ~ ~ ~ ! ! ! ! ) 5 ' 6 > j j j j j j ; ; $ # + .   @ k k k @ . # ; 6 ' ) ! ~ { { { { { ~ ~ { ] ] ^ / 4 4 3 _ _ _ 2 2 1 1 | | | } } i 8 8 9 9 0 0 0 0 0 0 0 0 9 9 9 0 0 0 a b c e f h '.U U z z U g.~.{.g f e c a V.| _ / ] ~ ) ) ) ~ ^ _ | 8 a e h y z S A Q.B =+R R =+=+%.B B Q.A S U '.g e b 0 9 N.8 B.B.B.N.N.O.O.@+@+@+@+@+O.O.N.N.B.B.N.N.O.O.N.N.B.m.[ < < : : : : : < < | 1 1 2 _ 3 4 / / ^ ^ ^ ^ ^ ^ ^ ^ ^ / / 4 4 3 3 _ _ 2 1 1 1 2 2 3 4 ^ { ! 5 ' 6 > ; $ # + + # $ ; > , 5 ! { ] / 4 4 / ^ ] ] ] ] ] b.4 _ 1 } N.a c e e e e c c b b a 9 8 } | 1 _ 3 ( 4 ]+7 7 #+w w ^ ( 2 m.O.F.q.h.).*.&.W X $.#.+.....E.E.E.T.T.T.T.T.],{,!,!,[,;,<,{;>@',->E@/;_@x s+3@~'V+{'H@ #Z@&#]')'!'% # # + + . . . . . . + + # $ ; > 6 , , , 6 > > j j ; ; ; ; j j > > 6 6 6 6 , , ' ) ! { ] / 3 1 } 8 a c e f g g g g f f e e c c c c c F.b b a a 0 0 9 9 9 9 8 8 8 i i } | 1 2 _ 3 4 / ^ ] { ~ ! 5 ' , > j ; $ # # # # # k#$ $ ^'^'",
", , , , , , , , ' 5 ) ~ { ^ / 4 3 3 _ 2 1 | } i 9 0 a r.b ,.f i.'.U S A 9$B B Q.S U h e a N.} 1 _ 4 ^ w ~ ! ! ) ) ) ! ! ! ! L.! ! ! ) ) 5 5 5 ' ' ' , 6 j ; ; ; ; ; ; ; ; ; $ $ # + . @ k k k   . $ j 6 ' ) ~ { { ] a.{ ~ ~ ~ { { ] ^ / / 4 3 3 _ _ 2 2 2 1 1 | | } H+i 8 8 9 0 0 a a a b b b b b b b b b b c c e f g h y U U U U U y '.i.t.e c b 0 8 | _ / ] ~ ! ! ! { / _ | 8 a c g '.y z S V A Q.B B B Q.Q.Q.Q.A V z y h f e b a 0 9 9 N.9 O.O.@+c.c.F.F.F.F.c.c.@+O.O.N.N.N.O.O.N.N.B.B.m.[ < < : : : : < < | | | | 1 2 _ 3 4 4 / / / / / / / / / 4 4 3 3 _ _ 2 2 1 | | | | 1 2 3 4 ^ { ! ) ' , > j $ # # # $ ; > , 5 ) ~ ] ^ / 4 / / ^ ^ ^ ^ / 4 _ 7+u U.p.b d f f f f f f.e c b a 9 8 m.| 1 2 _ 3 ( ]+]+7 O@7 ]+A.< B.@+,.x ;.).*.&.W X $.{;+...@#E.E.T.T.T.T.T.{,{,{,{,!,>,;,+.{;>@-,&.=.-.v+q.F.O.m.u@]+/'e+l.y.]','% ('k+& + + . . . . . . + + $ ; j > , ' ' ' , , 6 6 > > > > > > > > 6 , , , , ' ' 5 ! ~ ] / 4 _ 1 i 9 a c e f g g g g g f e e c b b b b b a a 0 0 9 9 8 8 8 8 i i i } } | 1 2 _ 3 4 / ^ ] { ~ ! 5 ' 6 > j $ # + . . . . + + k+# k#k#",
"5 5 ' ' ' , , ' ' 5 5 ! ~ { ] ^ / 4 3 3 _ 2 1 | } i 8 9 0 a c f h y z V A Q.Q.A S U '.f c 0 8 | 2 3 / ^ { ~ ! ) ) 5 5 5 ) ) 5 5 5 ' ' , , 6 6 6 6 > j ; $ $ # # $ $ $ ; ; ; $ $ # + .   @ k k   + $ j 6 ' ) ~ { { { { { ~ ~ ~ ~ { ] ] ^ / 4 4 3 3 _ _ _ 2 2 1 1 | } } i 8 8 9 0 0 a b b c c e e e d e e e e e f f g h '.y y U U U y '.h g ].d j.a 0 i | _ / ] { ~ ! ~ ] / _ | B.0 F.f g '.y U z S V V A A A *.A V V S U ~.h f c b a 0 O.9 O.0 @+a c.F.,.,.n+f.,.,.F.F.c.@+O.O.O.O.O.2@N.B.B.m.[ [ < < < < < < [ } } } } | 1 2 _ _ 3 4 4 4 4 4 / 4 4 4 3 3 _ _ 2 2 1 1 | | } } } | 1 2 3 / ^ { ~ ! 5 , > = $ $ $ ; j > , 5 ! ~ ] ^ / 4 4 / / / / 4 3 _ 7+| i V.s.j.e f g g g g g f f e c a 0 8 i | 1 2 _ A.( ]+]+]+]+( T [ N.c.e x ;.).*.&.W X $.@.+...E.E.T.T.T.T.-+-+-+-+-+{,T.E...+.#.X J+*.).-;x ,.3@Q@F+A.7 M.0.Y@_'= ,'('k+& + + . .       . . + # $ ; j 6 , ' 5 5 5 ' ' , , 6 6 6 6 6 6 6 , , , ' ' ' 5 ) ~ { ^ 4 _ 2 | i p.a c e f g h h g g f e c c b b b a a a 0 0 9 9 8 8 i i i i } } | | 1 2 _ 3 4 / ^ ] { ~ ! 5 ' , > j $ # + .         . v#& # k#k#",
"! ! ) ) 5 5 ' ' ' 5 5 ) ! ~ { ] ^ ^ / 4 3 _ 2 1 | } } i 8 9 a c f h y z V A A V S z y h e b 0 i | 2 3 / ] ~ ! ) 5 ' ' ' ' ' , , , 6 6 > > j j = ; ; $ # + + + + & # $ $ $ ; ; $ # # .   @ k k   + $ j 6 ' ) ! ~ ~ ~ ~ ~ ! ! ! ! ~ { { ] ^ / / 4 4 3 3 _ _ 2 2 1 1 | } i i 8 9 0 0 a b c e f.f f f f f f f f f g g h h '.y y y :'y y '.i.q.e j.r.s.9 i 1 _ / ^ { ~ ~ { ] 4 _ | i 9 a c f g h '.y ;.U z z ).S S S S z U y h g e c b a 0 0 0 0 a c.F.c ,.f.I+q.q.q.f.,.,.F.c.@+O.O.O.O.N.N.B.B.m.m.[ [ [ [ [ [ [ m.i i i i } | 1 1 2 _ _ 3 3 3 3 8+4 3 3 l$_ 2 2 1 1 1 | } } i i i } | 1 2 3 / ^ ] { ! )+, > j ; ; j > J.' ) ~ { ^ / 4 3 3 3 3 3 3 _ 2 1 u i V.0 r.c f g g h h h h h g f e b a 9 8 } | 1 2 _ A.( ( ( ( A.: m.O.`+f.>.;.).*.&.W X $.@.+...E.E.T.T.T.H -+-+-+-+-+{,T.E...@.Y X &.=.;.>.f.c.N.[ u@Y%w  #x.J.- >','('& + v#. .           . + # $ j > , ' 5 ) ) ) ) ) 5 5 ' , , 6 6 6 6 , , , ' ' 5 ) ! { ] / 3 T 1 } 8 0 b c f g g h h g g f e c c b b a a a 0 0 9 9 8 8 i i i } } } | | 1 2 _ 3 4 / ^ ] { ~ ! ) 5 , 6 > ; $ # + . .   . . 9++ # k#^'^'",
"] ] { ~ <#! ) 5 5 5 5 ) ) ! ~ { ] ] ^ / 4 3 3 _ 2 1 | | } i 9 a c f h y z S V V S z g.'.g e b 9 i 1 _ / ] ~ ) 5 ' , 6 6 6 > > > j j ; ; $ $ $ # # + + . .     . . + # # $ ; ; $ $ # +   @ k @   + $ j > , 5 ) ! ! ! ! ) ) ) ) ) ! ! ~ { ] ^ ^ / / 4 4 3 3 _ 2 2 1 | | } i i 8 9 0 a b c e f g g g g g g g g g g h h h '.'.y y y y '.h g ].c b a p.8 } 1 _ 4 ^ ] { { { ^ 4 _ 1 } 8 0 a F.c e f g h h '.y y ;.U U U y h.h g e c b a 0 0 0 0 a a b c ,.f.q.q.x x x q.f.f.W+c.@+@+O.O.O.N.N.B.B.B.m.m.m.m.m.m.m.B.B.N.9 9 8 i i } | 1 1 2 2 _ _ _ _ _ _ _ _ 2 1 1 | | | } } i i 8 i i } | 1 _ 3 4 / ^ { ~ 5 , 6 > > 6 , 5 ) ~ ] ^ 4 3 _ 2 2 2 2 2 1 | } i 8 9 0 r.j.e f g g h h h h h h g f c b 0 9 i } | 1 2 T A.A.A.T : [ B.@+F.q.>.;.).*.&.W X $.@.+...E.E.T.T.C.H -+-+-+-+-+{,,,F@+.Z R W *.-.>.f.c.2@m.: ( O@M.0.l.y.<')','('& 9+.     @ @ @     . + # ; j 6 , 5 ) ! ~ ~ ~ ! ! ) ) 5 ' , , 6 6 6 , , , ' 5 ) ! { ^ 4 3 2 | i 9 0 b c f g g h h h g f e c c b b a a a 0 0 9 9 8 8 i i } } } | | 1 2 _ 3 4 / ^ ] { ~ ! ) 5 ' , 6 j ; $ # # + + + + # # $ ; j  > >",
"3 4 4 / ] { ~ ! ) ) 5 ) ) ! ! ~ { ] ] ^ / / 4 3 3 _ 2 1 1 | i 9 a c f h y U z S S z U y '.g e a N.} 2 4 ^ ~ ) ' , > g+j j ; ; ; $ $ # # & + + . .     @ @ @ @ @   . + # $ $ ; ; $ # + .   @ @   + # ; > J.' 5 5 )+5 5 5 x.' ' 5 5 ) ! ~ ~ { ] ^ ^ / / 4 3 3 _ 2 2 1 < | } i 8 9 0 a b c f g g h h g g g g g h h h h h '.'.'.y y '.'.h t.e j.a 0 9 U.} 1 _ 4 ^ ] ] { ] ^ 4 _ 7+| i 8 0 0 a c.b c e ].f g h h '.'.'.h g f e j.r.a 0 0 0 0 a a b F.,.f.q.q.x >.>.x x q.f.,.F.c.@+@+O.O.N.N.N.B.B.B.B.B.B.B.N.N.V.O.0 0 0 0 9 8 i } } | ;+1 1 2 2 2 2 2 2 2 1 | | | } } i i 8 8 8 8 8 i } | 1 _ 3 4 / ^ ] ~ ) ' ' ' 5 ) ! { ^ / 3 _ 1 | | } } } } i 8 V.9 0 a b c d e f g g h h '.'.'.h h f e c a 0 8 i [ < : 2 T T : : [ m.O.c.,.u+h.-.).*.&.W X $.@.+...E.E.T.T.C.H H -+-+-+-+T.E.E @.$.%.&.).h.q.F.O.m.: ( 7 M.K.x.J.- = * % k+v#.   @ @ k k @ @   . + $ ; > , ' ) ! ~ { { { { { ~ ! ) 5 ' , 6 6 6 6 6 , , ' ) ! { ^ 4 _ 1 } 8 9 a b c f g g h h h g f e c c b b a a a 0 0 9 9 8 8 i i } } | | 1 2 _ 3 4 / ^ ] { ~ ! ) ) 5 ' , 6 > j ; ; $ $ $ $ ; = j > 6 , X@X@",
"| 1 2 _ 4 / ] { ! ! ) ) ) K.! ~ ~ { ] ] ^ ^ / 4 4 3 3 _ 2 1 | i 9 b e q.h y U z z z z U y '.g c 0 i 1 3 ^ ~ ) ' 6 j ; $ $ # # # # + + . .     @ @ @ k k l l l k @   . + # $ ; ; $ $ # .   @ @   + # ; j 6 , , ' ' ' ' , , , , , ' 5 5 ) ! ~ { { ] ] ^ / 4 3 3 _ 2 2 1 | | } i 8 9 0 b c ].g g h h h h h h h h h h h h h '.'.'.'.'.h g f d b a p.8 i | 2 _ 4 / ^ ] ] ^ / 4 3 2 1 } i 8 8 9 9 0 0 a b c e f f g g f f e c b s.0 p.p.9 9 0 a a b c ,.f.q.x x >.>.>.x x q.f.F.c.@+@+O.O.N.N.N.N.N.N.N.N.|+O.O.@+@+a c.b c.a 0 9 9 8 i } } | | | 1 1 1 1 1 1 | | } } i i 8 8 8 8 8 8 8 8 i } | 1 2 _ 3 4 / ] ~ ! ) ! ~ { ] / 3 _ 1 | i 8 8 N.8 8 9 0 a c.b c c e e ].f f g g h h '.'.'.h h g e c b 0 9 i } | 1 : : : < [ m.N.@+F.f.x h.-.).*.&.W X $.@.+...E.E.T.T.T.H H H H T.T.E.E ` D.%.&.=.;.x W+O.m.: ( 7 M.K.x.J.y.= = * % & 9+i$@ @ k k k k @   . # $ j 6 , 5 ) ~ { ] ^ ^ ^ ] ] ~ ! ) ' , 6 > > > > 6 J.' 5 ! { ^ 4 T 1 } 8 0 a b c f g g h h h g f e c c b b a a a 0 0 9 9 8 8 i i } } | | 1 2 _ 3 4 / ^ ] { ~ ! ) 5 E+' , 6 6 > > j j j > > 6 , ' 5 ) /@! ! ",
"8 8 i | 2 3 / ^ { ~ ! ! ! ! ! ~ ~ { { ] ] ^ ^ / / 4 4 3 _ 2 1 } 8 0 b e g h y U z z z z z y h f b 9 u _ / { ) , > ; $ # + + + . . . .     @ @ k k ,#l l m m m l k @   + # $ ; ; ; $ # +   @ @   + # $ j > 6 6 , , 6 6 6 6 6 6 6 , , ' 5 ) ! ~ ~ { { ] ^ / 4 3 3 _ 2 2 1 | } i 8 9 0 a c e f g h h g g g g g g h h h h h h '.'.h h h g ].c b 0 9 8 } | 2 _ 4 / ^ ^ ^ ^ / 4 3 2 1 | } } i i i 8 8 9 0 0 a b c e e c j.b a 0 9 V.V.8 V.9 9 0 a b c ,.f.q.x x >.>.>.x x q.f.F.c.@+@+O.N.N.N.N.N.N.O.O.O.@+@+c.c.b F.c c c b a a 0 9 8 8 i i } } | | | | | | } } i i i 8 8 8 9 9 9 8 8 8 i } | 1 2 2 _ 3 4 / ] { { ] ^ / 4 _ 1 } i 9 0 a a a a a b b c e f f t.g g t.f f g g h h h h h h g f e c b 0 9 i } [ < 1 1 < [ m.B.O.c.,.q.>.h.-.).*.&.W l+$.Z +...E.E.E.T.T.G G G G E.F E @.Y %.&.S ;.i.,.@+m.: ( ^ M.K.x., y.- = * * % & 9+  @ k k l ,#k @   + # ; > 6 ' ) ! { ] ^ / / / / ^ ] ~ ) 5 , 6 > j j j > 6 , ' ) { ^ 4 2 | i 8 0 a j.e f g g h h h g f f e c b b b b a a 0 0 9 9 8 8 i i } | | 1 2 _ 3 4 / ^ ] { ~ ! ) ) 5 ' ' , , , , , , , ' 5 ) ! ~ { ] ] ^ ^ ",
"b c.0 8 } 1 _ ,@^ { ~ ~ ! ! ! ~ ~ { =%] ] ^ ^ b./ / 4 4 3 _ 2 | i 9 a j.e g >.y U z S S S U y g c 0 i 2 4 { ) , j $ # + . .             @ @ k k l l l m m m m m k @   . # $ $ ; ; $ # + .       + # $ ; j > > > > > > > > > > > 6 , , ' 5 ) ! ! ~ { { ] ^ / 4 3 _ _ 2 1 | } H+8 9 0 a b e f g g g g g g g g g g g g g h h h h h h g f e c a 0 8 i } 1 2 _ 4 4 / / ^ / / 4 3 _ 2 1 | | | | } } } i i 8 9 @+a b a a 0 9 V.U.i S.i i i 8 9 0 a b F.,.f.f.q.x x x x x q.f.,.F.c.@+O.O.N.N.N.N.O.O.O.@+@+c.c.F.F.,.,.e e e c b b a 0 9 9 8 8 i i } } } } } } i i i 8 8 8 8 9 9 9 8 8 8 8 i } | | 1 2 _ _ 3 4 / / / 4 3 _ 1 u i 9 a b ,.e f ].e e e f g h h '.'.h h h g g g g g h h h h g g f e F.a 0 9 i } [ < < < < i+B.N.@+F.f.q.>.;.-.).*.&.W %.$.#.`  ...E.E.E.E.E.F F F E +.o.$.%.A ).;.x e @+B.: ( ^ M.K.x., y.- = * * $ $ # 9+  @ k l l l k @   + $ ; > , 5 ! ~ ] ^ / 4 3 3 4 / ] { ! 5 , 6 j j ; ; ; j 6 , ) ~ ^ 4 _ | i 8 0 b c e f g h h h h g f f e c c b b b b a a 0 9 9 8 8 i i } } | 1 2 _ 3 4 / ^ ] { { ~ ! ) ) 5 5 5 5 5 5 ) K.! ~ { ++/ 4 3 3 _ _ _ ",
"q.f ,.a 9 } 1 _ ,@^ ] { ~ ~ ~ ~ { { ] ] ] ^ ^ ^ / / 4 4 3 3 2 1 } 8 O.a c f g '.U z S S S z U h f b 8 1 4 ] ) , j $ + .     @ @ w#  @ @ @ k k k l l l m n n n m l k @ . + $ $ ; ; $ $ & .     . + # $ ; ; j j j j j j j j j j j > 6 6 , ' 5 ) ) ! ~ { ] ^ / / 4 3 _ 2 1 | | } i 8 9 0 b c e f f f f f f f f f f g g g g g h h g g g f e b a 0 8 i | 1 2 _ 3 4 4 / / / 4 3 _ _ 2 1 1 1 1 1 1 1 | | } } i 9 0 0 9 9 8 i } u | | | } } i 8 9 0 a b c ,.f.I+q.q.q.q.q.f.,.F.c.@+@+O.O.N.N.N.O.O.@+@+c.c.F.F.,.,.f.f.].f e e c b b a 0 9 9 8 8 8 i i i i i i 8 8 8 8 8 9 9 9 9 8 8 8 8 i i } | | 1 2 2 _ _ 3 3 A._ 2 1 } i 9 a c f g h '.'.'.h h h h '.y U U U y y '.h g g g g g g g g f e e c b a 9 8 i } | < < < [ m.B.O.c.F.f.x >.;.-.).*.&.W %.X #.@.+.....E.E.F a#E E P D D.R B *.).h.x ,.@+B.1 ( #+~ ) ' J.> j ; * $ $ $ $ # +   @ k l l k k @ . + $ j 6 ' ) ~ { ^ / 4 3 3 3 3 / ^ { ! 5 , > j ; $ $ $ ; > 6 5 ! ] 4 _ 1 i 9 0 b c e g g h h h h g g f e e c c c c b b a a 0 9 9 8 8 i i } | 1 1 2 _ 3 4 / ^ ] { { ~ ~ ! ! ! ! ! ~ { w ^ / 4 A.2 1 | } } i i i ",
"y '.g e a V.} 7+3 / ^ ] { { { { { ] ] ] ^ ^ ^ ^ / / / 4 4 3 _ 2 | i 8 0 b e f h y z S S S S U '.g c 9 | 3 ^ ! , j # .   w#@ @ @ @ @ @ @ @ k k k l l l m n n n m l k @   + # $ j@; ; $ # + .   . + # # $ ; ; ; ; ; ; ; ; $ ; ; ; j > 6 , , ' 5 ) ) ! ~ { ] ^ / 4 3 _ 2 1 < | } i 8 9 0 a b c e e e e e e e e f f f f f g g g g g g f e c b a 9 8 } | 1 2 _ 3 3 4 4 4 4 4 3 _ _ 2 2 2 2 2 2 2 2 2 1 1 | } i 8 8 8 i } | 1 1 7+7+1 ;+| } i 8 0 a b F.,.,.f.f.f.f.f.f.,.,.F.c.@+O.O.N.N.N.O.O.@+@+c.c.F.,.,.f.f.f q.q.f f e e c b a a 0 9 9 9 9 8 8 8 8 8 8 8 9 9 9 9 9 9 9 8 8 8 8 8 i i } | | 1 2 2 _ _ 2 2 1 | } i 9 0 b f.x '.U z S S z U y y U z %+S S S z U y '.h g g V*f f f e e c b a a 0 9 8 i } | < 1 < [ m.N.O.c.,.q.x h.;.-.).*.&.W %.X $.#.@.+.+..... .P ` o.D.R =+Q.V -.'.q.c 0 i 1 3 ++~ 0.' 6 > j ; $ $ $ $ $ * $ + . @ k k k k @   9+# ; > , 5 ! { ] ^ 4 3 3 _ 3 3 / ^ { ! 5 , > j $ $ # $ $ j > ' ! ] / _ 1 i 9 a b e f g h h '.h h g g f f e e e e c c b b a 0 0 9 9 8 8 i } | | 1 2 _ 3 4 / ^ ^ ] ] { { { { { { ] ^ / 4 _ 7+| i V.0 a a c.c.c.c.",
"z z y g c 0 8 | 2 3 / ^ ] ] { { ] ] ] ] ^ ^ ^ ^ / / / / 4 3 _ 2 1 } i 9 a c e g '.U z S S S z y h e 0 i 2 / ~ ' > $ +   @ @ k k @ @ @ @ k k k k k l l m n n n m m l @   . # # $ $ $ $ # + . . . + + # # $ $ $ $ $ $ $ $ # $ $ ; ; j > 6 , , ' 5 ) ) ! ~ { ] ^ / 4 3 _ 2 1 | } i i 8 9 0 a b c c c c c c e e e e e f f f f g g f f f e c b a 9 8 } | 1 2 _ l$3 3 4 4 3 3 3 _ _ _ 2 2 2 2 _ _ _ _ 2 2 1 | } } } } | 1 1 2 _ _ _ 2 1 | } i 8 0 a c.F.,.,.f.f.f.f.f.,.,.F.F.c.@+O.O.O.O.O.O.O.@+c.c.F.,.,.f.f.q.q.g g g f f e c b b a 0 0 0 0 0 p.0 0 0 0 p.9 9 9 9 9 9 9 9 9 8 8 8 8 i i } } | 1 1 2 2 2 2 1 | } 8 9 a c f h y z V A Q.Q.A S z z S V *.A A V S z U '.h g g f f e c F.b a 0 0 9 8 8 i } | < 1 : < h+m.B.O.c.,.q.x h.;.-.=.*.*.&.W %.X $.#.@.@.` @.@.#.R =+B Q.i*%+y h f.r.9 } 2 4 ] ! 5 , > j ; $ $ # # $ $ ; ; ; $ + .   @ @     . # $ j 6 ' ) ~ { ^ / 4 3 3 3 3 4 / ] ~ ) 5 , > ; $ # # # $ ; > , ) w / _ | i O.a c f g h '.'.'.'.h h g g f f e e e e e c b a a 0 0 9 8 8 i } | 1 1 2 _ 3 4 / / ^ ^ ^ ] ] ] ] ^ / 4 3 _ 1 } 8 0 b ,.f g g g g t.q.",
"V S -.'.f b 9 } 1 _ 4 / ^ ] ] ] ] ] ] ] ^ ^ ^ ^ ^ / / / 4 4 3 _ 1 | i 8 0 b c f h y U z S S z y h f b 8 1 4 w 0.6 ; + . @ @ k k k k @ k k k k k k l l m m n n m m l k @ . + # # $ $ $ # + . . . + + + # # # # # # # # # # # # $ $ ; j > 6 , ' ' 5 ) ! ~ ~ { ] / 4 3 _ 2 1 | } } i i 8 9 0 a b b b b b F.c c c e e e e f f f f f e e c b c.0 9 8 } | 1 2 _ _ 3 3 3 3 3 3 l$_ _ _ _ _ _ _ _ _ _ _ _ _ 2 1 1 | | | 1 2 2 _ _ 3 _ _ 2 1 | i 8 0 a b F.,.,.,.f.,.,.,.,.,.F.c.c.@+@+O.O.O.O.O.@+c.c.F.,.,.f.q.q.g x x g g g f e c c b a a 0 0 0 0 a a a a a a 0 0 0 0 9 9 9 9 9 9 9 8 8 8 i i } | | 1 1 2 2 1 | } i 9 0 b e g '.U S A B H;=+B A V V w.A Q.Q.Q.A V S z y '.h g f e c b a 0 9 8 8 i i } } | | 1 : : : < [ B.N.@+F.f.x h.;.).=.*.&.&.W %.X X $.#.#.#.#.$.X B Q.i*S U '.g c @+8 | _ / P>w=' y>j ]>4;# # |># # $ ; j d>j ; $ # + + + + + # $ j > , 5 5+~ ] ^ / 4 4 4 4 / ^ ] { ! 5 ' 6 > ; $ # # # $ ; > l.! ] 4 2 } 8 a c e g h '.y y y y '.h h g g f f f f f e e c b a 0 0 9 8 i i } | 1 2 _ 3 3 4 / / ^ ^ ^ / / / / 4 3 _ 1 } 8 0 b e t.h h.y y y y y y ",
"A V %+y g c 0 i | _ 3 / ^ ^ ] ] ] ] ] ] ^ ^ ^ ^ ^ ^ / / / 4 3 _ 2 1 } i 9 a b e g >.y U -.z U y '.f c 9 } _ ^ ! , j # .   @ k k k k k k k k k k k k l l m m m m m l k @   . + + # # # # + + . . + + + + + + + + + + + + + + + # $ ; j j > 6 , ' 5 5 ) ! ~ { ] ^ / 3 _ 2 1 | } } } i i 8 9 0 0 @+a a a b b b c c c e e e e f e e e c c b a 0 9 8 } | 1 2 _ _ _ 3 3 3 3 _ _ _ _ _ _ _ _ _ _ _ _ _ _ _ 2 2 2 1 1 2 2 _ _ 3 3 3 3 _ 2 1 | i 8 0 a F.c ,.,.f.,.,.,.,.,.F.F.c.c.@+@+@+p.O.@+@+@+c.F.F.,.f.q.q.x x x x x g g f e c c b a a 0 a a a b b b b b b a a a 0 0 9 9 9 9 9 9 9 9 8 8 i i } | | 1 1 1 1 | } 8 9 0 b e g '.z V Q.B =+=+=+B Q.A Q.I.B B B Q.A V S U y h g f.c b 0 9 i } } | | | | | | 1 : 2 T T : < m.N.@+F.f.x h.;.).=.*.*.&.W W %.%.%.X X X X %.Q.*.S U <-,>e ['9 } }'3 ^ &,#,, d>]>A&u&b;b;b;b;|># $ R>> 6 6 y>d>j ; * $ $ ; ; j > , ' 5 ! ~ ] ^ / / / / ^ ] { ~ ! 5 ' , > j ; $ $ $ $ $ ; > ' ! ] 4 1 i 0 b e g h '.y U U U ;.y '.'.h h g g g g f f e c b a 0 0 9 8 i } | 1 2 _ _ 3 4 / / / / / / 4 4 3 3 _ 1 | i 9 a ,.t.h ~.U z S S S z z z ",
"Q.A S y x d a 8 | 2 3 4 / ^ ^ ] ] ] ] ] ^ ^ ^ ^ ^ ^ ^ ^ / / 4 3 _ 1 | } 8 9 a c f.g h h.y y y y h g c 0 i 1 4 { 5 > * +   @ k k k k k k k k k k k k l l m m m m m l k k @   . + + # # # + + + . . . . . . . + + . . . . . . . + # $ ; j > 6 , , ' 5 ) ) ! ~ { ] / 4 3 2 7+1 | | | | } l&i 8 9 9 9 p.0 a a b b c c c c e e e e e c c b b a 0 9 8 } | 1 2 2 _ _ _ _ _ _ _ _ _ _ _ _ _ _ _ _ _ _ _ _ _ _ _ 2 2 2 _ _ _ 3 3 3 3 3 _ 2 1 | i 9 0 b c ,.e f.f.f.,.,.,.,.F.F.F.c.c.c.@+@+@+@+@+c.c.F.,.s+f.q.q.x x x x x g g f e c c b a a 0 a a b b c c c c c b b a a 0 p.9 9 9 0 0 9 9 9 8 8 i i } | | 1 1 | } i 8 9 0 b e g '.U S A B =+=+=+B Q.Q.I.B 9.9.B I..+V S z y h g e b 0 8 i | 1 1 2 2 2 2 1 1 1 2 T T T : < [ B.O.c.f.x h.;.).=.*.*.&.&.&.&.&.W W W W &.*.S U '.,>|'1'2' $)>2;3'P>T$@,o;R>4;b;,&w>5>5>5>,&b;|>]>@&y>3;' 3;, =&6 > > > > > 6 , ' 5 ) ! ~ { ] ^ ^ ^ ] { ~ ! ) 5 , 6 6 > j ; $ $ $ $ ; j 6 ' ! ^ 3 1 8 a c f h '.y U z z z U U y '.'.h h g g g g f e c b a 0 p.9 8 i } | 1 2 _ 3 4 4 / / / / 4 4 3 _ _ 2 | } 8 @+j.].i.~.-.%+=.V V A n.V V V ",
"Q.A S U h e a 8 } 1 _ 3 4 / ^ ^ ^ ^ ^ ^ ^ ^ ^ ^ ^ ^ ^ ^ ^ ^ / 4 3 2;1 | i 8 9 a F.d f g h >.>.h g f c a 8 ;+3 ] ) J.j # . W@k k k k k k k k k k k k l l m m m m m l l k @ @   . + + + + + + . . . . . . . . . . . . .         . + # $ ; j > 6 , ' ' 5 ) ! ! { ] ^ 4 3 _ 2 2 1 1 1 1 1 | } } i i 8 8 9 p.0 a b b b c c c c c c c b b a a 0 0 9 i } | 1 2 2 _ _ _ _ _ _ _ _ _ _ _ _ _ _ _ _ _ _ _ _ _ _ _ _ _ _ _ _ 3 3 3 4 4 3 3 _ 1 | i 9 a b c e f.f.f.f.,.,.,.,.1+F.F.F.c.c.c.c.@+c.c.c.F.F.,.f.f.q.q.x x x x x g g f e c c b a a 0 a a b F.c c c c c c b b a 0 0 0 0 0 0 0 0 9 9 9 8 8 i } } | 1 | | } i 8 9 0 b e t.'.U ).V Q.B B B B Q.Q.W I.B B I.Q.A V S U y h f c a 9 i | 2 _ _ _ _ _ _ 2 2 2 2 T T T : < [ m.N.c.,.q.>.;.-.).=.~;*.*.*.=.=.=.=.=.=.).U '.g e 4'5' $6'7'8'9'0'$,3;X>z>A>B>H>D>a's>D>u>5>B>|>]>d>=&@,#,#,#,5 5 ' , , , , , , ' ' 5 ) ! ~ { { { { ~ ! ) 5 ' , 6 > j j ; ; $ $ $ $ ; j 6 ' <#^ 3 | 8 a e g h h.U -.z z z z U U y '.'.h h h g g f e c b a 0 p.N.i } | 1 2 _ 3 3 4 / / / / 4 3 _ :+2 ;+} i 9 a ,.t.{.g.%+V A .+Q.Q.Q.Q.Q.Q.Q.",
"A *.S y h e a 9 } 1 _ 3 4 4 / / / / ^ ^ ^ ^ ^ ^ ^ ] ] ] ] ^ ^ / 4 3 2;1 | } B.9 0 c.F.,.f.f f f f e b 0 8 | 3 ^ ! ' > $ +   @ k k l l l l l l l l l l l m m m m m m l l k @     . . + + . . . .                           w#  . + # $ ; j > 6 6 , ' 5 5 ) ! ~ { ] / 4 3 3 _ _ _ _ _ _ 2 1 1 | } } i 8 8 9 0 a b b b c c c c j.b b a a 0 0 9 8 i } | 1 2 2 2 _ _ _ _ _ _ _ _ _ _ _ _ _ _ _ _ _ _ _ _ _ _ _ _ _ _ 3 3 3 {#4 4 3 3 _ 1 | i 9 a b ,.e f.f.f.f.f.f.,.,.,.,.1+F.F.F.c.c.c.c.c.F.F.,.,.f.f.q.q.x x x x x g g f e c c b a a 0 a a b b c c c c c c b b a a a a 0 0 0 0 0 0 9 9 8 8 i i } | | | | } i 8 9 0 b c f h y U S V A .+&.A A A &.Q.Q.Q.Q.&.*.=.z U '.g e a 9 i | 2 _ 3 4 4 4 4 3 _ 2 2 2 T T T : < [ m.N.@+F.I+x h.;.-.).).).).).-.-.;.;.;.h.>.g e ['2'b'c'7'8'9'd'e'f'g'S>K>G>O>D>h'i'i'i'j'k'l'E>L>m'n'o'p'q'I>I>I>! ) 5 5 ' ' , , , ' ' 5 5 ) ) ) ) ) 5 ' , 6 6 > j ; ; ; $ $ $ $ $ ; ; j 6 ' ~ ^ _ | 8 b e g >.h.;.-.z S S z z U U y '.'.h h h g g f e c b a 0 9 i } | 1 2 _ 3 4 4 4 4 4 4 3 _ 2 1 [ i 8 0 b e g '.-.=.A I.B 9.=+=+=+=+=+=+=+",
"V V z y g e a 9 } 1 2 _ 3 4 4 4 4 / / / / ^ ^ ] ] ] ] ] a.] ] ^ / 4 3 _ 2 1 | i 8 9 0 a b b c c c b a 9 i 1 3 ^ ~ 5 6 ; # . @ k k l l l l l l l l l m m m n n n n m m l k k @     . . . .                             @ @ @ @   . + # $ ; j > 6 , , ' 5 ) ) ! ~ ] ^ / / 4 4 4 4 4 4 4 3 _ _ 2 1 | | } i 8 9 0 a b b b b b b b a a 0 0 0 9 9 8 i } | 1 2 2 2 2 2 2 2 2 2 2 2 2 _ _ _ _ _ _ _ _ _ _ _ _ _ _ _ _ _ 3 3 3 4 4 4 3 3 _ 1 | i 9 a b ,.f.q.q.q.q.f.f.f.f.n+n+,.,.F.F.F.F.c.c.F.F.F.,.,.,.f.f.q.q.g x x g g g f e c c b a a 0 0 a a b b b c c c b b b b b b a a a a 0 0 0 9 9 8 8 i i } | | | | } i 8 9 0 a c e g h y U z S S =.=.=.=.V *.A A w.V =.).U y h f b O.i | 2 3 4 / / / / / 4 3 _ 2 2 2 : : : < [ m.N.@+F.f.<%>.h.;.-.-.-.-.;.h.>.>.x x q.e b 2' $c'r'8's'd't'u'g'v'w'x'y'z'a'i'A'B'B'B'C'i'a'O>G>m'D'f'$,E'F'P>P>{ ~ ! ) 5 ' , , 6 6 , , , , , , , , 6 6 > j j ; $ $ $ $ $ $ $ $ $ ; ; j 6 ' ~ ^ _ | 8 a e g h '.y U z ).S S z z U y y '.'.h h g g f e c b a 0 9 i } | 1 2 _ 3 4 4 4 4 3 _ 2 1 | } 8 9 a F.f.x h.-.=.&.B =+R R R R R R R R R ",
"V S -.'.g c a 9 i | 2 _ _ 3 3 {#4 4 4 4 / ^ ^ ] ] =%{ { { { { ] s$r$J#q$p$_ 2 1 [ m.i 8 9 0 0 0 s.0 9 8 } 1 3 ^ ~ 5 , j # . @ k l l m m m m m m m m m n n n o n n n m m l k k @             @ @ @ @ @ @ @ @ @ @ @ @ @ @ @ @ @   . + # $ ; j > > 6 , ' ' 5 ) ! ~ { ] ^ ^ ^ / / ^ ^ ^ ^ / 4 3 3 _ 2 1 | } 8 9 0 j+a b b b b a a a 0 0 9 9 9 8 8 i } | 1 1 2 2 2 2 2 2 2 2 2 2 2 2 _ _ _ _ _ _ _ _ _ _ _ _ _ _ _ _ 3 3 3 3 4 4 3 3 _ 1 | i 9 a b e f.q.q.q.q.q.q.w+w+w+f.n+,.,.,.F.F.F.F.F.F.,.,.,.,.,.f.f.f.q.q.g g g f f e c b b a 0 0 0 0 0 j+a a b b b b b b b b b b b a a a 0 0 9 9 8 8 i i } | | | | } i 8 9 0 a b c f g h '.y ;.U U U U -.z ).S S S ).z U y >.g ,.a 8 [ 2 _ 4 / ^ ^ ^ ^ b./ 3 _ T 2 : : < < < [ m.N.O.c.,.q.x >.h.;.;.h.h.>.x q.f.,.W+c.@+8 ;>G'H'I'J'K'L'M'v'N'O'y'P'Q'R'S'T'U'U'U'U'V'C'h'W'X'Y'Z'u'K'd'`'9'9' )P>~ ! 5 ' , 6 > > > > > > > > j j j ; ; $ $ # # # # # # # # $ $ ; ; j 6 ' ! ^ 3 1 B.@+c f g h '.;.U z z z z z U y y '.h h h g f e c b a 0 9 8 i } | 1 2 _ 3 3 3 3 3 _ 2 1 } i 9 0 b c f h y -.=.&.B k.D.D.D.D.D.D.D.D.D.D.",
"S z U '.f c a 9 i | 1 2 _ _ 3 3 3 3 3 4 / / ^ ] ] { { ~ ~ ~ ~ { .)s$r$/ 4 3 3 _ 2 1 | u } i i 8 8 8 i } 1 _ 4 ^ ~ 0., j # . @ k l m m m m m m m m m n n o o o o o n n m l l k @ @       @ @ @ @ @ @ @ @ @ @ @ @ @ @ @ k k k k @   . + # $ ; j > 6 6 , ' 5 5 ) ! ~ { ] ] ] ] ] ] { { ] ] ^ / 4 3 _ 2 1 | i 8 9 0 a a a a a a 0 0 p.9 9 8 8 8 i } | | 1 1 2 2 2 2 2 2 2 2 2 2 2 2 _ _ _ _ _ _ _ _ _ _ _ _ _ _ _ _ 3 3 3 3 4 4 3 3 _ 1 | i 9 a b e f g x x x q.q.q.q.w+w+w+f.n+,.,.,.F.F.F.,.,.,.,.,.,.,.,.f.f.f.f f f f e c b b a 0 0 9 9 9 9 9 0 0 0 a a a a a b b b b b a a a 0 0 9 9 8 8 i i } | | | | } i 8 9 0 0 a b c f.f g h h >.{.>.>.'.h.;.U U U ;.y h.>.g e b 0 i | _ 3 / ^ ] ] ] ^ ^ / 4 _ 2 : 1 < < [ [ [ m.B.O.c.F.f.q.x >.h.>.>.x q.f.F.c.@+O.N.i | 2;3'+)@)#)$)%)w'O'&)z'Q'*)=)-)T';)>),)>)>)U'')))!)y'N'Z'u'~)d'{)9'])^ ] &,! 5 ' 6 > j j j j j ; ; ; $ $ $ $ $ # # + + + + + # # # $ $ $ ; ; > , ) { 4 2 } 9 a c f.q.x '.y U z z z U U y '.'.h g g f e c b a 0 9 8 i } | | 1 2 _ _ 3 _ _ 2 1 | } 8 p.a c e g >.y z =.&.%.R D.o.o.o.o.o.o.o.o.o.o.",
"S z U '.f c a 9 i | 1 2 2 _ _ _ _ _ 3 4 4 / ^ ] { { ~ ~ ! ! ! ~ ^).)] s$^ / 4 4 3 _ _ 2 2 1 1 | | | | 1 2 3 / ] ~ 5 , j # . @ k l m n n n n n n n n n o o p p p o o n n m l l k @ @ @ @ @ k k k k k k k k k k k k k k k k l k @   . + # $ ; j j > 6 , , ' 5 ) ! ~ ~ { { { { ~ ~ ~ ! ~ ~ { ] ^ / 4 _ 2 | } 8 9 0 0 a a a a 0 0 9 9 V.8 8 8 i i } | 1 1 1 1 2 2 2 2 2 2 2 2 2 2 2 _ _ _ _ _ _ _ _ _ _ _ _ _ _ _ _ 3 3 3 4 4 4 3 3 _ 1 | i 9 a b e q.x x x x x x x <%<%t.q.w+f.f.f.,.,.,.,.,.,.,.,.,.,.,.,.,.,.e e e e e c b a 0 0 9 9 8 8 8 B.8 8 8 9 9 9 0 0 0 a a b b b a a 0 0 0 9 9 8 8 i i } | | | | } i 8 9 p.0 a b b c e e f f f f f f q.g h h '.>.>.x x q.e F.a V.} 1 _ 4 / ^ ] ] ] ^ ^ ]+3 _ 2 1 < [ [ [ [ [ m.B.O.@+F.,.I+x x x x x q.,.F.@+O.N.m.[ : 3 ])P>q'/)M'()_):)z'*)=)-)-)-)<)[)})|)1)1)|)})V'S'*)&)2)v'$)3)4)5)s' ) ){ I>) ' , > j ; ; ; ; $ $ # # # # # + + + + + + + + + + # # $ $ $ $ ; j 6 5 ~ ] 4 : } 9 a F.e q.h '.y U U U U y y '.h g g f e c b a 0 9 8 i } | | 1 1 2 2 2 2 2 1 | } i 9 @+b e f h '.U z V &.B X D.o.P P P P P P P o.o.o.",
"z z y h f c a 9 i } | 1 2 2 _ _ _ _ _ 3 4 / ^ ] { ~ <#! ! ) ) ! T$~ { { ] ] ^ ^ / / 4 4 3 3 3 _ _ 2 _ _ ( / #+{ K.' 6 ; #   k l m n n n n n n n n n o o p p p p p o o n n m l k k @ @ @ k k k k k k k k k k k k k k k l l l l k @   . + # $ ; j > > 6 , ' ' 5 ) ! ~ ~ ~ ~ ! ! ) ) ) ) ) ! ~ { ^ / 3 _ 1 } i 9 9 0 0 a 0 0 0 9 9 8 8 8 i i i } } | 1 1 1 1 1 1 1 1 1 1 1 1 1 2 2 2 _ _ _ _ _ _ _ _ _ _ _ _ _ _ _ 3 3 3 4 4 4 3 3 2 1 | i 9 a F.e q.x >.>.>.x x x x x x <%q.q.q.f.f.,.,.,.,.,.,.,.,.F.F.F.F.F.c c c c b b a 0 9 8 8 i i } } } } } } i i 8 8 9 9 0 0 a a a a a 0 0 0 9 9 8 8 i i } | | | | } i 8 9 9 0 0 a a b b c c c c c c c c d e f f f f f.e c b a 9 8 } 1 _ 4 / ^ ] ] ] ^ / 4 A.T : < [ [ m.m.m.m.m.B.O.@+c.W+f.q.q.q.q.f.,.c.@+N.m.[ V+T ( ^ .)w=J>g'6)7)&)Q'=)8)<)9)<)<)');)})|)0)1)|)});)<)*)a)7)b)c)d)e)d'f)P>&,I>) 5 , 6 j ; $ $ $ $ $ # + + + + + + + + + + + + + + # # $ $ $ $ $ $ ; > , 5 ~ ^ 3 : } 8 0 b ,.f g >.'.y y y '.'.h g f f e c b a 0 9 8 i } | 1 1 1 1 1 1 1 1 | [ i 8 O.c.,.f h '.y U S V &.B X D.o.P E E E P P P P P P P ",
"U U '.g e b 0 8 i } | 1 2 2 2 2 2 2 _ 3 4 / ^ ] { ~ ! ! ) ) ) ) ! ! ~ ~ ~ { { { ] ] ] ^ ^ ^ / / / 4 / / ^ ] ~ ! 5 , > $ + @ k m n n o o o o o o o o o o p p p p p p o n n m l k k @ @ @ k k l l l l l l l l l l l l l l l l l k @   . + # $ $ ; j > 6 6 , ' 5 5 ) ! ! ! ) ) ) 5 5 ' ' 5 ) ! ~ { ^ 4 3 2 | i 8 9 0 0 0 0 0 9 9 8 8 8 i i i } } | | 1 1 1 1 1 1 1 1 1 1 1 1 1 1 2 2 _ _ _ _ _ _ _ _ _ _ _ _ _ _ _ 3 3 3 3 4 3 3 _ 2 < } 8 9 a c f.g >.>.>.>.>.>.>.>.>.b+x x x q.q.I+f.f.B,,.,.,.,.W+F.F.F.F.F.b b b c.a 0 9 8 i i } } | | 1 1 1 1 1 | | } i i 8 9 9 0 0 0 0 0 0 0 9 9 9 8 8 i } } | 1 | | } i 8 8 9 9 9 0 0 0 a a a a a a @+@+a a b c c c F.F.b c.0 9 8 i | 7+_ 4 / ^ ^ ^ ^ / ]+3 _ : < [ m.m.m.m.m.m.B.B.O.@+c.F.,.f.f.f.f.,.c.@+N.m.< u@A.]+#+i#Q>J>Y>S>2)&)Q'=)8)')[)[)')')');)g),),),)>)U'')-)*)a)7)6)M'/)~)@)E'I>I>) 5 , 6 > = * $ $ $ k## # + . . . + + + + + + # # # # # $ $ ; $ $ # # $ ; > , 5 ~ ^ 4 2 | i 9 a c e f g h h h g g f e c c b a 0 9 8 i } | 1 7+2 2 1 1 1 | | } i 8 9 @+b e g '.U z S S V Q.B =+D.o.P E E E E E E P P P P P ",
"'.'.i.f c a 9 i } | 1 1 2 2 2 2 2 2 2 _ 3 4 / ^ { ~ ! ! ) ) ) ) ) ! ! ! ! ! ~ ~ ~ ~ ~ ~ ~ { { { { { { { ~ ! ) ' , > ; #   k l m n o o p p o o o o o o o p p p p o o o n m m l k k @ @ k k k l l l l l l l l l l l l l l m m l l k @   . + # $ $ ; j > 6 6 , ' 5 5 ) ) ) 5 5 ' ' ' , ' ' 5 5 ! ~ ] / 3 _ 1 } i 8 9 9 p.9 9 9 8 8 i i i } } } | | | 1 1 1 1 1 1 1 1 1 1 1 1 1 1 : 2 2 2 2 2 2 2 2 2 2 2 2 2 2 2 _ _ _ 3 3 3 3 _ 2 1 } i 9 0 b d f x >.h.h.v+v+>.>.>.>.>.>.>.G+x x q.q.I+f.f.s+,.,.2,W+F.4>c.c.c.a @+0 O.9 8 i } | 1 1 2 2 _ _ _ 2 2 2 1 | | } i 8 8 9 9 9 9 9 9 9 9 8 8 8 i i } | 1 1 1 | } i i 8 8 8 8 8 9 9 9 9 9 9 9 9 9 9 9 O.0 @+a a @+@+0 O.N.8 i [ 1 2 _ 4 / ^ ^ ^ / ]+( A.2 1 | } m.B.B.B.B.B.B.N.O.@+c.F.F.,.,.,.F.c.@+N.m.< T ( / #+~ ) m;o;T>N>X'z'R'S'T'[)h)i)[)T'T'V'[)i)i)[)[)T'S'j)W'y'2)b)M'u'k)$,w=Q>#,5 ' J.> j ; * $ $ $ $ % # & + + + # # $ $ $ * ; ; ; ; ; ; ; ; ; $ # # # $ ; > , 5 ~ ] ]+_ 1 } 8 0 a j.c e e e e c b a a 0 9 8 B.i } [ | 1 2 2 2 2 1 | [ } i 8 9 0 c.F.f.x h.-.S V A A Q.B X D.o.P E E F F F E E E E E +.+.",
"g q.f.F.a 9 i } | 1 2 2 2 2 2 1 1 1 1 2 _ 3 4 ^ ] { ~ ! ) ) ) ) ) ) ! ! ! ) ) ) ) ) ) ) ) ) ) ) ) ) ) 5 ' , 6 > j ; # . @ l m n o p p p p p p p o o o o o o o n n n n m m l l k k @ @ k k k l l l l l l l l l l l l l l m m J$l k @ @   . + + # $ ; j > 6 , , ' 5 5 5 5 ' ' ' , , , , , ' 5 ) ! { ^ 4 _ 7+| i 8 8 9 9 9 9 8 8 i i &;} } | | | | | | | | | | | | | 1 1 1 1 1 1 1 1 1 1 1 1 1 1 1 1 1 1 1 1 1 2 2 _ _ _ _ _ 2 1 | } 8 9 a b e f x >.v+h.h.^;^;v+v+v+v+v+v+v+v+>.G+G+];u+u+(,I+f.s+s+W+W+g@c.l)@+0 O.9 8 i } | 1 2 _ 3 3 3 4 4 3 3 (@_ 2 1 1 | } } i 8 8 8 8 8 8 8 8 8 i i } } | 1 1 2 2 1 | } } } } i i i i i i i i i i i i i B.B.8 N.N.N.N.N.N.B.i m.[ 1 2 _ 3 4 / / / / 4 3 A.T : ;+[ m.i B.8 8 8 N.N.O.0 @+c.b F.F.F.F.c.@+9 i | 2 3 / ] ~ ) m;, p;z>A>m)l'j)n)B'i)i)i)B'C'C'8)8)n)i'))h'a'l'O>:)2)m'o)M'f'/)p)@,@,' , J.6 > j = ; * * * * * $ $ $ $ ; = - > y.6 6 6 6 y.> > > - j ; $ # + + + $ ; j 6 ' ! { ^ 4 _ < } 8 9 0 a a a 0 O.9 8 i } u | | < 1 1 : 2 T T 2 : | } i 8 9 @+c.F.e q.x h.-.=.A Q.W B =+R D.o.` +.E F F F F F F F ....E E ",
",.c b @+N.i | 1 2 _ _ _ _ 2 2 1 | | | 1 2 _ 3 / ^ ] { ~ ! ! ) ) ) ) ) ) ) ) 5 5 5 5 ' ' ' ' , , , , 6 > g+j ; $ # + . @ l m o p p q q q q q q p o o n n n m m m m l l l l k k k @ @ @ k k k k k k k k k k k k k k k l l l m m l l k k @   . . + # $ ; j > 6 , , ' ' ' ' , , , , , , , , , ' 5 ) ~ ] / 3 2 1 } i 8 8 8 8 8 8 i i } } } | | 1 1 1 1 | | | | | | | | | | 1 1 1 1 1 | | | | | [ } } } } u | | | | 1 2 2 2 2 1 ;+} i 8 0 c.c f.q.x >.v+h._@_@g,g,g,g,g,g,g,g,q)q)v+v+v+r)G+s)u+u+I+t)s+u)v)g@l)@+O.9 N.B.m.| 1 2 _ 3 4 / / ^ ^ b./ / 4 3 _ 2 2 1 | | } } i i i i i i i i } } | | 1 1 2 2 2 2 1 1 | | | | | | } } } } } } } } } } } m.m.m.i i m.m.m.m.[ | < 2 A.( 4 ]+]+4 4 ( 3 _ 2 : < [ m.i B.8 N.9 9 9 O.0 @+a c.b b b b a @+9 B.u : 3 / ] ~ ) ' , p;j r;|>B>H>k'w)x)j;y)x)z)A)j'B)D>l'x>w>B>X'G>M>m'S>o)g'C)o'3;3;n;, J.6 y.y.- - j j = = = = = = j j > 6 l.x.0.) K.K.K.) 0.x.' , 6 > j $ # + . . + # $ j > , 5 ! ] / 3 2 1 } i i i i m.} | 1 2 :+T _ _ _ T T T T T T 2 < } B.9 @+c.c f.q.x >.;.-.=.A Q.B =+X $.D.o.` +.E ..F E.E.E.E.E.E.E.E.F F ",
"@+@+O.8 m.| 1 2 _ 3 3 _ _ 2 1 1 | } } | 1 2 3 4 / ] { ~ ~ ! ! ) ) ) ) 5 5 5 ' ' , , , 6 6 > > > j j ; $ # + + .   @ k l m o p q q r r r r r q p p o n m m l l l k k k k k k @ @ @ @ @ @ k k k k k k k k k k k k k k l l l m m m l l k k @ @   . . + # ; j > 6 6 , , , 6 6 6 6 6 6 6 6 6 , , ' ) ~ { ^ 4 _ 2 | } i 8 8 8 8 i i H+} | | 1 1 1 1 1 1 | | | | | | | | | | | 1 1 1 | | } } i i i i i i i i i i } } | 1 2 2 1 | } i 9 a b e f g >.'.h.h._@_@_@g,g,g,g,g,g,g,g,g,g,g,q)q)D)r) 'E)u+F)G)*'H)I)J)3@]@9 8 i } | 1 2 3 4 / ^ ] ] a.] ] ] ^ / 4 3 _ _ 2 1 1 | | } } } } } } } } | | 1 1 2 2 _ _ _ _ 2 2 1 1 1 1 1 1 | | | | | | | | | [ [ [ [ [ [ [ [ [ [ [ < < : T A.( ]+]+4 4 3 A.T : 1 < [ } i B.8 N.9 9 0 0 0 a a a c.c.c.a a 0 9 8 } 1 _ 4 #+~ ) ' $+> j ; 4;u&,&x>D>J$K)P.P.P.K)B)D>x>B>G>M>K>]>R>T>d>n'y>Y>`>=&=&=&o;6 j#y.y.> - - - - - - - - > y.y.6 J.' 0.L.{ #+7 7 7 7 #+w ~ K.0.' 6 > ; # + .   . . + # ; j 6 ' ) ~ ] / 3 _ 2 1 1 2 2 _ 3 4 4 ]+]+]+]+]+( ( A.A.A.T : [ i O.s.F.f.q.x h.;.-.).=.*.W %.X R Y #.@.P +.E ..F E.E.E.E.G G G G G }+}+",
"8 B.i } | 1 2 _ _ 3 _ _ 2 1 1 | } } } | 1 2 _ 4 / ^ ] { ~ ! ! ) ) 5 5 x.' ' , , 6 6 > > j j ; ; $ $ # + .   @ @ k a&l m o p q r r s s s s r r q p o n m l l k k k k @ @ @ @ @ @ @ @ @ k k k k k k k k k k k k k k k l l m m m m m m l l k k @     . + $ ; j > > > > > > > > > > > > > 6 6 , ' 5 ! { ^ / 3 2 1 | } i i i i i } } | | 1 1 2 2 2 2 1 1 | | | | } | | | | | | | | | } i i 8 8 8 8 8 8 8 8 8 8 i i } | 1 1 | } i 9 0 b c f g h '.h._@_@_@_@_@g,g,L)L)L)L)L)g,g,g,q)q)D)r)M)E)N)I+G)u)v)J)O)P)O.N.B.m.} | 1 _ 3 4 / ^ ] { 8@~ { { { ] ^ / 4 4 3 _ 2 2 1 1 | | | | | | | | | 1 1 2 2 _ 3 3 3 _ _ 2 2 2 2 2 1 1 1 | | | | | | | | | [ [ [ [ [ [ [ [ [ < < < : T A.( 4 4 ( 3 _ T : 1 < [ } m.i 8 8 9 9 0 0 0 a a a a a a 0 0 9 8 i } 1 _ 4 ^ { ) ' J.> j ; $ # + ,&5>u>s>J$m m J$s>u>r&b;4;q;d>p;6 6 o;=&=&=&=&6 y>y>y>> >  >- - - - g+y.y.y.y.y.y.J.J.l.x.0.K.M.#+]+A.T T T T A.]+7 w L.) ' 6 j # + .         . + $ ; > , 5 ! { ] / ,@4 4 4 4 / ^ #+] ] w ] #+7 7 ]+( A.A.T : [ N.@+F.f.x >.;.-.).=.*.&.W %.X $.#.Z @.+.+.......E.E.E.E.G T.T.T.T.T.T.T.",
"| | < 1 : 2 _ _ _ _ 2 2 1 | } } i i } } | 2 _ 3 / ^ ] { ~ ! ) ) 5 ' ' , , 6 6 > > j j ; ; $ $ # # + .   @ k k l l m n o p q q r s s t+t+t+s r q p o n m l l k k k @ @ @ @ @ @ @ @ @ k k k k k k k k k k k k k k k k l l m n n n n m m l l k k @ @   . # $ ; j j j j j j j j j j j j j > > 6 , 5 ) ~ ] / 3 _ 1 | } i i i i } } | | 1 1 2 2 2 2 2 2 1 1 1 | | | | | | | | | | } } i 8 8 8 9 9 9 9 9 9 9 9 8 8 i } | | | } i 8 9 a b e f g h '.h.h._@_@_@_@_@_@_@g,g,g,g,_@g,q)v+r)G+u+N)I+s+u)v)g@3@]@Q)2@Q@i } | 1 2 _ 3 4 / ^ ] { ~ ~ ~ ~ ~ { { ] ^ ^ / 4 3 3 _ _ 2 7+1 1 | | | 1 1 1 2 2 _ _ 3 3 3 3 3 _ 2 2 2 2 1 1 1 | | | [ } } [ [ [ [ [ [ [ [ [ [ [ [ [ [ [ < < : *#A.( 3 A._ T : 1 < [ [ } i i 8 R)9 9 0 0 0 0 S)a 0 0 0 9 8 i } | 2 _ 4 ^ { ! 5 , > j $ $ # + . ,&  5>@ k k k @   b;|>]>j y>, 3;' ' , , =&6 y>> d>2>j j j - - - - e#y.y.&#J.J.J.J.Y@l.x.0.L.w 7 ( T < [ m.m.[ < : A.]+#+~ ) , > $ + .   @ @ @   . + # ; > 6 ' ) ! ~ { { ] ] ] { { ~ ~ L.L.~ M.w #+7 ]+( A.T < m.N.c.,.q.>.;.-.).=.*.&.W %.X $.$.#.@.+.+.......E.E.E.E.E.E.T.T.T.T.T.T.T.",
"T T T _ _ _ _ 2 2 2 1 | } i i i i i } | 1 2 _ 4 / ^ ] { ~ ! ) 5 ' , , 6 6 > > j j ; ; $ $ # + + .     @ k l m m n o o p q r r s s t+t+t+t+t+s r q o n m m l k k k k k t$k k k k k k k k k k l l l l l l l l l l l l l m n n o o n n n m m l l k @ @   . # $ ; ; ; ; ; ; ; ; ; ; ; ; ; j > > , ' ) ~ ] ^ 4 _ 2 1 | } } } } } | | | 1 2 2 _ _ _ _ 2 2 2 1 1 | | | | } } } } } } i 8 8 9 9 9 9 9 9 9 9 9 9 9 9 8 i } } } } i 8 9 a b e f g h >.'.h.h.h._@_@_@_@_@_@_@_@_@g,v+v+G+u+I+s+2,W+g@3@@+]@2@Q@~'m.[ | 1 2 T _ 3 4 / ^ ^ ] { ~ ~ ~ ~ ~ ~ ~ { { ] ^ / / 4 3 3 _ 2 2 2 1 1 1 1 1 2 2 _ _ 3 3 4 4 4 3 _ _ 2 2 1 1 1 | | } } i i i i m.m.m.m.m.m.m.m.m.m.m.m.m.[ [ [ < : T T T T 2 : 1 < < [ } m.i i 8 9 9 0 0 0 0 0 0 0 T)9 8 i } | 1 :+3 / #+{ ! 5 , > j $ # + + . . . . ,&,&!+. . + # f&j > , ' 5 5 5 ' X@, 6 > j R>1>; ; ; = - - - y.y.y.J.J.l.l.l.l.Z@x.K.L.w 7 E%: [ B.N.O.O.N.B.m.< T ]+] ~ 5 6 ; # .   @ @ k @ @   . # $ j > 6 6@' 5 ) ) ! ! ! ) ) ) ) ) K.L.M.w 7 ]+( A.T < m.O.F.f.x h.-.).*.*.&.W %.X X $.#.@.+.+.....@#E.E.E.E.E.E.E.E.E.E.E.E.E.E.",
"4 ( 3 3 3 _ 2 2 1 | | } i 8 8 8 8 i } | 1 _ 3 4 / ] { ~ ! ) 5 ' , 6 > > j j ; ; $ $ # # + + .     @ k ,#l m n o o p q q r r s t+t+t+Z+Z+Z+t+t+s q p o n m l l k k k k k k k k k k k k k l l l l l l l l l l l l l l m m n o o o o o n n m m l l k k @   + # # $ $ $ $ $ $ $ $ $ $ $ $ ; j > 6 ' 5 ! { ^ 4 3 2 1 | } } } } | | ;+1 2 2 _ _ _ 3 _ _ _ 2 2 1 1 1 | | } } } } i i 8 8 9 p.0 0 0 0 0 0 0 0 0 0 9 9 8 i } } i i 8 0 a b c e f g h >.>.'.h.h.h.h.h.h.h.h.h.v+v+>.x q.f.,.g@3@@+O.N.Q@B.m.[ U)< : 2 _ _ 3 4 / / ^ ^ ] { { ~ ~ ~ ! ! ~ ~ ~ { { ] ^ ^ / 4 3 3 _ _ 2 2 2 2 2 2 2 2;_ 3 3 4 4 4 4 3 3 _ 2 1 1 | | } } i B.8 N.N.N.N.B.B.B.B.B.B.B.B.B.B.B.B.B.m.m.[ < < : : : 1 < < < [ [ } m.i i 8 9 9 0 0 0 9 9 9 9 8 8 i } 1 2 _ 4 / ] ~ ! 5 , 6 j ; # & + . . . . b;+ + # # $ ; j > =&' 5 ) ) ) 5 ' , 6 d>1>; $ $ k#$ ^'= - - y.y.J.J.l.l.x.x.x.x.0.K.L.w 7 A.: c$N.]@c.c.F.c.@+O.B.| T 4 ] ! ' > $ + . @ k k k k @   . + $ ; j - > 6 , , ' ' ' ' ' ' x.5 0.K.L.w -$]+( A.: [ B.@+,.q.>.;.).*.&.&.W %.X X $.#.@.+.+.....@#E.E.E.E.E.E.E.E.E.E.E.E.E.E.E.",
"/ / / 4 3 _ 2 1 | } } i 8 9 9 8 i } | 1 2 3 4 / ^ { ~ ! ) 5 ' , 6 > j ; ; $ $ # # + + . .     @ k k l m n n o p q q r r s s t+t+Z+Z+Z+Z+Z+Z+t+s r p o n m m l l k k k k k k k k k k k l l l l l l l l l l l l l l m m n o p p p p p o o n n m m l l k @   . + + + + + + + + + + + # # $ ; j 6 , 5 ! { ] / 3 _ 2 1 | | | | | 1 1 1 2 _ _ 3 3 3 3 3 _ _ _ 2 2 1 1 | } } } i i 8 8 9 0 0 0 0 0 0 0 0 0 0 0 0 0 0 9 8 i i i 8 9 0 a b c e f g g h h h >.>.>.>.>.>.>.>.>.G+x x q.f.F.c.O.N.B.B.m.[ < < : T T A.3 4 4 / 7 ^ ^ ] ] { { ~ ~ ~ ! ! ! ! ! ~ ~ { { ] ^ / / 4 3 3 _ _ 2 2 2 2 2 _ _ p$3 4 4 / / / 4 3 _ 2 1 1 | } } i 8 9 9 O.0 O.O.N.N.N.N.N.N.N.N.N.N.N.N.N.N.B.B.m.[ [ [ [ [ [ [ [ [ [ } m.i B.8 9 0 0 0 9 9 9 8 8 i } | 1 2 3 4 / ] { ! 5 ' 6 > ; $ # + + . . I#+ # # $ ; j > 6 , ' 5 ) ) ! ! ) 5 , 6 > ; $ $ # # k#k#^'I* >y.J.J.l.l.x.x.0.0.K.K.K.M.w ]+A.: m.N.c.F.f.f.q.f.,.F.@+N.[ 2 4 ] ) , j # .   k k l k k @ @   + + # $ ; ; j > 6 6 6 , , , l.x.5 K.L.w 7 ]+A.T < m.N.c.f.>.;.).=.&.W %.%.X $.$.#.@.+.+.....E.E.E.E.E.E.E.E.E.E.E.E.E.E.E.E.E.",
"^ ^ / 4 3 _ 2 1 | } i 8 8 9 8 i } | 1 _ 3 4 / ] { ~ ! ) 5 ' , y.j ; $ $ # # + + . .     @ @ k k l m m n o p q q r s s t+t+t+Z+Z+Z+i@i@i@i@i@Z+t+r q p o n m l l l k k k k k k k k k l l l l m m m m m m m m m m m m n o p q q q q q p p o o n n m m l k @     . . . . . . . . . . . + # $ j > , E+) ~ ] / 4 _ 2 1 1 | | | 1 1 1 2 2 _ 3 3 3 4 4 3 3 3 _ _ 2 2 1 | } } i i 8 8 9 0 0 a a a a a a a a a a a a 0 9 8 8 8 8 8 9 0 a b c e f f g g g g q.q.q.q.q.q.q.q.q.q.q.f.,.F.s.9 B.m.[ < < : T _ 3 ( 4 ]+/ 7 ^ ] ] ] { { { { ~ ~ ~ ~ ! ! ! ! ! ~ ~ { { ] ^ / / 4 3 3 _ _ _ 2 2 _ _ _ p$3 q$4 / / / / 4 3 _ 2 1 | | } i 8 9 0 @+a c.c.s.@+O.O.O.O.O.O.O.O.O.O.O.O.O.N.N.B.B.=@m.m.m.m.m.[ [ } m.m.i B.N.9 0 0 0 9 N.8 i i } | 1 T 3 4 ^ ] { ! ) ' , > j ; $ # + + + + + # $ ; - 6 , ' 5 ) ) ! ! ! ! ) 5 ' 6 > h@$ # # k+# % $ = - 6 l.l.x.x.0.K.K.L.L.M.M.w #+]+A.V+m.|+c.n+u+>.h.h.4@>.q.,.c.9 } 2 4 { 5 6 ; #   @ k l l l k k @     . . + # $ ; = j > y.6 J.l.' 0.K.M.#+]+A.T < m.N.9&,.x ;.).E@&.W %.X X $.#.Z @.+.+.....E.E.E.E.E.E.E.E.E.E.E.E.E.E.E.E.E.E.",
"] ^ ^ / 3 _ 1 | } i i 8 8 8 i } | 2 _ 3 / ^ ] { ! ) 5 ' , 6 > j ; $ # + + . .     @ @ k k l l m m n o p q q r s s t+t+Z+Z+Z+i@i@i@i@i@i@i@i@Z+t+s r p o n m m l l l l l l l l l l l l l m m m m m m m m m m m m n n o p q r r r r r q q p p o o n n m l k @ @ @ @ @ @ @ @ @ @       . + $ ; > 6 ' ) ~ { ^ 4 3 _ 2 1 1 1 1 1 2 2 2 _ _ 3 4 4 4 4 4 4 4 3 3 _ 2 1 | | } i 8 V.9 0 0 a a a a a a a a a a a a a a 0 9 8 8 8 9 9 0 a b c e e f f f f f.f.f.f.f.f.f.f.f.f.,.,.j.r.@+V.i | 1 : T _ A.( ]+/ ^ #+] w w { M.~ ~ ~ ~ ~ ~ ~ ~ ! ! ! ! ! ! ! ~ ~ { ] ] ^ / 4 4 3 _ _ _ _ _ _ _ _ 3 3 q$J#/ r$^ ^ r$/ 4 _ 2 1 | } i 8 9 0 a b F.c c F.c.a @+@+@+@+@+@+@+@+@+@+@+@+@+O.O.|+N.N.N.B.B.m.m.m.m.m.m.B.B.N.O.0 0 0 9 8 i m.[ < : T 3 4 ^ ] { ! ) 5 , 6 > j ; $ # # # # # $ ; j y., ' 0.K.! ~ ~ ~ ~ ~ ! ) ' , > j $ # + + + # k#; - 6 l.x.0.K.K.L.M.M.w #+#+7 7 ( p#< m.O.c.f.>.;.-.).).).-.;.>.q.F.0 S.2 / ~ ' > $ +   k l l l l l k k @ @ @   . + # $ ; j - y.J.l.x.0.L.w 7 ( T < m.N.9&,.x h.).*.&.%.X $.$.#.#.@.+.+.....E.E.E.E.E.E.E.E.E.@#........a#@#E.E.E.E.",
"] ^ ^ 4 3 2 1 | } i i 8 8 i } | 2 _ 4 / ^ { ~ ! ) x., 6 > j ; $ # + + . .     @ @ k k l l m [#n o o p q r s s t+Z+Z+Z+i@i@i@i@P#P#P#P#P#P#P#i@Z+t+r q p o n m m l l l l l l l l l l l m m n n n n n n n n n n n n o o p r s s s s r r r q q p p o o n m l l k k k k k k k k k k @ @   + # $ j 6 , 5 ! { ^ / 4 3 _ 2 2 2 2 2 2 _ _ 3 3 4 4 ,@/ / / / 4 4 3 3 _ 2 1 | } i 8 9 0 0 a a b b b b b b b b b b b b a 0 0 9 9 9 9 0 0 a b c c e e e e ,.c F.F.F.F.F.F.F.F.c.c.c.@+p.8 S.;+2 _ 3 ( ]+/ ^ #+w { M.~ L.L.L.! ! ! ! ! ! ! ! ! ! ! ! ! ! ! ~ ~ { { ] ^ ^ / 4 3 3 _ _ _ _ _ _ _ 3 3 4 J#/ r$^ ^ ^ ^ / 4 3 2 1 | } i 8 0 a b c e e e ,.c F.c.c.c.c.c.c.c.c.c.c.c.c.c.c.@+@+@+O.O.N.N.B.B.m.m.m.i B.8 9 O.0 0 0 9 8 i } < : T 3 4 7 ] { ~ ) 5 ' , 6 > j ; ; $ $ $ $ $ ; > 6 ' 5 ! ~ { { ] w { { ~ ! 5 , 6 j $ # + . . + # $ j y.l.0.K.L.M.w w #+7 7 ]+( ( A.6+< B.O.`+f.>.-.=.*.&.U@&.&.=.a@h.x ,.0 } _ ^ ! , j #   @ k l l m m l l l l k k @   . + $ ; j y.J.l.0.K.M.#+]+T < m.O.c.,.x h.).*.W %.X $.#.#.@.` +.E ..F E.E.E.G E.E.E.E.E.........................",
"^ ^ / 4 _ 2 | | } i i i i } | 7+_ 4 / ^ { ~ ! ) ' , 6 > j ; $ # + .     @ @ @ k k l m m n n o o p p q r s s t+Z+Z+i@i@i@P#P#P#P#P#P#P#.$_&P#P#i@Z+s r q p o n m m m m m m l l l l l m m n n o o o o o o o o o o o o p q r s s s s s r r q q q p p o o n m m l l l l l l l l l l k @   . + $ ; > , 5 ) ~ ] ^ 4 3 3 _ _ _ _ _ _ 3 3 4 4 / / / / / / / / / 4 3 3 2 1 | } i 8 9 0 a a b b b b b b b b b b b b b a a 0 0 9 9 0 0 0 a a b b c c c F.b a @+p.O.O.O.O.O.O.O.9 N.U.S.u 1 :+3 4 / ^ #+w { ~ ! ! K.K.) ) ) ) ) ) ) ! ! ! ! ! ! ! ! ! ! ! ~ ~ { ] ] ^ / / 4 3 3 _ _ _ _ _ 3 3 3 4 J#/ r$^ s$] ] ^ / 4 3 2 1 | i 8 9 0 b c e f f f f f.,.,.1+W+,.,.,.,.,.,.,.,.,.F.F.F.c.c.9&@+O.O.N.B.B.B.B.B.B.N.9 0 @+0 0 9 i } | 1 T A.4 / #+{ ~ ! 5 ' , , 6 > j j = ; ; ; ; j > , ' 0.! { ] ] ^ ^ ] { ~ ! ) ' , > ; # + . . . + $ ; > , 0.L.M.w #+7 ]+Y%( A.T T : < [ B.O.F.f.>.-.=.U@%.X X X X W &.S ;.i.c 9 | 4 { 5 > $ . @ k l l m m m m m m m l k @   + # * j y., x.) L.w 7 A.< m.O.c.,.x h.a@*.W %.X $.#.@.@.+.+.....E.E.E.E.T.T.G E.E.E.E.........+.+.+.+.` @.@.@.",
"/ 4 4 3 2 1 | } } } } } } | 1 _ 3 / ^ { ~ ! ) ' , 6 > h@$ $ # + .   @ @ @ k k l l m n n o o p p q q r r s t+Z+Z+i@i@P#P#P#.$.$.$.$.$.$.$.$.$.$P#i@Z+t+r q p o o n n n n m m m m m m m n n o o p p p p p p p p p p p q q r s s s s r r r q q q p p p o n n m m m m m m m m m m l l k @   + # ; j 6 ' ) ! { ^ / 4 3 3 3 _ 3 3 3 4 4 / / ^ ^ ^ ^ ^ ^ ^ ^ / / 4 3 _ 2 | } i 8 9 0 a a b b b F.c c c c b b b b a a a 0 0 0 0 0 0 0 a a a b b b b a 0 9 8 B.i i i i i m.m.} u | 1 2 _ ( / ^ ] { M.L.K.V)5 5 x.x.x.5 5 5 0.) ) ) ! ! ! ! ! ! ! ! ! ~ ~ { { ] ^ ^ / 4 4 3 3 _ _ _ _ 3 3 3 4 J#/ ^ s$] .).)] ] ^ 4 3 2 1 } i 8 0 a b c e f g g g q.f.f.f.f.f.f.f.f.f.f.f.f.f.f.,.,.F.F.c.c.@+@+O.N.N.B.B.B.N.N.O.0 a 0 0 8 i } < : _ ( ]+^ ] ~ ! ) 5 ' , , 6 6 > > > > > > 6 6 , 5 ) ! { ] ^ ^ ^ ^ ] { ~ ! 5 ' 6 j $ # + . . + # ; g+J.5 ! w #+]+( A.A.T : < [ [ m.B.N.@+F.q.>.-.E@W X $.#.Z #.#.$.%.&.S y g b i T ^ ! , ; +   @ l l m m n n n n n m l k   + # ; g+J.' 0.L.w 7 ( : m.N.c.,.x h.-.=.&.%.X $.#.@.@.+.+.......E.E.E.E.T.T.E.E.E.E.E..... .+.+.@.@.#.#.Y $.$.",
"3 3 _ 2 1 | | } } } | | 1 2 _ 3 / ^ { ~ ! ) 5 , 6 > ; $ # + .     @ k k k k l l m n n o p p q q q r r s t+t+Z+Z+i@i@P#P#.$.$.$#&#&#&#&#&#&#&.$.$P#i@Z+t+s r q p p o o o n n n m m m n n o p p q q q q q q q q q q q q r r s s s r r r q q q p p p p o o n n m m m m m m m m m m l k k   . + $ j > , 5 ! ~ ] ^ / 4 4 4 4 4 4 4 / ^ ^ ] ] ] ] ] ] ] ] ] ^ / / 4 _ 2 | } i 8 9 0 a a b b c c c c c c c b b a a a a j+0 0 0 0 0 0 0 0 a a a a 0 9 8 i [ | < 1 1 1 1 1 : 2 :+_ A.z.]+^ ] { ~ ! ) 5 x.l., J., , l.' ' 5 5 ) ) ) ! ! ! ! ~ ~ ~ ~ ~ ~ ~ { { ] ^ / / 4 4 3 3 3 _ l$3 3 3 4 / / ^ ] ] { { { { ] ^ 4 _ 2 | } i 9 0 b c e f g g x x g q.q.q.q.q.q.q.q.q.q.q.q.q.q.f.f.,.,.F.F.c.@+@+O.N.N.N.N.N.O.0 @+a a 0 8 i } 1 2 A.4 / #+{ ~ ! 5 ' ' , , 6 6 6 , , , , ' ' 5 ) ! ~ { ] ^ ^ ^ ^ ] { ~ ! ) 5 , > ; $ # + . + + $ j 6 ' K.{ 7 ( A.T : < [ m.B.N.N.O.F%c.,.q.h.-.*.W X #.@.` +.+.` {;$.%.A z '.e 9 | 4 { 5 > # . @ k l m n n n n n n n m k   + $ j 6 l.0.! { #+( T [ N.c.,.x h.-.=.&.%.X $.#.@.@.+.+.......E.E.E.E.E.E.E.E.E.E.E.E.....+.@.{;#.$.X X %.%.%.",
"2 2 2 1 | | | | | 1 1 2 2 _ 3 / ^ { ~ ! ) 5 , 6 > ; $ # + .   @ @ k k l l l l m m n o p p q r r r r s s t+Z+Z+i@i@P#P#.$.$.$#&#&#&#&$&$&$&#&#&#&.$P#P#Z+t+s r r q q p p o o o n n n n o p q q q q q q q q q q q 5$r r r r r r r r q q q q p p p p p p o o n n n n n n n n n m m m l k @   + # ; j 6 ' 5 ! ~ ] ] ^ / / / / ^ ^ ] ] { { { { { { { { =%] ] ^ / 4 3 2 1 } i 8 9 0 a a b b c c c e d c c F.b a a 0 0 0 0 0 0 0 0 0 0 9 9 9 9 9 8 i } 1 2 _ _ 3 3 3 3 3 4 4 / / ^ ^ ] { ~ ! ) 5 ' , 6 y.> g+> y.6 , , ' 5 5 ) ) ! ! ! ! ~ ~ ~ ~ ~ ~ ~ { ] ] ^ / / 4 4 3 3 3 3 3 3 3 4 / / ^ ] .){ ^)~ ~ { { ^ 4 _ 2 | } 8 9 a b e f g g h h h h x x x x x x x x x x x x x x q.q.f.,.,.F.F.c.@+@+O.O.O.O.O.O.@+a a a 0 8 i | 1 T 3 4 7 ] { ~ ) 5 ' , , , , , , ' ' 5 5 ) ) ! ~ ~ { ] ^ ^ ^ ^ ] { ~ ! ) 5 ' 6 > ; # + + + + # ; > ' ) { 7 ( T < [ m.{@O.F%@+c.c.F.F.f.x h.).*.W X #.@.+.E ......+.@.R W V ;.q.a i _ ^ ) 6 ; +   k l m n n n o o o n m k   # ; > , 5 ! { #+]+T < B.@+,.x h.-.=.&.%.X $.#.@.@.+.+.........E.E.E.E.E.E.E.E.E.E.E.....+.@.#.$.X %.W &.*.*.E@",
"| | | | | | | | 1 2 2 _ 3 4 / ] { ! ) 5 ' , 6 > ; $ # + .   @ k k l l l l l l m n o o p q r r s s s s t+t+Z+Z+i@i@P#P#.$.$#&#&#&$&$&$&$&$&$&$&#&#&.$.$P#i@1&t+s s r r q q p p p o o o p q r r r r r r r r r r r r r r r r r r q q q q q p p p p p p p o o n n n n n n n n n n m m l l k @ . + # ; > 6 ' 5 ! ~ { { ] ] ] ] ] { ~ ~ ! ! ! ~ ~ ~ ~ { { { ] ^ / 4 3 2 1 } i 8 9 0 a a b b c c e e e e c c b a a 0 0 0 0 0 0 9 9 N.8 8 U.i i m.} | 2 p$4 / ])r$^ ^  )] ] P>{ { ~ I>! Q>#,@,n;6 > j ; ; j@j@; j > y>=&, ' 5 5 ) ) ! ! ! ! ~ ~ ~ ~ ~ ~ { { ] ^ ^ / 4 4 4 4 4 3 3 4 4 / / ^ ] { { ~ ~ ~ ~ ~ { ^ 4 _ 1 | i 8 0 a c e f g :#h h >.>.>.>.>.>.>.>.>.>.>.>.>.>.>.>.x q.q.f.,.,.F.F.c.@+@+O.O.O.O.@+a c.b a 0 9 i u 1 2 3 4 ^ ] { ~ ) 5 ' , , , , ' ' 5 ) ) ! ! ~ ~ { { ] ^ ^ ^ ^ ^ ] { ! ) 5 ' , 6 j ; # # + + # $ j , ) ~ ^ ( :+[ m.N.O.9&F.,.n+f.f.q.q.G+_@).e&%.X #.@.+.....E.E.E...+.#.=+&.z h c 8 1 / ~ , j #   @ l m n n n n o n n l @ . $ j 6 5 ! { ^ ,@A.< B.@+,.x h.-.=.&.%.X Y Z @.+.+.+.........E.E.E.E.E.E.E.E.E.E.E.....+.@.#.X %.&.*.=.-.X+;.;.",
"} } } } } | | 1 2 _ 3 4 / ^ ] ~ ! 5 ' , 6 > j ; $ + .     @ k k l l l l l l l m n o p q r r s s s s t+t+Z+Z+i@i@P#P#.$.$#&#&#&$&$&$&$&$&$&$&$&$&$&#&#&.$P#i@Z+Z+t+t+(&s 4$r r q q q q q r r r r r r r r r r r r r r r r r q q q q q q p p p p p p p p o o n n n n n n n n n n n m m l l k @ i$+ # ; j 6 , ' 5 ) ! ~ ~ ~ ~ ~ ! ) ) 5 5 ) ) ! ! ~ ~ ~ { ] ^ / 4 3 2 1 | i 8 9 0 a a b c c e e ].e e d c b a 0 0 0 9 9 9 N.8 B.i m.} | | 1 1 2 _ 4 r$] .)&,^)~ I>I>w=w=w=#,#,5 @,3;3;=&y>d>q;r;A&# u&u&$#A&$ q;d>y>q%, ' 5 5 ) ) ! ! ! ! ! ! ! ! ~ ~ { { ] ^ / / / J#4 4 4 4 4 / / ^ ] { { ~ ! ! ! ! ~ { ^ 4 _ 1 } i 9 0 b c f g g h h >.'.'.h.h.h.h.h.h.h.h.h.h.h.h.h.>.>.x q.q.f.,.,.F.F.c.c.@+@+@+@+a c.b b b 0 9 i } 1 2 3 4 / ] { ~ ! 5 ' ' , , ' ' 5 ) ! ! ~ ~ ~ { { ] ] ] ^ ^ ^ ] { ~ ! ) 5 ' , > j ; $ # # $ $ j 6 5 ~ ^ 4 2 [ B.O.c.F.f.q.x >.>.h.h.h.;.).*.%.$.#.@.+.....E.E.E.E.E...@.R W S '.e 0 | 3 { 5 > $ . @ k l m n n n n n m k   + ; 6 ' 5+{ ^ 4 T < m.O.F.q.h.-.=.&.%.X #.@.+.+.........E.E.E.E.E.E.E.E.E.E.E.E.E.....+.@.$.X W *.).-.h.>.u+q.w+",
"i i i i } | 1 2 _ 4 / ^ ] { ! ) ' , 6 > j ; $ # + .   @ k k l l l l l l l l l m n o p q r s s s t+t+t+t+Z+Z+i@i@P#P#.$.$#&#&$&$&$&-&-&-&-&-&-&$&$&$&$&#&.$P#P#i@i@i@Z+Z+t+t+s s r r r r r s s s s s s s s s s s s s r r q q q q p p p p p p p p p p p o o n n n n n n n n n n n n m m l l k @   + # $ j > 6 , ' 5 ) ) ) ) 5 5 ' ' , , ' 5 5 ) ! ! ~ { ] ^ / 4 l$2 1 }&i 8 9 0 a b b c e e f f f ].e d j.c.s.0 9 9 8 B.i } [ | < : 2 _ A.3 4 ])] ^)T$Q>#,p'@,@,W)3;o'=&=&`>y>y>n'd>T>z>K>|>b;,&r&r&r&,&b;|>4;]>j y>=&, ' E+5 5 ) ) ! ! ! ) ) ! ! ! ~ { ] ] ^ / / / / / / / / / ^ ] ] { ~ ! ! ) ) ! ! { ++4 _ 1 } 8 9 a b e f g h h h '.'.h.h.h.h.h.h.h.h.h.h.h.h.h.h.h.>.x x q.f.f.,.,.F.F.c.c.c.c.c.c.b F.c b a 9 8 } | 2 _ 6>/ ^ ] ~ ! ) 5 ' ' ' ' ' 5 ) ! ~ ~ { { { { =%] ] ] ] ] { ~ ! ) 5 ' , 6 > j ; $ $ $ ; j 6 ' ! ] 4 2 [ U.@+F.d q.b+h.;.-.D@).).).=.&.%.>@#.@.+.+...E.E.E.}+E.E...P D.%.V y f a S._ ] ) 6 ; +   k l m m m m m l k w#+ $ > ' ) { ^ z.:+;+S.O.F.q.h.-.~;&.%.^+(+@.+.E ....E.E.E.E.E.E.E.E.E.E.E.E.}+E.E.a#..+.@.$.%.->=.-.h.x I+,.g@c.@+",
"8 8 i } | 1 2 3 4 ^ ] { ~ ) 5 ' 6 > j ; $ # + .   @ @ k l l l m m m m l l l l m n o p q r s t+t+t+t+t+Z+Z+i@i@P#P#.$.$#&#&$&$&$&-&-&-&-&-&-&-&-&-&-&$&$&#&#&.$.$P#P#P#i@i@Z+Z+t+t+s s s s s s s s s s s s s s s s s r r q q p p p p p p p p p p p p p o o n n n n n n n n n n n n n n m m l k @   . + $ ; j > 6 , , ' ' ' , , 6 6 6 6 6 , ' 5 ) ! ~ { ] ^ / 3 _ 2 1 } i 8 9 0 a b c c e f f q.q.f ].d j.r.a 0 9 8 i } [ < : 2 _ 3 4 4 / ^ ] ^)! l*J>Z>=&`>Y>X>X>U>U>R>V>V>z>W>W>N>A>G>B>w>H>n&D>D>D>H>w>B>L>4;]>d>y>6 , ' ' ' 5 5 ) ) ) ) 0.) ) ) ! ~ { ] ^ ^ ^ ^ ^ ^ ^ ^ ^ ^ ] { { ~ ! ) ) ) ) ) ! { ++4 _ | } 8 0 a c ].g h h '.'.'.h.h.y ;.;.;.;.;.;.;.;.;.;.;.;.h.h.>.x x q.f.f.,.,.F.F.F.F.F.F.F.F.c c c a 0 8 i | 1 _ 3 4 / ] { ~ ! ) 5 ' ' ' 5 ) ! ~ ~ { { { { { { { { a.] { { ~ ! ) 5 ' , 6 > j ; ; ; ; j 6 ' ) { ]+T | U.@+j.].x h.;.).=.*.e&&.&.&.W %.X #.@.+.+.....E.E.G T.T.E.F +.#.9.w.U g b U.2 ^ ! , ; # . @ k l m m l l k   + $ > , ) i#^ z.2 [ B.O.F.f.>.-.*.W %.^+#.@.+...F E.E.E.T.T.T.T.T.E.E.E.E.E.E.E.E.a#..+.@.$.%.&.=.-.v+q.,.c.O.N.B.B.",
"i i } | 1 _ 3 / ^ { ! ) 5 ' 6 > j $ # # + . .   @ k l l m m m m m m m l l l l m n o %&r s s t+t+t+t+Z+Z+i@i@P#P#.$.$#&#&$&$&$&$&-&-&-&-&-&-&-&-&-&-&-&$&$&#&#&#&#&.$.$P#P#i@i@Z+Z+Z+t+t+s s s s s s s s s s s s s s s r q q p p p p p p p p p p p p p o o o o X)X)X)n n n n n n n n n n n m m l k   . + + # $ ; j > j#6 6 > > > j j j > 6 , ' 5 ! ~ { ] ^ 4 3 _ 2 | } i 8 0 a a b c e f f g g g t.f e c b a 0 8 i } | 1 2 _ 3 4 / ^ ] { ~ ! l*J>=&n'T>S>V>m'W>Y)M>Z)x'L>L>X'X'F>m)m)O>l'a'h'`)w)`)h'a'l'O>F>L>4;; j > 6 6 , , ' ' 5 5 5 5 ' 5 5 ) ) ! ~ { ] ] ] ] ] ] ] ] ] ] { ~ ~ ! ) ) 5 5 ) ) ! { ^ 4 2 | i 9 0 b e f g h '.'.'.h.y y ;.;.;.;.;.;.;.;.;.;.;.;.;.h.h.>.>.x x q.q.f.f.,.,.F.F.F.F.c ,.e e c b a 9 i } 1 2 _ 4 / ^ ] { L.) ) 5 5 5 5 ) ! ~ { { { { { { { { { { { { { ~ ! ) 5 ' , 6 6 > j ; j j 6 , 5 ~ ^ A.;+i 0 j.].i.~.-.=.*.W %.%.X X X X $.#.@.+.+.......E.E.T.T.T.T.E.+.o.X &.!.i.c N.1 / ! , j # . @ k l l l k @   + $ j , ) M.^ z.2 u U.F%F.f.>.-.E@W X $.Z `  ...E.E.T.T.T.T.T.T.T.T.T.E.E.E.E.E.a#a#0#+.@.$.*,->=.-.>.q.F.@+N.m.< : : ",
"| 1 1 2 3 4 ^ ] ~ ) 5 , 6 > ; $ # + .     @ @ k l l m m m n n n m m m l l k l m n o q r s t+t+Z+Z+Z+Z+i@i@P#P#.$.$#&#&$&$&$&$&-&-&-&-&-&-&-&-&-&-&-&-&-&$&$&$&$&#&#&#&.$.$P#P#i@i@Z+Z+t+t+s s s s s s s s s s s s s s r q p p p p p p p p p p p p p p p  ! !o o o o o o o o o o o o o o o n n m l k @     . + # $ ; ; h@j h@; ; ; ; ; j > , ' 5 ! ~ { ^ / 4 3 2 1 | S.8 9 0 a b c e e f g g i.i.g t.].d j.a 0 8 } | 2 _ 3 4 / #+w ~ ! ) 5 ' =&n'S>Y'.!x'x'O'X'+!@!O>O>z'z'#!l'l'!)a'j)))8)C'$!C'C'i'h'a'l'E>F>|>4;; j - > > 6 , , , ' , , , , ' ' 5 ) ! ~ { { { { { { { { { ~ ~ ! ) ) 5 5 5 5 5 ) ! { ^ ( 2 | i 9 a c e g h '.'.y y y y ;.;.;.;.;.;.;.;.;.;.;.;.;.;.;.h.h.>.>.x x q.q.f.f.,.,.,.,.,.,.e f.e e c a 9 8 } | 2 _ 3 4 / ^ ] { ~ ! ) 5 5 5 ) ! ~ ~ { ~ ~ ~ ~ { { { { ] ] { { ~ ! ) 5 ' , , 6 > > > 6 , 5 ! ] 4 2 } 9 r.f.i.~.!.=.&.W X $.#.#.#.#.Z @.@.+.+.+.......E.E.T.T.T.T.E.E o.k..+z {.,.9 ;+4 ~ ' > $ +   @ k k k @   + $ > , ) i#^ 3 : u N.s.j.w+>.X+=.W X Y Z `  .F@E.T.T.-+-+-+-+-+-+-+T.T.T.E.E.a#..E +.@.<;$.*,->E@-.v+q.F.F%B.[ : A.( ( ",
"_ 3 3 4 ^ ] ~ ! 5 , 6 j ; $ # .   @ k k k k l l m m n n n n n n n m m l l k l m n o q r s t+Z+Z+Z+i@i@P#P#.$.$#&#&$&$&$&$&-&-&-&-&-&-&-&-&-&-&-&-&-&-&-&-&$&$&$&$&#&#&#&.$.$P#P#P#i@i@Z+t+t+s s s s s s s s s s s s s r q p p p p p p p p p p p p p p p p p p p p p p p p p p p p p p p o o o n m l l k k @   . + + # $ $ $ $ $ $ $ ; j > 6 , 5 ! ~ ] ^ / 3 _ 2 ;+} i 8 p.s.b c c e f g g h h h i.g f e c b 0 8 } 1 _ 3 ]+^ ] M.! ) 5 3;6 > R>K>x'X'@!a)P'z'W'!)R'j)%!%!%!%!%!))-)S'<)T'[)[)[)[)T'A'S'h'a'x>E>b;|>4;$ ; = j j > 6 6 6 6 6 6 6 , , ' 5 ) ! ~ ~ ~ ~ ~ ! ! ! ! ! ) ) 5 5 5 ' 5 5 5 ) ! { ^ 3 1 } 8 0 b c f h '.y y y y y ;.;.;.;.;.;.;.;.;.;.;.;.;.;.;.;.h.h.>.>.>.x x x q.q.f.f.f.e e e f f f e c b 0 8 i | 1 2 _ 3 4 / ^ ] { ~ ! ) ) ) ) ! ~ ~ ~ ~ ~ ~ ~ ~ { { ] ] ] ] ] { ~ ! ! ) 5 ' , , 6 6 , E+) ~ ^ 3 | 8 s.,.t.h.-.=.&.W X Y @.` +.+.+.+.+.+.+.+.+.......E.E.T.T.T.T.E.E @.R Q.%+'.e p.| 4 { x.> $ +   @ @ @ @   + $ > , ) { 7 3 7+} V.s.c q.>.:@=.&.X (+@.+...F m+T.H -+-+<+<+<+<+-+-+C.T.T.E.E...+.c+@.#.$.*,->E@D@h.q.F.@+B.< T ( 7 #+#+",
"^ ^ ] { ~ ! 5 ' 6 j ; # + .   @ k l m m m m m n n n n n o o n n n m m l l ,#l m n o q r s t+Z+i@i@i@P#P#.$.$#&#&$&$&-&-&-&-&-&-&-&-&-&-&-&-&-&-&-&-&-&-&-&-&&&$&$&$&#&#&.$.$.$P#P#P#i@Z+t+t+s s s s s s s s s s s s s r q p p p p p p p p p p p p p p &!&!&!q q q q q q q q q q q q p p p p o o n m m m l l k @   . . + + # # # # $ $ ; j 6 , 5 ! { ] / 4 3 _ 1 | S.U.9 0 a b c e f g g h h h h h h g f e b 0 8 | 2 3 ,@^ ] ~ ! 5 ' , > j ]>M>X'm)W'!)*)*)R'=)))S'<)A'A'A'T'')')')[);)g)})>)>)});)')8)))R'l'O>,&b;+ # $ $ $ ; = j j > > > > > 6 6 , ' 5 ) ! ! ! ! ! ) ) ) ) 5 5 ' ' ' ' ' ' 5 5 ) ! { b.3 1 } 9 s.b e g h h.y U U U U ;.;.;.;.;.;.;.;.;.;.;.;.;.;.;.;.;.h.h.h.>.>.>.x x q.q.f f.f.f f f f f f c b 0 9 i } | 2 _ _ 3 4 / ^ ] { ~ ! K.) ! ! ~ ~ ~ ~ ~ ~ ~ ~ { ] ] ^ ^ ^ ^ ] ] { ~ ! ! ) 5 ' ' ' 5 ) ~ ] / 2 } 9 b f.x ;.).*.W %.$.@.+.....F@F ......+.+.+.......E.E.T.T.T.T.E.E o.R Q.S '.e 0 | ( { 5 > $ +   @ @ @   + $ > l.) { / 3 1 } 9 a c q.{.-.=.&.%.$.@.+...E.m+T.-+-+<+<+<+<+<+<+-+-+H T.T.E...+.@.#.$.X _+->E@D@h.x ,.@+B.[ T ( 7 w M.L.",
"! ! K.) 5 , 6 > ; $ + .   @ k l m n n n n n n n n n o o o n n n m m m l l l l m n o q r s t+Z+i@i@P#P#.$.$#&#&$&$&-&-&-&-&-&-&-&-&-&-&-&-&-&-&-&-&-&-&-&-&-&$&$&$&$&#&#&.$.$.$P#P#P#i@Z+t+s s s s s s s s s s s s s r r q p p p p p p p p p p p p p p &!q O;O;O;q q q q q q q q q q q p p p o o n n n m m m l k @ @   . . + + + # # $ ; > 6 ' 5 ! { ^ / 4 3 2 1 u i 8 p.s.b c e f q.g h h '.'.'.'.h g f e b 0 8 | 2 3 / ] { ! ) ' , > j f&|>b;w>l'R'=)%!-)-)8)<)')[););););)U'g)})})>)|)|)1)|)>)U'')<)S'h'a'l'5>,&. + + # # $ $ ; ; ; ; ; j j > > 6 , ' 5 ) ) ) ) ) ) 5 5 5 ' ' , , , , , ' ' 5 ) ! { b.3 1 i 9 a c f.g '.y U U U U U U ;.;.;.;.;.;.;.;.;.;.;.;.;.;.;.;.h.h.h.h.>.>.>.x x q.q.q.f f f q.g g f e b a 9 8 } | 1 2 _ _ 3 4 / 7 #+{ ~ ! ! ! ~ ~ ~ ~ ~ ~ ~ i#{ ] ] ^ / / 4 / / ^ ^ ] { { ~ ! ) ) ) ) ! { ^ 4 2 i O.b ].>.;.).*.W X D.@. ...E.E.E.E.E... .+.+.......E.E.T.T.T.E.E. .o.R Q.%+'.e 0 | ( { 5 > $ +         . # j , ) { ^ 3 1 } 9 a c f >.;.S &.%.$.{;+...E.E.T.T.-+-+<+<+<+<+<+<+-+-+T.T.E.F  .@.Y X %.U@e&=.D@_@x f.c.|+m.: A.7 w L.K.K.",
", , 6 6 > j ; $ + .   @ k l m n n o o o o o o o o n n n n n n m m m l l l l l m n o q r s t+Z+i@P#P#.$.$#&#&$&$&-&-&-&-&-&-&-&-&-&-&-&-&-&-&-&-&-&-&-&-&-&$&$&$&$&#&#&#&.$.$P#P#i@i@Z+Z+t+s s s s s s s s s s s s s r r q p p p p p p p p p p p p p p q q O;O;O;O;O;q q q q q q q q q p p p o o o n n n n m m l k @ @   . . + + # # $ j > , ' ) ~ ] ^ 4 3 _ 2 ;+} U.V.0 a b c e f g h h '.'.'.'.'.h h g e b 0 8 | 2 3 / ] { ! 5 , 6 j ]># b;,&H>a'%!-)S'<)A'T'V';)g)})})>)>)>)|)|)|)1)0)*!*!1),)g)[)A'S'h'a'D>H>5>  . . . + + # # # $ $ $ $ ; j > > 6 , ' 5 5 5 5 5 5 5 ' ' ' , , 6 6 6 6 , ' ' 5 ! { ^ 3 1 S.9 a c f g '.y U U U U U U ;.;.;.;.;.;.;.;.;.;.;.;.;.;.;.;.;.h.h.h.h.>.>.x x q.q.q.q.q.q.g g g f e c a 0 N.i [ < 1 2 _ _ 3 4 / ^ ] { ~ L.~ ~ ~ i#i#i#i#{ { ] ^ ^ / 4 3 3 3 3 4 ,@/ ^ ^ ] { ~ ~ L.~ { ] / 3 1 i 0 b f.h ;.).*.Q.=+Y @. .F E.G T.G E...E  . .....E.E.E.T.T.T.E.F +.Z =+A z h d 9 | 4 ~ ' > $ +       . # * > ' L.^ 4 2 } 8 a c f.x y z *.W X #.@.....E.E.T.T.-+-+<+<+<+<+<+=!-+T.G E.F E ` D.=+Q.*.=.).-.h.x f.F.@+B.[ T ( #+M.K.0.5 ",
"; ; $ $ # # + .   @ k l m n n o o p p p p o o o n n n n m m m m m m l l l l l m n t q r s t+Z+i@P#P#.$.$#&#&$&$&-&-&!&!&!&!&!&-&-&-&-&-&-&-&-&-&-&-&-&-&$&$&$&#&#&#&#&.$.$P#P#i@i@Z+Z+t+s s c%r r r r r r r r r r r r r q p p p p p p p p p p p p p p q q O;r r r r r r r r r q q q q p p o o o n n n n n m m l k k @     . + + # $ ; j 6 ' 5 ! { ] / 4 3 _ 2 | } U.9 0 r.c e f f g h >.'.'.'.'.'.'.h g e F.0 8 | 2 3 / ] { ! 5 , > ; $ + . 5>D>B)i'8)A'A'B'V'i)g)>)>),)|)1)1)1)0)0)-!;!;!-!1),)g)[)T'8)`)B)D>n&u>@       . . . + + + # # # $ ; j > 6 6 , ' ' ' ' ' ' ' l., , 6 6 > > > 6 6 , ' 5 ) ~ ^ 3 1 S.9 a c f g '.y U U U U U ;.;.y h.h.h.h.h.h.h.h.h.h.h.h.h.;.;.;.h.h.h.>.>.x x q.q.q.q.q.q.g g g f e c c.0 N.B.m.[ < 1 2 T _ 3 4 / #+w M.M.M.8@{ { { '#'#] ++^ / 4 3 _ :+2 2 _ _ _ 3 3 4 / ^ ] ] { { ] ^ / 3 1 i 9 b e x h.-.=.&.B R Z +...E.G G G E.F@E  .......E.E.T.T.T.G E...P D.=+A U h c 9 1 4 ~ ' > $ +     ,&+ $ j 6 ) { / _ | 8 0 b e g >.U S A B ^+#.+...;,E.E.T.T.-+-+-+d.d.d.-+H T.m+F F@E P D.=+Q.V z U y {.x f.F.@+N.m.k$/+]+'#L.0.x.' ",
". . . .     @ k k l m n n o o p p p p p p p o o n n m m m m l l l l l l l l m m n o q r s t+Z+i@P#P#.$#&#&$&$&-&-&-&!&!&!&!&!&-&-&-&-&-&-&-&-&-&-&-&-&$&$&$&#&#&#&.$.$.$P#P#i@i@Z+Z+t+t+s r r r r r r r r r r r r r r q q p p p p p p p p p p p p p p q q r r r r r r r r r r r q q q p o o n n n n n n m m m l l k @ @   . + + # $ j > , ' ) ~ { ^ / 4 3 _ 1 | } 8 9 s.b c e f g g h '.'.'.y y '.'.h g e b 0 8 | 2 3 / ] { ! 5 6 j ; # +   @ s>h'i'C'A'B'B'i)i)>!>),!,!1)1)-!;!;!;!'!;!-!-!1),)g)[)T'8)i'h'B)s>k k @ @ @ @       . . . + + # $ ; j > 6 6 , , , , , , , , 6 6 6 > > > > > > 6 , ' ) ~ ++z.7+S.V.s.c f.g '.y U U U U U ;.y h.h.h.h.h.h.h.h.h.h.h.h.h.h.h.;.;.h.h.h.>.>.x x q.q.q.q.q.q.q.g g f e c c.@+O.8 m.} | < 1 2 _ A.( ]+7 #+w w w w ] ] ] ++^ b./ 4 3 _ 2 1 1 | | 1 1 1 2 2 _ _ 3 / ^ ^ ^ ^ / 4 _ 1 i 9 a ,.q.>.;.).V Q.=+Y @.+...E.E.E.F F@E  .....E.E.E.T.T.G }+F E ` C B V U g j.N.1 / ~ ' j $ + .   . # ; > ' ! ] 4 2 } 9 a ,.f h h.-.=.&.B R Z +...@#E.E.}+T.T.-+-+-+-+H H G F E  .P o.D.=+Q.S U ~.h g f e F.@+N.m.;+:+z.7 i#K.E+l., ",
"k k k k k k l l m n n o o p p p q q q q p p o o n m m m l l l l l l l l l l m m n o q r s t+Z+i@P#P#.$#&#&$&$&-&-&-&!&!&!&!&!&-&-&-&-&-&-&-&-&-&-&-&-&$&$&#&#&.$.$.$P#P#P#i@i@Z+Z+t+t+s s r r r r r r r r r r r r r q q q p p p p p p p p p p p p p p q q r r r r r r r r r r r q q q p o o n n n n n m m m l l l k k @   . . + $ ; j 6 ' 5 ! ~ ] ^ / 4 3 _ 1 | S.8 9 a b c e f g g h h '.'.y y '.'.h f e b 0 8 | 2 3 / ^ { ! ' 6 j $ & .   n&m&w)A)C'x)B'y)i))!>!!!,!~!-!-!;!{!{!{!{!{!]!-!^!!!g)[)T'C'i'w)J$B)m&s>k k k k @ @ @ @     . . + # $ ; j j > 6 6 6 6 6 6 6 6 6 > > j j j j j j > 6 , 5 ! ] 4 2 u 8 0 b e g h '.y U U ;.;.y h.h.h.h.h.h.h.h.h.h.h.h.h.h.h.h.h.h.h.h.>.>.x x q.q.q.q.q.q.q.q.q.q.f e c c.@+O.N.B.m.[ | < 1 2 _ A.( ]+7 7 #+^ ^ ^ b./ ,@,@z.3 _ 2 1 | } } i i } } } | | 1 1 _ 3 4 / / / / ( _ 1 i 9 a c ].x h.U S A B X #.` E a#F F F k* . ...F@E.E.G T.T.G E.F E o.R B V ;.g b 8 1 / ~ ' > $ + . . + $ j 6 5 ~ ^ 3 1 i 0 b f.g '.;.).V Q.=+Y o.+...E.E.E.G T.T.H H H H G G F@ .` Z Y ^+%..+S U '.g f e F.a O.8 m.< T z.b.'#! 5 , 6 6 ",
"m m m m m m m n n o o o p p p q q q q q p p o o n m m l l l l k k k k k l l m m n o p q s t+Z+i@i@P#.$#&#&#&$&$&-&-&-&-&-&-&-&-&-&$&$&$&$&$&$&$&-&-&$&$&#&#&.$.$.$P#P#P#i@i@Z+Z+t+t+s s r r q q q q q q q q q q q q q q p p p p p p p p p p p p p p p q q q r r r r r r r r O;q q q q p o o n n n n m m m l l l k k k @     . # $ ; > , ' ) ! { ] ^ / 4 3 2 1 | } 8 9 a b c e f f g h h '.'.'.'.'.h g f d b 0 8 } 2 3 4 ^ { ! ' 6 j $ +   @ k l =;K)/!z)x)(!y))!Y;!!~!^!-!_!]!{!:!<!<!:!]!_!^!!!)!y)B'x)/!S;K)=;=;l l l l l l k k k k @ W@  . + # $ $ ; j j > > > > > > > > j j ; ; ; ; ; ; j > , ' ) { / _ | U.p.r.c f h '.y y y y y h.h.h.h.h.h.h.h.h.h.h.h.h.h.h.h.h.h.h.h.h.>.x x q.q.q.f.f.f.f.f.f.].f f.,.F.c.@+O.N.B.i m.[ | 1 : T A.A.( ( ]+]+,@4 ( 3 3 /+T 2 7+;+| } i 8 9 9 9 8 8 i i i } | 1 _ 3 4 4 4 4 3 2 | i 9 a F.f.g >.y z V &.%.R Z P E E F F@E E E ..F E.G G T.G G F E P Q R Q.V ;.g j.9 1 4 ~ 5 6 ; # + + # ; > , 5 ~ ^ 3 1 i 0 c f h h.-.=.A B =+D.` E F E.G G T.T.T.H H T.G F E P Z R =+B Q.*.S ;.h f e b a 0 8 m.| : A.,@^ { ! 5 , > j j ",
"n n n n n n o o o o p p p p p q q q q q p p o o n m m l l l k k k k k k k l m m n o p q r s t+Z+i@P#.$.$#&#&$&$&$&-&-&-&-&-&-&$&$&$&$&$&$&$&$&$&$&$&$&$&#&#&.$.$P#P#i@i@i@Z+Z+t+t+t+s r r q q q q q q q q q q q q q q p p p p p p p p p p p p p p p p %&q q q q q q q q q q q q q q q p o o n n n m m m l l l k k k k @ @   . # $ j 6 , 5 ) ~ { ] ^ / 4 3 2 1 | } 8 9 0 R@c e e f f g h h '.'.'.'.h g ].c a p.8 } 1 _ 4 ^ { ! ' 6 = # +   @ s>l =;K)S;P.P;j;y)[!Y;R;}!^!5@_!|!|!<!C;C;1!|!]!5@}!R;Q;y)j;P;P.n S;m m m m m m m l l l l k k @   . + + # $ $ ; ; h@j j j j j j ; ; $ $ $ $ $ $ ; j 6 , ) ~ ^ 3 1 S.9 a c e g h '.'.h.h.h.h.h.>.>.>.>.>.>.>.>.>.>.>.>.>.>.h.h.h.>.>.>.x q.q.f.f.f.,.,.,.,.e f.f.e ,.F.c.@+@+O.N.B.m.} [ < 7+: T T T A.A.T T T 2 : 1 < | u S.i 8 9 0 0 a a a 0 0 9 9 8 i } | 2 _ 3 3 4 3 (@2 | i 9 @+b ,.f x '.y z V Q.=+$.o.P E E E E  .E E F E.G G G G }+F E D D.=+Q.V g.g c 9 | 4 { 0., j $ # # $ j 6 ' ) ~ ^ 4 2 i 0 c f >.;.z V Q.B R Z P ..E.G G T.T.T.T.T.G G F E P D.=+9$A V S U h.x f.c a 0 8 i | 7+_ 4 7 ] ~ 5+5 $+> ; $ $ ",
"o o o o o o o o o p p p p p p q q q q q p o o n n m m l l k k k k k k k k l l m n o p q r s t+Z+i@2!P#.$.$#&#&#&$&$&$&$&$&$&$&$&$&#&#&#&#&#&#&$&$&$&$&#&#&.$.$P#P#i@i@3!Z+Z+t+t+t+s s r q q p p p p p p p p p p p p p p p p p p p p p p p p p p p p p %&q q q q q q q q q q q q q q q p p o o n n m m m l l k k k k k @ @   . # ; j 6 ' 5 ! ~ { ] ^ / 4 3 T 1 | } i 9 0 a b c e f f g g h '.'.'.h g f e c a 9 i } 1 _ 4 ^ { ! ' 6 ; # .   k l l m m K)n P.o t [!q R;}!s 5@U;|!1!Z+C;C;Z+1!t+5@T;r q [!p j;o P.n n n n n [#m m m m m m l l k @     . + + # # $ $ $ $ ; ; j@$ $ $ # # # # # $ $ j > , 5 ~ ^ 3 2 } 8 0 b e f g h '.'.>.>.>.>.>.>.>.>.>.>.>.>.>.>.>.>.>.>.>.>.>.>.>.x x q.q.f.f.,.,.,.,.,.,.,.,.,.,.F.c.c.@+O.N.B.B.m.[ [ < : : : : : < < < [ [ m.m.i 8 V.9 0 a a b c c c c b a a 0 9 8 i } 1 _ _ 3 3 3 _ 2 | i N.0 c.F.e f g '.y z V Q.=+R Q o.P P P P P E F F G G G G F E P o.R B Q.S y g F.9 | 3 ] ) l.> ; $ $ ; > 6 ' ) ~ ] 4 2 } 0 c f '.U S A Q.=+R o.*+F G G G T.T.G G G F F E D D.=+Q.V z U '.h f c a 0 8 i | 1 _ 4 / ] M.! 5 ' 6 j * # + + ",
"p p p p p p p p p p o o o o p p p q p p o o n n m m ^@l l k k k @ @ @ k k l l m n o p p q r s t+Z+i@i@P#.$.$.$#&#&#&#&$&$&$&#&#&#&#&#&#&#&#&#&#&#&#&#&#&.$.$P#P#4!i@i@Z+Z%t+t+s s s r r q p p p p p p p p p p p p p p p p p p p p p p p p p p p p p p q q q q r r r r r r r q q q q q q p p o o n n m m l l k k k k k @ @   . # ; > 6 ' ) ! ~ { ] ^ / 4 3 _ 1 | } i 9 0 a b c e e f f g h h '.h h g f e b a 9 i } 1 _ 4 ^ { K.' 6 ; # . @ k l l m m m n n o j;p q r r s s t+t+Z+Z+i@i@Z+Z+t+t+s r q q p p o o o P;n n n n n n n n n n m m l k k @     . . + + # # # # # # # # + + . . + + # $ ; - 6 x.! ] 4 2 | 8 0 b c f g h >.>.>.>.>.>.>.>.>.>.>.>.>.>.>.>.>.>.>.>.>.>.>.>.x x q.q.f.f.,.,.,.F.F.F.F.,.,.,.F.F.c.c.@+O.N.N.B.m.m.[ [ ;+< < [ [ m.m.B.B.N.N.O.O.0 a b b c e e f f f ].e c b a s.9 8 } 1 2 _ 3 3 3 3 2 < m.B.9 0 a b c f g >.y z V Q.B R D.D.o.o.o.D P E 0&F F F F E P o.D.=+Q.A z '.f b 8 1 4 ] ! ' 6 j ; ; j > , ' ) ~ ] / _ } 9 j.f '.U 4+A B =+D.o.E F G G G G G G F F E P o.R %.A S U '.g e c a 9 8 } ;+2 _ 4 / ] { ! 0.' , > j $ + .     ",
"q q q q p p p p o o o o o o o o o o o o n n 5!m m ^@l l ,#k k k @ @ @ k k l l m n o o p q r s s t+Z+Z+i@i@P#P#.$.$.$#&#&#&#&#&#&#&.$.$.$.$.$.$#&#&#&#&.$.$P#P#P#i@i@Z+Z+t+t+s s r r r q q p p p p p p p p p p p p p p p p p p p p p p p p p p p p p q q q r r r r r r r r r r r r r q q q p o o n n m m l l l l k k k k @   . # ; > 6 ' ) ! ~ ] ^ ^ / 4 3 _ 1 | } i 9 0 a b c e e f f g h h '.h h g f e b a 9 i } 1 _ 4 ^ { K.' 6 ; # . @ k l l m m m n n o o p q r r s s t+t+Z+Z+i@i@Z+Z+t+t+s r q q p p p o o o o o o o o o o o o o n n m m l k k @ @     . . + + + + + . . .       . . + # * j 6 ' ! ] 4 2 | i 0 c.c f g h h >.>.>.>.>.>.>.>.>.>.>.>.>.>.>.>.>.>.>.>.>.>.>.x x q.q.f.f.,.,.,.F.F.F.F.,.,.,.F.F.c.c.@+O.N.N.B.B.m.m.m.m.m.m.B.B.N.2@O.F%@+a c.b F.c ,.e f g g h h h g q.f e c b 0 9 i | 2 _ 3 4 4 3 _ : | m.B.8 9 0 a b e f h y z V A 9$=+=+R R D.D.o.P *+E E E E P o.D.R B A S U h e 0 i 2 4 { K.' 6 > j j j > 6 , 5 ! { / _ | 9 b f '.z V Q.=+R Q P E F G G G G F F E *+D D.R B A ).y h e b 0 N.i | 7+_ 3 / ^ ] ~ ! 5 ' 6 > j * # +   @ @ k ",
"q q q q q p p o o o n n n n n n n n n m m m ^@^@l l l ,#,#k k k @ @ @ k k l l m n o o p q q r s s t+t+Z+Z+i@i@P#P#P#.$.$.$.$.$.$.$.$.$.$.$.$.$.$.$.$.$.$P#P#P#i@i@Z+Z+t+t+s s r r q q q p p p p p p p p p p p p p p p p p p p p p p p p p p p p p q q q r s s s s s s s s s s s r r r r q p p o o n n m m l l l l l k k @   . # $ j 6 ' ) ! ~ ] ^ ^ / 4 3 _ 1 | } i 9 0 a b c e e f f g h h '.h h g f e b a 9 i } 1 _ 4 ^ { K.' 6 ; # . @ k l l m m m n n o o p q r r s s t+t+Z+Z+i@i@Z+Z+t+t+s r O;q &!p p p o o o o o o o o o o o o o o n n m m l l k k @ @     . .       @ @ @ @ @ @   . # $ j 6 ' ! ] 4 2 | 6!0 c.c f g h h >.>.>.>.>.>.>.>.>.>.>.>.>.>.>.>.>.>.>.>.>.>.>.x x q.q.f.f.,.,.,.F.F.F.F.,.,.,.F.F.c.c.@+O.N.N.N.B.B.B.B.B.N.N.O.O.@+c.c.F.F.,.,.,.e f.f g x h '.'.'.'.'.h g f e b a 9 i | 2 _ 4 4 / ,@( _ : < [ } i 8 9 0 b c f h y !.S V A Q.B B =+R C Q o.D D D o.o.D.R B Q.V z '.f b N.| _ / { ) ' 6 > j j j j > , ' ) { ^ A.| V.b f '.z V Q.=+R o.P E F F F F F E 7&5*Q R =+Q.V z ~.g ,.a 9 S.;+2 3 ,@^ ] { ! ) 5 ' 6 > = $ # + .   @ k l l ",
"r q q q q p o o n n m m m m l l l l l l l l l ,#,#,#,#,#k k k k @ @ @ k k l l m n o o p p q q r r s s s t+t+Z+Z+i@i@P#P#P#P#P#P#P#P#P#P#P#P#P#P#P#P#P#P#P#i@i@i@Z+Z+t+t+s s r r q q p p p p p p p p p p p p p p p p p p p p p p p p p p p p p p p q q r s s s t+t+t+t+t+t+t+s s s s r r r q q p p o n n m m m l l l k k @   . # $ j 6 ' 5 ! ~ ] ^ ^ / 4 3 _ 1 | } i 9 0 a b c e e f f g h h '.h h g f e b a 9 i } 1 _ 4 ^ { K.' 6 ; # . @ k l l m m m n n o o p q r r s s t+t+Z+Z+i@i@Z+Z+t+t+s r q q q p p p p p p p p p p p p p p p p p o o o n n m m l l k k @ @ @ @ @ k k l l l l k @ . + $ = y.' ! ] 4 2 | 8 0 b c f g h h >.>.>.>.>.>.>.>.>.>.>.>.>.>.>.>.>.>.>.>.>.>.>.x x q.q.f.f.,.,.,.F.F.F.F.,.,.,.F.F.c.c.@+O.N.N.N.N.N.N.N.O.O.@+c.c.F.,.,.f.f.f.q.q.q.q.x h '.'.y y U y y '.h g f c a 9 i | 2 3 4 / ^ ^ / 3 _ 2 1 1 | } i 8 9 a c f h '.U z S V A Q.Q.B =+R.C C D.D.C R =+B Q.V z y g c 0 } 2 4 ] ~ 5 ' 6 > j j j j > 6 ' ) ~ ^ 3 1 8 a e >.U V Q.=+R o.P E E E E E P o.D.R =+Q.A S U '.t.c 0 8 u 2 3 / ^ { ~ ) 5 ' , 6 > ; $ # + .   @ k l m m m ",
"q q q p p o o n m l l k k k k k k @ @ @ @ k k k k ,#,#k k k k k @ @ @ k k l l m n o o p p q q q q q r r s s t+t+Z+Z+i@i@i@i@P#P#P#P#P#P#P#P#P#P#P#P#P#i@i@i@Z+Z+Z+t+t+s s r r q q p p p p p p p p p p p p p p p p p p p p p p p p p p p p p p p q q q r s t+t+t+t+t+t+t+t+t+t+t+t+s s s r r q q p p o o n n m m m l l k @   . + $ j 6 ' 5 ! ~ ] ^ ^ / 4 3 T 1 | } i 9 0 a b c e e f f g h h '.h h g f e b a 9 i } 1 _ 4 ^ { K.' 6 ; # . @ k l l m m m n n o o p q r r s s t+t+Z+Z+i@i@Z+Z+t+t+s r q q q p p p p p p p p p p p p p p p p p p p p o o n n m m l l k k k k l l m m m m m l k   9+# = y.' 5+] 4 2 | 8 0 b c f g h h >.>.>.>.>.>.>.>.>.>.>.>.>.>.>.>.>.>.>.>.>.>.>.x x q.q.f.f.,.,.,.F.F.F.F.,.,.,.F.F.c.c.@+O.N.N.N.N.N.N.O.@+c.c.F.,.,.f.q.q.q.x x x x x h '.'.y y U U U U y '.h f e b 0 i | 2 3 4 ^ ^ ^ ^ / 3 3 _ _ 2 1 | } i 9 a c f g '.y U z S V V A Q.B !*=+=+=+=+B Q.A V z y x e a i 1 4 ^ ~ ) ' , 6 > > j j j > 6 , 5 ~ ] 4 : i 0 c g y S A B R D.o.D P P D o.D.R %.Q.*.S -.y h f F.0 8 | 2 3 / ] ~ ) 5 ' , 6 > j $ # + .   @ k k l m m n n ",
"p p p 7!o n m m l k @ @                     @ @ O#O#k k k k k k @ @ @ k k l l m n o o p p p p p p q q q r r s s s t+t+Z+Z+i@i@i@i@i@i@i@i@i@i@i@i@i@i@i@i@Z+Z+Z+t+t+s s r r q q p p p p p p p p p p p p p p p p p p p p p p p p p p p p p p p p q q r r s t+t+t+t+t+t+t+t+t+t+t+t+t+s s s r r q q p p o o n n m m m l k @   . + $ j 6 ' 5 ! ~ ] ^ ^ / 4 3 2 1 | } i 9 0 a b c e e f q.g h '.'.h h g f e b a 9 i } 1 _ 4 ^ { ! ' 6 ; # . @ k l l m m m n n o o p q r r s s t+t+Z+Z+i@i@Z+Z+t+t+s r q q q q p p q q q q q q q q q q q q q q q q q q p p o o n n m m l l m m n n o o o n m l @ . # ; y.' ! ] 4 2 | 8 0 b c f g h h >.>.>.>.>.>.>.>.>.>.>.>.>.>.>.>.>.>.>.>.>.>.>.x x q.q.f.f.,.,.W+F.F.F.F.,.,.,.F.F.c.c.@+O.N.N.N.N.N.O.@+@+c.F.,.,.f.q.q.x x x x x h h >.'.h.y U U U U U y '.h f e b 0 U.| 2 3 / ^ ] ] ] ^ / 4 4 3 3 _ 2 1 | i 9 a c e g h '.y U z S S V A 8!Q.Q.Q.Q.A V S z y x e a 8 1 ( ] ~ )+' 6 > > > > > > > > 6 , 5 ! ] / _ } 9 b f '.U V Q.B R.R D.D.D.R =+B Q.V ).U '.h f ,.c.O.i | 2 3 / ] ~ ) ' , > j ; j@$ # + .   @ k l l m m n n n ",
"o o o n n m l k @   . . + + + + + + . . . .     @ @ O#k k k k k @ @ @ k k l l m n o o o p p p p p p p p q q r r r s s t+t+Z+Z+Z+i@i@i@i@i@i@i@i@i@i@i@Z+Z+Z+Z+t+t+s s r O;q q p p p o p p p p p p p p p p p p p p p p p p p p p p p p p p p p p q q r r s t+Z+Z+Z+Z+Z+Z+Z+Z+Z+Z+t+t+t+t+s s r r q q p p o o n n m m l k @   . + $ j 6 ' 5 ! ~ ] ^ ^ / 4 3 2 1 | } i 9 0 a b c e e f f g h '.'.h h g f e b a 9 i } 1 _ 4 ^ { ! ' 6 ; # . @ k l l m m m n n o o p q r r s s t+t+Z+Z+i@i@Z+Z+t+t+s r q q q q q q q q q q q q q q q q q q r r r r r r q q q p o o n n n n n o o p p p p o n =;k   + * > ' ! ] 4 2 | 8 0 b c f g h h '.'.>.>.>.>.>.>.>.>.>.>.>.>.>.>.>.>.>.>.>.>.>.x x q.q.f.f.,.,.,.F.F.F.F.,.,.,.F.F.c.c.@+O.N.N.N.N.O.O.@+c.F.,.,.f.f.q.x x x >.>.h h h >.'.'.y y U U U U y '.h f e b 0 8 | 2 3 / ] { { { ] ^ / / / / 4 3 _ 2 | i 9 a b e f g h '.y U U z S s=V V V V S z U ~.g e a 8 | 3 ] ! 5 , > j j j j g+> > > 6 , ' 5 ! { b.3 1 i 0 c g h.z V A B B =+!*B W &.V ).g.'.g f.c c.0 N.m.< _ z./ ] ~ ) ' 6 > ; $ $ # + .     @ k k l m m n n n n ",
"n m m m l k @   . + # $ $ $ ; $ $ $ # # + + .     @ @ k k k k k @ @ @ k k l l m n n o o o o o o o o o o p p q q q r r s s t+t+Z+Z+Z+Z+Z+Z+Z+Z+Z+Z+Z+Z+Z+Z+t+t+s s r r q q q p p p o o o p p p p p p p p p p p p p p p p p p p p p p p p p p p p q q r r s t+Z+Z+Z+Z+Z+Z+Z+Z+Z+Z+Z+Z+t+t+t+s r r q q p p o o n n n m l l k   . & $ j 6 ' 5 ! ~ ] ^ ^ / 4 3 _ 7+| } i 8 0 a b c e e f f g h h h h h g f e b 0 9 i | 1 _ 4 ^ { ) ' > ; # . @ k l m m m m n n o p p q r r s s t+t+Z+Z+i@i@Z+Z+t+t+s r r q q q q q q q r r r r r r r r r r r r r r r r r r r q q p p o o o o p q q q q q p o m k W@+ $ > , ) w 4 :+| i 9 a c f g h h '.'.'.'.>.>.>.>.>.>.>.>.>.>.>.>.>.>.>.>.>.>.>.x x q.q.f.f.,.,.,.F.F.F.F.,.,.,.F.F.c.c.@+O.O.N.N.O.O.@+@+c.F.,.f.f.q.q.x x >.>.>.h h h h '.'.'.y y U U y '.h g f e b 0 i | _ 4 ^ { ~ ~ ~ { ] ] ] ] ] ^ / 4 3 2 | i 9 0 b c e f g g h '.y U U z z z -.U y '.g e a 8 | _ ^ ~ 5 6 > j ; ; ; j j > > 6 6 , ' )+! { ^ 3 2 } 9 c.e h y z S V A A V V S z ;.'.x e F.a O.8 m.| : A.4 ^ { ~ ) ' J.> ; $ # + . .   @ @ k k l l m m m n n n ",
"l l k k @ @   + # $ ; j > > > > j j ; $ # # + .   @ @ k k k k k k @ @ k k l l m m n n n n n n n n n n o o p p p q q r r s s t+t+t+t+t+t+t+t+t+t+t+t+t+t+t+t+s s r r q q q p p p o o o o p p p p p p p p p p p p p p p p p p p p p p p p p p p p q q r r s t+Z+Z+Z+Z+Z+Z+Z+Z+Z+Z+Z+Z+Z+t+t+s s r r q q p p o o n n m l l k   . # $ j 6 ' 0.! ~ ] ^ ^ / 4 3 _ 2 1 | i 8 9 0 a b c c e f f g h h h g f e c a 0 8 i | 1 _ 4 ^ { ) ' > ; # . @ l m m m m n n o t p q r r s s t+t+t+Z+Z+i@i@Z+Z+t+t+s s r r q q q q q q r r r r r r r r r r r r s s s s s s r r q q p p p p p q q r r r r q p n l @ . # j , )+{ / 3 1 } 9 a F.e g h h '.'.'.'.>.>.>.>.>.>.>.>.>.>.>.>.>.>.>.>.>.>.>.>.x x q.q.f.f.s+,.,.,.,.,.,.,.,.F.F.c.c.@+O.O.O.O.O.@+@+c.F.,.f.w+q.q.x x >.>.>.>.>.h h h '.'.'.y y U y y '.h g f c b p.i 1 _ ]+] { ! ! ! ~ ~ ~ ~ ~ ~ { ] ^ ,@3 2 | } 8 9 0 a b c d e f g h '.'.h.'.'.h g f c a 8 | _ / { 5 , > ; $ $ $ $ ; j > 6 6 , ' 5 ) ~ { ^ 3 2 u 8 0 c f h '.g.U !.U U y h.>.g f.F.s.9 i } < : A.4 7 ] ~ ! 5 ' 6 > ; # + + .     @ @ k k k l l m m m m n n ",
"@ @       . + # $ j > 6 , ' ' ' , 6 > j ; $ # .   @ @ k k k k k k k k k k k l l m m m m m m m m m m n n o o p p q q r r r s s s s s s s s s s s s s s s s s r r r q q p p p p o o o o o o p p p p p p p %&q q q q q q q p p p p p p p p p p p p q q r r s t+Z+Z+Z+Z+Z+i@i@i@i@i@i@i@Z+Z+t+s s r r q p p o o n n n m l l k   . # $ j 6 ' ) ! { ] ^ ^ / 4 3 3 _ 2 1 u i 8 9 0 s.a b c c e f q.g f f e c b a 9 8 } | 2 _ 4 ^ ~ ) , > $ +   k l m n m [#n o p p q r s s t+t+t+t+Z+Z+Z+Z+Z+Z+Z+Z+t+t+s s r r r r r r q q q q q q q q q q r r r r s s s s s s r r r q q q q q O;r r r r r q p o m k   + ; > ' ! ] 4 _ | i 9 c.c f g h '.'.'.'.>.>.>.>.>.>.>.>.>.>.>.>.>.>.>.>.>.h.>.>.>.x x q.q.q.f.f.f.f.f.f.f.f.,.,.F.c.c.@+O.O.O.F%@+c.F.,.f.q.q.x x x >.>.>.h.h.'.'.'.'.'.'.'.y y y y y '.h g f e c a 9 m.1 3 / w L.) 5 5 ) ) ) ) ) ) ! ~ { ^ / 3 _ 1 | } i 8 N.9 0 a b c e f g g g q.].c b 0 i | _ / ] 5+' > j $ $ # $ $ ; j > 6 , ' 5 ) ! { ^ 4 A.7+u 8 p.a c f g h h h i.g f e c b @+9 i [ 1 T 3 4 7 ] ~ ! 5 ' , > j $ # + . .     @ @ @ k k k l l l m m m m m ",
". 9++ + + # # ; j 6 , ' ) ! ! ! ) 5 ' 6 j ; # +   @ k k k k k k k k k k k k k l l l l l l l l l m m m n n o p p q q r r r r r r r r r r r r r r r r r r r r q q q p p p p o o o o o o o o o o p p p p %&q q q r r r r q q p p p p p p p p p p p q q r r s t+t+Z+Z+Z+i@i@i@P#P#P#P#i@i@Z+t+s s r q q p p o o n n n m l l k   . # ; > 6 ' ) ~ { ] ] ^ / / 4 3 _ _ 2 1 | } i 8 9 0 a a b c e e e e e c b a 9 8 i } 1 2 3 / ] ~ ) , j % . @ l m n n n n n o p r r s t+t+t+Z+Z+Z+Z+Z+Z+Z+Z+Z+Z+Z+t+t+t+t+s s s r r r q q q q q q q q q q q q r r r s s s s s s r r r r r r r r r r r r r q p o n l @ . $ j , 0.~ ^ 3 2 } 8 0 F.e g h h '.'.'.>.>.>.>.>.>.>.>.>.>.>.>.>.>.>.>.h.h.h.h.>.>.>.x x x q.q.q.q.f.f.f.f.f.,.F.c.c.@+@+@+@+@+c.F.,.f.q.x >.>.>.>.h.h.h.h.h.h.'.'.'.'.'.y y y y y y '.h g e c b 0 8 [ 2 4 #+M.) E+' , ' ' ' ' ' ' 5 ) ! { ^ / 4 _ 2 2 1 1 | } i 8 9 0 b c c e c c b 0 8 } 1 _ / ] ! 5 6 j ; $ # # # $ ; j > 6 , ' ) ! { ^ / 3 2 1 } i 9 0 a F.c e e c c b a 0 9 8 m.| 7+_ 3 ]+^ ] M.! 5 ' 6 > j j@# + + .       @ @ @ @ @ k k k l l l l l l l ",
"$ $ $ $ $ $ ; j 6 , 5 ! ~ ] ] ] { ! ) ' 6 j $ +   @ k k l l l l k k k k k k k k l l l l l l l l l l m m n o o p q q r r r q q q q q q q q q q q q q q q q q p p p p o o o o o o o o o o o o o o p p p q q q r r r r r r q p p p p p p p p p p p q q q r s t+t+Z+Z+i@i@P#P#P#P#P#P#P#i@Z+t+t+s r q q p o o n n n m m l l k   . # ; > , ' ) ~ { ] ] ^ ^ / J#4 3 _ _ 2 1 | } i i 8 9 0 a b c c c c c b a 0 8 i } | 1 _ 3 / ] ~ 5 6 = #   k m n o o o n o p q 4$s t+Z+Z+Z+Z+Z+Z+Z+Z+Z+Z+Z+Z+Z+Z+Z+Z+Z+t+t+t+s s r r q q p p p p p p p p q q q r r s s s s s s s s s s r r r r r r r r r q q o n m k   # ; > ' ! { / _ 1 i 9 b e f g h >.'.'.>.>.>.>.>.>.>.>.>.>.>.>.>.>.>.h.h.h.h.h.h.h.>.>.>.x x x x q.q.q.q.q.f.,.F.F.c.@+@+@+@+c.F.,.f.q.x >.h.h.h.h.h.h.h.h.h.h.'.'.'.'.'.y y y y y '.h g f c b 0 9 } 1 A.7 w ! 5 , 6 6 6 6 6 6 6 6 , E+) ~ { ^ / 4 4 3 3 _ _ 2 1 | } i 9 0 a a a 0 9 i | 2 3 / ] ~ 5 , > j $ $ # # $ $ ; j > 6 ' 5 ! { ^ / 3 2 1 | } i 8 9 0 0 a a a 0 9 8 i } | 1 2 _ 4 / ^ ] ~ ! ) ' , > j ; # + . .       @ @ @ @ @ @ @ @ k k k k k k k k k ",
"; ; ; j j j > 6 ' 5 ! { ^ / / / ^ { ! 5 , j $ +   @ k l l l l l l l l l l l l l l l l l l l l l l l m m n o o p q q q q q q q p p p p p p p p p p p p p p p p o o o o o o o o o o o o o o o o o o p p p q q r r r s r r q p p p p p p p p p p p q q q r s t+t+Z+Z+i@i@P#P#.$.$.$P#P#i@i@Z+t+s r q p p o o n n n m m l l k   . # ; > 6 ' ) ! ~ { ] ] ^ ^ / 4 4 3 _ _ 2 1 | } } i 8 9 0 a b b b b b a 0 9 8 i | 1 2 _ 4 ^ { ! 5 6 ; +   k m o o o o o o q r s t+Z+Z+Z+3!Z+Z+Z+Z+Z+Z+Z+Z+Z+Z+Z+Z+Z+Z+Z+t+t+t+s r r q Q;p p p p p p p p p q q r r r s s s s s s s s s s s s s r r r r r r q p o m k w#+ $ j , 5 ~ ^ 4 2 } 8 a c f g h h >.>.>.>.>.>.>.>.>.>.>.>.>.>.>.>.>.h.h.;.;.;.h.h.h.v+>.>.>.>.x x x x x q.q.f.,.F.c.c.@+c.c.F.,.f.q.x >.h.h.h.h.h.h.h.h.h.h.h.'.'.'.'.'.'.'.'.'.'.h g f.c c.0 8 } 1 A./ w ! 5 , > j j j j j > > > 6 ' 5 ! ~ ] ^ ^ / / / 4 4 3 3 _ 2 | } i 8 8 i i } 1 2 3 / ] ~ ) ' 6 > ; $ $ # $ $ $ ; j > , ' ) ~ ] / 3 _ 1 | | } i i 8 8 8 8 8 i i } | 1 2 _ 3 4 / ] { ~ ! ) 5 , 6 > ; $ # .     @ @ @ @ @ @ @ @ @ @ @ @ @ @ @ @ @ @ @ @ @ ",
"> > > > > 6 , ' ) ! { ^ 4 3 3 3 ]+^ M.) , g+$ +   k l m m m m m m m l l l l l l l l l l l l l l m m m n n o o p p q q q p p p o o o o o o o o o o o o o o o o o n n n n n n n n n n n n n n n o o o p p q q r r r r r r q p p p p p p p p p p p q q q r s t+t+Z+Z+i@i@P#P#.$.$.$.$P#i@i@Z+t+s r q p p o o n n n m m l k @   . # $ j 6 ' 5 ! ~ v { ] ] ^ ^ / 4 4 3 _ 2 2 1 | } i 8 9 0 a a b b b a a 0 9 8 } | 1 _ 3 / ] ~ ) ' > $ + @ l n o p p o o p q r t+t+Z+Z+Z+Z+Z+Z+Z+t+t+Z+Z+Z+Z+Z+Z+Z+Z+Z+Z+t+t+s s r r q p p p p p p p p p p q q r r r s s s s s s s s s s s s s s s s s s r q p o n l @ . # ; 6 ' ! ] / _ | i 0 b e f g h h >.>.>.>.>.>.>.>.>.>.>.>.>.>.>.>.h.h.;.;.;.h.h.h.h.>.>.>.>.>.>.x x x x q.f.,.F.c.c.c.c.F.F.,.q.q.x >.h.h.h.h.h.h.h.h.h.h.'.>.h h h h h h h h g f e F.a 9 i | 2 3 ^ { K.x.J.- ; $ $ $ ; ; ; j > 6 , 5 ) ~ { ] ] ^ ^ ^ ^ ^ / / 4 3 _ 2 1 1 1 1 : 2 _ 4 / ] { ! 5 , 6 j ; $ $ $ $ $ ; j > 6 ' ) ! { ^ 4 _ 2 1 | } } } } } } } | | 1 2 _ 3 4 / ^ ] { { ~ ! ) 5 ' , > j ; $ + .   @ @ @ k @ @ @ @ @ @ @ @       @ @       . . . ",
"6 6 6 , , ' 5 ) ~ ] ^ 4 3 _ T _ ( 7 { K.l.> $ k@@ l m n n n n n n n m m m m m m m m m m m m m m m m m n n o o o p p p p p o o o n n n n n n n n n n n n n n n n n n n n n n n n n n n n n n n n n o o p p q r r r r r r q p p p p p p p p p p p q q q r s t+t+Z+Z+i@i@P#P#.$.$.$.$P#i@i@Z+t+s r q p p o o n n m m m l k @   . + $ j > , ' ) ! ~ ~ { { ] ^ ^ / 4 3 3 _ 2 1 1 | } i 8 9 0 a a R@a a j+0 9 i } | 2 3 4 ^ { ! 5 , j $ . @ l n o p p p p q r s t+Z+Z+Z+Z+Z+Z+t+t+t+t+t+t+t+t+t+t+t+t+t+t+t+t+s s r q q p p p p p p p p p p q q r r r s s s s s s s s s s s s s s s s s s s r q p n m k   + ; > ' ) { / 3 1 i 9 a c f g g h h >.>.>.>.>.>.>.>.>.>.>.>.>.>.>.h.h.;.;.;.h.h.h.h.>.>.>.>.>.>.>.>.>.x x w+,.F.F.c.c.g@F.,.f.q.q.x >.>.>.>.>.>.>.>.>.>.>.h h x g g g g g g f f ,.b @+N.m.< _ 4 ] ~ 0.l.y.j $ # # # # # $ ; ; j 6 , 5 ) ! ~ { ] ] ] ] ] ] ] ] ^ ^ / 4 3 3 3 3 4 4 / ^ ] { ~ ) 5 , 6 j ; ; $ $ $ ; ; > 6 , 5 ! { ^ 4 3 2 1 | | } } | | | 1 7+2 _ 3 4 / ^ ] { ~ ! ! ) 5 ' ' , 6 > j ; # + .   @ @ k k k k k k @ @ @ @             . . + + # # ",
", ' ' ' 5 ) ! ~ ] ^ 4 3 _ 2 2 A.4 ^ M.) , j # . @ l n n o o o o o o o o o o o o o o o o o n n n n n n n o o o o o o o o o o n n n n m m m m m m m m m m m m m m m m m m m m m m m m m m m m m n n n o o p q q r r r r q q p p p p p p p p p p p q q q r s t+t+Z+Z+i@i@P#P#.$.$.$P#P#i@i@Z+t+s r q p p o o n n m m l l k @   . + $ ; > 6 , 5 ) ! ! ~ { { ] ^ / / 4 3 _ _ 2 1 | } i 8 8 9 0 0 a a 0 0 9 8 i | 1 _ 4 ^ ] ~ ) ' 6 ; # . @ l n o p p p q q r s t+Z+Z+Z+Z+Z+t+t+t+s t+t+t+t+t+t+t+t+t+t+t+t+s s r r q q p p p p p p p p p p q q r r r s s s s s s s s s s s s s t+t+t+t+t+s r q p o m k @ + $ j , ) ~ ^ 3 2 } 8 a c e f g g h h >.>.>.>.>.>.>.>.>.>.>.>.>.>.h.h.;.;.;.h.h.h.h.>.>.>.>.>.>.>.>.>.x x q.,.F.F.F.c.F.F.,.f.f.q.q.x x x x x x x x x x x x g q.f f f f e e c c c.0 8 } 1 A./ ] L.5 , > ; $ # + + + + # $ ; j > 6 ' 5 ! ~ { ] ] ] ] ] { { { { { ] ] ^ ^ ^ ^ ^ ^ ^ ] ] { ~ ! ) 5 ' 6 > j ; ; ; ; j > 6 , 5 ! { ^ 4 3 2 1 | | } } | | 1 2 2 _ 3 4 / ^ ] { ~ ! ) 5 ' ' , 6 6 > j ; $ # + .   @ @ k k k k k k @ @ @ @     . . . . + + # $ $ ; ; ",
"5 5 ) ) ! ~ { ] ^ 4 3 _ _ _ A.( 7 w ! x.y.; +   k m o o p p p p p p p p p p p p p p p p p p o o o o o o o o o o o o n n n n n m m m m m m m m m m m m m m m m m m m m m m m m m m m m m m m m m m n n o p p q q q q q q q p p p p p p p p p p p q q q r s t+t+Z+Z+i@i@P#P#.$.$.$P#P#i@i@Z+t+s r q p p o o n n m m l k k @   . + # ; j > , ' 5 ) ) ! ~ { ] ] ^ / / 4 3 _ _ 2 1 | } } i 8 9 9 9 9 9 9 8 i } 1 _ 3 / ] ~ ) 5 , > ; +   k l n o p q q q r s t+Z+Z+Z+Z+Z+t+t+s s s s s t+t+t+t+t+t+t+t+t+s s s r r q q p p p p p p p p p p q q r r r s s s s s s s s s s s s t+t+t+t+t+t+t+s r q o n l @ . # j 6 5 ! ] 4 _ | 8 0 b c e f V*g x >.>.>.>.>.>.>.>.>.>.>.>.>.>.h.h.;.;.;.h.h.h.h.>.>.>.>.>.>.>.>.x x q.f.,.F.c.c.c.c.F.F.,.f.f.q.q.q.q.q.q.q.q.q.q.q.q.q.f f.e e e c c b b s.9 B.[ : A./ ] ~ ) , > j $ # + + + + # # $ j > 6 ' 5 5+~ { ] ] ^ ^ ^ ] ] { { { { { { { ] ] ] { { { { { { ~ ~ ! ) 5 l.6 > > j j > > 6 , 5 K.~ ^ 4 3 2 1 | | } } } | | 1 2 _ 3 4 / ^ ] { ~ ! ) 5 ' , 6 > > j ; ; $ # + .     @ k k k k k k @ @ @     . . + + # # # $ ; j > > > ",
"! ! ~ ~ { ] ^ / 4 4 3 3 3 ( ]+++{ K.x.6 ; #   k m n p p q q q q q q q q q q q q q q q q q q p p p o o o o o o o n n n m m m m m l l l l l l l l l l l l l l l l l l l l l l l l l l l l l l l m m m n n o p p p q q q q p p p p p p p p p p p p q q q r s t+t+Z+Z+i@i@P#P#.$.$.$P#P#i@i@Z+t+s r q p p o o n n m l l k k @   . + # $ ; j > 6 , ' 5 ) ! ~ { ] ] ^ / / 4 3 _ _ 2 1 1 | } } i i 8 8 i i } | 1 _ 3 / ] ~ ) 5 , 6 j $ +   k m n o p q r r s t+t+Z+Z+Z+Z+t+t+s s r r r s s s s s s s s s s s s r r q q q p p p p p p p p p p q q r r r s s s s s s s s s s s t+t+t+t+Z+Z+Z+t+s r q p n m k   # ; > ' ! { / _ 1 i 9 a b c e f q.x h >.>.>.>.>.>.>.>.>.>.>.>.>.h.h.;.;.;.h.h.h.h.>.>.>.>.>.>.>.x x q.f.,.F.c.c.@+@+c.c.c.F.,.,.f.f.f.f.f.f.f.f.f.f.f.f.e ,.c c c b b a 0 9 8 l&| T ( 7 ] ~ ) ' 6 2>; $ # + + + # $ ; j 6 , 5 ) ~ { ] ^ / / 4 ,@/ / ^ ] ] { { { { { { { ~ ~ ~ { { { { { { ~ ~ ! )+' , , , , , ' 5 ) ! { ^ 4 _ 2 1 | } } i } } | 1 2 _ 3 4 / ^ ] { ~ ! ) 5 ' , 6 > j ; ; $ # # + . .   @ @ k k k k k @       . . + # # $ * ; = j > 6 , ' ' ",
"{ ] ] ] ^ / / 4 4 4 4 4 / ^ w L.0., > ; &   k :&n p q q q q q r r r r r r r r r r r r r r r q q q p p p o o o n n m m m l l l l l l l l l l l l l l l l l l l l l l l l l l l l l l l l l l l l l m m n n o o p p p p p p p p p p p p p p p p p q q q r s t+t+Z+Z+i@i@P#P#.$.$.$P#P#i@i@Z+t+s r q p p o o n n m l l k @ w#  . + # $ ; ; j > 6 , ' 5 ) ! ~ { ] ^ ^ / / 4 3 _ _ 2 2 2 1 1 | | } } | | 1 2 _ 4 / ] ~ ) ' , 6 j ; # . @ k m n o p q r s t+t+Z+Z+Z+Z+Z+t+s s r q q q r r s s s s s s s s s r r r q q Q;p p p p p p p p p p q q r r r s s s s s s s s s s s t+t+t+Z+Z+Z+Z+Z+t+s r p o m k   + $ > , ) ~ ^ 3 2 } 8 0 a b c e f g x >.>.>.>.>.>.>.>.>.>.>.>.>.h.h.;.;.;.h.h.h.h.>.>.>.>.>.x x x q.f.,.F.c.@+@+O.O.@+@+@+c.F.F.F.W+,.,.,.,.,.,.,.,.,.c F.F.b b a a 0 9 8 i } 1 _ 4 ^ { ;&) 5 , 6 j ; $ $ ~+$ $ ; j 6 , 5 ) ~ '#^ / 4 3 3 _ _ _ 3 3 4 / ^ ^ ] { { ~ ~ ~ ~ ~ ~ &,{ ] ] ^ ^ ] ] { ~ ! ) ) 0.) ) ! ~ { ] ^ 4 _ 1 | } i i i i i } | 1 2 _ 3 4 / ^ ] { ~ ! ) 5 ' , 6 > ; $ k## + + . .     @ @ k k k k @   . . + + # $ ; ; j > > 6 , ' 5 ) K.! ",
"^ / / / 4 4 4 4 4 4 / ^ w ~ K.' 6 h@$ +   k m n o q q q r r r r s s s s s s s s s s s s s r r r q q p p p o o n m m l l l l k k k k k k k k k k k k k k k k k k k k k k k k k k k k k k k k ,#l l l m m n n o o o o p p p p p p p p p p p p p p q q q r s t+t+Z+Z+i@i@P#P#.$.$.$P#P#i@i@Z+t+s r q p p o o n n m l l k @     . + + # $ ; ; j > 6 ' 5 ) ! ~ { ] ] ^ ^ / 4 4 3 3 _ _ _ _ 2 2 1 1 1 2 2 _ 3 4 ^ ] ~ ) ' J.> j ; $ +   @ l m n o q r s t+t+Z+Z+Z+Z+Z+t+t+s r q p p p q r r r r r r r r r r r r q q q p p p p p p p p p p p q q r r r s s s s s s s s s s s t+t+Z+Z+Z+Z+Z+Z+t+s r q o n l @ k@$ j , 5 ! ] 4 _ | 8 9 a b b c f.q.x >.>.>.>.>.>.>.>.>.>.>.>.>.h.h.;.;.;.h.h.h.h.>.>.>.>.x x q.q.f.,.F.c.@+O.O.N.N.O.O.O.@+@+c.c.c.c.F.F.F.F.F.F.F.F.b c.a a 0 0 p.9 8 i | 1 _ 4 ^ { ! ) 5 ' , 6 > j ; ; ; h@j j#, 5 ) ~ ] / 4 A.2 : 1 < | | 1 1 2 _ 3 4 / ^ ] { { ~ ~ ~ ~ ~ { ] ^ / / ,@4 / / ^ ] { { { { { ] ^ / 4 3 2 1 } i i 8 8 8 i i } | 1 2 3 4 / ^ ] { ~ ! ) 5 ' , 6 > j ; # + + . .       @ @ @ k k @ @   . + # # $ ; j j > 6 , l.x.0.K.L.M.{ { ",
"4 4 4 3 3 3 3 4 4 / ] { ! 5 , - * +   @ l m n o p q q r r r r r s s t+t+t+t+t+t+s s s s s s r r q q p p o o n n m l l l k k k k k k k k k k k k k k k k k k k k k k k k k k k k k k k k k k k l l l l m m n n n o o o o p p p p p p p p p p p q q q r r s t+t+Z+Z+i@i@P#P#.$.$.$P#P#i@i@Z+t+s r q q p p o o n m m l k @     . + + # # $ ; j > 6 , ' ) ! ~ ~ { ] ^ ^ / / 4 3 3 3 3 3 3 3 _ _ _ _ _ 3 4 / ^ a.~ ) ' 6 > j ; $ # .   k l n o p q r s t+Z+Z+Z+Z+Z+Z+t+s r q p o o p p q q q q q q r r r q q q q q p p p p p p p p p p p p q q q r r r s s s s s s s s s t+t+t+Z+Z+Z+i@i@Z+Z+t+s q p n l @ . # j 6 ' ! { / _ 1 i 9 0 a b c e f g x >.>.>.>.>.>.>.>.>.>.>.>.h.h.h.h.h.h.h.h.>.>.>.x x x q.q.f.,.b a 0 O.N.8 B.B.B.N.N.O.O.O.@+@+@+@+a a a c.c.c.c.a @+@+0 O.9 N.U.S.u 1 _ z.7 { <#) )+5 ' 6@, 6 y.> > j#6 , E+) ~ '#b.z._ 1 | } i i U.U.i i } [ | : _ 3 / ^ ] { M.~ ~ M.{ ] ^ / 4 3 3 3 3 3 4 ,@/ 7 ^ / / 4 4 3 _ 2 | } i 8 8 V.8 8 i } | 1 2 _ 4 / ^ ] { ~ ! ) 5 ' , 6 > j ; $ + + . .         @ @ @ @ @ @   . + # $ ; j j > 6 , ' 5 ) K.L.{ ] ^ ^ ^ ",
"3 3 3 3 3 3 4 J#^ ] ~ ) ' 6 = # . @ l m n o p p q q q q q q r r s s t+t+t+t+t+s s s s s s r r q q p p o o n n m m l l k k k k k k k k k k k k k k k k k k k k k k k k k k k k k k k k k k k k l l l m m m m n n n o o o p p q q q q q q q q q q q q r s s t+Z+Z+Z+i@i@P#P#P#P#P#P#P#i@Z+Z+t+s r r q q p p o n n m l k @ @   . + + # # $ ; j > 6 , ' 5 ) ! ~ { ] ^ ^ / / 4 4 4 4 4 4 4 3 3 3 3 4 4 / ^ ] { ~ ) ' 6 > ; $ $ # +   @ l m n p q r s s t+t+Z+Z+Z+Z+t+s r q p o n n n o p p p p q q q q q q q q p p p p p p p p p p p p p p p q q q r r r r s s s s s N;t+t+t+Z+Z+Z+i@i@i@Z+Z+t+s r p n l @ . # ; > ' ) ~ ^ 3 : } 8 0 a b c e f.q.x x x x >.>.>.>.>.>.>.>.>.>.h.h.h.h.h.>.>.>.x x x q.q.f.,.F.c.@+O.N.B.i m.m.m.m.B.B.B.N.N.N.O.O.O.0 0 0 0 @+@+@+@+0 O.9 V.U.U.S.u [$:+H$,@++i#5+)+)+)+)+E+E+x.6@6@x.E+)+5+<#'#b.z.:+< } B.9 O.0 a a a 0 0 9 8 i } 1 T 3 ]+^ ] w { { w ] ^ / 4 A._ 2 2 2 2 2 _ _ 3 3 _ _ _ 2 1 | } i 8 9 9 9 9 8 U.S.u 1 2 /+4 / ] { ~ ! ) 5 ' , 6 > > j ; # + . .                 @ @     . + $ ; j > > 6 , ' 5 ) ! ~ { w ++/ / 4 4 ",
"_ _ 3 3 3 4 / ^ { ! 5 , > ; +   ,#m o p p q q q q q q q p q q r r s s t+s s s s s r r r r q q q p p o o n n m m l l k k k k k k k k k k k k k k k k k k k k k k k k k k k k k k k k k k k l l l l l m m m m m n n n o o p q q q q q q q q q q q q r r s s t+Z+Z+i@i@i@P#P#P#P#P#P#i@i@Z+Z+t+s s r r q q p o o n m m l k @   . . + # # $ ; j > 6 , ' 5 ) ! ~ { ] ^ / / 4 4 4 4 4 4 4 4 4 4 4 / / ^ ] { ~ ! ) ' , > ; $ # + + . @ k m n p q r c%s s s t+t+t+Z+t+t+s r q o n m m m n o o o o p p p p p p p p p p p p p p p p p p p p p p p p q q q q r r r s s s t+t+t+t+Z+Z+Z+Z+i@i@i@i@Z+t+s r p n m k   + ; > , 5 ~ ] 4 2 | U.9 a b c ,.e f.q.q.x x x >.>.>.>.>.>.>.>.>.>.v+h.>.>.>.>.x x q.q.f.f.,.F.c.0 9 8 i m.} [ [ [ [ m.m.m.B.B.B.8 N.N.9 9 9 9 O.O.0 O.O.V.N.U.P@e$o#[$}$b#/$Z#|%7=}-}-}-}-5+H#H#H#H#X%{+i#d#++c#E%:+;+S.N.p.c.F.c e e e e d c b c.0 N.m.< T 8+]+7 ++#+#+^ 7 ]+( _ 2 1 < | | | | | 1 1 1 ;+| | } } i 8 8 9 0 0 9 9 8 i u 1 :+3 ,@^ ] M.! ) 5 ' , 6 > j j ; $ # + . .                         . + $ ; > 6 J., ' 5 ) ! ~ { ] ^ 7 ]+4 3 3 3 ",
"3 3 3 3 4 / ^ { ! 5 , j $ + @ l n p q r r r r q q p p p o o p q q r r r r r r r q q q q q p p p o o n n n m m l l l k k k k k k k k k k k k k k k k k k k k k k k k k k k k k k k k k k l l l l l m m m m m m m n n o t p q r r r r r r r r r r r r r s t+t+Z+Z+i@i@i@i@P#P#P#P#P#i@i@Z+Z+t+t+s r r q q p p o o n m l k @     . + # # $ ; j > 6 , ' 5 ! ~ ~ { ] ^ / 4 4 4 4 4 4 4 / / / / / ^ ] { ~ ! ) 5 ' , > ; $ # + . . @ k l n o p r s s s s s s s t+t+s s r q p n m l l l m m n n n n o o o o o o o o o o p p p p p p p p p p p p p p p q q q O;r r s s t+t+t+Z+Z+Z+Z+Z+Z+i@i@Z+Z+t+s r p o m k   + $ j , 5 ! ] / _ | i 9 0 b c c ,.,.f.I+q.x x >.>.>.>.>.x x x >.>.>.>.>.>.x x x q.q.f.,.,.F.c.0 9 B.i } | | | | | | [ [ [ m.m.m.i B.8 8 8 8 9 9 9 9 9 V.N.U.P@e$<$r%-%Q%H$d=H%J*7=X%*;X%z%G#d#`#p%|%-$q#O%Y#9%}$o#Z$7$g#`+d ].g x h h h h h g q.f.j.a N.m.< T A.( ]+]+]+]+( A.T : < [ } m.i i i i i i i i i i U.8 8 9 9 0 0 9 9 8 } | 1 :+z.,@++{ ~ ) 5 ' l., 6 > j ; $ # + + .                 . . . . . + # $ = > 6 ' ' 5 ) ! ~ { ] ^ / ]+4 3 3 _ _ _ ",
"4 4 4 / ^ ] ~ ) ' 6 j # . @ l n p q r r r r r q p o o n n n n o p p p p p p p p o o o o o o n n n n m m m m m l l k k k k k k k k k k k k k k k k k k k k k k k k k k k k k k k k k k l l l l l m m m m m m m m [#n o o p q r r r r r r r r r r r r r s t+Z+Z+Z+i@i@i@i@i@P#P#i@i@i@Z+Z+Z+t+t+s s r r q q p o o n m l l k @   . + # $ $ ; j > 6 , ' ) ! ~ { ] ^ / / 4 4 4 4 4 ,@/ / ^ ^ ^ ] ] { ~ ! ) 5 ' 6 > ; V@+ .     @ k l m o p q r s s s r r r r c%s r r q o n m l k k k k l l m m m n n n n n o o o o o o p p p p p p p p p p p p p p p p q q q r r s s t+t+Z+Z+Z+Z+Z+Z+Z+Z+Z+Z+t+s r p o m k   + $ j 6 ' ! { / 3 1 } 8 0 a b c c ,.,.f.q.q.x >.>.>.>.>.x x x x x >.>.x x x q.q.q.f.,.,.F.c.@+9 8 i } | | 1 1 1 < < < | [ [ } m.m.i i i 8 8 8 8 8 V.N.8 U.P@e$<$r%-%7%f%g%A%H%I%J*J%J%J%J*I%H%O%d=Y#F#^$X#r%,%d%F$C#f#W.<%b+h.;.U U U U U U y '.h q.,.3@N.m.< : T A.A.A.A.T : < [ m.B.8 8 N.9 9 9 9 9 9 9 9 9 8 V.9 9 9 9 9 8 i } ;+2 /+4 b.] i#! ) 5 ' , 6 > j ; $ $ # + . .               . . . + + + # # $ j > , ' ) K.! ~ { ] ^ / ,@4 3 3 _ _ 2 2 2 ",
"^ ^ #+] ~ ! 5 , > ; #   k l n p q r r r r q q p o n n m m l l l m m m m m m m l l l l l l l :&m m m m m l l l l l l k k k k k k k k k k k k k k k k k k k k k k k k k k k k k k k k l l l l J$m m m m m m m m m m n n o p q r r r r r r r r r r r r s s t+Z+Z+Z+Z+i@i@i@i@i@i@i@i@Z+Z+Z+t+t+s s s r r q q p o o n m m l k @   . + # $ ; ; j > 6 ' 5 ) ! ~ { ] ^ / 4 4 4 4 4 4 / / ^ ^ ] { { ~ ! ) 5 ' , 6 > ; # +   @ k k l l m o p q r s s s s r q q q q q q p o n m l @ @   w#@ k k k l l l m m m n n n n n n o o o o o o o o o o o o o o o p p p q q r r s s t+t+t+t+t+t+t+Z+Z+Z+Z+Z+t+s r p o m k   + $ j 6 ' ) { ^ 3 2 | i 9 a b b F.F.F.,.f.q.x >.>.>.>.>.x x x x x x x x x q.q.q.f.,.,.F.c.@+O.N.i } | | 1 1 1 1 1 < < < | [ } } m.i i i i  $8 8 8 8 8 B.S.c$o#E#[%e%Q%-=3=g%A%s%l%t%t%H%s%h%3=f%7%[%]$*$W#{$V#3$Q$.%)%o+x+:@a@%+=.4+V V =.S ).-.;.>.q.,.@+N.m.[ < : : : < < [ m.B.N.O.O.0 0 0 a a a a 0 0 9 9 V.8 8 8 i i i } | 2 _ 4 / ] i#L.) 5 6@, 6 > > j ; $ $ # + . . .         . . . + + # # $ $ $ ; j 6 , 5 ! ~ { { ] ^ / 4 4 3 3 _ _ 2 2 2 2 2 ",
"{ { ~ ! 5 ' 6 j $ 9+  k m n p q q r r q q p o n m l l k t$@ @                           w#@ @ k k k l l l l l l l l l k k k k k k k @ @ @ @ @ @ @ @ k k k k ,#,#,#l l l l l l l l l l l l m m m m m m m m m m m m m n o p q r r r r r r r r r r r r s s t+Z+Z+Z+Z+Z+Z+i@i@i@i@Z+Z+Z+Z+t+t+t+s s s r r q p p o o n m m l k @   . + # $ ; j > 6 , ' 5 ) ! ~ { ] ^ / 4 4 3 4 4 4 / ^ ] ] { ~ ! ) 5 ' , 6 > j ; # +   k l l m m n o p q q r s s s r q p p p p p o n m l k @   . . . %#  @ @ @ k k l l l m m m m m n n o o o o o o o o o o o o o o o o p p q q r r s s t+t+t+t+s t+t+t+Z+Z+t+t+s r p n l k   + $ j 6 ' ) ~ ^ 4 :+| i 8 0 a c.c.c.F.,.f.q.x >.>.>.>.>.x x q.q.x x x q.q.q.f.f.f.,.F.c.@+O.N.B.m.| | 1 1 1 1 1 1 1 < | | [ } } m.i i i i i i  $8 U.i S.c$o#E#[%-%7%7%6%-=-=f%3=g%g%3=f%7%5%4%1=a%W#{${%_%:$2$!$a$)$x$A#M+b@*.&.&..+Q.Q.&.&.*.=.).-.h.q.,.c.O.N.B.m.m.m.m.m.B.N.O.@+@+c.c.b b b b b b a 0 9 8 8 i } } | | 1 2 _ 4 / ] { ! ) E+l.6 > > j j j ; $ $ # + + . .     . . . . + + # # $ ; ; j > > 6 ' ) ! { ] ^ ^ / 4 4 3 3 _ _ 2 2 2 2 2 2 2 ",
") ) 5 ' 6 j $ + i$@ l /&o p q q q q p p o n m l k @     . + + # # $ $ $ $ $ $ $ $ $ # # + + .     @ @ k k k k k l l l k k k k k @ @ @ @ @ @ @ @ @ @ @ O#k ,#,#,#l l l l l l l l l l l l l m m m m m m m m m m m m m n o p q r r r r r r r r r r r r r s t+t+Z+Z+Z+Z+Z+Z+Z+Z+Z+Z+Z+t+t+t+t+s s s r r r q p o o n n m m l k @   . + # $ ; j > 6 , ' 5 ) ! ~ { ] ^ / 4 3 3 4 4 / / ^ ] { ~ ! ) 5 ' , 6 j ; $ # +   t$l m n n o o p p q r r r r r q p o n n n n m l k @   . + # # # + . . .     @ @ k k l l l l m m n n n n n n n n n n n n n n n o o o p p p q q r r s s s s r s s s t+t+s s r q o n l @ . # ; > , ' ) ~ ^ 4 _ 1 } 8 9 0 s.a a c.F.f.q.x >.>.>.>.>.x x q.q.q.q.q.q.q.f.f.s+,.F.F.c.@+O.N.i } | 1 1 1 1 1 1 1 1 1 | | } } } i i i i i i i i i i i S.o#r%E#-%e%e%e%5%5%5%5%[%[%4%4%3%a%W#{$]%{%_%$%U#V;$$T#X$S#'$_.p+<@U@W _+%.9.=+%.%.%.W &.*.=.-.h.q.,.F.9&F%O.N.N.N.|+O.@+@+c.F.F.F.c c c c c b a 0 8 i } | 1 2 2 _ 3 4 / ] { ! ) x., 6 > j ; ; ; ; $ $ $ # + + . . .   . . . + + # # $ ; j j > 6 , , 5 ) ~ ] ^ / 4 4 3 3 _ _ _ 2 2 2 2 2 2 2 2 2 ",
", , 6 > ; # .   k m n o p p q p p o n m l k @   . + # # $ ; ; j > j#6 6 6 6 6 > > > j ; ; $ # + . .   @ @ @ @ k k k k k k k k @ @ @ @ @ @ @ @ @ @ @ @ @ O#k ,#,#l l l l l l l l l l l l l m m m m m m m m m m m m m n o p q q r r r r r r r r q q r r s 9!t+0!Z+Z+Z+Z+Z+Z+Z+t+t+t+t+t+s s s s r r r q q p o o n n m l l k @   . + # $ ; j > 6 , ' 5 ) ! ~ { ] / 4 4 3 3 3 4 / ^ ] { ~ ! ) 5 ' , 6 j ; $ # + . @ l m n o o p p p q q q q q q p o n m l l k k @   . + # # $ $ $ $ $ # + + + . .     @ @ k k k l l m m m m m m m m m m n n n n n n o o o o p p q q q r r r q q q q r r r r q q p n l k   + $ j 6 , 5 ! { ^ 4 _ 1 } 8 9 0 0 @+@+c.F.f.q.x >.>.h.>.>.x q.q.q.q.q.q.f.f.f.,.,.F.F.c.@+O.N.B.m.[ | 1 1 1 1 1 1 1 1 1 | | | } } } i i i i i i i i i i S.u r%r%[%[%[%[%4%4%3%3%m=m=/%{$]%{%_%$%%$U#V;U$T#)$Z=1;B$_$1$q+w@4# +d+d+$.$.Y $.$.$.X %.W &.=.-.h.x f.,.F.c.c.@+@+@+@+c.4>F.F.c c c c c c b a 0 8 i | 1 2 _ z.4 / ^ ] { ! ) 5 , 6 g+h@; $ # # # # # # # + + . . .   !+. . + + # # $ ; j > 6 , ' ' 5 ! ~ ] / 4 3 3 _ _ 2 2 2 2 2 1 1 1 2 2 2 _ _ ",
"j j ; # +   k l m n o p p p p o n m l @   + # $ ; j > > 6 6 , l.' 5 5 5 5 5 ' ' , , 6 > > j ; $ # + + .     @ @ k k k k k @ @ @                       @ O#k ,#,#l l l l l l l l l l l l l l l l l l l l l l l l l l m n o p q q q q q q q q q q q q q r s 9!t+t+t+t+t+t+t+t+t+t+t+s s s s r r r q q q p o o n n m m l l k @   . + # $ j > 6 , ' 5 )+K.! ~ { ++/ 4 4 3 3 3 4 / ^ ] { ~ ! ) 5 , 6 > ; $ # + .   k l n o o p p p p p p p o n n m l O#    . . + + # $ ; ; j j j j j ; ; $ $ # # + + . .     @ @ k k l l l m m m m m m m m m m m n n n n o o o o p p p p p p 7!o o p p p p p p o n l @   + $ j > , 5 ) ~ ] b.4 _ 1 } 8 9 0 0 @+@+c.F.f.q.x >.>.h.>.>.x q.q.q.f.f.f.f.,.,.,.F.F.c.@+0 O.N.B.} | | 1 1 1 1 1 1 1 1 1 1 | | | } } } } i i i i i i i i S.e$,%,%1=1=3%3%m=m=/%]%Z;{%_%$%$%%$2$!$$$T#)$#$S#'$Y$,$A=a!<.}@o@/#`.D+-#@.@.` @.@.Z #.$.X %.&.=.-.L+>.u+f.,.F.F.c.c.c.F.F.F.c c c c c b b a 0 8 } | 2 3 4 7 ] { ~ ~ 5+5 ' , 6 j ; $ # + + + . . . + + . . . . .     . . . + + # $ ; j > 6 , ' 5 ) ! { ] / 3 _ 2 2 2 1 1 1 1 1 1 1 1 1 2 2 _ _ _ ",
"# # +   @ l m n o p p p p o n m k @ . # ; j 6 , ' 5 5 ) ) ) ! ! ~ ~ ~ ~ ~ ! ! ) 5 5 ' , 6 6 > j ; $ # # + . .   @ @ k k @ @ @     . . . . . . . . .     @ k k ,#l l l l l l l l l l l l l l l l k k k k k k k k k l l m o o p p p p p p p p p p p p q O;r s 9!9!s s s s s s s s s s s r r r r q q p p o o n n m m m l l k @   . + # $ j > 6 , ' 5 )+K.! ~ { ^ / 4 4 3 3 3 4 / ^ ] ~ ! ) 5 ' , > j ; # + .   @ k m n o p p p p p p o n m k @   . # $ $ ; ; j j > > 6 6 6 6 6 6 > > j j ; ; $ $ $ # # + . .     @ k k k l l l l l l l l l m m m n n n n n n o o o o o n n m m m m n n n n m l k @ . # ; j 6 , 5 ) ~ { ^ ,@3 2 | } 8 9 0 0 @+@+c.F.f.q.x >.>.h.>.>.x q.q.I+f.f.s+,.,.F.F.c.c.@+@+O.N.8 i } | < 1 1 1 1 1 1 1 1 1 1 )>| | | | } } } i i i i 8 8 8 U.@%Z$W#W#W#/%/%]%{%`;_%$%%$2$!$0;$$T#)$#$S#'$@$_$7;q+N+<.O+[.K@x@_#;#T+0#........ .+.@.{;#.$.%.&.*.).;.h.x q.f.,.F.F.F.F.F.F.F.F.b b a a 0 9 8 } 1 _ 4 ^ ] ~ ! ) 5 ' , 6 > j ; $ # + .                             . . . . + # # $ ; j > , ' ) ! ~ { ] / 3 _ 2 1 1 1 | | | 1 1 1 1 1 1 2 _ 3 3 3 ",
".   @ k m n o p q q p p o n l @ . # ; > , 5 ! ~ { ] ] ^ ^ ++^ ^ ^ ^ ^ ^ ] ] { ~ ~ ! ) 5 ' ' , 6 > j h@; $ # + .   @ @ @ @       . . + + + + + + + . .   @ O#k ,#l l l l l l l l l l l l l k k k k k t$@ @ t$k k k k l m n o o o j;o o o o o o o o p p q O;c%c%c%c%c%r r r r r r r r r r r q q q p p o o n n m m m l l k k @   . + # $ ; g+> 6 , ' 5 ) ! ~ { ] / ,@4 3 3 {#4 / ^ { ~ ! ) 5 ' , > j $ # + .   @ k m n o p p p p o n m l @ . # ; j > 6 , , ' ' ' 5 5 5 5 5 ' ' ' , 6 6 > > j j j ; ; $ $ # + + .   @ @ @ k k k k k k k k l l m m n n n n n n n [#m m m m l k k @ k k k k k @   . + $ j > , ' 5 ! ~ { ^ / 3 _ 1 | i 8 9 0 0 @+@+c.F.f.q.x >.>.h.>.>.x q.q.f.f.,.,.,.F.F.c.c.@+@+O.9 8 B.i } | 1 1 1 1 1 1 1 1 1 1 1 1 1 1 | | | | } } i i 8 8 V.V.V.7$7$F$]%&${%{%_%$%%$2$!$$$$$T#)$#$S#'$@$_$_$1$q+N+<.O+[.P+}.=#5.5.3+a#@#}+}+G E.E.....+.@.#.$.%.&.*.).;.>.x f.,.,.F.c.c.c.c.c.a @+0 0 9 8 i | 2 3 / ] M.! 5 ' , 6 > j j ; $ # + .   @ @ k k k k k @ @ @ @ @       . . . + + + # $ ; j 6 ' 5 ! ~ { ] / 4 _ 1 | | | | | | | | 1 1 1 1 2 _ 3 4 / / ",
"k k l m o p q q q q p o m k w#+ $ > , )+~ ] / 4 3 _ _ _ _ _ _ _ _ _ A.3 z.4 / ^ ] { ~ <#! ) 5 ' ' , 6 > j ; $ + . .         . . + + + + + + + + + + .   @ @ k k l l l l l l l l l l l l k k k k @ @ @ @ @ @ @ @ t$k l l m n o o o o o o o o o o o o o p q O;r r r r r r r r r r r r r q q q p p p o o n n m m l l l l k k @   . + # $ ; j > 6 , ' 5 ) ! ~ { ] ^ / 4 4 3 4 4 / ^ { ~ ! ) 5 ' , > j $ # + .   @ k l m n o o o o n m k   + ; > , E+) ! ! ~ ~ { { { ~ ~ ~ ! ) ) 5 ' ' , 6 6 6 6 > > j j ; $ $ # + .     @ @ @ @ @ @ @ @ @ k l l m m n n n m m m m l l k k @   . . . . . . k@+ # $ ; > , ' ) ! ~ { ] ^ / 3 _ 2 | } 8 9 0 0 @+@+@+c.F.f.q.x >.>.>.>.>.x q.q.f.f.,.,.F.F.c.c.@+@+O.O.N.8 i m.} | 1 1 1 1 1 1 1 1 1 1 1 1 1 1 1 1 1 | | } i 8 8 9 9 p.F%g#V#V#_%3$$%%$%$2$!$$$T#)$#$#$S#'$@$_$1$q+N+N+<.O+[.K#x@=#$@4.4.9#9#}+##C.'--+T.T.E.E...+.@.#.X %.&.=.-.h.x f.,.F.c.@+@+F%O.O.V.N.8 i } | 1 T z.^ { ~ ) ' , 6 > j ; $ # # + .   @ k k l l l l l l k k k k @ @     . . . . + + # $ ; > 6 ' ) ! { ] ^ 4 3 2 < | } } | | | | 1 1 1 2 2 _ 3 / ^ ^ ^ ",
"m m n o p q r q q p n m @ . # j 6 5 L.] 4 _ 1 | } i i i S.} } } } } [ | 1 : T A.4 / ^ ^ ] { ~ ! K.)+' , 6 > ; $ # + . . . . + + + # # # # + + + + + .   @ @ k k k l l l l l l l l l k k k k @ @ @ @ @ w#w#@ @ @ @ k k l m n n n n n n n n n n n n n o  !&!q O;O;O;q q q q q q q q q q q q p p p o n n m m m l l l l k k @ @   . + # $ ; j > 6 , ' 5 ) ! ~ { ] ^ / 4 4 4 4 4 / ^ ] ~ ! ) 5 ' , 6 j ; $ # + .   @ k l m n n n m l @ . # j J.5 <#{ ^ / ]+4 4 4 4 4 / ^ ] { ~ ! ) 5 5 ' ' , , , 6 6 > > j ; ; $ # + . .                 @ @ k l l m m m m m m l l k k @   . + # $ $ $ * ; ; j g+6 , 5 ) ~ { ] ^ / / 4 3 _ 1 | } i 8 0 0 a a a a c.F.f.q.x x >.>.>.x x q.f.f.,.,.F.F.c.c.@+@+O.O.N.8 B.i } } | 1 1 1 1 1 1 1 1 1 1 2 2 2 2 2 2 2 1 | } i 8 9 0 s.a r.!#f#Q$U#2$2$!$$$$$T#)$#$#$S#'$@$_$1$q+q+N+<.O+O+[.P+}.=#$@C+C+3.3.^=^='--+-+[+-+-+T.E.E...+.#.^+%.&.=.;.>.q.,.F.@+O.N.N.B.B.m.} | < 1 2 _ 3 / #+~ K.5 , 6 - ; ; $ # # + . .   @ k k l l m m m m m l l l k k @     . . . . + + # $ ; j 6 ' ) ! { ] / 4 _ 1 | } } } | | 1 1 2 2 _ _ 3 4 / ^ { { { ",
"o o o p q r r q p n l @ + ; y.' ! w ]+_ < i 9 0 a c.b c.a a 0 0 0 0 0 9 8 B.m.| 1 2 _ 3 4 ]+/ ^ ] { ! ) E+, 6 j ; # # + + + # # # $ $ # # # # + + + .   @ @ k k k k k k k k k k k k k k k @ @ @ @ w#w#w#w#w#w#@ @ @ k l l m n n n n n n n n n n n n n o p &!q q q q q q q q q q q q q p p p o o P.n m m l l l l l k k k @ @   . + # $ ; j > 6 , ' 5 ) ! ~ { ] ^ / / 4 4 4 / / ^ ] { ~ ! ) 5 ' , > j ; $ # + .   @ k k l l l k @ . $ j , ) w / 3 2 1 | | [ | | 1 T 3 4 ^ ] ~ ! ) ) 5 5 5 ' ' ' , , 6 > j j ; $ # + . . . . . . . .     @ k k l m m m m m l k k @     + # ; j > 6 6 6 , , ' 5 ) ! { ] 7 / 4 3 3 _ 2 : 1 | } i N.0 0 a c.c.c.c.c.F.s+q.q.x x >.x x q.q.f.f.,.,.F.F.c.c.@+@+O.O.N.8 i i } | | 1 1 1 1 1 ;+1 1 1 1 2 _ _ _ _ _ _ 2 1 } i 9 0 a b j.d W.6#6$q=a$T#T#)$)$#$S#S#S#'$@$@$_$1$q+N+<.O+O+[.P+}.}.Q+$@C+C+3.^=^='-'-[+j-j-[+-+-+T.E...+.Z ^+W *.).L+x f.F.@+O.B.m.[ [ < : 2 _ 3 4 4 / ^ { ! ) ' 6 > = $ $ # + + . .     @ k k l m m m n n n m m m l l k @ @   . . . . . + + # $ j > , 5 ! { ] / 3 _ 1 | | | | | 1 2 2 _ 3 3 4 / ^ ] ~ ! ! ) ",
"p p p q r r q p n l   # j , ) { / A.< S.O.c.c ].f g g g f f f f f ].e ,.F.c.0 9 B.} | | 1 2 _ 3 4 / ] { ! 5 ' 6 j ; $ $ $ $ $ $ $ $ $ $ $ # # # + + . .   @ k k k k k k k k k k k k k k k @ @ @ @ w#w#w#w#w#w#@ @ @ k k l m m m m m m m m m m m m m n n o p p p p p p p p p p p p p p p p o o o n n m m l l k k k k k @ @     . + # $ j g+> 6 , ' 5 ) ! ~ { ] ^ ^ / / / / / / ^ ] { ~ ~ ! ) 5 ' 6 > j ; $ # + .     @ @ @ @   + $ > ' ! ] 3 : } 8 9 0 a a 0 9 8 } 1 _ 4 ^ ] { ~ ! ! ) ) ) 5 5 ' ' , 6 > > j ; $ # + + + + + . . . .     @ k k l l m m l k k @   . + # ; > , ' 5 ) ) ! L.~ { ] b.4 3 T 2 1 1 1 | | } } i 8 9 0 0 a b b b c.c.b F.,.f.q.x x x x q.q.f.f.,.,.F.F.c.c.@+@+O.O.N.N.B.i } } | | 1 1 1 | | | | 1 1 2 2 _ 3 3 3 3 _ 2 1 } 8 9 a b c ].t.^.X.d$g$g$#$#$S#S#'$'$'$'$@$@$_$1$q+N+<.O+O+[.P+P+}.Q+$@2+C+C+3.^=y='--+j-j-<+[+-+-+T.E...` Y 0+K$=.-.>.q.,.c.|+B.[ < : T T A.( / ^ ] ] { ~ ) 5 , > j ; $ # + + . .     @ @ k k l l m n n n n n n n m m l k k @     . . . . + + # $ ; > , 5 ! { ] / 4 _ 2 1 1 1 1 2 _ _ 3 4 / ^ ^ ] { ! ) 5 ' ' ",
"q q q r r q p n l   # j ' L.^ 3 : m.N.c.,.g h y y U U U y y y y y y '.h g f ,.F.a 0 9 8 i } [ 1 2 _ 4 7 ] ~ ) ' 6 > j ; ; ; ; ; j j j ; $ $ # # # + + .   @ @ k k k k k k k k k k k k k u>@ @ @ @ @ @ w#w#@ @ @ @ @ k k l l m m m m m m m m m m m m m n o o p p p p p p p p p p p p p o o o o n n m m l l k k k k k @ @ @   . + # $ ; j > > 6 , ' 5 ) ! ~ { ] ] ^ ^ / / / / / ^ ] ] { v ~ ! ) 5 ' , > j ; $ # + k@. .   . . # ; > ' ! ] 3 1 i 0 b e f f f f.c c.9 i | 2 3 / ^ ] { { ~ ~ ! ! ) ) 5 ' , 6 > j ; $ # # + + + + + + . . .   @ @ k k l l l k @ @   . + $ ; > ' ) ! M.{ ] ^ / 4 3 _ 2 1 } } i i i i i i 8 8 8 9 0 0 a b b F.F.b c.F.F.,.f.f.q.q.q.q.q.f.f.f.,.,.F.F.g@c.@+@+O.O.N.B.B.m.} [ | | 1 1 1 | | | | | 1 2 T _ 3 3 3 3 _ 2 | i 9 0 b +>f g i.{./.,+M$S#A#'$'$@$@$@$@$C$_$_$1$q+N+<.O+O+[.P+P+}.Q+Q+$@$@C+C+3.##y='-[+j-<+<+<+-+-+T.F  .@.$.%.n.).;.x f.c.O.B.[ : T A.3 ( ]+^ ] { ~ ! ) 5 ' , > ; $ # + . .         @ @ k k l l m m n n o o o n n n m l l k @ @   . . . . + + # $ ; > , 5 ! ~ ] ^ 4 3 _ _ 2 _ _ 3 4 / ^ ] { { ~ ! ) ' , 6 > > ",
"r r r r q p o l   # - ' ~ / T [ N.s.,.q.>.y -.z S S V V S S S S S S ).-.;.h.h q.f.c b a a 0 9 8 } | 2 3 / ] ~ ) ' 6 > > > > > > > > > j j ; $ $ # + + .   @ @ @ @ @ @ @ @ @ @ @ @ @ @ @ k k k k t$t$t$t$t$t$t$t$k k k k l l l l l l l l l l l l l l m m n o o o o o o o o o o o o o o o o o n n m m l l k k k @ @ @ @ @     . + # $ ; j > > 6 , ' 5 ) ! ~ { { ] ] ^ ^ / / / / ^ ^ ] ] ] { { ~ ! ) ' , 6 > ; $ # # + + + # $ ; > ' ! ] 4 1 i @+c g h y y y '.h f c s.8 } 1 _ 4 / ^ ^ ] ] { { ~ ! ) 5 ' J.> > j ; $ # # # + + + + + . .     @ @ @ k k @ @   . + # $ j > ' ) ~ ] / 4 3 _ 2 1 [ S.8 9 0 0 a 0 0 0 0 0 9 9 0 0 0 a a b c c F.b c.c.F.F.,.,.f.f.f.f.f.f.,.,.,.,.,.F.F.c.@+@+O.N.N.B.m.} [ | | 1 1 1 | | | | | | 1 2 _ _ 3 3 3 _ T 1 } 8 0 b e f g >.h.L+.#(.A#'$'$@$@$_$_$_$t=1$1$q+q+N+<.O+[.[.P+}.}.Q+Q+Q+$@$@$@8#3.3.##'--+j-<+<+[+-+T.E...` #.X W =.-.h.q.,.@+N.m.< T A.( ]+7 #+w ~ ! ) 5 ' , 6 > ; $ # + .       @ @ @ k k l l m m m n n o o o o o n n m m l k k @       . . + # # $ j > , 5 ) ~ { ] / / 4 4 4 4 / ^ ] { ~ ! ) 5 5 ' J.> = $ $ # ",
"s r r q p o ^@@ # > E+i#,@7+i @+c q.>.;.z S V A A A Q.Q.Q.Q.Q.Q.Q.Q.&.w.=.).U y >.g f ].e c b a 0 8 } 1 _ / ] ~ ) ' , , , , , , , , , 6 > j ; $ $ # + . .     @ @ @ @ @ @ @ @ @ @ @ @ @ k k k k k k k k k k k k k k k k l l l l l l l l l l l l l l l m n n o o o o o o o o o o o o o o o n n n m m l l k k @ @ @ @ w#    . + + # $ ; j > y>6 , ' 5 ) ! ~ ~ { { ] ] ^ ^ b./ / / ^ ^ ^ ^ ] ] ] { ~ ) 5 ' 6 > j ; $ # # $ $ j 6 ' ! ] 4 : i 0 c g '.U z S S z ;.'.g e b 9 i | 1 _ 3 4 4 / / ^ ] M.! ) ' , 6 > j ; $ $ # # # # + + + . .                 . . + # ; j 6 ' ) M.^ 4 _ 1 | m.8 9 s.b c d e f.e e c c b b a a a a a a b b c c F.b c.c.F.F.F.F.,.,.,.,.,.,.,.,.,.,.,.,.F.c.@+@+O.N.B.m.m.[ | < 1 1 1 1 | | | | | | 1 2 2 _ 3 3 _ _ 1 | i 9 b e f h '.~.g.g.(.A#5#y+E$@$_$_$1$1$q+q+q+N+<.O+m$[.P+}.}.Q+Q+Q+Q+$@$@$@$@$@8#3.##'--+j-<+<+-+],G ..+.Z ^+9$*.).;.x f.c.O.B.[ : A.4 / ^ ] { ~ ! ) 5 ' , 6 > ; $ + . .   @ @ @ @ @ k k l l m m n n n o o o o o o o n n m m l k k @ @   . . + # $ ; j 6 , 5 ) ! ~ { ] ^ ^ ^ ^ ] { ~ ! ) 5 ' , 6 > j ; $ + .     ",
"s r r p o m @ + j 5 { 4 1 8 r.].>.g.).V *.A Q.Q.B B B B =+=+=+=+R R =+B Q.A V S -.y h.'.h g f e c a 9 i 1 _ / ] <#) 5 ' x.5 5 5 5 5 ' , 6 > j ; $ $ # + + . .                       @ @ k k l l l l a&a&a&a&l l l l l m&k k k k k k k k k k k k k k l l m n n n n n n n n n n n n n n n n n n m m l l k k @ @ @ @       . + + # $ ; ; j > 6 , ' ' 5 ) ! ! ~ { { ] ] ^ ^ ^ / / / / / / / / / ^ ] { ~ ! 5 ' 6 > j ; $ $ ; j 6 ' ! ] 4 2 } 9 b f '.U S A A A V S z y h f c a 9 i } 1 2 _ _ 3 4 / ] ~ ! 5 , 6 > j ; ; $ $ $ # # # + + . . . . . . . . . + + # $ ; > 6 ' ) { ^ 3 2 | i 9 a F.e t.h {.'.'.'.'.h g f f.e c b b a a a b b c c F.b c.c.c.c.c.F.F.F.F.F.F.F.F.F.,.,.,.,.F.c.@+O.N.B.B.m.[ < < : : 1 1 1 | | | | | | 1 1 2 _ _ _ _ 2 | m.9 a c f h '.y U -.N@f+f+y+y+@$@$_$1$1$q+q+N+<.<.O+[.P+P+}.Q+Q+Q+|.|.|.|.$@$@$@$@8#@#####'--+[+-+-+T.E.+.@.$.%.&.=.-.>.q.F.@+N.[ : A.( 7 #+] { ~ ! 5 ' , 6 > j ; $ # .     @ @ k k k k k k l m m n n n o o o o o o o o o n n m l l k k @     . + # $ ; j > , ' 5 ) ! ~ ~ ~ ~ ~ ! ! ) 5 ' 6 > j ; $ $ # +   @ k l l ",
"r r q o m k + ; ' ~ 4 1 N.F.t.~.).V Q.B B B =+=+=+R.R R D.D.D.o.o.o.Q D.R =+B Q.V S z z U y '.h g e b 0 i 1 _ / ] ~ ! ) K.! ! ! ! ! ) 5 ' , 6 > j ; $ $ # # + + . . . . . .           @ k k l l l l l l l l l l l l l k k k k k k k k k k k k k k k k l m m n n n n n n n n n n n n n n n n m m m l k k @ @ @       . . + + # $ $ ; j > > 6 , ' 5 ) ! ! ~ ~ { { ] ] ^ ^ / / / 4 4 4 4 4 4 4 4 / ^ ] { ! 5 ' 6 > j j j > 6 ' ) { / 2 } 9 b f '.U V Q.B =+B B Q.A S U h.g e b a 9 8 i [ | 1 2 3 / ] ~ ) ' , > j j ; ; ; $ $ $ # # + + + + + + + + # # $ $ ; j > , 5 ! { ^ 3 1 } 9 a c f h h.U z S S S S z U y '.h q.e e c b b b b c c c F.b c.c.c.c.c.c.c.c.c.c.c.c.F.F.F.,.,.F.F.c.@+O.N.B.m.[ < : : 2 2 2 : 1 1 | } } | | 1 1 2 _ _ _ 2 1 } 8 0 b f h '.U !.z %+v@v@y+y+@$@$_$_$1$q+N+N+<.O+O+[.P+}.B+Q+|.|.|.|.|.|.|.2+$@$@$@8#8#3.##'--+-+-+T.E.+.@.$.%.&.=.-.h.q.,.c.N.m.< T ( 7 #+w M.L.) 5 ' , 6 > j ; $ # + .   @ @ k k k k k l l l m n n o o o o o o o o o o o o n n m m l k k @   . + # $ * j > 6 , ' 5 5 ) ) ) 5 5 ' , 6 > j ; $ # + .     k l m n o o ",
"r q p n k . $ J.! / 7+8 b t.;.S A B =+R R R R D.D.D.Q o.o.P P P E E P P o.D.R =+B Q.A n.V S z U y h f j.0 i | _ ,@^ { { { { { { ~ ~ ~ ! ) 5 ' , 6 > > j ; $ $ # # # + + + . . . .     @ k k l l l l l l l l l l l l k k k @ @ @ @ @ @ @ @ @ @ @ @ k k k l m m m m m m m m m m m m m m m m m m m l l k k @ @     . . . + + # $ $ ; j > j#6 , ' 5 ) 5+! ~ ~ { { ] ] ^ ^ / / 4 4 4 3 3 3 3 _ _ 3 3 4 / ] ~ ! 5 ' , 6 6 6 , ' ) { b._ | 8 a e h U S Q.=+R D.D.R =+B Q.V %+g.{.g e c c.0 9 8 i | : 3 / { ! 5 ' 6 > > j j j ; ; $ $ $ # # # # # # $ $ $ ; j j > 6 ' ) <#] / _ < i 0 b e x h.U S A Q.Q.Q.Q.Q.A V z U y h g f e e c c c c c c F.b c.c.c.c.c.c.c.c.c.c.c.c.c.c.4>F.F.c.@+@+O.N.m.[ < : : T T A._ T 2 2 1 | | } } | | 1 1 2 2 2 1 } i 9 a e g '.U z S S 4+z@Z.Z._._._$_$1$q+q+N+<.O+O+[.P+}.'@Q+|.p@1.1.1.1.1.C+|.$@$@$@8#8#3.##T.T.T.T.E. .@.$.%.&.=.-.h.x ,.c.O.m.< T ( 7 w M.L.K.) 5 l.6 > j ; $ $ # + .   @ @ k k k l l l l l m n n o o o p p p p p p p p o o o n n m m l k k @   . + # # $ ; j > 6 6 , , , , 6 > j ; $ # + .   @ k k l m n o p q r r ",
"p p n l   # > ) #+T i c.f ~.S .+9.R D.Q o.o.o.o.D P P P E E E F F F E E *+P o.D.R R.=+B 9$Q.A V S U '.f c 0 8 | T ( / ^ ^ ^ ] ] ] ] { ~ ~ ! ) 0.5 ' , , 6 > j ; ; $ $ # # # + + . .   @ @ k k l l k k k k k k l m&k k k @ @ @ @ @ @ @ @ @ @ @ @ @ @ k k k l l l l l l l l l l l m m m m m m l l l k k @ @     . . + + # # $ $ ; j > 6 $+, ' E+)+5+! ~ { { ] ] ] ^ b./ 4 4 3 3 A._ _ :+2 2 2 2 _ 3 4 / ] ~ ! 5 ' ' , ' 5 ) ~ ^ 3 1 i a e g y S A =+D.o.P P D o.D.R.B A 4+z y '.h t.f.c b 0 N.} 2 3 ^ { ! 5 , 6 6 > > > j j j ; ; $ $ $ $ ; ; ; j > > 6 , ' 5 ! i#^ 4 T | 8 a ,.g '.U S w.Q.B =+R R R.=+B Q.V S z y '.h g f e e e e e c F.b c.@+@+@+@+@+@+@+@+@+@+c.c.c.c.9&@+@+O.N.B.m.[ < : T A.A.( ( 3 A._ 2 1 | | } } } | | 1 1 1 1 | i 8 0 c f h y z S V V w.1@b@3#3#_$_$1$1$q+N+<.<.O+[.P+q@'@Q+|.p@1.R+R+R+R+1.1.C+|.$@$@8#8#@#######E.E. .@.$.%.&.=.-.h.x ,.c.O.B.< T ( 7 w M.K.0.5 x., 6 - ; $ $ # # + .     @ @ k k l l l l m m m n o o p p p q q q q q q p p p o o n n m m l k k @   . . + # # $ ; h@j j > j ; $ # + .     @ k l m n n o p %&q 4$s t+t+",
"o n m @ + j ' { 3 } @+].'.).A B R D.o.D P P P P E E E k*F F F F F F F F k*E *+P o.Z D.C R R.!*8&A S U '.q.c 0 8 | 2 _ 3 4 / / / ^ ^ ^ ] ] { { ~ ~ ! ) 0.' , , 6 > - j ; ; $ # # + . .   @ k k k k k k k k k k k k k k @ @ @                   @ @ @ @ k k k k k k k k k k k l l l l l l l l l l k k @ @     . . + + # # $ $ ; j > 6 , 6@' E+)+5+! ~ { { ] ] ^ ^ / / 4 4 3 3 _ :+2 7+7+1 1 1 1 2 _ 3 4 ^ ] ~ ! ) 5 5 ) ! ~ ] / _ } 9 b f '.z V B R o.E E 0&E E P o.C =+Q.A S z U U y h g e b 9 } 2 4 ] ~ ) 5 ' , , , 6 6 > > > j j j j j j > > 6 , , ' 5 ) ~ ] / 3 2 } 9 b f.h y z V Q.B R Y D.o.o.D.D.R B Q.A S z y '.h g f e e e e c F.c.c.@+@+@+@+@+@+@+@+@+@+@+@+@+@+O.O.N.N.B.m.[ < T A.A.( ]+]+]+,@( 3 _ 2 1 | } } } } } | | | | } 8 9 a e g '.U S V A A w.-@<@p+p+X;1$1$q+N+N+<.O+[.[.P+}.Q+2+p@1.#@R+R+R+R+R+1.C+|.$@$@$@8#@#@#@#@#..+.@.$.%.&.=.-.4@q.,.c.O.m.< T ( 7 w L.K.x.x.l.J.y.j ; $ # + + + . .   @ @ k k l l l l m m m n o o p p p q q q q q q q q p p p o o n n m l l k k @ @     . + + # # $ $ $ # + .   @ k l m n n o p q q r r s t+Z%Z+i@i@",
"m l @ + ; , ~ / 1 9 e {.z A B R D.o.P P *+E E E E F F F F G G G G G F F F F 0&E E P P D D Q D.R !*Q.V U '.f c 0 8 } 1 2 _ 3 4 4 4 4 / / ^ ^ ^ ^ ] ] { ~ ! ) 5 ' ' , 6 > g+j ; $ # # + .   @ @ @ k @ @ @ @ @ @ @ @ @ @ @ @                       @ @ @ @ @ k k k k k k k k k k k k l l l l l k k @ @ @     . + + # # $ $ ; ; j > 6 , ' ' 5 )+5+! ~ { ] ] ^ ^ / / 4 4 3 3 _ _ 2 2 1 ;+| u u u | | 1 2 3 4 ^ w ~ ! ! ! ! ~ { ^ 3 1 i @+e h ;.S Q.=+Q P F F G G F F E 5*D.R B Q.A A V S z y h f b 8 | _ / ] ~ ! ) 5 5 ' ' ' , , 6 6 6 > 6 6 6 , , ' 5 )+5+~ { ^ / _ 1 i 9 b f '.U L&A B R D.o.P P P P P o.D.R B Q.w.S U y '.g f e e e c c b c.@+@+@+@+@+@+@+@+@+@+@+@+@+O.O.N.N.B.m.[ < : T A.( ]+7 7 7 7 7 ]+4 3 2 1 | } } } } } } } } } i 8 0 b e h y z S V A .+.+~@S@S@S@v.v.q+q+N+<.O+m$[.P+}.'@Q+2+p@1.#@R+R+R+R+1.1.|.$@'@=#7#7#7#+.+.+.@.#.$.%.&.).;.>.w+F.@+N.m.< T ]+#+M.L.0.x.J.J.y.- = * # + . . . .     @ @ @ k k l l l m m n n o o p p q q q r r r r r r q q q p p o o n n m m l l k k @ @       . . . . . . @ k l n n o p p q r r s s t+t+Z+Z+i@i@P#P#",
"@   + ; 6 ! ^ 2 B.b i.U V Q.=+D.o.` P  .E E E b&F F F F G G G G F F F F F F F F F E E E E *+D Q R =+&.S g.h e b 9 i | 1 2 _ _ 3 3 3 3 3 4 4 4 4 4 4 / ^ ] { ~ <#! ) 5 ' , 6 > j ; $ # + .   @ @ @ @ @ @ @ @ @ @ @ @ @                             @ @ @ @ @ @ @ @ @ @ @ @ @ @ k k k k k k k k @ @       . . + # # $ $ ; j j > 6 , ' ' 5 ) 5+! ~ { ] ] ^ / / 4 4 4 3 3 _ _ 2 7+1 | u } S.i i i } | 1 2 3 / ^ ] { ~ ! ~ { ] / 3 1 8 a e h U V 8&R o.E F G G H G G F E P o.R =+=+B B Q.A S U h f.a 8 | _ 4 ^ { ~ L.! ! ) ) 0.5 5 ' ' ' ' ' ' 5 5 ) ! ! { ] ^ 4 _ < i 0 c f '.z V Q.=+D.o.P E E 0&0&E E P o.D.=+B A V z y '.g f e c c c b c.a @+@+@+@+@+@+@+@+@+@+F%O.O.O.N.B.m.i+[ < : T A.( ]+7 #+#+w #+#+7 ]+3 _ 1 | } i i i i i } } i i 9 0 b e h y z S V A .+.+~@~@v.v.:.q+[@N+<.O+m$[.P+}.B+Q+2+|.U*p@1.1.1.1.1.|.|.Q+=#x@x@b!-#-#-#-##.#.X W *.).L+x f.c.O.B.[ : A.]+p%{+K.x.u#y.- = = * % & .     @ @ @ @ @ @ @ k k k l l m m n n o o p p q q r r r s s s r r r O;q q p p o n n n m m l l l k k k k @ @ @ @ @ @ k l n o p q r r s s t+t+Z+Z+Z+i@i@i@P#P#P#P#",
"# # ; 6 ) ] _ } a f y S Q.B R D.o.P P *+E E E b&F F F F F F F F F F F F F F F F F F F F F k*E P o.R B *.z '.g c a 8 i | 1 2 2 _ _ _ _ _ _ _ _ _ _ _ _ 3 4 4 / ^ ] { ~ ! ) x., 6 > j ; $ + .                                                           @ @ @ @ @ @ @ @ @ @ @ @ @ @ k k @ @ @ @ @     . . . + # # $ $ ; j j > 6 , ' ' 5 ) 5+! ~ { ] ] ^ / 3'4 3 3 3 _ _ 2 2 1 1 | } i U.8 8 8 8 8 i | 1 _ 3 / ^ { { ~ ~ { ^ 4 _ | 8 c.f '.z V B R o.E F G H H H K&G F E P o.D.C R R R.B Q.V U h e s.U.| 2 3 / ^ ] ] ] { { ~ ~ ! ! ) ) ) ) ) ! ! ~ { ] ^ / 3 2 | i 0 c g '.z 5&B R.Q D E 0&F F F F F 0&7&5*D.R B Q.V z y h g e c b b b a a @+@+O.O.O.O.O.O.O.O.O.O.O.O.N.B.m.[ < : T *#I@]+7 #+#+w M.M.M.w #+/ 4 _ 2 | } i i 8 8 i i i i 8 9 0 b e g y z S V A A .+~@c@c@m@z+N+N+<.O+O+[.P+}.;$Q+Q+2+2+|.|.|.|.|.|.|.Q+'@}.P+y@o@/#d+d+d+d+X %.W *.D@h.u+,.@+N.m.< T ( 7 w L.0.l.|#- = * % % & 9+i$w#@ k k k k k k k k k k k l l m m n o o p p q q r r r s s s s s s r r r q q p o o P.n n m m m m l l l l l l l l l m m o p r s s t+t+Z+Z+Z+i@i@i@P#P#P#P#P#P#P#P#",
"j j 6 5 { 3 | O.e '.z A B =+D.o.o.P P +.E E E E F F F F F F F F F F F F F F F F F F G G z&F F E P D.=+Q.S y h e b 0 8 } | 1 1 2 2 2 2 2 1 1 1 1 1 1 1 1 2 2 _ 3 4 / ^ ] { ! ) 5 ' 6 > ; $ # + + + + + + + + + + + . . . .                                                   @ @ @ @ @ @ @ @       . . . + # # $ ; ; j > > 6 , ' ' 5 ) ! L.~ { ] ] ^ / 4 4 3 (@_ _ 2 2 2 1 ;+| } i 8 V.9 p.0 9 9 8 } | 2 _ 4 / ] { { { ] ^ 4 _ | N.b f '.z A B D.D E F G H H H H G G F E P D o.o.o.D.R =+Q.V U i.c @+8 } 1 _ 3 4 4 4 / / ^ ^ ] ] { { { { { { ] ] ^ / 4 /+2 | 8 0 c g y z n.B R Q P E F G G G G G F 0&7&5*Q R B .+V z y h f ,.b b a a @+0 0 O.O.O.O.O.O.O.O.O.O.O.O.N.N.B.[ < : T A.( ]+7 #+w M.M.L.L.L.M.w ^ / 3 2 | } i i 8 8 8 i i i 8 9 0 a d g '.U S V w.A .+~@c@c@z+N++@<.O+O+[.P+q@}.Q+Q+Q+Q+Q+Q+Q+$@$@Q+Q+}.q@P+[.o@}@4#4#_+w@U@U@&.*.=.-.>.q.F.@+B.[ : A.]+#+M.K.x.J.y.= * % & 9+9+i$  @ k a&l l l k k k k k k k k l l m n n o o p p q q r r s s s s s s s s r r r q q p p o o n n n n n n n n n n n n n n o p q 4$t+Z+Z+Z+i@i@i@P#P#P#P#P#P#P#P#P#P#P#P#",
"6 , 5 ~ / 1 N.F.x U *.B =+Y o.o.P P +.E E E E F F F F F F F F F F F F F F F F E.G G G G G G E.F E o.R B V z '.t.c a 9 8 } | 1 1 1 1 1 | | | } } } } m.} } } | | 1 :+3 4 ^ ] ~ ! ) ' , > j ; $ $ # # # # # # # # # # + + + . . . . . . . . . . . . . . .                       @ @ @ @ @ @ @       . . + + # $ ; ; j > 6 , , ' 5 0.) ! ~ ~ { ] #+^ / 4 4 3 _ _ 2 2 : 1 < | } m.i 8 9 0 0 0 0 0 9 8 i } 1 _ 3 / ^ ] { ] ^ / 3 : } O.c g y S &.=+D.P E F G H H -+H H G G F 0&E E P P P o.D.=+Q.S y g c a 9 i | 1 2 2 _ _ A.3 3 4 4 / / / / / / ,@4 3 A.2 1 } 8 0 c g y z A B C D *+0&z&G C.H H K&G t&0&7&5*D.R B A =.-.~.i.f c b a a @+0 0 O.O.O.O.O.O.O.O.O.O.O.O.9 N.B.m.[ < : _ 3 ]+7 #+w M.L.L.K.K.! L.{ ] / 4 _ 1 | } i i i i i i i 8 9 0 a c g '.U z S V A .+.+U@w@w@+@}@L@o@[.K@x@q@=#'@'@'@'@'@'@'@'@=#}.x@K@[.o@}@+@z+c@<@Y+Y+t@%+).-.h.x f.c.O.m.< T ( 7 ] M.K.x., y.= * # 9+. i$w#w#t$k a&l l l l l l k k k k k k l l m m n o o p p q q r r s s s s s s s s s r r O;q q p p p o o o o o o o o o p p p p q q r s t+Z+i@i@i@P#P#P#P#P#P#P#P#P#P#P#P#P#P#P#",
"' x.K.] _ i c.q.y S Q.=+D.o.P P +.E E E ....F F F F F F F F F F F F F F F E.E.G G G G T.T.T.G E...P D.=+&.S ;.h f c a 9 i } | | | | | } } i i 8 8 8 9 9 9 9 8 B.i } 1 2 3 4 ^ { ~ ) 5 , 6 > - j j j j ; ; ; ; ; $ $ $ # # + + + + + + + + + + + + + + . . . . . !+          @ @ @ k k @ @ @     . . + + # $ ; ; j > 6 , ' x.0.) K.! ~ M.{ ] #+^ / ]+4 3 _ T 2 : 1 | | } m.i 8 9 0 0 a a a a 0 0 8 i } 1 2 3 4 / ^ ] ^ / 4 T | 8 a e h U V B R o.P F G T.H -+-+-+-+H H G G F F F ..E P o.D.=+&.).h.g ,.c.O.8 i } } } | | 1 1 2 2 2 2 2 2 2 2 : 1 1 | } i 9 a c f '.z A B C D E F G T.H H H H H G F 0&P o.D.=+W w.S U '.x f.c b a a @+0 O.9 N.N.N.N.9 9 9 9 O.O.9 9 N.B.m.[ 1 2 A.( ]+^ ] M.L.! ) 0.0.) ! ~ w ^ / 3 _ 1 ;+| } } } } S.i U.V.0 a c f {.y z S V A .+U@&@_+4#!@^#o@|@y@)@x@_#%@%@%@%@%@%@%@%@%@x@)@|@o@n@M@m@S@1@z@v@N@g.~.'.>.g f.F.@+8 [ : A.]+#+{ ~ K.5 l.y.j * # + i$  @ t$k a&l l l l l l l l k k k k k k l l l m n n o o p p q q r r r s s s s s s s s r r r q q q p p p p p p p p q q q r r s s t+t+Z+i@i@P#P#P#P#P#P#P#P#P#P#i@i@i@i@i@i@i@i@",
"0.) M./ 1 O.f.'.z n.%.$.Z P  .E ........F F F F E.E.E.E.E.E.E.E.E.E.E.E.E.G G G G T.T.T.H C.T.G F E o.R W *.z ~.x f.F.@+N.i } } | | } i i 8 9 9 0 0 0 a a a a 0 O.N.i } 1 _ 3 / ] ~ ! ) 5 ' ' , , , 6 6 > > > j j j ; ; $ $ $ $ $ $ $ $ $ $ $ # # # # + + . . . . .         @ @ k k k k k @ @   !+. + # $ $ ; j > , l.' 5 ) K.L.~ M.{ w #+^ 7 / ]+4 3 A.T 2 1 < [ } m.B.N.9 0 @+a b b b b a 0 9 8 i } 1 2 3 4 / ^ ^ / 4 _ 1 m.O.F.g y S A =+D.` E F G T.H -+-+-+-+-+-+H H G G G F F E P o.$.B *.-.'.g e b a 0 9 9 N.8 U.i i } m.i i i i B.8 8 8 8 9 9 0 b c f '.!.*.B C D E F G H H -+-+-+-+H G F E P #.R %.&.V ).;.'.x f.c b c.a @+0 O.N.8 8 8 8 N.N.9 9 9 9 9 9 N.8 i [ 1 2 A.4 / #+{ ~ ! ) 0.5 5 0.K.~ { ] ^ 4 3 _ 2 7+1 | | | u } i 8 0 a c f h y U S V A Q.I._+ + +d+8.`.7.-#6.6.6.M#7.7.M#6.6.6.6.)@7./#!@U+&@~@Y+t@!.g.~.>.x q.f.c b @+N.} 1 _ 4 ^ w ~ ! ) 5 l.6 - ; % + .   @ k a&l l l l l l l l k k k k k k k k k l l l m m n n o o p p q q r r s s s s s s s s r r r r r q q q q q q r r r r s s t+t+Z+i@i@P#P#P#P#P#P#P#i@i@i@i@i@Z+Z+Z+Z+Z+i@i@i@i@",
"K.L.w ( m.c.x -.V W X D.`  ...a#F F F F E.E.E.E.E.E.E.E.E.E.E.E.E.G G T.T.T.T.T.T.T.T.T.H H T.T.E...@.$.%.&.=.-.h.g ,.c.O.8 i } } } } i 8 9 0 a a b b F.c c c c b a 0 8 i | 2 3 / ] { ~ ~ ! ! ) ) )+5 ' ' , , 6 6 > > j j j ; ; ; ; ; ; ; ; ; ; ; $ $ # # + + . . . .     @ @ k k k k k k k @   . . + # $ ; j > 6 ' x.0.K.! L.M.{ w #+#+7 7 ]+]+( 3 A.T : 1 < [ m.B.N.O.0 @+c.b F.c c b b a 0 9 8 i | 1 2 _ 3 4 / / 4 3 2 [ 8 s.e >.-.V B R o.P ..E.T.T.-+-+-+-+-+d.d.d.-+H H T.G E...E P #.X &.=.g.>.g e c b a a a 0 0 9 9 9 9 0 @+a a b b b b b b c e f g '.U V I.R o.E F G H -+-+d.I -+-+T.G F E @.D.X W &.=.z ;.>.x f.,.F.c.c.@+0 O.N.8 8 8 8 8 8 N.9 9 9 9 9 9 8 i } < 2 _ ( / ^ { ~ K.) 5 5 5 5 ) ! { ] ^ / / 4 3 _ _ 2 7+1 ;+u S.U.9 a b e g '.U z V A Q.I.%. +k.$.'+D+D+-#6.D+D+'+N#N#'+'+7.7.`.'+k.9.I.~@4+%+N@L+{.i.q.e c r.s.O.8 m.< T z./ ] M.! ) 5 ' , 6 > ; $ # 9+  @ k l l m m m l l k k k k k k k k k k k k k l l l m m n n o o p p q q r r s s s t+t+t+s s s s s s r r r r r s s s s t+t+Z+Z+i@P#P#.$.$.$.$P#P#P#i@i@i@Z+Z+t+t+t+t+t+t+Z+Z+Z+Z+",
"M.w 7 T N.n+_@=.&.%.^+Z `  ...a#F ......a#a#F F F F E.E.E.E.E.E.E.T.T.T.T.T.T.T.T.T.T.T.-+-+T.T.E...` #.X &.=.-.h.x f.F.0 8 i i } } i 8 9 0 a b b c c e e f f e e c b a 9 i | 2 3 / ^ ^ ] ] ] { { ~ ~ ! ) ) 5 ' ' , , 6 6 > > > > > > > j j j j j ; ; $ # # + + + . . .     @ @ k k k k k k @   . + # $ ; j > 6 , ' 5 ) ! ~ M.w w #+7 7 ]+]+( 3 A.T T : < [ } m.B.N.O.@+c.F.c ,.,.e c c b a 0 9 8 } | 1 2 3 3 4 J#4 4 _ 1 m.N.c.f h.z A B R o. .F E.T.T.H -+-+-+-+<+<+d.d.d.-+H T.G E...+.@.$.W *.-.h.h q.e c F.b b b a a a a a b c e e f f g g q.g g x h ~.U S Q.^+o.E F G H -+d.d.<+I -+-+T.E.a#+.@.$.X W &.=.).;.h.x q.,.F.F.c.c.@+O.N.8 i i 8 8 8 8 9 9 9 9 9 9 8 i } | 1 _ 3 4 ^ ] ~ ! ) ) 5 5 ) ) ! ~ { ] ^ ^ / 4 4 3 _ _ :+7+1 | S.8 9 a c f h '.U S V &.W %.=+k.$.D.D+o.o.D+D+'+R A;A;A;k.k.k.9.9.I..+4+%+g.~.i.t.f.j.r.s.O.8 i } < 2 3 / ] { ! ) x.l., 6 > g+; $ # + . @ k a&l m m m m l l k k k k k k k k k k k k k l l l m m m n h&o t p q q r r s s t+t+t+t+t+t+s s s s s s s s s s t+t+t+Z+Z+i@i@P#P#.$.$.$.$P#P#P#i@i@Z+Z+t+t+t+s s s s s t+t+t+t+",
"#+7 I@h+@+x D@6&9$l+$.Z ` +.................................E.E.E.T.T.T.T.T.T.T.T.T.T.T.-+-+T.T.E...` #.X W *.)._@x f.F.@+9 8 i i i i 8 9 0 a b c e f.f q.g g g f f e c a p.8 } 1 _ 3 4 4 4 / / ^ ^ ] w { ~ ! ! ) 0.5 ' , , , 6 6 6 6 6 6 > > > j j ; ; $ # # # + + . .     @ @ @ k k k k @ @   . + # $ ; j > 6 l.x.0.K.L.M.w w #+7 7 ]+( ( A.T : : < [ m.m.B.N.O.@+c.F.,.,.f.f.f.e d c b a 0 8 i } | 2 _ 3 3 4 4 4 3 _ 1 m.O.F.q.y S A =+D.o.E a#E.T.T.T.-+-+-+-+d.<+<+<+d.d.-+H T.E.E...@.$.%.*.).;.>.q.e c F.b b a a a a a b c e f g h h '.'.'.'.'.y U z S A =+D.P F G H -+-+d.d.I -+-+-+T.E...+.@.$.X W &.=.).-.h.>.q.f.,.F.F.c.@+O.N.8 i i  $8 8 8 9 9 9 9 9 9 9 8 i } | 2 _ 3 / ^ ] ~ ~ ! ) ) ) ! ~ ~ { ] ] ^ ^ / / 4 4 z.3 /+:+7+;+} i 9 a c f h y z S *.&.W %.X R D.D.D+D+D+D.R A;H;B B B B I..+w.4+).g.'.g ].c r.0 9 8 i } ;+: _ 3 ,@^ { ! ) ' , 6 > > j j ; $ # + .   @ k l m m n n m l l k k k k k k k k k k k k k l l l m m n n o o p p q q r r s t+t+t+Z+Z+t+t+t+t+t+t+t+t+t+t+t+t+t+Z+Z+Z+i@i@i@P#.$.$.$.$P#P#i@i@i@Z+Z+t+t+s s r r r r r s s t+t+",
"( A.: B.F.v+=.:;%.X $.#.@.+.+.+.+.+.+.+.+.+.+.+.+.+.+.+.......E.E.T.T.T.T.T.T.T.T.T.T.T.T.T.T.T.E...@.Y %.&.=.-.h.x f.F.@+9 8 i i i 8 8 9 0 a b ,.f.f q.g g g g g g f e c a 0 8 } | 7+2 2 _ _ 3 3 4 4 / ^ ] ] { ~ ~ ! ) 5 5 ' ' ' ' , , , 6 6 > > j j ; ; $ $ # # + + . .       @ @ @ @ @ @   . + # $ ; j > 6 , ' 5 0.K.L.M.w #+7 7 ]+( A.T T : < [ m.B.N.N.O.@+c.c.F.,.f.q.q.q.f e c 1'a 0 9 8 i | 1 2 _ 3 4 4 4 4 3 _ < i O.F.q.y S A =+D.o.+...E.E.T.T.T.H -+-+-+I <+<+<+<+d.-+T.T.E...@.$.J+*.-.h.x f.,.b c.a a 0 0 0 0 a b c e f g h '.'.y y y U z S V &.B D.P E G T.H -+-+-+-+-+-+-+T.T.E...+.@.$.X %.&.*.=.-.;.>.x q.f.,.,.F.c.0 9 8 i i  $8 8 8 9 9 9 9 9 9 9 8 8 i } | 2 _ 3 4 ^ ] { { ~ ~ ~ ~ ~ { { a.] ] ^ ^ ^ / / / 4 4 3 /+:+1 | i 9 a c f h y z S V A Q.B =+R R D.D.'+R =+B B;Q.h*A w.V S z g.'.x ].j.a 9 U.} | 1 : T A.( / ^ { ~ ) 5 , 6 > j ; ; ; $ $ # + .   @ k l l m n n n m m l l l l l l l l l l l l l l l l l m m n n o o p p q r r s s t+Z+Z+Z+Z+Z+Z+Z+Z+Z+Z+Z+Z+Z+t+t+Z+Z+Z+Z+i@i@i@i@P#P#.$.$P#P#i@Z+Z+Z+t+t+s s r r q q q q q r r s s ",
"T : [ 2@s+_@*.J+*,X $.#.{;@.@.` @.@.@.@.@.@.@.@.@.@.` +.+.+.....E.E.T.T.T.T.T.T.T.T.T.T.T.T.G E...+.{;$.%.&.).;.>.q.,.c.0 N.8 i i i i i 8 9 0 c.F.e f.q.g g g h g g g f e c b 0 9 i } u | | 1 1 2 2 _ 3 ( 4 / ^ ^ ] { ~ ! ! ) ) ) 5 5 ' ' , 6 6 > > j j ; ; $ $ # # # + + . .                 . + # $ ; j > 6 , ' 5 ) K.L.M.w #+7 ]+( A.T : < [ m.B.N.O.@+@+c.F.F.,.,.f.q.x x q.f e c b a 0 9 i } | 1 2 l$3 4 4 4 4 3 T < i 9 b q.y S A =+$.o.+...F E.T.T.T.T.H -+-+-+-+<+<+<+d.-+-+T.E...@.$.W =.;.>.q.,.c.@+O.9 9 8 8 9 9 0 a b e f g h '.y y U z z S w.Q.B R o.E F G T.H -+-+-+-+-+-+-+T.G E...+.Z $.X %.W &.=.).-.h.>.q.f.f.,.,.b @+9 8 i i  $8 8 8 9 9 9 9 0 0 9 9 8 8 i } | 1 2 3 4 / / ^ ] ] { { { { { ] ] ] ] ^ ^ ^ ^ ^ b./ / 4 3 _ 2 | i 9 a c f h y U z S V A Q.B =+=+=+=+B Q.A i*V S %+z U y '.x f c a 9 8 } 1 2 _ 3 4 ]+7 #+{ ~ ! 5 ' 6 > j ; $ # # # # + . .   @ k l l m m n n n m m l l l l l l l l l l l l l l l m m m n n o o p p q q r s s t+Z+Z+Z+i@i@i@i@i@i@i@i@Z+Z+Z+Z+Z+Z+Z+i@i@i@i@i@i@P#P#P#P#i@i@Z+t+t+t+s s s r r q q p p p p q q q r ",
"T : [ O.f.;.e&J+*,X $.#.#.@.@.@.@.@.@.@.@.@.@.@.@.@.@.@.@.o&+.....E.E.m+E.E.E.E.E.E.E.E.E.E.E...+.@.$.%.&.=.-.h.q.,.c.0 N.i } } | | | | } i 8 O.a F.,.f.f q.g g g g g g f f e b a 0 9 8 i i } } | 1 1 2 _ _ 3 4 / / ^ ] { { ~ ~ ! ! ) ) 5 ' , , 6 6 > > j j ; ; $ $ # # + + . . . .         . + # $ ; j > 6 , l.x.0.K.L.M.w #+7 ]+( A.T : < [ B.N.O.@+c.c.F.F.,.,.f.f.q.x x x g f e c b s.9 8 i | 1 2 _ 3 4 4 / 4 4 3 2 | i 9 b q.y S A %.R o.+...a#E.E.T.T.T.T.H -+-+-+-+d.d.-+-+-+T.E.E @.X &.).h.x ,.c.O.N.B.S.} } } i i 8 O.a c e f g h '.y U z S *.Q.B R Q P 0&G G T.H -+-+-+-+-+-+T.T.E...+.@.#.$.X %.W &.*.).-.;.>.x q.f.f.,.F.s.9 8 i i  $8 8 8 9 9 9 9 0 0 0 9 9 9 8 i } | 1 2 _ _ 3 4 / / ^ ^ ] ] ] ] ] ^ ^ ^ ^ ^ ^ ^ ^ ^ / / 4 3 _ 2 | i 9 a F.e q.h '.y U ).4+V A A A A *.V S z U y '.h x q.e c b 0 8 } | 2 _ 4 / ^ #+w M.L.! ) ' , 6 j ; $ # + + . . .     @ @ k l l m m n n n n m m m l l l l l l l l l l l l m m m m n n o o p p q q r s s t+t+Z+i@i@i@i@i@i@i@i@i@i@i@i@i@i@i@i@i@i@i@i@i@i@i@i@i@i@i@Z+Z+t+s s s r r r q q p p o o o o p p p p ",
"T u@h+2@s+_@E@W %.X $.$.#.{;{;{;#.#.#.#.#.#.#.#.#.#.#.#.{;@.@.+...F@F E.E.E.E.E.E.E.E.E.a#....+.@.#.X W *.-.h.x ,.c.O.8 m.| 1 2 2 _ _ _ 2 2 < } 8 0 c.c e e f f g g g g g g f e c b a 0 9 8 8 i } } | 1 1 2 _ 3 3 4 ,@/ ^ ^ ] ] { { ~ ! ) 5 ' ' , 6 6 > > j j j ; ; $ $ # # + + + . . . . . . + # $ ; j > 6 , ' 5 0.K.L.M.w #+7 ]+A.T : [ m.B.N.O.c.c.F.,.,.f.f.f.q.q.x x x x q.f.,.F.a 0 9 i } | 7+_ 3 4 / / / / 4 3 _ < i 9 b q.y S A %.R o.P E ..E.E.E.G T.T.T.H -+-+-+-+-+-+-+T.G F +.#.%.*.-.>.f.c.O.B.u ;+1 2 2 2 1 | } i 9 a b e f g '.y U z V A B =+D.o.*+F F G T.T.T.T.-+-+T.T.T.T.E...+.@.#.$.X %.W &.*.=.-.;.>.x q.q.f.,.F.a 9 8 i i 8 8 8 8 9 9 9 9 0 0 0 0 0 9 9 8 8 i } | | 1 2 _ _ 3 4 4 / / ^ ^ ^ ^ ^ ^ ^ ^ ^ ^ ^ ^ ^ ^ / 4 3 _ 2 | m.8 9 @+b c e t.h '.y U !.z z !.-.;.'.h g f ].e c b a p.8 i | 1 _ 3 / ^ ] { ~ ! ) 0.x.l.6 > j ; $ # + . .     @ @ k k k l l m m m n n n n n m m m m m m m m m m m m m m m m n n n o o p p q q r r s t+t+Z+i@i@i@P#P#P#P#P#P#P#P#P#P#i@i@i@i@P#P#P#P#i@i@i@i@i@i@Z+Z+t+s r r r q q p p o o n n m m n n o o o ",
"( A.: B.F.v+t@&.J+%.X $.#.{;{;#.#.$.$.$.$.$.$.$.$.$.$.$.#.#.{;@.+. .E ..............E +.+.+.@.Z $.X W *.a@h.x ,.c.O.B.[ < 2 _ 3 4 / / / / 4 3 2 | i 9 @+b c e e f q.g g h h h g f e c b a 0 9 8 i i } | | 1 2 2 _ 3 3 3 4 4 4 / ^ #+] ~ ! ) 5 ' ' , , 6 6 > > j j j ; ; $ $ # # + + + + . . + # $ ; j > 6 , ' ' 5 ) ! L.M.w #+]+( T : [ m.B.O.@+c.F.,.f.f.f.q.q.q.q.x x x x x q.f.c b @+O.8 i } 1 2 _ 4 / / ^ ^ / / 3 _ 1 i 9 b t.y S A %.R o.P E ....E.E.E.G T.T.T.T.-+-+-+-+-+T.T.E...@.$.W t@h.q.F.O.S.;+2 /+z.4 4 4 3 _ 7+| i 9 a b e f h '.y z S A B R D.P 7&E F E.}+G T.T.T.T.T.T.T.E.E...+.@.#.$.X %.W &.*.=.-.;.h.x q.q.f.,.F.a 9 8 i i 8 8 8 8 9 9 9 9 0 0 0 0 0 0 0 0 9 V.8 i i } } | 1 1 2 _ 3 3 4 4 4 / / / / ^ ^ ^ ^ ^ ^ ^ ^ / 4 3 _ 2 1 | } i 8 9 0 b c e f g h >.>.>.x t.].d j.b a 0 9 8 i } | 1 _ 3 4 / ^ { ~ ! ) 5 ' , J.6 > j $ # + + .     @ k l l l l m m m m m n n n n n n n m m m m m m m m m m m n n n n n o o p p q q r r s s t+t+Z+Z+i@P#P#P#P#P#P#P#P#P#P#P#P#P#P#P#P#P#P#P#P#P#i@i@i@i@Z+Z+t+s r q q p p p o o n n m m l l m m n n n ",
"7 ]+A.[ @+x -.*.&.W %.>@$.(+#.(+$.$.X X X X X X X X X $.$.$.#.#.@.` ` ` ` ` ` @.@.@.@.@.@.#.#.$.%.W *.).h.x ,.c.N.m.| : _ 3 / ^ ] { { ~ M.{ ] / _ 1 m.8 0 a b c e f g g h '.'.h h g f c b a 0 9 9 8 i i } | 1 1 2 2 2 2 2 _ _ 3 4 / ^ ] { ! ) 5 5 ' , , 6 6 > > > @&j j ; ; $ $ # # # + + + + # $ ; j > 6 , ' 5 ) K.! ~ { ] 7 ]+A.: < m.B.O.@+c.W+,.f.q.q.q.q.q.x x x x x x q.f.,.F.c.0 9 8 } | 7+_ 3 4 / ^ ^ ^ ^ / 4 _ 1 i 9 b g y S A %.R o.P +.....E.E.E.E.E.T.T.T.T.T.T.T.T.T.E...+.#.X -@-.G+,.@+B.;+T z./ ^ ] ] ^ / 4 3 2 | i 9 0 b e f h '.U S A B R o.P P E E F E.E.E.T.T.T.T.T.T.E.F ..+.@.#.$.X %.W &.*.=.-.;.h.x q.q.f.,.F.@+9 8 i i i 8 8 8 9 9 9 9 0 0 0 a a a a a a 0 0 9 9 9 8 8 i } } | 1 2 _ 3 3 3 4 4 / / / / ^ ^ ^ ^ ^ / / / 4 3 _ _ 2 : 1 | i 8 9 0 a F.c ,.,.,.c b a 0 9 8 i } | 1 1 2 _ 3 4 / ^ ] { ~ ! ) ' , 6 > > j ; $ # + . .     @ k l m n n n n n n n n n n n n n n n n n n n n n n n n n n n n o o o p p p q q r r s s t+t+Z+i@i@P#P#P#.$.$.$.$.$.$.$.$.$.$.$.$.$.$.$.$P#P#P#i@i@Z+Z+t+t+s r q p p o o n n n m m l k k k l l l m m ",
"#+#+]+: N.f.h.).*.&.W %.X >@$.$.>@X X X  +%.%.%.%.%.%. +X X X $.Y #.Z Z Z #.#.#.#.#.#.$.$.p&X %.&.*.).h.x ,.c.N.m.< T A.4 7 ] { ~ ! ) ) ) ) ! { / A.1 } i 9 0 b c e f g h '.'.'.'.h g f e c b a 0 0 9 8 8 i } } | | | | | | 1 2 _ 3 4 7 ] { ! ) 5 5 ' , , 6 6 6 > > > j j ; ; $ $ $ # # # # # $ ; j > 6 , ' ' 5 ) ! ~ M.w #+7 ( T < [ B.O.@+4>,.f.f.q.q.x x x x x x x x x x q.f.W+c.@+O.8 i } 1 2 _ 3 / / ^ ^ ^ ^ / 4 _ 1 i p.F.g y S A %.R o.P +.E ......E.E.E.E.T.T.T.T.T.E.E.E...+.#.X W =._@q.c.N.[ :+( 7 '#i#~ ~ ~ { ^ / 3 2 | i N.0 b e t.h y z A B R o.P P E E ..F F E.E.E.T.T.E.E.E...+.@.Z #.$.X %.W &.*.).-.;.>.x q.f.n+,.b @+9 8 i i i 8 8 8 8 9 9 0 0 0 a a b b b b b b c.a a a 0 0 p.9 8 i } | 1 2 2 _ _ 3 3 4 4 / / / / / ^ ^ / / / / 4 4 4 3 3 _ 2 1 | } U.V.9 0 0 0 O.N.B.} | 1 2 T _ 3 ( 4 / ^ ^ ] { { ~ ! ) 5 , j#- j ; ; $ # + .     @ @ k l m n o o o n n n n n n n n n n n n n n n n n n n n n n o o o o p p p q q r r s s t+t+Z+Z+i@i@P#P#.$.$.$.$.$.$.$.$.$.$.$.$.$.$.$.$.$.$.$P#i@i@Z+Z+t+t+s r q p o o n n m m m l l k k @ k k k l l l ",
"M.M.#+A.m.c.<%;.).=.&.W %.l+X X X %.%.%.%.%.%.W W W W W _+%.%.l+X ^+$.$.$.$.$.$.$.X X X %._+U@*.=.-.h.x ,.c.N.m.< T ( / ^ w ~ ! 5 ' , , , ' 5 ! { b.3 2 | i 9 0 b c e g h '.'.'.'.'.h g f e e c c b b a 0 0 9 9 8 8 8 i i i } | 1 2 _ 4 b.] { ! ) 5 5 ' , , , 6 6 6 > > j j j ; ; $ $ $ $ $ $ ; j j > 6 , ' 5 ) ) ! ~ { ] 7 ]+A.: [ m.N.@+c.F.,.f.q.q.x x x x x x x x x x q.f.,.F.c.O.N.B.} | 1 2 3 4 / / ^ ^ ^ ^ / 4 _ 1 i 0 c g y S A %.R o.P +.+.........a#E.E.E.E.E.E.E.E... .` #.d+_+*.-.b+,.F%m.: ( 7 { <#K.) ) ) ! { ] / 3 2 | i 8 0 b e g '.!.V B R o.P P  .E E ..F F E.E.E.E.E.E.....+.@.#.#.$.X %.W &.=.).-.h.>.x q.f.,.F.c.0 9 8 i i i i 8 8 8 9 9 0 0 a a b c c e e d c c c c c b b b a 0 9 8 i } | | 1 2 2 _ 3 3 3 4 4 4 / / / / ^ ^ ^ ^ ^ ^ ^ ^ / 4 4 3 _ 7+| | } } } u | 1 2 _ 3 4 / ^ ^ ] ] ] { { ~ ~ ~ ! ! 5 ' 6 j ; ; $ $ # + .     @ k k l m n o p p o o o o o n n n n n n o o o o o o o o o o o o o o p p p q q q r r s s t+t+Z+Z+i@i@P#P#.$.$#&#&#&#&#&#&#&#&#&#&#&#&#&#&#&.$.$.$P#i@Z+Z+t+s s r q p o n n m m m l l k k k @ @ @ @ k k k l ",
"K.K.M.]+< O.,.x h.-.=.*.&.W -,-,-,W W W W W W &.&.&.&.&.&.&.W W 9$%.0+X X X X %.%.%.W W &.*.=.).-.h.x ,.9&N.m.< T ( 7 #+{ L.) 5 , 6 > > > > 6 ' ) { ^ 4 2 | i 9 a b e f x '.'.'.'.'.h h i.g g f f f f e e c c b b a a 0 0 9 8 i } | 7+_ 4 ^ ] ~ ! ) 5 ' ' ' , , 6 6 6 > > j j j ; ; ; ; ; ; ; j j > 6 6 , ' 5 ) ! ~ { ] ^ ]+( T < m.N.O.c.F.,.f.f.q.q.x x x x x x x x x q.q.f.,.c.@+9 8 i } < 2 _ 3 4 / / / ^ ^ ^ / 4 _ 1 i 0 c g y S .+B R #.@.P +.+...........E.E.E.E.E.....+.@.#.X _+-@).h.w+c.N.[ /+b.w L.)+E+' ' 5 ) ! { ++/ 3 2 | i 8 0 j.f h U S Q.X D.` P P E E E ..a#F F E.E.E.....+.+.@.#.#.$.X %.W *.=.).;.h.x q.f.,.F.c.@+O.N.8 i i i i i 8 8 9 9 0 a a b c e f f f f f f f f e e e e c b a 0 9 N.B.i } | | 1 2 _ _ _ 3 3 4 4 / / ^ ^ ] a.{ { { { { { ] ^ / 4 3 A._ T T _ 3 4 / ^ ] '#{ ~ ~ ~ <#! ! ! ! ! ! ! ) 5 , > j $ $ # # + .     @ k l l m n o p p p p o o o o o o o o o o o o o o o o o o o o o o p p p q q q r r s s t+t+Z+Z+i@i@P#P#.$.$.$#&#&#&#&#&#&#&#&#&#&#&#&#&#&#&#&#&.$.$P#i@Z+t+s s r q p o n m m m l l l k k k @ @ @ @ @ k k k k ",
"x.0.K.#+A.m.F%,.q.>.;.).=.*.*.6&&.&.&.&.*.*.*.*.*.=.=.=.=.E@*.*.&.&.K$W W W W W &.&.*.*.=.).-.;.>.q.,.c.N.[ : A.]+7 w M.! 0.' , > j ; ; ; ; j 6 ' ) { ^ 3 2 } 8 p.a c f g h '.'.'.'.'.'.'.'.'.'.'.'.'.h h h g g f f e c b a 0 9 8 i u 7+_ 4 ^ ] ~ ! ) 5 ' ' , , 6 6 6 > > > > j j j j j j j j > > 6 6 , ' 5 5 ) ! ~ w ^ / ( T : [ B.O.@+F.,.f.f.q.q.q.q.x x x x x x x q.q.f.,.F.@+O.N.i } | 1 2 _ 3 4 / / / / ^ ^ / 4 _ 1 i 0 c x U S Q.B R D.o.@.+.+.+.+.+.+.+...........+.` Z $.X W -@t@L+x 1+F%m.: ( #+M.K.x.l., , ' 5 ) ~ ] ^ 4 _ 1 | i 9 a e g y z A =+D.o.o.P P P E E E ............+.+.@.@.#.$.X *,W &.*.=.).;.>.x f.,.F.c.@+O.N.8 i i i } } i i 8 9 9 0 a b c e f g g g g g g g g g g t.f f e ,.F.c.@+0 9 8 i } u | 1 2 2 2 _ 3 3 4 / ^ ] { 8@~ ! ! ) ) ) ! ! ~ { ] ^ 7 / / / ^ ] { ~ ! ! ) ) 5 5 5 5 5 5 ) ) ) ) ) ' , > ; # # + + .   w#@ k l l m n o p p p p p p p o o o o o o o o o o p p p p p p p p p p p p q q q r r s s t+t+Z+Z+i@i@P#P#.$.$#&#&#&$&$&$&$&$&$&$&$&$&$&$&$&$&#&#&#&.$P#i@Z+t+s r r q p o n m m l l l k k k k @ @ @ @ @ @ k k k k ",
"l.l.0.M.g&T m.O.c.f.x >._@;.-.).).).).).).).).D@-.-.-.-.-.-.).).).=.=.*.*.*.*.*.=.).).-.;.h.>.x q.,.c.N.[ : A.]+#+w L.K.5 l.6 > ; $ $ # $ $ ; > , 5 ! ] / _ 1 i 9 0 b e g h '.'.'.'.'.y y y U U U U U U U U ;.y y '.h g f e c r.s.p.U.u 1 _ 4 ^ { ! ) 5 5 ' , , , 6 6 6 > > > > j j j > > > > > 6 6 , , ' 5 ) ! ~ w ^ / ( _ : [ B.O.@+F.,.f.f.q.q.q.q.q.x x x x x x x q.q.f.,.c.@+N.B.} | 1 2 _ 3 4 4 / / / / ^ ^ / 4 _ | 8 a e h U S Q.B R D.#.o.@.@.@.@.@.@.@.` o&` @.@.Z #.$.%.W *.).;.b+f.c.N.[ T ]+w L.0.x.l., , ' 5 ! ~ ] ^ 4 3 2 | } 8 0 c f '.U V B X D.D.o.o.o.P P P +.+.+.+.+.+.@.@.@.#.#.$.X %.W &.*.=.-.;.>.q.,.F.c.@+O.N.8 B.i i } } } } i i 8 9 0 a b e f g g h h h h h h h h h h h g g f f.,.j.b a 0 9 8 i } } | | 1 2 2 _ 3 4 / ] { ~ ! ) 5 5 ' ' ' ' 5 ) ! ! ~ { { { ~ ! ) ) 5 x.' ' ' ' ' ' ' ' ' ' 5 5 5 ' 6 j $ # + . .   @ @ k l m m n o o p p q q p p p p o o o o o o o o p p p p p p p p p p p p q q q r r s s t+t+Z+Z+i@i@P#P#.$.$#&#&#&$&$&$&$&$&$&$&$&$&$&$&$&$&$&#&#&.$.$P#i@Z+s r q q p o n m m l l k k k k k @ @ @ @ @ @ k k k k k ",
"J.J.l.K.w ]+T < B.O.c.,.I+x b+>.>.v+h.h.h.h.h.h.h.h.h.h.h.h.h.;.;.X+-.-.).).).-.-.;.h.4@>.x q.f.F.@+N.i+: ( 7 w M.K.0.' J.> j ; # # + + + # $ j 6 ' ) { ^ 3 1 } 8 0 b c f h '.'.'.'.y y U z z S S V V V V V S S S z U y '.i.f f.c r.0 8 u 2 3 / ] ~ ! 5 ' ' , , 6 6 6 6 > > > > > > > > > 6 6 6 6 6 , ' 5 ) ! ~ w ^ ]+3 T < [ B.O.c.F.,.f.q.q.q.q.q.q.q.x x x x x x x q.f.,.F.a O.8 m.| 1 2 _ 3 4 / / / / / / ^ ^ / 4 _ | 8 a e h U V Q.B =+R D.#.#.#.#.#.#.#.#.#.#.#.#.$.$.X -,&.Y+).;.>.w+F.O.m.< A.7 w L.K.5 x.' ' 5 ) ~ { ^ / 4 _ 2 1 } 8 0 b e h y S A B =+R R D.D.Z o.o.@.@.@.@.@.@.#.#.#.$.$.X %.%.W &.=.).-.h.x f.,.c.@+O.N.B.B.i m.} } | | | } i 8 9 0 a c e f g h '.'.'.'.'.'.'.'.'.'.'.'.h h x q.f e c b a 0 9 8 U.i } | | 1 2 _ 3 / ^ { ~ ) 5 ' , 6 6 6 6 6 , ' ' 5 5 ) ) 5 5 ' ' , , 6 6 6 6 6 6 , , , , ' ' , 6 > ; # + .     @ k k l m n n o o p p p q p p p p p p o o o o o j;p p p p p p p p p p p p p q q q r s s t+t+Z+Z+i@i@P#P#.$.$#&#&$&$&$&$&$&$&$&$&$&$&$&$&$&$&$&$&#&#&.$P#i@Z+t+s r q p o n m m l l k k k k k k @ @ @ @ @ k k k k k k ",
"y.y.J.x.K.M.7 ( T [ B.O.@+F.,.s+f.f.f.f.f.f.q.q.q.q.x x x x x x x >.>.h.h.h.h.h.>.x q.q.f.,.F.c.@+N.m.: ( 7 w L.K.x.l.6 - ; $ # + . . . + + $ ; > , 5 ~ ^ 4 2 | i 9 a c f g h '.'.y y U z S V A A Q.Q.Q.Q.Q.Q.Q.A A V S z ;.'.h g ].j.0 8 | 2 4 ^ { ! ) ' , , 6 6 6 6 6 > > > > > > > 6 6 6 6 6 6 , , ' 5 ! ~ w ^ ]+A.2 < m.N.O.c.,.f.q.x x x x x q.q.q.x x x x x x q.q.f.,.c.@+N.i [ 1 2 _ 3 4 / / ^ ^ ^ ^ ^ ^ ^ / 4 _ | 8 a e h U S A B =+R R $.$.$.$.>@X X X X X X 0+%.W &.*.=.-.h.x f.F.@+B.[ 6+( 7 w M.! K.) ) ) ! ~ ] ^ / 4 _ 2 1 | } i 9 a c q.'.U S A Q.B B =+X R $.$.D.#.#.#.#.$.$.$.X X X %.%.W &.*.=.).;.h.x f.F.c.O.N.B.m.m.} } } | | 1 | | } i 9 0 a c e f h '.'.'.'.'.'.'.'.'.'.'.y y h.'.'.{.h g f e c b a 0 9 9 8 i } | 1 2 _ 4 / ] ~ ) 5 , 6 > j j ; j j > > 6 6 , , , 6 6 6 6 > > > > > > > 6 6 6 6 6 6 6 > j $ + .   @ @ k l l m n n o p p p p p p p p p p p p p p p p p p p p p p p p p p p p p p p q q q r s s t+t+Z+Z+i@i@P#P#.$.$#&#&$&$&$&-&-&-&-&-&-&-&-&-&$&$&$&$&#&.$P#P#i@t+s r q p o n m m l l k k k k k k k k k k k k k k k k l l ",
"- y.y.J.x.0.L.w g&A.: [ B.N.O.@+@+@+c.c.c.c.c.F.F.F.,.,.,.,.,.,.,.f.f.q.q.q.q.q.f.,.1+F.c.@+O.N.B.[ : A.7 w L.0.x.l.6 - ; $ # + . .   . . + # ; > , 5 ! ] 4 _ 1 } 8 0 b e g h '.'.y U z S V A Q.B B =+=+=+=+=+=+=+B Q..+*.S z U y >.f c 0 i | _ / ] ~ ) 5 ' , 6 6 6 6 6 > > > > > 6 6 6 6 6 , , , , ' 5 ) ~ { ^ 4 A.: [ m.N.@+F.,.q.x x >.>.>.x x q.q.q.x x x x x x q.f.,.F.@+O.B.} < 2 _ 4 / / ^ ^ ] ^ ^ ^ ^ ^ ^ / 4 2 } 9 b f.h U S A Q.B =+=+=+%.%.%.%.%.W W W W &.&.*.*.=.-.;.>.x f.F.@+N.c$: T ( 7 #+w M.~ ~ ~ { ] ^ / 4 3 _ 2 1 ;+| } i 9 0 b e g '.U S V V A &.Q.B %.%.X X X X X X %.%.%.%.W W W &.*.=.).-.;.>.q.,.c.@+N.B.m.} [ [ | | 1 1 1 1 | } i 8 0 a c e g h '.y y y y y y y y y y y y y ;.;.y y '.h g f e c b a 0 p.9 8 i } | 2 _ 4 ^ { ! 5 , > j ; $ $ $ $ $ ; ; j j j j j j j j j > > > > > > > > > > > > j j $ # .   @ @ k l m m n o o p p p p p p p p p p p p p p p p p p p p p p p p p p p p p p p p q q q r s s t+Z+Z+i@i@P#P#.$.$#&#&$&$&$&-&-&-&-&-&-&-&-&-&-&-&$&$&#&#&.$P#i@Z+t+r q p o n m l l l k k k k k k k k k k k k k k k k l l l ",
"- - y.y.J.l.0.L.w 7 ( T k$[ m.B.B.B.B.N.N.N.N.N.O.O.O.O.O.O.O.O.@+@+9&c.F.F.F.g@c.@+]@O.N.B.m.[ < : A.7 w L.0.x.l.J.y.j ; $ # + . . . . . + $ ; > , 5 ! ] / 3 2 | i 9 a c f x '.'.y U S V .+B =+R.R D.D.D.D.D.D.D.C R =+B Q.A V S U '.f F.0 i 1 A./ ] ~ ) 5 ' , , , , 6 6 6 > > > 6 6 6 6 6 , , , , ' ) ! { ^ 4 A.: [ B.O.@+F.f.q.x >.h.h.h.>.>.x q.q.q.x x x x x q.q.f.F.c.O.N.m.| 2 _ 4 / ^ ] ] ] { ] ] ] ^ ^ ^ / 4 2 | 8 a e h y z V A Q.Q.W W W &.&.&.*.*.E@=.=.).).-.;.h.>.x f.,.c.O.B.[ < T A.]+7 #+#+] ] ] ^ / 4 3 _ 2 1 < | | } } } i 8 0 a c e g h h.y U z z S V *.&.&.W W W W W &.&.&.&.&.*.*.*.=.).-.;.h.x f.F.c.O.N.m.[ [ | | | 1 1 2 2 2 1 | } 8 9 a b e g h '.y y y y y y y y y y y U U U z z U U y '.h g f e c b a 0 9 N.B.} | 2 3 / ] ~ 5 , > j $ # # # # # # # $ $ $ ; ; ; ; ; j j j j j j j j h@; ; ; ; ; $ # +   @ @ k l m m n o o p q q q q q p p p p p p p p p p p p p p p p p p p p p p p p p p p q q q r s t+t+Z+Z+i@i@P#P#.$.$#&#&$&$&$&-&-&-&-&-&-&-&-&-&-&-&$&$&#&.$P#i@Z+t+s r p o n m l l k k k k k k k k k k k k k k k k k k l l l ",
"y.y.y.y.y.J.l.x.K.M.#+]+E%T : < < < < < < h+[ [ [ [ [ [ [ [ [ [ m.m.B.B.N.N.N.N.Q@P@m.i+[ < : T A.( 7 w L.0.x.l.J.y.> j ; $ # + + . . + + # $ j > , 5 ! ] / 3 2 1 } 8 0 b e g h '.;.z S A B =+R D.o.D P P P P P P D o.Q D.R =+B Q.V z '.f b 0 i 1 A./ ] ~ ) 5 5 ' ' ' , , 6 6 |&> > > > 6 6 6 , , ' 5 ! { ^ 4 _ 1 [ B.O.c.F.f.q.x >.h.h.h.h.h.>.x x q.q.x x x x q.q.f.,.c.@+N.i [ 1 _ 3 / ^ ] { { ~ ~ { { { ] ] ^ / 4 _ | 8 a c t.'.U z S V V *.*.*.=.=.).).-.:@;.h.h.>.>.x q.f.1+c.F%N.m.< : T A.( ]+]+7 7 / ]+4 3 _ 2 | } i i i i i i i i i 8 9 0 a b c e f t.g h {.h.;.-.).%+=.=.=.=.=.=.=.=.=.=.=.).).).-.;.h.x q.,.c.@+N.B.m.[ < < 1 1 1 2 2 2 2 1 | } i 9 0 b e f h '.y y y y y y y y y y U U U z z z z z U y '.h h g f e c b a 0 9 8 i | 2 3 / { ! ' 6 j ; # k++ + + + + + + # # $ $ ; ; ; j j j ; ; ; ; $ $ $ $ # # + .   @ @ k l m m n o o p q q q q q q p p p p p p p p p p p p p p p p p p p p p p p p p p p q q q r s t+t+Z+Z+i@i@P#P#.$.$#&#&$&$&$&-&-&-&-&-&-&-&-&-&-&-&$&#&#&.$P#i@Z+t+r q p o n m l k k k @ @ @ @ @ @ @ @ @ @ @ @ @ @ k k k k k ",
"y.y.y.y.y.y.J.l.x.K.M.w 7 ]+E%A.A.A.*#*#A.A.A.A.A.A.A.A.A.A.A.A.T T : V+< [ [ F+< V+u@T *#A.( ]+7 #+w L.K.x.l.J.J.6 y.- j ; $ $ # # # # # $ ; j 6 ' ) ~ ] b.4 _ 2 | } 8 a c f h '.U S V Q.=+R o.D P E E 0&F F 0&E E E *+P D Q C =+B *.z '.q.c 0 B.| T 4 ^ { ~ ! ) ) 5 ' , , 6 6 > > > > > > 6 6 , ' ) ~ #+4 _ 1 } 8 0 c.c f.q.x 4@h.;.;.;.h.h.>.x x q.q.x x x q.q.f.,.F.@+O.B.[ 1 T 3 / ^ ] { ~ ! ! ! ! ~ ~ { { ] ^ 4 _ 1 i p.b e g '.y U z z ).).).-.-.;.h.>.b+x q.f.f.,.F.c.@+O.N.m.h+: A.( ]+]+]+]+]+4 ( 3 _ 2 | } i 9 0 a a @+0 9 9 8 8 i 8 8 8 9 9 0 a a b b c e f g >.h.y ;.;.-.-.X+;.;.:@-.-.-.-.;.;.h.h.x q.f.F.@+O.N.m.[ < < : : 2 2 2 _ _ _ 2 1 | i 8 0 a c f g '.y y y y y y y y y y U U U z z c!z z z U y y '.'.h g f e c b a 0 9 i | 2 3 7 { ) ' 6 j $ # + . . . . . . . + # $ $ ; ; j j ; ; ; $ $ $ # # + + .     @ k k l l m n n o p q q r r r q q p p p p p p p p p p p p p p p p p p p p p p p p p p p q q q r s t+t+Z+Z+i@i@P#P#.$.$#&#&$&$&$&-&-&-&-&-&-&-&-&-&-&-&$&#&.$P#i@Z+t+s r q o n m l k k @ @ @ @ @ @ @ @ @ @ @ @ @ @ @ @ @ @ k k k ",
"J.J.J.y.y.y.J.l.x.0.K.M.w 7 ]+]+]+]+]+]+]+]++&7 7 7 7 #+#+#+#+#+7 7 ]+( ( A.A.A.I@( *@]+g&7 #+w w M.L.K.x.l.l.J.J.J.J.6 y.> j j ; ; ; ; ; j > 6 , 5 ) ~ ] ^ 4 3 _ 2 | i p.b e g '.U S A B R Q P E E F &+G G G G F F F F 0&E E P o.R B A z y g ,.a N.} : 3 / ] { ~ ~ ! ) ' , 6 6 > > j j j > > 6 , 5 ! { / _ 1 m.N.0 b ,.f.q.x >.h.;.;.;.;.h.>.>.x q.q.q.x x x q.f.f.F.c.O.B.m.< 2 3 4 ^ ] 8@~ ! ) ) ) ) ! ! ~ { ] ^ / 3 1 } 8 0 b e g h '.'.y y ;.;.h.>.>.x q.f.,.F.c.@+@+O.N.B.m.[ : A.( 7 7 #+7 7 ]+4 3 _ : | i 8 0 b c f.f f e c b s.9 8 8 i i i i i i B.8 8 9 9 0 b c e q.x h >.>.>.>.>.>.>.h.h.h.h.h.h.>.x q.f.,.c.@+N.B.m.[ < : 2 2 T _ _ _ 3 _ 2 1 | } i 9 a b e g '.y y y y y y y y y y U U U z z z z z z U U U y y '.'.h g f e c b a O.8 } 1 3 ^ ~ ) , > ; $ # + . .       . + # $ $ ; j j j ; ; ; $ # # + . .   @ @ k k k l l m m n o p p q r r r r r q p p p p p p p p p p p p p p p p p p p p p p p p p p p q q q r s t+t+Z+Z+i@i@P#P#.$.$#&#&$&$&$&-&-&-&-&-&-&-&-&-&-&$&$&#&.$P#i@Z+t+s q p o n m l k @ @ @                             @ @ @ @ @ ",
"l.l.l.l.J.J.l.l.x.0.K.L.w #+#+7 7 7 7 7 #+#+w w M.M.L.L.H#K.K.L.L.M.i#w #+7 7 7 O@#+H@w G@M.L.L.K.K.0.x.x.l.l.l.l.x.x.' ' l., , 6 6 > > > 6 6 , 5 ) ! { ] ^ / 4 3 _ 1 } 9 a e g '.z V Q.=+D.o.P E F G G O C.C.G G G G G G }+F a#E c+D.9.A S ;.h f.F.O.i < _ ( / ^ ] ~ ! ) ' , 6 > j j j j j > 6 ' ) ~ ^ 3 1 } 8 0 b ,.f q.x >.h.;.;.;.;.h.h.>.x x q.q.q.q.x q.q.f.,.g@@+N.m.[ : _ 4 / ] { ~ ! ) 5 5 5 5 ) ) ! ~ { ] ^ 4 _ | i 9 s.b e f f g g h h h x q.f.,.F.c.@+O.N.B.m.m.[ < : T ( / #+w M.w w #+]+( _ 1 [ B.p.b d q.h '.y '.h f e b 0 9 8 i } } | | | | | | [ } i 9 0 b c e f.q.q.q.q.q.u+x x x x x x x x q.f.,.F.@+O.N.m.[ < : : T _ _ 3 3 3 3 3 _ 2 1 | i 8 0 b e g '.y y y y y y y y y y y U U U z z z z z z -.U U U y y '.h h g f e c b 0 9 } 1 3 ^ ~ 5 , > ; $ # + .         + # $ ; j j j j j ; $ $ # + .     @ k k l l l l m m n o o p q q r r s s r q q p p p p p p p p p p p p p p p p p p p p p p p p p p q q q r s s t+Z+Z+i@i@P#P#.$.$#&#&$&$&$&-&-&-&-&-&-&-&-&-&-&$&#&.$P#i@Z+t+s r q p n m l k @ @                                           ",
"0.0.0.0.0.0.0.r+K.L.M.M.w #+#+7 7 7 7 #+w M.L.H#K.0.x.x.l.l.l.l.' x.0.K.L.<#M.M.d!d!L. #K.0.0.E+x.x.' ' ' ' x.5 0.K.K.! L.! ! ! ) 0.5 5 5 5 5 ) ! ~ { { ] ^ / 4 4 3 2 | 8 0 c g '.z V Q.=+D.o.0#a#&+}+C.C.C.C.C.G G }+G G G }+}+F E P D.=+Q.V !.h.x ,.a N.} 1 T 3 / ^ { ! 5 , 6 > j ; ; ; j > 6 ' ) { / _ | 8 0 b ,.f.q.x >.>.h.;.;.;.h.v+>.x x q.q.q.q.q.q.q.f.,.F.c.O.B.m.< T 3 ]+^ =%~ ! ) 5 5 ' ' 5 5 ) ) ! ~ { ] / 3 2 | i 8 0 a b c c e e f f f.d F.c.@+O.8 m.[ < : T A.I@Y%7 #+w L.K.K.L.M.#+7 ( 2 | B.0 b f.h y z S S z y h f c a 9 8 i | 1 1 2 _ _ _ _ _ 2 1 } i 9 @+c.F.c ,.,.f.f.f.f.f.f.q.q.q.q.q.f.,.F.c.@+N.B.m.[ < : T _ _ 3 3 4 4 4 4 3 _ 2 | } 8 0 b e g '.y y y y y y y y y y y ;.;.U U U U -.-.-.-.-.-.U U ;.y '.'.h g g f e c a 9 S.1 3 ^ ~ 5 , > ; $ # + . .   . + $ ; j > > > > j ; $ # & + .   @ k l l l l m m m n n o p p q r r s s s r r q p p p p p p p p p p p p p p p p p p p p p p p p p p q q q r s s t+t+Z+Z+i@P#P#.$.$#&#&#&$&$&$&-&-&-&-&-&-&-&-&-&$&#&.$P#i@Z+t+s r q o n m l @ @                     . . . . . . . . . . . . ",
"L.L.L.L.{+M.M.w w w #+#+#+#+7 7 7 ]+7 #+w L.K.0.l.J.y.y.- - - - > y.6 , x.E+0.0.0.0.x.x.l.l., J.J., , l.' 5 0.! ~ w #+^ 7 / / ^ ^ ] w { ~ ~ ~ ~ { { ] ] ^ ^ / / 4 3 _ < i 0 c g h.z A B R D.o.0#a#&+}+C.C.C.C.C.}+}+}+}+}+}+}+}+}+}+a#u;D+N#H;.+4+-.{.q.j.@+8 } 1 _ 4 ^ ~ ) ' 6 > j ; ; ; ; - 6 ' ! { 4 2 } 9 c.c f.q.x x >.>.h.h.h.h.4@>.x q.q.q.q.q.q.q.q.q.f.,.g@@+N.B.[ : _ ( / ] { ~ ) 5 5 ' ' ' ' ' 5 5 ) ! ~ { #+/ 3 2 | } 8 9 9 0 0 a b F.c c b a O.N.i [ 1 2 _ 3 ,@g&-$#+w L.K.5 x.x.0.L.w 7 ( : m.9 b f.h y S A Q.Q.V z y h e b 0 8 } | 2 _ 3 4 / / / 4 4 _ 2 | i 8 O.@+c.c.F.F.F.,.,.,.,.,.f.f.f.f.,.F.c.@+O.N.m.[ < 1 2 _ _ 3 ( 4 / / / / 4 3 2 1 } 8 0 b e g '.y y U U y y y y y y y y y y y y ;.U U U U -.-.-.U U y y '.'.h h g g f e b 0 i 1 3 ^ ~ ) ' 6 j $ # + . . + # ; j > 6 6 6 > j ; $ # + .   @ k l l m m m m m m n o o p q q r s s s s s r q q q q q p p p p p p p p p p p p p p p p p p p p p p q q q r s s t+t+Z+Z+i@i@P#.$.$#&#&#&$&$&$&$&$&$&$&$&$&-&-&$&$&#&.$P#i@Z+t+s r p o n l k @   . . . . . . . . . . . . . . + + + + # # # # ",
"w w w #+7 7 ]+]+]+]+]+]+]+7 7 ]+]+]+7 #+M.L.0.l.J.- = * * % % % $ * ; j y.J.J.J.J.J.J.y.y.y.> > y.6 J.l.5 ) L.{ #+]+( _ 2 1 1 : 2 _ 3 4 / / ^ ^ ^ ^ ^ ^ ^ ^ / / 4 3 _ 1 i 0 c g y %+A B R D.o.0#a#a#}+^=C.C.C.C.e!}+}+}+}+}+}+^=^=^=}+f!l;z;D+k.9..+=.g.h ].b 0 8 | T 4 ] ! 5 , > j ; ; ; ; > 6 5 ! ] z.1 i 0 b e f g x h >.>.h.h.h.h.>.x q.q.f.f.f.f.q.q.q.f.,.F.c.O.N.m.< 2 A.4 ^ ] ~ ! ) 5 5 ' ' ' ' ' ' 5 5 ) ! ~ { ^ 4 3 2 1 | } i 8 8 9 0 a a a @+O.8 m.| : _ 3 ]+7 #+w M.L.K.0.' $+6 J.' ) M.7 A.< B.@+,.x y S A B =+=+Q.V z '.f c 0 8 } 1 2 3 4 ^ ] ] ] ^ 7 4 3 2 | i 8 9 O.@+c.c.F.F.F.F.F.F.c ,.,.,.F.F.c.@+N.B.m.[ < : T _ 3 4 4 / ^ ^ ^ ^ / 4 _ 2 | i 0 b e g '.y y U U U U y y y y y h.h.h.h.y y y ;.;.;.U -.-.U U ;.y y '.'.'.'.'.h i.f b 0 i 1 3 ^ { ) ' 6 j ; $ # + # $ j 6 , , , 6 6 > j ; # + .   @ k l m m m m m m m n o o p q q r s s s s s r q q q q q q q p p p p p p p p p p p p p p p p p p p p q q q r r s s t+t+Z+Z+i@P#P#.$.$#&#&#&#&$&$&$&$&$&$&$&$&$&$&#&#&.$P#i@Z+t+s q p o m l @   . . . . . . . . . . . . + + + + # # $ $ ; ; ; ",
"7 7 7 ]+( A.T T T T T A.A.( ( ( ( ( ]+#+M.K.x.J.y.= * % & & 9+9++ + # % * = j - - - j = = ; ; = j > 6 ' ) ! { 7 ( T < [ i 8 8 8 i i } < 2 _ 3 3 4 4 4 / / / / / 4 3 _ | i 0 c g y S A B R D.@.0#3+9#9#^=^=C.C.^=^=l#9#9#}+^=^=^=^=m#^=^=9#L#l;c+7.k.I.*.!.'.g c a 8 | _ / { ) ' 6 j ; ; ; j > , 5 ~ ^ 3 | 8 a c f.q.x x >.>.>.>.h.h.>.>.x q.q.f.f.f.f.f.f.f.f.,.c.@+O.B.[ < T 3 ]+^ a.~ ! ) 5 5 ' ' ' ' ' ' 5 5 5 ) ! ~ ] / 4 3 T 1 1 | } } i 8 9 p.p.9 8 l&[ 1 T 3 ]+^ ] M.L.K.0.' , y.> j > , 0.M.7 A.[ N.b q.'.z *.B R D.D.=+Q.S y g c a 8 } 1 _ 3 / #+a.{ { ] #+/ 4 _ 1 [ i 8 9 0 @+c.c.c.c.c.c.c.F.F.F.F.b c.@+O.N.i [ < 1 2 _ 3 4 / ^ ^ ] ] { ] ^ / 3 2 | i p.b e g {.y y U U U U U y y y h.h.h.h.h.h.h.y y ;.;.;.-.-.U U ;.y y y y y y y y '.x e b 9 } : 3 ^ { ) ' 6 j ; $ $ $ ; > , ' ' ' , 6 > j ; $ + .   @ k l m m m m m m m n n o o p q r r s s s s r r r q q q q q q p p p p p p p p p p p p p p p p p p p p q q q r r s s t+t+Z+i@i@P#P#.$.$.$g!#&#&#&#&#&#&#&#&#&#&#&#&.$P#i@Z+Z+t+r q p n m ,#@   . + + + . . . . . + + + # # # $ $ ; ; j j > > ",
"]+]+( A.T : < [ [ [ [ < < : T T A.A.]+#+M.0.l.J.- = % & h!9+i$i$      . + # % $ $ $ % % # # % $ = > , 5 ! { / 3 2 [ B.9 @+r.b b b a 0 9 i } | 1 2 _ 3 4 4 / / 4 3 _ : } N.a e h U S Q.9.k.'+-#T+3+9#l#^=m#f=f=m#y=l#l#l#^=^=y=m#m#m#m#m#l#9#L#5.;#7.k.I.*.z '.g c @+i 1 3 ^ ~ 5 , > j j j j > , ) { / _ | 8 a F.e q.x x >.>.>.>.>.>.>.>.x q.q.q.q.f.f.f.f.f.,.F.c.O.N.~'[ < T 3 / ^ { ~ ! ! ) 5 5 ' ' ' ' ' 5 5 5 ) ! ~ { ^ / 4 3 _ 2 2 1 1 | } i 8 8 8 i } | 2 _ 4 / ] { L.) x.l.6 > j ; ; j 6 5 ~ 7 T } O.,.x ;.S Q.=+D.o.o.R 9$V U h e a N.m.1 T ( / #+w { { w #+7 4 _ 2 | } B.9 p.@+c.b b b c.c.c.c.c.b c.c.@+O.N.B.m.| 1 2 T _ 3 / ^ ] { ~ ~ ~ ~ { ^ 4 _ 1 i 9 b e g h y y U U U U U U y y h.h.h.h.h.h.h.y ;.;.;.;.;.-.U ;.;.;.;.;.;.;.;.;.;.y >.q.c @+8 [ 2 4 ^ ~ ) ' 6 > ; ; ; j 6 , ' ' ' , 6 > j ; $ # .   @ k l m m m l l l l m m n o o p q q r r r r r r r r r r r q q q p p p p p p p p p p p p p p p p p p p p q q q r r s s t+t+Z+i@i@P#P#P#P#.$.$.$.$.$.$.$.$.$.$.$.$.$P#P#i@Z+t+t+r q p n m k @   . + + + + . + + + + # # $ $ ; j j > > 6 6 6 6 ",
"A.A.A.: < [ m.B.Q@N.N.Q@B.m.[ < : A.Y%#+M.0.l.J.- = % & 9+9+i$w#t$k k @   . . 9++ + + 9+. 9++ # ; > , ) { / 3 1 } N.@+b e f t.g q.f e c c.0 8 i | 1 _ 3 4 4 4 3 _ 2 | i 0 c q.'.z V Q.9.k.`.-#T+3+4.l#m#x#r=y#x#m##@2.2.m#m#m#x#x#x#m##@l#C+4.5.T+6.'+9.Q.V !.'.g c 0 } 2 4 ] ! 5 , 6 > > > 6 ' ! { / _ | 8 0 b ,.f q.x );>.>.>.>.>.>.>.x x x q.q.q.f.f.f.,.F.c.@+O.B.m.[ : T 3 / ^ ] { ~ ! ! ) 5 5 5 5 5 5 5 5 5 ) ! ! { ] ^ / 4 4 3 _ _ 2 1 | } i i i m.[ < 2 3 4 ^ ] ~ K.5 l.6 j ; $ # # ; > x.~ / 2 m.@+f.>.-.V W X #.@.@.$.%.*.-.>.f.c.O.i < T 3 ]+^ ] w w #+^ / 4 _ 2 | } B.9 0 a b F.F.F.b c.a a a a a @+0 9 8 i } < : 2 _ 3 4 ^ ] ~ ! ! ) ) ! ~ w / 3 2 } 9 b e g h '.y U U U U U U y y h.h.h.h.h.h.y y ;.;.;.;.;.;.;.;.;.;.;.;.U U U U ;.h.>.q.,.c.9 i | T 4 ^ ~ ) ' 6 > j j > 6 ' ' ' ' , 6 > j ; $ # + .   @ k l l l l k k l l l m n n o p p q q r r r s s s s r r r q q q p p p o o o o o o o o o o o o o p p p p p q q q r r s t+t+Z+Z+i@i@i@i@P#P#i@i@i@i@i@i@i@i@i@i@i@i@i@Z+Z+t+s r q p n m k @   . + + + + + + + # # $ $ ; j > 6 J., , 6@' ' ' ",
"T T : < m.B.N.O.@+@+c.c.@+O.N.B.[ : ( 7 M.K.x.J.- = * % & 9+i$@ k l l l k @ @             i$k@# ; 6 5 ~ ^ 3 1 i 9 c.,.f h '.y y y y '.h f d b 9 i | 1 _ 3 3 3 3 2 1 } 9 a e h y z V Q.9.d+/#)@=#$@C+2.x#d@Q#Q#d@x#R+R+R+x#x#x#x#x#R+R+2.1.C+2+$@=#_#`.k.%.A S U '.f b 9 | _ / { ! 5 , 6 6 6 , 5 ! ] 4 _ | 8 0 b ,.f.q.x x >.>.>.>.>.>.>.>.>.x x x q.q.f.,.,.F.c.O.N.B.m.[ 1 T 3 ]+^ ] { ~ ~ ! ! ) ) ) 5 5 5 5 5 ) ) ! ! ~ { ] ^ / / 4 3 3 _ 2 1 | } } } } | 1 2 _ 4 ^ ] ~ K.5 , > ; $ # + # $ > ' M.]+: B.c.q.h.).*.W R Z @.@.Y %.n.).h.q.F.0 B.[ : A.( / 7 #+^ 7 ]+4 3 T 1 | } 8 9 0 a b c c c b c.a a a @+0 0 9 N.B.} | 1 2 _ 3 4 / ] { ! ) 5 ' ' 5 ) ~ ^ 4 2 } 9 a e f h '.y U U z i!U U ;.y h.'.>.h.h.h.;.;.;.;.;.;.;.;.;.;.;.;.;.;.;.U U ;.;.h.>.q.,.c.0 8 } 1 _ 4 ] ~ ) ' J.> > 6 , ' ' ' ' , 6 > j ; $ # + .   @ k l l l k k k k k l l m n n o o p p q r r s s s s s r r q q q p p o o o o o o o o o o o o o o o o o o p p p q q r r s s t+t+Z+Z+Z+Z+Z+Z+Z+Z+Z+Z+Z+Z+Z+Z+Z+Z+Z+Z+Z+Z+Z+t+s r q p n m k @   . + + + + + # # $ $ ; j > 6 , ' 5 5 5 5 5 5 5 ",
"< < [ m.B.O.@+c.F.,.,.,.,.F.9&O.B.< T ]+#+L.0.l.J.- = * j!9+i$@ a&l m m l k k @ @ @       . + $ > ' ! ] 3 1 i 0 c f h y U z S S S S z U '.g e r.9 i | 2 _ 3 3 _ 2 | i 0 b f {.U S A I.9.^#/#x@=#$@C+2.x#d@Q#e=d@d@R+R+R+d@d@d@d@R+R+R+1.1.|.|.$@7#_#-#`.k.B A S U h e a i 1 3 ^ ~ ) 5 ' , , ' ) ~ ^ 4 2 | 8 0 c.,.f.q.x x >.>.>.>.>.>.>.>.>.>.x x q.q.f.f.,.F.@+O.N.B.m.[ < T A.]+^ ] { { ~ ~ ! ! ) ) ) 5 5 5 5 ) ) ! ! ~ { ] ] ^ / 4 4 3 3 _ 2 | } } } } } | 1 _ 3 / ^ { ! 5 , > ; $ # + # $ > x.{ 4 1 N.F.x ;.).&.%.$.Z @.@.Y %.&.).L+x ,.c.N.m.< : A.( ]+]+]+( ( A.T : | } i 8 0 a b b c c c b c.a a 0 0 0 9 N.8 i } ;+2 _ _ 3 4 ^ w ~ ) 5 ' , , ' 0.! ] / _ | V.a c f h '.y U U z U U U y y '.>.>.v+h.h.;.;.;.;.;.;.;.;.;.;.;.;.;.;.;.;.;.;.;.h.>.q.f.F.a O.8 } 1 A./ ] ~ ) ' , , , ' ' ' ' ' , 6 > j ; $ # + .   @ k l l l k k @ @ k k l l m n n o o p q r r s s s s s r r q q p p o o o o o o o o o o o o o o o o o o o o o j;p p q q r r s s t+t+t+t+t+t+t+t+t+t+t+t+t+t+t+t+t+t+t+t+t+s s r q o n m k @   . + + + + # # $ ; ; j > 6 , ' 5 ) ! ! ! ! ! ! ",
"m.m.B.N.O.c.F.,.f.f.f.f.f.,.F.c.O.B.< T ]+#+M.K.x.J.y.= * & 9+w#k l m m l l k k @ @     . + $ j , K.'#4 1 8 a e g y z S 5&A Q.Q.Q.Q.A S U '.g c 0 8 } 1 _ _ _ _ 1 } 8 0 c q.'.U S A I. +8.y@x@=#|.1.R+d@d@+$+$d@d@R+R+R+d@d@d@d@`-R+R+1.1.|.|.$@$@=#_#D+'+=+Q.*.z y g b 9 } 2 4 ] ~ ) 5 5 5 0.! { / 3 2 } 8 0 c.,.f.q.x x >.>.>.>.>.>.>.>.>.>.>.x x q.q.f.,.F.c.O.N.B.m.[ < : A.4 7 #+] { { ~ ~ ! ! ! ) ) ) ) ) ) ) ! ~ ~ { ] ] ^ / 4 4 3 3 _ 2 | } } i i i } | 1 _ 3 / #+{ ! ' 6 j ; $ # # * > 5 { 4 1 N.c x ;.=.&.%.$.{;@.@.#.X &.=.:@>.w+F.@+N.m.[ : T A.A.A.T : 7+< [ m.i 8 9 0 a b b c c b b b a a 0 0 9 9 8 i } | 1 2 _ 3 4 / ^ { ! 5 ' , , , , 5 ! { / _ | 8 a c f g '.y U U U U U y y h.'.>.>.>.h.h._@_@h.h.h.h.h.h.h.h.h.h.h.;.;.;.;.;.;.h.>.x f.,.c.@+9 i | 2 3 / ] ~ ) 5 ' ' ' 5 ' ' , 6 > j ; $ # + .   @ k l l m l k k k @ k k k l m n n o o p p q r s s s s r r r q q p p o o n n n n n n n n n n n n n n n n n n n P.o j;p p q q r r s s s s s s s s s r r r c%r r s s s s s s r r q p o n l k @   . + + + # # $ ; j > 6 , ' 5 ) ! ! ~ ~ ~ ~ ~ ~ ",
"N.N.O.@+c.F.,.f.q.q.q.q.q.f.,.F.c.O.B.[ 6+( 7 w L.0.l.y.- * & i$@ k l l l l k k @   . + # ; > 6@5+] z.1 8 r.f '.U *>k!B =+R.R R =+=+Q.A S y h e a 8 } 1 2 _ _ 2 1 } 8 0 c g '.U S A B !@8.y@x@Q+|.1.R+d@d@+$+$d@d@R+R+R+d@d@d@d@`-R+R+1.1.|.|.$@$@7#T+6.D+R =+Q.L&U h e 0 i 1 3 ^ { ~ ! ) ) ! ~ ] 4 _ 1 } 8 0 b ,.f.q.x x >.>.>.>.>.>.>.>.>.>.>.>.x x q.f.,.F.c.@+O.N.B.m.[ : _ ( / ^ ] ] { { ~ ~ ! ! ) ) ) ) ) ) ! ! ~ { { ] ^ / 4 4 3 3 _ 2 1 | } i 8 8 8 i } | 1 2 3 4 ^ { ) ' 6 j ; $ $ ; 6 5 { 4 ;+9 c h -.4+W X $.#.@.@.Y X W *.).h.x f.F.@+O.B.m.[ < k$< [ m.m.B.8 N.9 0 0 a a b b b b b b b a a 0 0 9 8 i } | 1 2 _ 3 4 / ^ ] ~ ) 5 ' , 6 6 , ' ) { ^ 3 1 8 0 c f g '.y y U U U y y h.'.>.>.>.>.v+h.h.h.h.h.h.h.h.h.h.h.h.h.h.h.h.;.;.;.h.h.>.x q.,.F.c.0 N.m.< _ 4 ^ { ~ ) 5 5 5 5 ' ' , 6 > j ; $ # + .   @ l m m m m l k k k k k k l m n n o o p p q r r s s r r r q q p p o o n n n m m m m m m m m m m m m m m m K)K)n n P.o o p p q q r r r r r r r r r q q q O;5$5$q q q q q q q p p o n m l k @   . + + # # $ ; j > 6 , 5 ) ) ! ~ ~ { { { ] ] ] ",
"@+@+c.F.,.f.q.x x x x x q.q.f.f.,.F.@+N.m.< A.]+#+L.0.l.y.= % 9+  t$k l l l k @ @ . + $ = 6 ' ! ++3 ;+8 r.q.y S A !*R Q o.D o.o.D.R B .+S U h e a 9 i 1 2 _ _ 2 1 } 8 0 c f '.U S A I.!@8.y@x@Q+|.1.R+d@d@+$+$d@d@R+R+R+d@d@d@d@R+R+R+1.1.|.|.$@$@5.T+;#c+D.k.B V z '.f a 8 | _ 4 ^ { ~ ~ ~ ~ ] b.3 2 | i 9 0 b ,.f.q.x x >.>.>.>.>.>.>.>.>.>.>.>.>.x x q.f.,.F.c.O.N.B.m.[ < T 3 4 / ^ ^ ] ] { { ~ ~ ! ! ) ) ! ! ~ ~ { { ] ^ ^ / 4 3 _ _ 2 1 | } i 8 8 9 9 9 8 i } | 1 _ 4 ^ ~ ) ' 6 j ; ; j , ) ] 3 | 9 ,.>.-.*.W X $.#.#.#.$.X W *. @-.h.x f.,.c.@+N.B.m.m.B.B.N.O.@+@+s.c.c.c.b b b b a a b b b a a 0 9 9 8 i } | 1 2 _ 3 4 / ^ { ~ ) ' , 6 6 6 6 ' ) ~ ^ 3 1 i 0 b e g h '.y U U U y y '.>.h x x >.>.v+v+v+v+>.>.>.>.>.>.>.>.>.>.h.h.h.h.h.h.h.>.x q.f.,.F.@+O.B.} 1 _ 4 ^ { ~ ! ) ) 5 ' , 6 > j ; $ # + .   @ k l m n n m l k k k k k k l m n n o o p p q q r r r r q q q p t o n n n m m m m l l l l l l l l l l l l J$J$J$m K)K)n n o o p p q q q q q q q q q p p p p %&%&p p p p p p o o o n m l l k @   . . + # # $ j > 6 ' 5 ) ! ~ ~ { { { ] ] ^ ^ ^ ",
"F.F.,.f.q.x >.>.>.>.>.>.x x q.q.q.f.,.c.O.=@< A.]+w L.x.J.- * & i$@ k k k k k @ . + $ j $+5 ~ ^ /+;+V.b t.y S Q.=,a+P E E E E P D D.=+Q.V U >.f.a 9 } 1 _ 3 3 _ 2 | i 9 b f h y z *.Q.9.^#]#P+}.2+1.R+R+d@d@d@d@R+R+R+R+R+R+R+R+R+R+1.1.|.|.$@$@5.5.T+T+c+D+R B A z '.f b 9 } 2 3 / ] { { { ] ^ 4 _ 2 | i 9 a b ,.f.q.x x >.>.>.>.>.>.>.>.>.>.>.>.>.>.x q.w+,.F.c.@+O.N.B.m.< : _ 3 4 / / ^ ^ ] ] { { ~ ~ ! ! ~ ~ { { ] ] ^ / 4 4 3 _ 2 2 1 | } i 8 8 9 0 0 0 0 9 8 i } 1 _ 4 ] ~ 5 , 6 > j > l.! ] 3 | p.e '.z *.W X $.#.#.$.$.X W &.=.).;.>.x f.,.c.@+O.N.N.O.@+c.c.F.F.F.c c F.b b b a a a a b b a a 0 9 9 8 i } | 1 2 _ 3 4 / ^ { ! 5 ' , 6 > > 6 , 5 ~ ] 4 2 i 9 b e g h '.y y y y y '.'.>.h x x G+>.v+v+v+>.>.>.>.>.>.>.>.>.>.>.>.>.>.h.h.h.h.>.>.x q.f.,.c.@+9 B.[ 1 _ 4 ^ ] ~ ! ) 5 ' , 6 > j ; $ # + .   @ k l m n n m l k k k k k k l m n n o o p p q q q r q q q p p o o n n m m m l l l l l l l l l l l l l l l l l l l J$J$m K)n n o o p p p p p p p p o o o o o o o o o o o o n n n m m l l k @ @   . . + # $ ; j 6 ' 5 ! ~ { ] ] ] { ] ] ^ ^ / / ",
"f.f.w+q.x >.h.h.;.h.h.h.>.x x x x x q.,.c.O.m.: I@7 M.0.J.- * & . @ @ k k k @ . # ; > ' ) { / T u O.j.t.y S Q.=,a+*+0&F F F F E P o.R W V -.>.e a 8 } 2 3 4 4 3 _ 1 } 8 a e g '.U S A I.4#e@y@q@Q+|.1.R+R+d@d@R+R+1.1.1.R+R+R+R+1.1.1.|.|.Q+Q+'@=#%@%@c+c+D+R B A z '.f b 9 } 2 3 / ^ ] ] ^ ^ / 3 2 1 } 8 9 a b ,.f.q.x x >.>.>.>.>.>.>.>.>.>.>.>.>.>.x x q.f.,.F.@+O.N.B.m.[ < 2 _ 3 3 4 4 / / ^ ^ ] ] { { { { ] ] ^ ^ / / 4 3 _ 2 1 1 | | } i i 8 9 0 a a a a 0 0 9 8 } 1 _ / { ! 5 , 6 > 6 ' ! ^ _ } 0 e '.z *.W X $.$.$.$.X %.W &.*.).-.;.>.x f.,.F.@+@+@+@+c.F.,.f.f.f.f.e ,.c b b a a a a a b b a 0 9 9 8 i } | 1 2 3 {#4 / ^ { ! 5 , 6 > > > > , 5 ! ] 4 2 } 9 a d f h '.y y y y y '.'.h h x x x G+>.v+>.>.>.>.>.>.>.>._;x x x x x >.>.>.h.h.h.>.x q.q.e F.c.@+9 i [ 1 _ 4 ^ ] ~ ! ) ' , 6 > j ; ; $ # + .   @ k l m m m l k k k k k k l m n n o o p p q q q q q q p p o o n n m m l l l l l l l l l l l l l l k k k k k k k s>l l m m n n o o o o o o o o n n n n n n n n n n n m m m m l l l k k @ @       . + # $ ; > , 5 ! ~ ] ^ ^ ^ ^ ] ] ^ ^ / / / ",
"x x x >.h.;.-.-.-.;.;.h.h.>.>.>.h.>.>.q.,.c.N.[ T 7 M.0.Y@- * & . w#@ @ @ @ . # ; 6 5 ~ ^ 3 1 i @+d i.g.=.Q.^+Q P E F F F F F E P o.R W V U h ,.0 i ;+_ 4 / / 4 3 2 | i 0 b f h y z 4+~@w@n@]#P+}.l!|.1.R+R+R+1.1.p@p@1.1.1.2.1.1.|.|.Q+Q+}.}.}.q@_#6.6.-##.k.B A z '.f a 8 } 2 3 4 / ^ ^ / 4 3 _ 1 | i 8 0 a b ,.f.q.g x >.>.>.>.>.>.>.>.>.>.>.>.>.>.>.x q.f.,.F.c.@+O.N.B.m.[ < 1 2 _ _ 3 3 4 4 / / / ^ ^ ^ ^ / / / 4 3 3 _ 2 1 | | } } i i 8 8 9 0 0 a b b b b a 0 9 8 } 1 3 ^ ~ ) ' , 6 , 5 ~ ^ _ } 0 ].'.z *.W %.X X X %.%.9$W &.*.=.).;.h.x q.f.W+F.c.c.F.,.f.].q.g g g f e c b a a 0 0 a a b b a 0 9 9 8 i } | 1 2 _ 3 4 / ^ { ! 5 , 6 > j j > 6 ' ! { / _ } N.a c f h '.'.y y y y '.'.h x x x x G+>.>.>.>.>.>.>.>.>.>.x x q.q.q.x x x >.>.h.h.>.>.x q.].e F.c.0 9 i } 1 _ 4 ^ { ! ) ' , 6 6 > j ; ; $ # .   @ k k l l l k k k @ k k k l m n n o o p p p q q q p p p o o n m m m l l l l k k k k k k k k k k k k k k k u>u>u>u>k k l l m m n n n n n n n n m m m m m m m m m m l l l l k k k k @ @ @ @       . + & $ ; > ' ) ~ ] ^ / 4 / ^ ^ ^ ^ ^ / / / ",
"h.h.h.;.-.-.).).).-.-.;.;.h.h.h.;.h.h.x I+F.O.m.T ]+w 0.J.- $ & .   @ @   . + ; 6 ) { / 2 } 9 b f '.!.V W R Q P E E F F F F b&E P o.R W =.;.x F.9 } 1 3 / ^ ^ ^ / 3 2 | 8 a c f h y z 4+~@M@L@[.P+B+Q+|.1.1.1.1.|.|.|.|.p@1.1.1.|.|.Q+Q+}.}.x@x@x@)@(#(#7.'+k.I.V z '.e a 8 | 2 3 4 / / / 4 3 _ 2 | } i 9 0 a c e f.q.g x >.>.>.>.>.>.>.>.>.>.>.h.h.>.>.>.x q.f.,.c.@+O.N.B.i m.} | | 1 1 2 2 _ _ 3 3 4 4 4 4 4 3 3 3 _ 2 2 1 | } } i 8 8 9 9 9 9 0 0 a b c c c c c b a 0 8 } 2 ]+] ! 5 ' , l.5 ~ / _ } 0 f.'.z V &.W %.%.W W W W &.*.=.t@-.;.h.x q.f.,.F.F.F.1+s+q.q.x h h h g f c b a 0 0 0 0 a a a a 0 9 8 8 i } | 1 2 _ 3 4 / ^ { ! 5 , > j j j > 6 ' ) { / _ | 8 0 c f g h '.y y y '.'.>.h x q.q.x x >.>.>.>.>.>.>.>.>.>.x q.q.q.q.q.q.x x >.>.h.>.>.>.x q.f.e c b @+9 i | 2 3 / ] ~ ) 5 ' , 6 6 > j j ; $ + .   @ k k k k k k @ t$k k l l m n n o o p p p p p p p p o o n n m l l l l k k k k k k k k k k k k k k k @ @ @ @ @ @ @ k k l l m m m m m m m m l l l l l l l l l l l l k k k k @ @ @ @ @ @         . . + $ j 6 5 ! ] ^ 4 3 3 4 / ^ ^ ^ ^ / / / ",
";.-.-.-.).=.=.=.=.).).-.;.;.;.;.;.;.h.>.q.,.@+m.T ]+M.0.J.= % + . i$  %#. $#j@j#5 { ,@2 i 0 ,.g y S A B R Z P E E 0&F F F E E E P D.=+&.S ~.q.b N.[ 2 4 ^ ] ] ] ^ / 3 2 } V.a c g '.U %+1@m@R#O+[.P+}.Q+|.|.|.|.Q+Q+Q+Q+|.|.|.|.2+Q+Q+}.}.P+P+K@y@(#7.7.`.8.9.Q.V !.>.e a B.| 2 3 / / / 4 4 3 2 1 | i 8 9 a b c e f g g x >.>.>.>.>.>.>.>.>.>.>.h.h.h.>.>.x q.f.,.F.c.@+O.N.8 B.i i } } | | ;+1 : 2 2 _ _ _ _ _ _ 2 2 1 | | } i i 8 9 9 0 0 0 0 0 0 a b c e e f f e e c b 0 i 1 3 ^ { ) 5 ' ' ) { / _ } 0 e h U %+*.&.&.&.&.&.&.*.*.=.).-.;.h.>.q.f.,.,.F.F.F.,.f.q.x h >.'.h g f c b a 0 9 9 9 0 0 0 0 9 8 8 i i } | 1 2 _ 3 4 / ^ { ! 5 6 > j j j j 6 l.) ~ ^ 3 1 i 0 b e g h '.'.'.'.'.h h g q.q.q.q.q.x x x x x >.>.>.>.x x q.q.q.q.q.q.q.x x >.>.>.>.x x g f f.e c b a 9 i | 2 4 ^ { ! ) 5 ' , 6 6 > j ; $ # + .   @ k k k k k k k k k l l m n n o o o p p p p p o o o o n m m l l l l l k k k k k k k k k k k k @ @ @ @         @ @ @ k k l l l l l l l l k k k k k k k k k k k k k k k k @ @ @ @ @ @ @ @ @ @   . + $ j J.5 ~ ] / 3 _ _ 3 4 / ^ ^ ^ / / / ",
").).).=.=.=.*.=.=.=.).).-.-.;.;.-.;.;.>.q.,.@+m.T 7 M.x.y.j@% + 9+. . + # ; > ' ~ / 2 i 0 e h U S Q.=+C o.P E E E E 0&E E E P P o.Y %.A z '.f c.8 | _ 4 ^ a.{ { { ] / 3 2 } 9 a e i.~.!.z@S@[@<.O+[.P+}.Q+Q+Q+Q+B+}.}.Q+Q+2+2+Q+Q+}.}.}.P+P+y@y@y@|@/#/#8.k.9.Q.V !.>.e 0 i ;+_ 4 / ^ ^ / 4 3 2 1 } i 9 0 b c e f g g _;h >.>.>.>.>.>.>.>.>.>.>.h.h.h.>.>.x x q.f.,.F.c.@+O.O.9 N.8 8 8 i i } } | | 1 1 1 1 1 1 | | u } i i 8 8 9 0 0 a a a a a a a a b c f.f g g g g f c b 9 } _ / ] ! )+5 5 ) { / _ | 9 F.g '.U ).=.E@*.=.=.=.=.).-.;.h.>.x q.n+,.F.F.F.F.F.,.f.q.x h >.>.h g f c b a 9 N.8 8 8 8 8 8 i i i i } } | 1 2 _ 3 4 4 ^ { ! 5 6 > j ; j j > , 5 ~ ] 4 1 } 9 c.e f g h h h h h g g f f.e ,.f.I+q.q.x x x x x x _;x x q.q.q.q.q.q.q.x x x x x x x x g q.f e e c b 0 8 } 1 _ 4 ^ { ! ) 5 ' , 6 6 > j ; # + .   @ @ k k k k k l l l l m m n n o o o o o o o o o o o n n m m m J$l l l l l l l k k k k k k k @ @ @                 @ @ @ k k k k k k k @ @ @ @ @ @ @ k k k l l l l l l l l k k k k k k k k @ @ . + $ > , ) { ^ 4 3 _ _ 3 4 / ^ ^ ^ ^ / / ",
"=.=.=.*.*.*.*.*.=.=.).).).-.-.-.-.;.h.>.q.F.O.[ A.#+L.l.- * & + + + # $ h@j#' <#^ _ } 0 c x U S Q.=+D.o.P P E E E E E E E P P o.D.R W V U h e a 8 | _ 4 ^ { ~ ~ ~ ~ ] 7 3 7+} 9 b f {.g.v@,*1$N+<.O+[.P+}.}.}.}.}.P+P+}.}.Q+Q+Q+}.}.}.P+P+P+[.[.|@/#8.8.8.!@B .+V -.h e 0 i 1 3 / ^ ] ^ / 4 3 2 1 } i 9 a b e f g g h h >.>.>.>.>.>.>.>.>.>.>.>.h.h.h.h.>.>.x q.f.,.F.F.c.@+@+0 0 0 O.9 9 8 8 B.i i } } } } } } i i 8 8 9 9 0 0 0 a a b b b b b R@R@b %>e f g h h h h g f c 0 i 2 4 ^ ~ ) 5 5 ! { ^ 3 1 i a e g >.y -.-.a@).-.-.-.;.h.>.q.f.,.F.c.c.@+@+c.c.F.,.f.q.g x h h g f e c b 0 9 8 i i } } } } } } } } } } | | 1 2 _ 3 4 ^ { ! E+6 > j ; ; j > , 5 ! ] 4 2 | 8 a c f g g h h g g f f.d c F.F.,.,.f.q.q.q.q.q.x x x x x x q.q.q.q.q.q.q.q.q.q.q.q.q.q.q.q.f f |'e c a 0 8 } 7+3 / ] { ! ) 5 ' , 6 6 j ; $ + .   @ @ k k l l l l m m m m n n n n o o o o o o o o o n n n n m m m m m m m m l l l k k k k k @ @ @         . . .           @ @ @ @ W@              @ @ k k l l l m m m m m m m m m l l l l l k @   + ; > ' ) { ^ 4 3 _ _ 3 4 / ^ ^ ^ ^ ^ ^ ",
"*.*.*.*.&.&.*.*.*.=.=.).).).-.-.-.;.h.x f.F.N.< ( w K.J.]'% & & & % ; j 6 E+<#++/+u 9 j.g y S Q.=+D.o.P  .E E E E E E E P P o.D.R =+&.S y x ,.0 i < _ / ] ~ ! ) ) ) ! { ^ 3 : m.0 c t.{.Y.y+_$1$0$<.O+[.[.P+P+P+P+P+P+P+}.}.}.}.}.P+P+P+[.[.[.]#o@e@e@^#!@9.I..+4+U h e 0 i 1 3 / ] ] ] ^ 4 3 2 1 } 8 0 a c f g g h h >.>.>.>.>.>.>.>.>.>.>.>.>.h.h.h.h.>.>.x x q.f.,.,.F.F.c.c.c.a a a 0 0 0 9 9 8 8 8 i i i 8 V.9 0 0 0 a a a b b b c c c c %>b R@b c e V*h h '.'.'.h g e a 8 1 3 ^ { ! ) ) ! ~ ] 4 _ | 8 a c f.g >.>.h.h.h.h.>.x q.f.F.c.@+O.N.N.N.O.@+c.F.,.f.q.q.g x g g f e c a 0 9 i } } | | | | | | | | } } | | 1 2 _ 3 4 ^ { ! ' 6 > j ; ; j > , ' ! { / _ | i 0 b e f g g g f f e ,.c b c.c.F.F.,.f.f.f.f.q.q.q.x x x x x ];q.q.q.q.q.q.q.f.f.f.f.].f f f f f e c b 0 9 i | 2 3 / ] { ! ) 5 ' , 6 > ; $ # .   @ @ k l l l m m m m n n n n n n n n n n n n n n n n n n n n n n n m m m m m l l l k k k @ @ @       . . . . . . . .             . . . . . .       @ @ k l l m m n n n n n n n n n m m m m l k   + ; 6 ' ! { ^ 4 3 3 3 3 4 / ^ ^ ^ ^ ^ ^ ",
"&.&.&.&.&.&.&.*.*.=.=.=.).).).-.-.;.>.x ,.c.B.: ]+w 0.J.= % & # $ ; g+$+5 <#++A.| 9 b g y ).A =+D.o.P E E E E E E E E P P o.D.R =+B A z y g c 0 i 1 _ / ] ~ ) 5 5 x.5 ! { ^ ( : i 0 j.G.H.x$'$@$1$q+N+<.O+[.[.[.[.[.[.[.P+P+P+P+P+P+[.[.[.[.o@o@e@e@!@!@9.U+.+w.S U h c 0 i 1 3 / ] ] ] ^ 4 3 2 | } 8 0 b e f g h h '.>.>.>.>.>.>.>.>.>.>.>.>.>.h.h.h.h.h.>.>.x q.q.f.n+,.,.F.F.F.c F.b b b a a 0 0 0 9 9 9 9 0 0 a a b b b b b c c c c c c c %>b R@b c e g h h '.'.'.h g e a 8 | 3 / { ! ) 5 ) ! { ^ 4 2 | B.O.a F.,.f.f.I+I+f.f.,.F.@+O.B.=@m.m.m.m.B.N.@+c.F.s+q.q.g g g f f e c a 0 9 i } | | 1 1 1 1 | | | } } } | 1 2 _ 3 4 ^ { ! ' 6 j j ; ; j > 6 ' ) M.^ 3 1 S.9 b e f f q.f f e e c b c.c.c.c.F.F.,.,.,.,.f.f.q.q.q.q.x x q.q.q.q.q.f.f.f.f.,.,.,.e f.f.f f f e c b a 9 i } 1 _ 4 ^ ] ~ ! ) 5 ' , > j $ # + .   @ k l l l m m m m n n n n n n n n n n n n n n n n n n n n n n n n m m m m l l l k k @ @ @       . . . . . . . . . . . . . . . . . . . . . .     @ @ k l l m m n n n n o n n n n n n n n m l @ + ; 6 ' ! { ^ ,@3 3 3 3 4 / ^ ^ ^ ^ ^ ^ ",
"&.&.&.&.&.&.&.*.*.=.=.=.).).).-.;.h.x q.F.@+m.u@]+M.0.J.= * % $ ; > , 5 ~ ^ /+;+V.b t.y z A B R o.P E E E E E E E E E P P o.D.R =+Q.V !.'.f b p.i 1 3 ^ { ! 5 ' , , , ' ) ~ ] 4 2 i p.`+6#a$#$S#@$_$q+N+<.O+O+O+O+O+O+[.[.[.P+P+[.[.[.m$O+O+O+L@}@n@n@U+U+I..+V z y g c p.m.1 3 / ^ ^ ^ / 4 _ 2 | i 9 0 b e f g h >.>.>.>.>.>.>.>.>.>.>.>.>.>.h.h.h.h.h.h.h.>.>.x q.q.f.f.,.,.e e e e e e c c b b b a a a 0 a a b b c c c c c c c c c c c c c %>b R@b c e f g h h '.h h f e a 8 | 3 / { ! 5 5 5 ) ! ~ ] ]+A.: [ i N.O.@+@+@+@+@+@+O.N.m.[ < : : : : < [ B.O.@+F.s+q.g x g g f f e c b 0 9 8 i } | | 1 1 | | | } } } } | | 2 _ 3 / ^ { ) l.> j ; ; ; ; j 6 ' ) ~ ++4 2 u V.a c e f f f f e e c F.c.a a a c.c.F.F.F.,.,.,.f.f.f.q.q.q.q.q.q.q.f.f.f.,.,.W+F.F.F.,.,.e e e e c b a 9 i } 1 _ 3 / ] { ~ ) 5 ' , 6 j ; # + .   @ k k l l m m m m m m m m m m m m m m m m m m m m m m m m m m m m m m m l l l k k k @ @       . . . . . . . . . . . . . . . . . . + . . . .     @ @ k k l l m m n n n n n n n n n n n n n l @ + ; > ' ) { ^ / 4 3 3 3 4 / / / / / / / ",
"W W W .+&.&.&.*.*.=.=.=.).).-.-.;.>.x f.c.O.[ T 7 L.0.J.- * * = > , 0.~ 7 /+| V.b t.y S A B R o.P *+E E E E E E E E E P o.o.D.=+B A S U h f b 9 } 1 3 ^ ~ ) ' 6 > > > 6 , 5 ! ] 4 2 } |+n#2$$$)$S#'$_$1$N+<.<.<.<.<.<.O+O+[.[.[.[.O+O+O+>%<.<.<.R#+@M@w@&@.+w.S U '.f b 9 } 1 _ 4 / / / 4 3 2 1 } i 9 a b e f g h >.>.>.>.>.>.>.>.>.>.>.>.>.>.h.h.h.h.;.h.h.h.>.>.x x q.q.f.f.f f q.q.f f f e e c c c b b b b b c c e e e c c c c c c c c c c b R@a R@b +>f f g g g g f e b 0 i 1 3 ^ { ) 5 ' , ' 5 ) ! { ^ ]+A.T < [ c$m.m.m.m.c$[ < T A.( ]+]+( ( T : [ B.O.c.,.q.x x x g f f e c b a 9 8 i i } } | | | } } } i i } } | 2 _ 3 / ] ~ 5 , > ; $ $ $ ; j > , 5 ! ] ,@_ | U.0 b e e f f f ].e d j.b a a @+@+@+c.c.c.F.F.,.,.,.f.f.f.q.q.q.q.f.f.f.,.F.F.F.c.c.c.F.F.c c c c b a 0 9 i } 1 2 3 4 ^ { ~ ! ) 5 ' 6 > ; $ # + .   @ k l l l m m m m m m m m m m m m m m m m m m m m m m m m m m m m l l l l k k k @ @       . . . . . . .                 . . . . . . . . .       @ @ k k l l m m m n n n n n n n n n n n m k . $ > l.) ~ ] / 4 3 3 3 4 4 / / / / / / ",
"W W W W &.&.&.*.*.=.=.=.).).-.;.h.>.q.,.@+B.< A.#+L.x.J.- = = - , 0.~ ^ _ | 9 b t.y S Q.=+R o.P P E E E E E E E E E E P o.D.R =+B A S y h e a 9 } 2 4 ] <#5 , > j ; ; ; > 6 ' ! ] 4 :+u 7$3$U#$$)$#$'$_$1$q+N+N+N+N+<.<.O+O+O+O+O+<.<.<.<.N+N+N+N+z+z+m@c@w.4+z y h ].b 9 } 1 2 3 4 4 4 3 _ 2 | } 8 9 a c e f g x h >.>.>.>.>.>.>.>.>.>.>.>.>.h.h.;.;.;.;.;.h.h.>.>.x x q.q.q.q.g h h h g g g f f e e e c c c c e e e e e e c c c c c b b b b a a 0 a a b c e e e e e c b 0 8 } 2 4 ] ~ 0.' , 6 6 6 , x.) L.{ #++&( A.T T T T T T A.( ]+O@#+w w #+7 ]+A.< m.N.c.,.q.x x x g f f e c b a 0 9 8 8 i i i H+i i i i i i i } | 2 _ {#/ ] <#5 6 j $ $ # $ $ ; > 6 ' 5+{ b.3 1 i 9 a c e ].f f ].].d c b c.a @+@+@+@+@+c.c.F.F.F.,.,.,.f.f.f.f.f.f.f.,.F.F.c.c.@+@+@+@+c.c.c.b b a 0 9 8 i | 1 2 3 4 ^ ] 8@! ) 5 ' , > j ; # + .   @ @ k l l l l l l l l l l l l l l l l l l l l l l l l l l l l l l l l k k k k @ @     . . . + + + . . .                   . . . . . . . . .         @ @ @ k k l l m m m m m n n n n n n m k . $ j , 5 ~ ] / 4 3 3 3 3 4 4 4 4 4 4 4 ",
"W W W W &.&.&.*.*.=.=.=.).).-.;.h.x f.c.O.m.: ( w K.x.J.- - - J.x.L.^ 3 | V.b g y S Q.=+D.o.P E E E E E E E E E E E *+P o.D.R !*Q.V z y g d a 8 | 2 4 ] ! ' 6 j ; $ # $ $ j > ' ) { ]+b#o#{$_%%$!$T##$'$_$1$q+q+N+N+N+N+<.<.<.<.<.<.N+N+N+N+q+q+z+z+c@c@-@1@%+U '.g e a N.} | 2 _ 3 3 _ _ 2 | } i 9 0 a c e f g x h >.>.>.>.>.>.>.>.>.>.>.>.>.h.h.;.;.;.;.;.;.L+h.>.>.x x x x x h >.'.'.h h h g g f f f e e e e e e e e e c c c b b a a a 0 0 0 9 9 9 0 a c.b b b c.a 0 9 i [ 2 3 ^ { ) ' , > > j > > 6 , x.0.L.M.w #+7 ]+]+]+]+7 #+#+w L.L.L.L.M.w 7 ( T [ B.@+F.f.q.x g g f f e c c b a 0 9 9 8 8 8 8 8 8 8 8 8 8 i } | 1 _ 4 ^ { ! ' > ; $ # # # # $ j 6 ' ) ~ ++z.2 } V.a b c e f f f ].].d c b a a @+0 @+@+@+c.c.F.F.F.,.,.,.f.f.f.f.f.,.F.F.c.@+O.O.O.V.O.O.@+@+@+@+0 O.9 i } | 1 2 _ 4 / ] { ~ ! ) 5 , 6 > ; $ # + .   @ k k l l l l l l l l l l l l l l l l l l l l l l l l l l l l l k k k k @ @ @     . . k@+ + + + + . . . . . . . . . . . . . . + + + + + . . . . . .       @ @ k k k k l l l m m n n n m k   # j 6 5 ! { ^ 4 3 3 3 3 4 4 4 4 4 4 4 ",
"W W W W &.&.&.*.*.=.=.=.=.).-.;.>.q.,.@+N.[ T +&M.K.x.J.y.> y.l.K.] 4 1 8 b t.y S Q.R o.P E E E E E E E E E E E E E P P o.D.R.B 8!V -.'.q.c 0 i | _ / { ) ' 6 j $ # + + + # ; > , ) { +&p#]$/%8;%$!$T##$'$@$1$1$q+q+q+w$N+N+N+N+N+0$q+q+q+q+1$v.v.v.S@<@1@4+!.y h f c 0 8 } | 1 2 2 2 2 1 | } i 8 9 a b c e f q.x x >.>.>.>.>.>.>.>.>.>.>.>.>.h.h.;.;.-.-.-.;.;.;.h.v+>.x x x h >.'.'.'.'.'.h h g g f f f f f e e e e c c c b a a 0 0 9 9 8 8 i i i i 8 V.9 9 9 9 8 B.m.| 1 _ 4 ^ { ! 5 , > j ; ; ; ; j - y.J.' 0.K.L.M.M.w w M.M.L.K.K.0.x.x.0.K.L.w 7 I@: m.N.c.,.f.q.q.f f f e e c b b a a 0 0 0 9 9 9 9 9 9 9 9 8 i | 1 _ 4 ^ { ) 6@> $ # + + + + # ; > , 5 ! '#,@_ | U.0 3&c e f f t.t.f e c j.b a @+@+@+@+@+c.c.F.F.F.,.,.,.f.f.f.f.,.,.F.c.@+O.N.N.B.B.B.N.N.9 9 9 9 8 8 i } | 1 2 _ 3 / ^ w ~ ! ) 5 ' , > j ; # + .     @ k k k k k k k k k k k k k k k k k k k k k k k k k k k k k k k k @ @ @       . . + + # # # # # + + + + + + + + + + + + + + + + + + + + + + + + + + + + + . .       @ @ k k l m m m l k   # ; > ' ) { ^ / 3 3 3 3 3 4 {#3 3 3 3 ",
"W W W W &.&.&.*.*.=.=.=.=.).-.h.x f.F.O.m.: ( #+M.0.l.J.y.y.J.5 ~ / _ } @+f y S Q.R o.7&E F F F E E E E E E E E E E P D Q C =+8&A S U h f b 9 i 1 3 b.{ ) ' > ; # + . . . . + $ j , )+i#+&f%]$/%{%%$!$T##$'$@$_$7;1$1$q+q+q+q+q+q+q+1$1$1$1$_$p+p+p+p+3#z@%+-.'.g e b 0 8 } | 1 1 1 1 | | } i 8 9 0 a b c e f q.g x x >.>.>.>.>.>.>.>.>.>.>.>.h.;.;.-.-.-.-.-.-.;.;.h.>.>.>.>.>.'.'.y '.'.'.h h h g g f f f f e e e c F.b a a 0 9 8 8 i i } } | | | | | } m.m.} [ < 7+T A.4 ^ ] ~ ) ' , > j ; $ $ # % $ * ; j y.J.l.x.0.0.K.K.0.0.x.x.l.J.J.J.l.x.K.L.#+]+T < B.O.c.c e f.f.f e e e c c c b b b c.a a a 0 0 0 0 0 9 8 i | 1 _ 4 ^ ~ ) , j $ + . . . . + $ j 6 ' ) { b.3 1 i 9 a b c e f t.g t.f e c F.c.a @+@+@+c.c.F.F.,.,.,.,.f.f.f.f.,.,.F.c.@+O.N.B.m.m.} m.m.i B.B.8 8 i i } | 1 1 2 _ 3 4 ^ ] { ~ ! ) ' , 6 > ; $ # + .   @ @ k k k k k k k k k k k k k k k k k k k k k k k k k k k k k @ @ @ @     . . + + # # # # $ $ $ # # # # # # # # # # # # # # # # # # # $ $ $ $ $ ; ; ; ; $ $ $ # # + + .   @ @ k l l l @   + $ > , ) ~ ] / 4 3 3 3 3 3 3 3 3 3 3 ",
"W W W W &.&.&.*.*.=.=.=.).).;.h.u+,.3@N.[ T ]+w L.0.l.J.J.J.l.K.w ( 1 8 c h z Q.R o.E F F F F F F E E E E E E E E E P D Q R !*Q.n.S y h e a 9 } 2 3 ^ ~ ) , > ; # + .       . + $ > l.r+d#O%f%]$/%{%%$!$T##$'$@$@$_$_$1$1$1$1$1$1$1$_$_$_$_$_$_._._._.z@t@!.g.h f c a 9 i } | | | | [ } i 8 8 9 0 a b c c e f.f q.x x x >.>.>.>.>.>.>.>.>.>.>.h.;.;.-.-.-.-.-.-.;.;.h.h.>.>.>.>.'.h.y '.'.'.h h g g g f f f e e c b b a 0 0 9 8 i } | | 1 2 2 _ _ _ _ 2 2 : : 2 _ A.4 / #+{ ~ ) 5 , 6 j ; $ # # + + + + # # $ ; - y.J.J.l.l.l.l.J.J.y.y.y.g+y.J.l.x.K.M.7 ( : [ B.O.c.F.,.e e e e e e e c c c c c c c b b a a a 0 0 9 i } 1 _ 4 ^ ~ 5 6 ; # .         + # ; > , )+~ ^ ( 2 } 8 0 b c e f g g g t.f e c b c.a @+c.c.F.F.,.,.,.f.f.f.f.f.d ,.F.F.@+O.N.B.m.[ < < < | [ } } } } } } | | 1 2 2 _ 3 4 / ] { ~ ! ) 5 ' 6 > j ; # + . .   @ @ @ @ @ @ @ @ @ @ @ @ @ @ @ @ @ @ @ @ @ @ @ @ @ @ @ @ @ @ @ @       . . + + # # $ $ $ $ ; ; $ $ $ $ $ $ $ $ $ $ $ $ $ $ ; ; ; ; ; ; h@j j > > > y.j#> > > j j ; $ # + k@.   @ k k @   + $ j 6 5 ! { ^ 4 3 3 3 3 3 3 3 _ _ _ ",
"W Q..+&.&.A *.*.=.S ).).).-.h.>.f.F.O.m.: ( 7 M.K.x.l.J.J.l.x.L.^ _ } 0 ].y V =+Q *+F z&G t&F F F E E E E E E E E E P D Q R !*Q.V z y g ,.a 8 | 2 4 ] ~ ) ' 6 ; # + .   @ @   . # ; j#E+X%o%A%7%]$/%V#%$!$d$#$A#y+@$,*_$p+p+p+p+p+_$_$,*_.@$@$_._.Z.M+v@a@g.~.g e b 0 8 i } | | } } i i 8 9 9 0 a b b c c e f.f q.g x x >.>.>.>.>.>.>.>.>.>.'.h.;.U -.-.).).-.-.-.;.;.h.h.>.>.'.'.h.'.'.'.'.h h g f f f e e c F.b a 0 9 8 8 i u 1 2 :+_ 3 4 4 4 ]+/ 4 4 4 4 4 ]+7 #+w ~ ! 0.' , > j ; $ $ # + + + . . . + + # % * = - y.y.y.y.y.y.- - - = = - y.J.l.0.L.] ]+A.< m.N.@+c.F.c ,.e e e e e e e e f.].e e e c c b b a 0 9 8 } 1 _ 4 ] ~ 5 6 ; # .   @ @   . + $ j 6 5 L.] 4 2 | 8 0 a c e f g g g g f f.e c F.b c.c.F.F.,.,.f.f.f.].f f.f.f.,.F.c.@+O.B.m.[ < : : : 1 1 | | | } | | | 1 1 2 2 _ 3 4 / ] { ~ ! ) 5 ' , 6 > ; $ # + .     @ @ @ @ @ @ @ w#w#w#w#    @ @ @ @ @ @ w#w#w#w#                  . . + + # # $ $ $ ; ; ; ; j j j j j j j j j j j j j j j j j j j g+> j#6 $+, 6@' ' ' ' ' ' , J.j#g+j ; $ $#k@%#      . + $ j 6 ' ) { ] / 4 3 3 3 3 _ _ _ _ _ ",
"&.&.&.A n.*.V =.).).-.-.U ;.>.q.,.c.N.[ T ]+] L.0.' l.l@, l.0.~ b.:+S.a t.U A =,o.*+F F F F F F F 0&b&b&b&b&b&b&E E P D D.R.B 8!V z '.g c 0 i < _ / ] ~ ) ' 6 j $ + .   @ @   . + $ g+, )+7=I%Y#7%]${$V#U#6$d$x$A#y+E$_.,*,*3#3#,*,*_._._.Z.E$y+M+v@f+N@g.~.>.f c a 9 8 i } } } } i i 8 8 9 0 a a b c c e e f f q.g x x x h >.>.>.>.>.>.>.>.'.h.;.U -.-.z ).-.-.-.;.;.h.h.>.>.'.'.'.'.'.'.h h g f f e e c c b a 0 9 8 i } | 1 2 _ 4 / / ^ ] ] ] ] ] ] ] ] ] w M.L.K.0.' , 6 > ; $ % # + + + . . . . . . . . + # % * = j - - - - - = = = = = = - y., x.K.{ 7 ( 2 [ B.O.@+c.b c c e e e f f f g g g g f f e c c b b a 0 8 } 1 _ 4 ] ~ 5 6 ; + . @ @ @ @   + % = 6 x.! ] 4 _ | i 9 a b e f f g g g g f f e ,.c c c ,.,.,.f.f.q.q.q.q.q.f f.,.F.c.@+N.B.m.< : T _ _ _ 2 2 1 1 | | | 1 1 1 2 2 _ 3 4 / ] { ~ ~ ! ) 5 ' 6 > j ; # + + . i$                                          i$i$i$i$i$          . . . + # # $ $ ; ; j j j j > > > > > > > > > > > > > > > > p;j#6 $+, 6@E+0.)+K.5+5+! ! 5+5+)+0.x.6@J.y.j j@V@$#k@9+k@k@$#$ h@j#' ) ~ ] ^ 4 4 3 3 _ _ _ 2 2 2 ",
"A A A *.V =.S ).z U ;.y h.>.x f.F.O.m.: ( ^ M.K.5 l., , , ' ) i#/ 2 i r.g z Q.R Q P E k*F F F F 0&0&0&0&0&0&0&b&b&E P o.D.R.B A s=U '.f b 9 i 1 3 / ] ~ ! 5 , > ; # + .       . + $ j J.E+H#d#q#Y#7%<${$3$U#K+d$,+(.5#M+Z.Z._.b@b@b@_.Z.Z.M+M+v@5#f+N@g.~.{.g e b 0 9 8 i } } } i i 8 8 9 9 0 a b b c c e e f f q.g g x x x x >.>.>.>.>.>.'.'.y ;.U -.-.-.-.-.-.U ;.y h.h.>.>.>.'.'.'.h h g g f e ,.c b b a 0 9 8 } | 1 2 _ 3 4 b.] { ~ ~ ! ! ! ! ! ! ! 5+K.)+5 ' , y.- ; $ # + + . .                 . . . + & % $ * = = j j = = = = * * * = - > J.' ) ~ #+]+_ < m.N.O.@+c.b c c e e f g g h h h h h g f e e c b a 0 8 } 1 _ 4 ^ ~ 5 6 ; +   @ k k @   . # ; y.' ! ] ]+_ | i 9 0 b c e f f g g g f f f f f.f.e e e f.f q.g g g g g q.].e F.c.@+N.m.[ 7+T A.3 3 3 _ _ 2 1 1 1 1 1 1 1 2 2 _ 3 4 ^ ] { ~ ~ ! ) 5 ' , 6 j ; $ # + 9+. i$i$i$i$i$i$. . . . . . . . . . . . . . . 9+9+9+9+9+9+. . . . . + + # # $ ; ; ; j j > > > 6 6 6 6 6 6 , , , , , , , , , , , 6@E+E+)+5+X%{+i#r#'#'#'#'#'#'#i#{+H#r+t#6@$+j#1#j@U-.;.;.;V@j@h@> , 5 ! { ] / 4 3 3 _ _ 2 2 2 2 ",
"V V V =.S ).z U y y '.>.h g f.F.@+B.[ _ / { ! 5 ' , , , , x.K.{ ,@: i r.g !.&.=+%,Q D *+E E E E 0&0&0&0&F F F F b&E P o.D.R.B A S U h e a 9 } 2 3 / ] ~ ! ) ' 6 j ; # + . . . + # ; j 6 6@)+{+p%c#F#X#8$&$n#z$K+H./..#N@f+v@v@Z.z@z@z@Z.M+v@v@a@N@:@g.~.{.h f c a 9 8 i i } } } i i 8 8 9 0 0 a b b c e e f f f g g g x x x x x >.>.>.>.>.'.'.y y U U U -.-.-.U ;.y h.'.>.>.>.h h h h g g f e e c b a 0 0 9 8 } | 1 _ 3 4 / ^ ] ~ ! ) 5 ' ' ' ' ' ' ' ' l., J.y.- ; $ # + . .   @ @ @ @ @ @             . . 9++ # % $ * ; ; ; ; ; * * * * * = j > 6 , 5 ! { 7 3 : [ B.N.0 a b b c e e f g h h '.'.'.'.h g f e e c b 0 9 i | _ 4 ] ~ 5 6 $ +   @ k k k @ . # ; > ' K.w ]+_ 1 m.8 0 a b c e f f f f f g g g g q.f f f f f g g g x x g g f e F.c.O.N.m.< : A.( 4 4 4 3 3 _ 2 1 1 1 1 1 1 2 2 _ 3 4 ^ ] { ~ ~ ! ) 5 ' , 6 > q;$ % & + 9+9+. . 9+9+9+9+9++ & & + + + + + + + + & & & & & # # # # # + + + + # $ $ ; j j > > > 6 6 , , , , , ' ' ' ' ' ' ' ' ' ' ' 5 )+)+5+<#7=d#|%Z#q#c#c#,@,@,@,@c#+&-$|%d#7=H#W%#;u#U% &O-2#j@j@h@j j#, ' ) ~ { ^ / 4 3 _ 2 2 2 1 1 ",
"S S S S z U U y '.h g q.f e F.@+N.} : ( #+~ ) ' , J.6 , , 5 5+{ ,@: i r.t.U A B R.C Q D P P E E E 0&0&0&&+&+&+F F E P o.D.=+Q.A %+y h e a 8 | 2 4 ^ ] { ~ ! ) ' 6 > ; $ # + # # * j > $+' )+<#d#Z#/$^$h+D#b$n#>+w+^.H./..#g.N@v@v@v@v@v@v@a@!.N@g.~.~.{.h t.e b 0 9 8 i } } } } i i 8 8 9 0 0 a b c c e e f f f g g g g x x x x h >.>.>.>.'.'.'.y y y ;.;.;.;.y h.'.'.>.h x x g g f f e e c b a 0 9 8 8 i } | 2 _ ( / ^ ] { ~ ! 5 ' , 6 > > > > > > > > - j = * % + . .   @ k k l l l k k @ @ @ @       . . . + & # % $ * ; ; ; ; * * * * * ; = - y., ' ) ~ ^ 4 T < m.8 9 0 a b c c e f g h '.'.y y '.'.h g f e e b a 9 i | _ 4 ] ! ' > $ .   k k l k @   + $ g+l.K.{ 7 A.1 } 8 9 0 a b c e e e f f f g g g g g f f f f f g g g g g q.f ,.F.a O.B.} < T 3 4 / / / 4 4 3 _ 2 1 1 1 1 1 1 2 _ 3 4 ^ ] { ~ ~ ! ) 5 ' , 6 > j ; $ # & 9+9+9+9+9+9+& & & # % % % % % # # # % % % % * * * * * * * $ $ $ $ $ j@; j > > 6 6 , , l.' ' ' 5 5 5 5 5 ) ) ) ) ) ) ) ) 5+! <#i#d#o%q#O%Y#F#b#^$^$Q%}$}$Q%b#b#F#Y#O%q#|%J%K%}-d-V%!>D-e#g+g+j#6 , ' ) ! { ] / 4 3 _ 2 2 1 1 1 ",
"S z z U U y '.h g f e ,.F.c.0 N.m.1 A.7 { K.5 , 6 6 6 6 , 5 5+{ ,@2 i a q.;.V Q.B =+R D.o.P P 7&E E 0&F &+&+&+&+F E P o.C =+Q.V z y g c 0 i | _ 4 ^ ] ] { ~ ! ) ' , 6 j j ; ; j > 6 , ' 5 ) <#i#++,@H$}$u {@p.9&!#d ].t.i./.~.g.!.!.!.!.!.!.g.g.~.'.{.i.t.e c a 0 8 i } } } } } } i 8 8 9 0 0 a b c e e f f f g g g g g g x x x x h h h h h '.'.'.'.h.h.h.h.h.'.>.h h g g q.f f.e c c b a a 0 9 B.} | | 1 2 A.4 / ] { ~ ! ) 5 ' 6 > j ; ; $ $ $ $ $ $ $ % # & 9+i$  @ k k l l l m m m l l k k @ @ @       . . + + & # % $ $ * ; * * * * * * ; = j > 6 ' #,<#] / A.1 } B.9 0 a b c c e f h '.'.y y y y y '.h g f e c a 9 i | _ / ] ! ' j # . @ k l l l k   k@$ j , 0.M.^ ( 2 | i 8 9 0 a b b c c e e f f g g g g f e e e f f f g g g f e c b @+N.i [ 7+_ ( / / ^ / / 4 3 _ 2 1 1 1 1 1 1 2 _ 3 4 ^ ] { ~ ! ! ) 5 ' , 6 > j ; $ # & 9+9+9+9+9+& & & % % $ * * ; ; ; ; ; ; = = = ]'- - - - - - - j j j j > > 6 , , ' ' 5 5 )+) ) ) ) ) ! ! ! ! ~ ~ ~ ~ ~ ~ i#w '#-$c#/$F#^$X#E#<$*$*$*$8$8$8$8$,%<$]$[%X#f%g%d=q#J*G#K%s#t#}#`%$+, , ' 5 ) ! ~ ] ^ 4 3 _ 2 2 1 1 1 ",
"z U U y '.'.g f e c b a 0 9 B.} 1 _ ]+] ! 5 ' 6 6 > > 6 , ' ) { / 2 m.0 f.'.z V 8!Q.B R.D.o.o.P P 7&E 0&F &+&+&+F E P o.R B A S U '.f b 0 i | _ 4 / ^ ] ] ] { ~ ! ) 5 ' , 6 6 , , ' 5 ) ) ! ~ w ++/ z.T < u B.V.p.s.b d ].i.{.~.g.g.U U g.g.y ~.{.h g f e c b 0 9 8 i } | | | | } i i 8 9 0 0 a b c e e f f g g g g g g g g g x x x x h h h h h h h >.>.>.>.h x g q.f f e e c F.b a 0 9 9 8 i u 1 2 _ 3 4 / ^ ] ~ ! ) 5 ' , 6 > j $ # # + . . . . + k@. .   w#@ k l l m m m m m m m m m l l k k @ @       . . 9++ + # # $ $ $ * ; ; ; ; ; ; ; ; j > 6 , 5 ! { ^ 3 2 [ i 8 9 0 a b c e f g h '.y y U m!y y '.h g f e b 0 i 1 _ / { ) , j #   @ l l m l k @ . # = 6 5 L.] 4 _ 1 } i 8 9 0 0 a a b b c c e f f g f e e c c e e e e f f.e c b a O.8 m.| 2 A.4 / ^ ^ ^ / / 4 _ 2 2 1 1 1 1 1 2 2 3 4 ^ ] { ~ ! ! ) 5 ' , 6 > j ; $ # & 9+9+9+9+9+& & % * * ; = j - - - > > y.y.y.y.J.J.J.J., , , , , , , , , ' 5 5 ) ) ! ! ! <#~ ~ ~ ~ ~ ~ { { { { { ] ] ] ++7 +&Y%H$^$-%]$a%{$&$V#V#V#V#V#V#V#V#V#;%&${$/%a%]$[%7%F#A%q#o%G#X%5+)+5 5 5 5 ) ! ~ { ^ / 3 _ 2 2 1 1 1 ",
"y y y '.h g f c b a 9 8 i } | 2 A.]+] ~ ) ' 6 6 > > > > 6 ' ) ~ b._ u 9 c x y z S V A Q.=+R D.o.o.P P E F F F F F E P D.R B A S ;.h f b 9 i 1 _ 4 / ^ ^ / / ^ ^ ] { ~ ! ) ) ) ) ! ! ~ ~ ~ { { ] ^ / 4 /+2 < [ } i 8 9 a c ].g h '.~.y y ~.'.'.h i.g f e c b a 9 8 i } | | | | | | } i 8 9 9 0 a b c e f f g g g g g g g g g g g g g g g g g g g g g g x x g q.f f.e c c b b a 0 9 8 i } | 1 2 _ 3 4 / ^ ] { ! ) 5 , 6 > g+j ; $ # + .   @ @ @ @ @ @ @ @ k k l l m m n n n n n n n n m m l l k k k @ @     . . . + + & # # $ $ $ ; ; ; ; ; ; ; ; j j > 6 ' ) ~ ] 4 _ 1 } i 8 9 0 a b c f g h '.'.y y y y y '.h g f e b 9 i 1 3 ^ ~ 5 6 ; +   k l m m m l @ . # ; > ' ) { ^ 3 2 1 } i 8 8 9 9 0 0 a a b c e e e e c c b b b b c c c c b b a O.8 i | 1 _ 3 / ^ ] ] ^ ^ / 4 3 _ 2 1 1 | | 1 1 2 _ 4 / ] { ~ ! ) ) 5 ' , 6 > j ; $ # + 9+9+9+9+& & % * * = - - y.6 J.J.l.l.l.l.x.x.x.x.0.0.0.0.0.) ) 0.) ) ) ! ! ~ ~ { { ] ] ] ] ++] ] ] ] ] ^ ^ ^ ^ / / ,@( E%b#X#E#*${$;%3$:$2$B#V;V;V;V;V;B#B#2$2$U#%$:$3$V#&$/%*$]$X#f%/$Z#'#i#<#! ) ) ) ! ! { ] / 3 _ 2 2 1 1 1 ",
"'.'.'.h g e c a 0 8 i } | 2 _ 4 / ] ~ ) ' , > > j j j > 6 , 5 ! ] 3 1 B.a e i.'.y U z V A B =+R R D.o.D *+E E E E P o.C =+Q.V z y g e a 9 } 1 _ 3 4 / 4 4 3 3 4 4 / ^ ] ] { { { ] ] ] ] ] ] ^ ^ / ,@4 3 _ 2 1 | | } i 9 a j.e f g h h h h h g q.f e c b b a 0 8 i } | 1 1 1 1 1 | | } i 8 9 0 a b c e f f g g g g g g g g g g g g g V*f f f f f f f f f f f.e ,.c b a a 0 9 8 i } | 1 2 _ 3 4 / ] { ~ ! ) 5 ' 6 > j ; $ # # + .   @ @ k l l m l l l l m m m n n o o o o o o o o n n n m m l l k k @ @     . . . + + + # # $ $ $ ; ; ; ; ; ; ; j j j > 6 , 5 ! { ^ 3 2 1 [ i 8 9 0 a b c ].g h h '.'.'.'.'.h h g f c a 9 } 2 4 ] ! ' > $ + @ k l m m m l @   + $ j , 5 ! ] / 3 2 1 | } i i 8 8 8 9 9 0 a b b c b b a a a a a a a a a 0 9 9 U.} | 1 _ 3 ]+^ ] ] { ] ] ^ / 4 _ 2 1 1 | | | 1 1 _ 3 / ^ { ~ ! ) 5 ' , 6 > j j ; $ # & 9+9+9+& & % * = - - y.J.l.l.x.0.0.K.K.K.K.L.L.L.L.M.M.M.M.M.{ { { { { ] ] ^ ^ ^ / / / ,@,@,@/ / / / / / 4 4 4 3 3 _ : k$<$8$7$V#:$2$6$T#)$#$#$#$N$X$X$X$)$)$)$)$T#T#$$!$2$%$3$V#{$8$E#b#/$b.] { ~ ! ! ! ! ~ ] / 3 _ 2 1 1 1 1 ",
"h h g f e c a 9 8 } 1 2 _ 4 / ] { ! ) ' , > j j j j j j > 6 ' ) { / _ | 8 a c f g h '.g.z V A Q.B =+R.C Q D P P P o.D.R.B A S U '.g c a 9 } | 2 _ 3 4 3 _ 2 2 2 2 _ _ 3 3 4 4 4 4 4 4 4 4 4 4 4 4 3 3 _ _ 2 2 2 1 1 | i 9 a b c e f f f f e e c c b a a 0 9 8 i } | 1 2 2 _ 2 2 1 | } i 8 9 0 b c c e f f g g g g g g g g g g g f f f f e e e e e e e e ,.c F.c.a 0 9 8 i } | 1 2 3 4 / ^ ] { ~ ! 5 ' , 6 > j ; # + . %#    @ k k l m m n n n n n n n o o o o o p p p p p p o o o n n m m l l k k @ @     . . . + + + # # $ $ $ ; ; ; ; ; j j j j j > 6 , ' ) ! ] / 4 _ 2 1 } i 8 9 0 a c e f f g g g g g g f e c b 0 i | _ / { ) , j $ . @ k l m m m l k   k@# ; > , )+~ ] / z._ 2 1 | | } } } i i B.8 9 0 0 0 0 9 9 9 9 V.8 8 8 8 i i } | 1 2 _ 3 / ^ ] { 8@~ { { ] ^ 4 3 _ 2 1 | | | | 1 2 _ 4 / ] { ~ ) 5 ' 6 > j j ; ; $ % & + + & % % * = - y.J.l.x.0.K.L.L.M.r#w w w #+#+#+#+7 7 7 7 / ]+]+]+4 4 4 4 3 3 3 3 _ _ /+/+/+3 3 3 3 3 3 3 _ _ 2 1 | m.{@~#R%f#B#$$)$n!'$@$_$_$_$_$Y$Y$Y$@$@$@$@$'$'$S##$)$T#$$!$U#3$F$8$[$p#4 ^ '#~ ~ ! ! ~ ] b.4 _ 2 1 1 | | ",
"g g f e c a 9 i | 2 _ 4 / ] { ! ) 5 , 6 > j ; ; ; ; ; ; j > 6 5 ! ] 4 2 } 8 0 a b c f g '.U z S V A Q.B =+R D.D.D.D.R B A V z y h f c a V.i | 1 _ _ _ 2 1 | | } } } u | | 1 1 2 2 2 2 _ _ _ _ _ _ _ _ _ _ _ _ _ _ o!2 | i 9 0 a b c c c c b b a a 0 0 9 9 8 i } | 1 2 _ 3 3 3 _ 2 1 | } 8 9 0 b c c e f f g g g g h h h h h g g f e e e c c c c c c c b b c.a 0 9 8 i } | 1 _ 3 / ^ ] M.L.K.5 ' , 6 > j ; % + .   @ k l l l m m /&n n o o p p p p p p p p p p p p p p p p p j;o o n n m m l l k k @ @     . . . + + + # # $ $ $ ; ; ; ; j j j j j > > 6 6 , ' ) ~ w ^ / 3 _ 2 1 u i 8 9 0 b b c c c e e e c c b a 0 8 } 2 4 ^ ~ 5 6 j # . @ k l l J$l k @   . + $ j 6 ' ) ~ ] ^ 4 3 _ 2 2 1 1 1 1 ;+| } i i 8 8 8 8 i i i } } } | | 1 1 2 _ 3 4 ,@^ ] { ~ ~ ! ! ! ~ { ] / 4 _ 2 1 | | } } | 1 2 _ 4 b.] ~ ) 5 , 6 j ; ; ; $ $ % # & & % * = - y.J.l.x.0.K.L.M.w #+7 ]+]+]+( ( ( ( A.A.A.A.T T T 2 2 2 7+1 1 1 1 1 1 1 1 1 1 7+2 2 2 _ _ 2 2 2 1 | i 8 p.9&1+6#.@g$S#@$_$q+N+<.<.<.<.n$n$N+N+N+N+[@p!q+q!1$_$@$'$S#g$a$z$n%h#u 2 z.b.] { ~ ~ ~ w ^ 4 _ 2 1 | | | ",
"f e e b a 9 i | 2 3 / #+{ ! ) ' , 6 > j ; ; ; $ $ $ $ ; ; j > , ) ~ ^ 4 2 | i 8 9 0 a c f h '.g.-.z S A Q.B =+=+=+=+B Q.V z y '.g e b 0 8 i | 1 2 2 2 1 | i 8 8 9 9 9 9 V.8 U.i } } | | | 1 1 1 1 2 2 2 2 2 _ _ _ _ _ 7+| i 8 9 0 a a a a 0 0 9 9 8 8 8 i i } | 2 _ 3 3 4 4 4 3 _ 2 1 } i 9 0 R@j.c e f f g g g h h h h h h g V*f e c c b b b b b c.a a @+0 9 8 i } 1 2 _ 3 / ^ { ~ ) 5 ' , 6 > j $ # + .   @ k l m n n n o o o o p p p q q q q r r r r r q q q q q q p p p p o o n n m m l l k k @ @     . . . + + + # # $ $ $ ; ; ; j j j > > > > > > 6 6 , 5 ) ! { ] ^ / 3 _ 2 1 | i 8 9 0 0 a a a a a a 0 0 9 8 } 1 3 / { ! ' 6 ; # . @ k l l l l k @   . + # $ j 6 ' ) ~ { ^ / 4 3 3 _ _ _ _ _ 2 2 1 | | } } } } | | 1 1 2 _ _ 3 ( 4 / / ^ ] { ~ ! ! ) ) ) ) ! ~ { ^ / 3 _ 1 | } } } } } | 2 _ 4 ^ ~ ) ' 6 > j ; $ $ $ $ $ % % % * = - y.J.x.0.K.M.w #+7 ]+( A.T T : : : : < < < < h+[ [ } m.i i i i i i i } } } } } } | | 1 1 1 1 1 1 | } i 9 a j.].b+x+A#_.1$q+<.r!K@@@q@}.R$P+P+|$[.[.[.[.[.[.]#O+<.N+a!v.p+f+g$G.!#~#m.2 z.^ ] { ~ ~ { ^ 4 _ 2 1 | } } ",
"c c b a 9 8 } 2 3 / ] ~ ) 5 , 6 > j ; $ $ $ $ $ $ $ $ $ $ ; j 6 ' ) ~ ++4 3 2 1 | } 8 0 b e f h '.y U z =.w.&.Q.Q.Q.A V z U '.h f c b 0 8 i } | 1 1 1 | i 8 0 0 a b b b b a a 0 9 8 i i i } } } | | < 1 1 2 2 _ _ _ _ 2 1 | } i 8 9 9 9 9 8 8 i i m.} } } } | 1 _ 3 4 4 / / / 4 3 _ 1 | i 9 0 a b c e f f g g g h h h h h h g f e c c b a a a 0 0 0 0 0 9 N.B.} | 7+_ 3 4 ^ ] ~ ! 5 ' , 6 > j $ # + .   @ k l m o p p p p p p p q q q q q r r r s s s s r r r q q q Q;p p p o o o n n m m l l k k @ @     . . . + + + # # $ $ $ ; ; ; j j > > > > > > > > 6 6 , ' ) ! ~ { ] ^ / ( _ 2 1 | } i 8 8 8 8 8 i i i } } | 2 A./ ] ~ ) , > ; # .   @ k k k k @ @   . + # $ ; > , ' ) ~ { ] ^ / 4 4 4 4 4 4 3 3 _ 2 2 1 1 1 1 1 2 _ _ 3 4 / ^ ] ] { { ~ ! ! ) 5 ' ' ' ' ' 5 ) ~ ] b.4 _ 1 | } i i i } } 1 2 3 ^ { ) ' 6 j ; $ $ $ $ $ $ $ * * = - J.l.x.K.L.w #++&( A.T : < [ [ m.m.m.m.B.B.B.B.8 N.N.9 O.0 0 0 0 9 9 9 8 8 8 U.i i } } | | | | | | } i 9 a c f >.g.M+<@z++@O+K@}.2+|.p@p@p@|.|.Q+Q+Q+Q+Q+Q+Q+'@B+}.P+y@o@}@m@Z..#^.j.V.u _ 4 ^ { ~ ~ { ^ 4 3 2 1 | } } ",
"b b a 0 8 } 1 A./ ] ~ ) ' , > j ; $ # # # # # # # # # # # $ $ j 6 ' ) ~ { ^ / ( 3 2 1 } 8 @+b e f g h ~.U z S 4+V V S z U '.h f e c a p.8 i } | | | | i 8 0 a b c e e e e e c b a 0 9 9 8 8 8 i i } } | | 1 1 2 2 _ _ 2 2 1 | } } i i i i i } } | | | | | | 1 2 3 4 / ^ ^ ^ r$/ 4 _ 2 | i 8 0 a b c e f f g g g h h h h h h g f e c b a 0 0 9 9 9 9 9 8 8 i } | 2 _ 4 / ] { ! ) ' , 6 > j ; # + .   @ k l m n o p q r r r q q q q q r r r r r s s s s s s r r q q %&p p p o o o n n n m m l l k k @ @     . . + + + # # # # $ $ ; ; ; j > > > > > > > > > > > 6 , ' 5 ) ! ~ { ] ^ / 4 3 _ 2 1 | | | | 1 1 2 2 _ _ 3 4 / ] ~ ) 5 , > ; # .   @ @ @ @ @ w#  . . + + # $ j > , 5 ) ! { ] ] ^ ^ ^ ^ ^ ^ / / 4 3 3 _ _ 2 _ _ 3 4 ,@^ ] { ~ ! ! ) 5 5 ' ' , 6 6 > > 6 6 , 5 K.{ ^ 4 _ : | } i i i i i } 1 _ / { ! ' 6 j $ # # # $ $ * ; = - y.J.l.0.L.M.#+]+( A.: < [ m.B.N.N.O.O.O.O.]@@+@+@+@+a a c.b b b b a a s.0 p.9 9 8 8 8 i i } } | | | | } 8 0 b f.i.L+v@1@m@4#o@P+}.2+p@#@R+R+R+R+1.1.|.|.|.p@p@p@p@p@|.2+Q+=#P+L@m@z@.#G.r.U.1 3 / ] ~ ~ { ^ / 3 _ 1 | } } ",
"a a 0 8 } 1 _ 4 ] ~ ) ' 6 > ; $ # + . . . . + + + + # + + # # $ j 6 , 5 ) ~ { ] ^ / 3 2 | B.9 a b c f.g {.~.g.U !.U U y '.h f e c b 0 9 8 i } } } } } 8 9 a b c e f g g g f f c b a 0 0 0 9 9 V.8 U.i i } } | | 1 1 2 2 2 2 : 1 | } } } } | | 1 1 2 2 1 1 1 2 _ 4 / ^ ] ] ] ^ / 4 3 2 1 } 8 0 a b c e e f g g g h h h h h g g f c b a 0 0 9 8 8 8 8 8 i i } | 2 3 4 ^ ] ~ ! 5 ' 6 > j ; $ # +   @ k l m n o p q q r s s r r r r r r r r r r r s s s s s s r r q q p p o o o o n n n n m m l l k k @ @     . . + + + # # # # $ $ $ ; ; j > > 6 6 6 6 > > > j j > 6 , , ' 5 ) ) ! ~ { ] ^ ]+4 3 _ _ _ _ 3 4 / / 7 ^ ^ #+{ ~ ! 5 ' 6 > ; # + .         i$i$. . + + + # $ ; > 6 ' 5 ) ! ~ { { ] ] ] ] ] ] ] ^ / 4 4 3 3 3 3 4 / ^ { ~ 5+5 ' ' , 6 6 > > j j ; ; ; j > 6 , 0.L.] / 3 2 | } i 8 8 8 i i | 2 4 ] ! ' 6 j $ # # # $ $ ; h@- y.l.x.K.L.w 7 ( T : [ m.B.N.O.@+c.c.c.c.F.F.F.F.,.,.,.,.,.,.e e e c c b a a 0 p.9 V.8 8 i i } } | | | | } 8 0 c f {.g.z@~@M@}@[.P+Q+|.1.R+R+z#x#R+R+1.1.1.1.1.1.#@#@1.1.1.|.2+=#y@n@~@v@{.d 9 u _ / ] 8@~ { ] / 3 _ 1 | } } ",
"9 9 8 } | _ 4 ^ ~ ) ' 6 > ; $ + . .       . . . + + + + + + + # $ j > 6 ' 5 ) ! ~ ] ^ 4 2 | i 8 O.a b d f i.{.'.'.'.h h g f e c b a 0 9 i i } } } i i 9 0 b c e f g h h h h g f c b a a a 0 0 p.O.V.V.8 U.i i } } | | 1 2 _ _ 2 1 1 | 1 1 1 2 2 _ _ _ _ 2 2 _ 3 / ^ ] { { ] ] ^ / 3 _ 1 } 8 9 a b c c e f g g g h h h h g g f e c b a 0 9 8 8 i i i } } | | 2 _ 4 ^ { ~ ) 5 , 6 > j $ # + .   @ k l m n o p q q r s s s s s r r r r r r r r r s s s s s s r r q p p o o o o n n n n n m m l l k k @ @     . . + + # # # # # # $ $ ; ; j > > 6 6 6 6 6 > j j j j > 6 6 , , ' 5 5 ) ! ~ { ] ^ ^ / / / ^ ^ ] { ~ ~ { { ~ ! ) 5 ' , 6 > ; $ # + . . 9++ & & & # # # # $ $ j > 6 , 5 ) ) ! ~ ~ { { ~ ~ ~ ~ { ] ++^ / 4 4 4 / ^ ] { ! ) ' , 6 > j j ; ; ; $ $ # # # $ ; j 6 ' K.w 7 3 2 | } i 8 8 8 8 8 } 1 3 ^ ~ 5 6 j $ # # # $ ; j > J.l.0.K.M.#+]+A.: [ m.N.O.@+c.F.,.,.f.f.f.f.q.q.q.q.q.q.q.q.f f f f e c c b a s.p.V.8 U.i } } | | | | | | } 8 0 c t.'.!.Y+&@4#e@[.P+Q+|.1.R+R+d@d@R+R+2.1.1.1.1.#@#@R+#@1.1.1.|.Q+x@/#U+1@g.f a i 7+4 ^ { ~ { ] b.4 _ 2 | } } ",
"i i } 1 _ 4 ^ { ! 5 , > ; $ # + .             . . + + + + + + # # $ ; g+6 , ' ) ! ~ ] / 3 2 | } i 9 0 r.c ].t.t.t.f f f.e c b a a 0 9 8 i } } } i i 8 9 a c e f g h '.'.'.'.h g f e c b b a a s.0 p.p.9 V.8 8 i i } | 1 2 _ _ _ 2 2 2 2 2 2 _ _ 3 3 3 3 _ 3 3 / ^ { ~ ~ ~ { ] ^ / 4 _ 1 } 8 9 0 a b c e f f g g g g g g g f e c b a 0 9 8 i i } } | | 1 1 2 _ 4 ^ { ~ ) 5 , 6 > ; $ # + .   @ k l m n o p p q r s s s s s s s s r r r r r r r s s s s s s r r q p p o o o o o n n n n m m l l k k @ @     . . + + # # # # # # # $ $ ; j g+> 6 6 6 6 6 > > j j j > > 6 6 , , ' ' 5 ) ) ! ~ ~ { { { { ~ ~ ! ! ) ) ! ! ! ) 5 5 ' , 6 6 > h@j@$ % % $ * * ; ; = h@j j j j > 6 , ' 5 ) ! ! ! ~ ~ ~ ~ ! ! ! ~ { { ] ^ / / / ^ ] { ! ) ' 6 > j ; $ $ # # # + + . . + k+$ ; > , ) M.^ ( T < } i 8 9 9 9 9 i | _ / { ) , j $ # # $ $ = g+6 l.0.L.w #+]+T < m.N.F%c.F.,.f.q.x x >.>.>.>.h.h.h.h.'.>.>.h h x g f f e c b a 0 9 8 i } } | 1 1 1 2 2 1 1 | i 0 c q.'.!.1@&@n@o@y@}.Q+|.1.R+R+d@d@R+R+R+1.1.1.1.R+R+R+R+#@1.1.1.2+=#(#!@.+!.i.b 8 | 3 ^ { { { ] ^ / 3 2 1 | } ",
"1 1 2 _ 4 ^ { ! 5 , 6 j ; # + . .       W@      . + + + + + + + # # $ ; j 6 , 5 ) ! { ^ 4 3 2 < } i N.0 r.j.d d d c c b b a 0 0 9 8 8 i } } } } i 8 9 0 b e f g h '.'.y y '.'.h g f e e c b b a a s.0 p.9 9 8 8 i i } | 2 T _ _ _ 2 2 _ _ _ 3 3 4 4 4 4 4 4 / ^ { ~ ! ! ! ~ { ] / 4 _ 1 | i 9 0 a b c e e f f f f f f f f e c b a 0 9 9 8 i } } | 1 1 2 _ 3 4 ^ { ~ ) 5 , 6 > j $ # + .     k l m n o o p p q r s s s t+s s s s s r r r r r s s s s s s s r r q q p p p p o o o n n n m m l l k k @ @     . . + + + # # # # # # # $ $ ; j > j#6 6 6 6 6 > > > > > 6 6 , , , , ' ' 5 5 ) ) ) ) ) ) 5 5 5 5 5 5 5 ) ) ) 5 5 5 ' ' , , 6 6 > > > > y.6 J.J., , , l.6@' ' 5 5 ) ! ! ! ~ ~ ~ ~ ~ ! ! ! ) ! ! ~ { { ] ^ / ^ ] { ~ ) ' 6 > ; $ # # + + + . . .     . + # $ j 6 5 L.] 4 _ < } 8 9 9 0 0 0 9 i 1 4 ] ! ' > ; $ $ $ ; j 6 l.0.L.w 7 ( T [ B.O.c.,.f.q.x >.h.;.;.-.-.-.D@).a@-.-.-.;.y h.'.h h g f e c b s.9 8 S.u ;+7+2 _ _ 3 3 3 _ 2 1 } 9 b f {.!.1@&@n@o@K@}.Q+|.1.R+R+d@d@R+R+R+1.1.1.1.R+R+R+1.1.1.1.C+|.=#)@8.&@%+{.c 9 } _ / ] { { ] ^ / 4 _ 1 | | ",
"3 3 4 / ] { ! ) ' 6 > ; $ # + . .               . + + + # # # + + + # $ j > , ' ) ! { ^ / 4 _ 2 1 } i 8 0 a r.r.a a 0 0 9 9 9 8 8 i i } } } } i i 9 0 a c f g h '.'.y y y y '.'.h h g f e c b b a a s.0 p.9 9 8 8 i } | 1 2 _ _ _ _ _ l$3 3 4 4 4 / / / / ^ #+{ ! ) ) ) ) ! { ] / 3 _ 1 | i 8 9 a b c c e e f f f e e e c c b a 0 0 9 8 i i } | 1 2 _ 3 4 / ^ { ~ ) 5 ' 6 > j ; $ # + .   @ k l m n o o p p q r r s s s s s s s s s s s s s s s s s s s r r r r q q q q p p p o o n n m m l l k k @ @     . . + + + + + + + + # # # $ j@h@g+j#6 $+, , 6 6 6 6 6 6 , , , , , ' ' ' ' 5 ' ' ' ' , J.6 6 , , ' 5 5 5 5 5 5 5 5 5 5 5 5 5 ' ' ' x.5 0.) K.! <#~ ~ ~ i#{ { { w ] ] ] ] { { { ~ ~ ! ! ) ) ) ) ! ~ { ] ^ ^ ^ ] ~ ) 5 , > ; $ # + + . . .             . + $ ; y.' ! w / _ 1 } 8 9 0 0 a a 0 8 | _ / { 0., > ; ; R>j y., 0.L.w ]+A.: m.N.@+,.w+x >.h.;.-.).=.*.*.e&&.&.&.*.*.=.=.).-.;.h.'.h g f e c a 0 8 } | 7+_ 3 4 4 / / / / 4 3 2 | 8 a e h g.4+&@n@o@P+}.Q+U*1.R+R+R+R+R+R+R+1.1.1.1.1.1.1.1.1.1.C+|.$@=#)@8.&@t@{.e 0 i 2 4 ^ ] { ] ] ^ 4 3 2 1 1 ",
"^ ^ ] { ~ ! 5 ' J.> j ; $ # + . . .       @     . + + # # # # # + + # $ ; > 6 ' ) ~ { ] ^ / 4 3 2 1 | } 8 V.9 9 9 8 8 8 i i i } } } } | | | } i 8 9 0 b ,.f g h '.'.y y y y y '.'.'.h g e c b b a a 0 0 9 9 8 8 i i } | 1 2 _ _ _ 3 3 3 4 4 / / / ^ ^ ^ ] ] { ! ) 5 5 5 ) ! ~ ] / 3 _ 1 | i 8 9 0 a b c e e e e e e c c b b a 0 0 9 8 8 i } | 1 2 _ 3 4 / ^ { ~ ! 5 ' , > j ; $ # + .   @ @ k l m n o o p p q q r s s s s s s s s s s s s s s s r r r r r r r r r r q q q q p p o n n m m l l k k @ @     . . . + + + + + + + + + # # $ ; j > 6 , , , , , , , , ' ' ' ' ' ' ' ' ' ' ' , , 6 6 > j j j > 6 , ' 5 5 5 ) ) ) ) ) ) ! ! ! ~ ~ ~ { w ] ^ 7 / 4 4 z.3 3 3 3 3 3 3 4 4 / b.^ ] { ~ ! ) ) ) ) ) ) ! ~ { ] ] ] { ! 5 , > j $ # + . .           @ @     . + # ; > , ) { 7 3 1 } 8 9 0 a a b a 9 i 2 4 ] ! ' 6 > j > 6 , 5 L.w ]+A.< m.O.c.f.x h.;.-.).=.*.&.W %.%.X X X X %.W U@*.=.).-.;.h.h g f e b a 9 i | 2 /+4 / ^ ] ] ] ] ] ^ ,@3 1 i 0 ,.i.g.z@c@n@o@P+}.2+1.1.R+R+R+R+R+R+1.1.1.1.1.1.1.1.1.|.|.|.|.$@=#)@e@&@z@~.].a 8 1 3 / ^ ] ] ] ] / 4 _ 2 2 ",
"{ { ~ ! ) 5 ' 6 > j ; $ # + + . . . .     @     . + + # # $ $ # # + # $ ; > 6 ' ) ~ { ] ] ^ / 4 3 _ 2 1 | } } } } | | | | | | | | | | | | | } } i 9 0 b c f g h h '.'.'.'.'.'.'.'.'.h g e c b a a 0 0 9 9 8 8 i i } } | 1 2 _ 3 3 {#4 4 / / ^ ^ ^ ] ] { { ~ ! ) 5 ' ' 5 ) ! { ] / 3 2 1 } i 8 9 a b b c e e e e c c c b b a a 0 9 8 8 i i } | 1 2 _ 4 / ^ ] { ! ) 5 , 6 > j ; $ # + .   @ k l m n n o o p p p q r s s s s s s s s s s s s s s s r r r r r r r r r r q q q q p p o n n m m l l k k @ @     . . . . + + + + + + + + + # V@j@h@g+6 , ' ' ' ' ' ' 5 5 ) ) 5 5 5 ' ' ' ' , 6 6 > j ; $ $ $ j > , ' 5 ) ) ! ! ~ ~ { { w ] ^ ^ / 4 z.3 _ T 2 1 < | [ } } } } } | | 1 2 _ 3 ]+^ ] ~ ! ) ) 5 5 5 5 ) ) ! ~ { ~ ! ) ' 6 j $ # + .           @ @ @       . + # ; > , 5 ~ ^ 3 1 } 8 9 0 a b b b 0 i 1 3 ^ ~ 5 , 6 6 6 , 5 ! w ]+T < B.O.F.w+>.;.).=.*.&.W %.X $.Y #.@.@.@.#.#.$.X W &.=.).-.y '.g f c b 0 i | 2 3 4 b.] { { ~ ~ ~ { ] ^ 4 2 } 9 j.t.~.%+~@4#o@P+}.|.1.1.R+R+R+R+R+R+1.1.1.1.1.1.1.1.|.|.|.|.|.$@=#)@e@w@4+L+t.b 9 | _ 4 ^ ] a.{ ] ^ / 3 3 _ ",
"K.) ) 5 ' , 6 > j ; $ # + + . . . . .     @     . + + # $ $ $ $ # # $ ; j > , 5 ) ~ { { ] ] ] ^ ^ / 4 ( 3 _ 2 2 2 2 2 2 2 2 2 2 1 1 1 1 1 | | } i 8 9 a c e f g h h h h h h h h h h g f ,.b a 0 0 0 9 9 8 8 i i } | | 1 2 _ 3 4 4 / / ^ ^ ] ] ] { { ~ ~ ! ) 5 ' ' , ' 5 ) ~ { ^ 4 _ 1 | } 8 9 0 a b c c e e e c c c b b a a 0 0 9 8 i i } } | 1 _ 3 4 / ^ { ~ ! ) x., 6 > j $ # + . .   @ k l m n n o o p p p q r s s s s s s s s s s s s s s r r r q q q q q q q q q q q Q;p t o n n m m l l k k @ @       . . . . . + + + + . . + + # $ h@g+6 , ' 5 ) ) ) ) ! ! ! ! ! ) 5 5 ' ' , 6 > > j ; $ # # $ ; > , ' 5 ) ! ~ { ] ^ / 4 4 3 _ 2 1 | } } i B.8 9 9 0 0 0 a a @+0 0 9 8 m.| 2 /+4 ^ { ~ ) 5 ' ' ' ' ' 5 0.) ! ) 0.' , > ; $ + .     @ @ @ @           . . + # ; j , 5 ~ ] 4 2 | i 8 9 0 a b a 0 i 1 3 ^ { ) ' , , ' 5 ! { / T h+B.@+W+q.v+-.=.&.W %.l+X $.#.@.+.+....... .+.@.$.X W &.=.).;.'.g e b 0 8 } 1 _ 4 ^ ] { ~ ! ) ) ) ! ~ ] b./+;+8 r.].{.a@<@M@e@K@}.|.1.1.R+R+R+R+R+R+1.1.1.1.1.1.1.1.|.|.|.|.$@$@=#)@8.U+1@g.i.c 0 i 1 3 / ^ ] { { ] ^ / / 4 ",
"' ' ' , 6 6 > j ; $ # + + . . . . . .     @     . + + # $ ; ; ; $ $ ; j > 6 ' 5 ) ~ ~ { { { { { { { ] ] ^ / / / 4 4 4 4 3 3 _ _ _ 2 2 1 1 1 | | } i 8 0 c.c e f f g g g g g g g g g f e b a 0 9 9 8 8 i i } } | | 1 2 _ (@3 4 / / ^ ^ ] ] { { ~ ~ ! ! ) 5 ' ' , , , ' 5 ! ~ ] / 3 2 | } i 9 0 a b c c e e e e c c b b b a a 0 9 9 8 i i } | | 2 _ 3 4 / ] { ~ ! ) ' , 6 > j $ # + . .   @ k l m n n o o p p p q r s s s s s s s s s s s s s s r r q q q q q q q q q q Q;Q;p p t o n n m m l l k k @ @         . . . . . . . . . . . + # $ ; j 6 , 5 ) ! ! ~ ~ { { { { ~ ! ) 5 ' , 6 > > j ; $ # # # $ ; > , 5 ) ~ { ^ / 3 _ 2 1 | } i 8 9 @+a b b j.c ,.e e f.f f f f e e c r.0 8 } 1 /+/ ] ~ ) 5 ' , , , , , ' ' 5 ' ' , > j $ # .     @ @ @ @       . . . + + # $ ; j 6 5 ! ] 4 _ | } 8 9 0 a a a 9 i 1 3 ^ { ! 5 5 5 ) ! { 7 A.[ N.@+,.u+h.-.Y+U@%.X $.#.Z @.+.E ..E.E.G G E...+.@.Y X W A S U '.g e a 9 i 1 _ 4 ^ ] { ~ ! ) 5 5 5 ) ! i#++z.7+i s.d i.N@1@w@L@y@}.|.1.1.R+R+R+R+R+R+1.1.1.1.1.1.1.1.|.|.|.|.$@$@=#)@8.U+w.!.{.e a 8 | _ 4 ^ ] { ~ { { ] ] ] ",
"6 6 6 > > j ; $ $ # + + . .   . . . .     @     . + + # $ ; ; ; ; ; j > 6 , ' 5 ) ! ~ ~ ~ ~ ! ! ! ! ! ! ~ ~ { { ] ] ^ ^ / 4 4 3 3 _ 2 2 2 1 1 | } } i 9 0 a b c e e e e e e e e e e c b s.9 8 8 i i } } | | 1 1 2 2 _ 3 4 / ^ ^ ] ] { { ~ ~ ! ! ) ) 5 ' , , 6 6 , , ' ) ~ ] b.4 _ 1 } i 9 0 a b c c e e e e e c c b b b b a a 0 9 8 i i } | | 2 _ 3 4 / ^ { ~ ! ) 5 , 6 > j $ # + . .   @ k l m n n o o p p p q r s s s s s s s s s s s s s s r q q p p p p p p p p p p p t t o o n n m m l l k k @ @ @       . . . . . . . . . . . + # $ ; j 6 ' )+! ~ { ] ^ ^ ^ ^ ] { ~ ! ) 5 ' 6 > j ; $ $ # # $ $ j > , 5 ! { b.3 2 | S.8 9 0 a b c f g h >.{.'.'.'.'.h.~.y y y h.'.'.h f c a V.} 2 z.^ { ! 5 6@6 6 > > > 6 6 , , 6 > j ; $ + .     @ @ @ @     . . + + + # # $ ; j 6 ' ! { / _ 1 } i 8 9 0 0 0 8 } 2 3 ^ { ~ ) ) ! ~ { ^ 3 < 8 c.,.x h.).*.W X $.#.@.@.+.E ..E.E.T.T.-+H T.E...+.@.$.0+Q.V z y g c a 8 } 2 3 / ^ { ~ ! ! ) 5 5 5 )+5+~ ] ,@:+S.p.j.^..#z@m@}@y@}.|.1.1.R+R+R+R+R+R+1.1.1.1.1.1.1.1.|.|.|.|.$@$@=#)@/#U+~@%+~.f b 9 } 2 3 ^ ] ~ ~ ! ~ ~ ~ ~ ",
"j j ; ; ; $ $ # + + . .         . . .     @     . + # $ $ ; j j j j j > 6 , ' 5 ) ) ! ! ! ) ) ) 5 5 5 5 5 ) ) ! ! ~ { ] ] ^ / 4 3 3 _ 2 2 1 1 | | | } i 8 0 0 a b b b b b b b b b b a 0 8 i } | | 1 1 2 2 _ _ _ 3 3 4 / ^ ] { M.~ ~ ! ! ) ) 5 5 ' ' , 6 6 6 6 6 , ' 5 ! { ^ 4 _ 1 } i 9 0 a b c c e e e e e e c c c b b b b a 0 9 8 8 i i } | 1 _ 3 4 / ^ { ~ ! ) 5 , 6 > j j@# + + .   @ k l m n n o o p p p q r s s s s s s s s s s s s s r r q p p p p p p p p p p t t t o o P;n n m m l l k k @ @       . . . + + + + + + + + + + # $ ; j 6 ' ) ~ ] ^ / 4 4 4 4 / ^ ] { ! ) ' , j#j ; ; $ $ $ ; ; > 6 ' 5+{ ^ 3 7+} 8 s.b c e f g '.U z S S S S S S S S S S S S %+z z g.'.t.,.s.U.;+/+/ { ! 5 , 6 > > > > > > > > > j ; $ # + .     @ @ @ w#  . . + + + # # # $ ; j 6 ' ) { ^ 3 2 | i 8 9 9 0 9 8 | 2 4 ^ ] ~ ~ ~ ~ ] ^ 3 7+i @+,.x L+).*.W X #.@.+.+.....E.E.T.T.-+-+-+-+-+T.E...+.#.X W *.).y g c 0 i | 2 3 / ^ ] { ~ ! ) ) 5 5 ) 5+~ ] ,@:+u V.!#t.L+M+c@}@y@}.|.1.1.R+R+R+R+R+R+1.1.1.1.1.1.1.1.|.|.|.|.$@$@=#)@/#U+~@%+g.i.c 0 i 1 3 / ] ~ ! ! ) ) ) ) ",
"# # # # # + + + . .       @       . .     @ @   . + # $ ; ; j j j j j > > 6 , ' ' 5 5 5 5 5 5 ' ' , , , , , ' 5 0.) ! ~ { ] ^ / 4 3 _ _ 2 1 1 1 1 1 | } i i 8 9 9 9 p.0 0 0 0 0 0 p.9 i } < : 2 _ _ 3 3 4 4 / / / ^ ] { ~ ! ) ) ) 5 5 ' ' , , 6 6 > > > > > > 6 , 5 ! { ^ 4 _ 1 } 8 9 0 a b c e e e f f e e e e c c c c c c b a 0 0 9 8 8 i } 1 2 3 4 / ^ ] ~ ! ) 5 , 6 > j ; # + + .   @ k l m n n o o p p p q r r s s s s s s s s s s s s r q p p o o o o o o o o o o o o o P;P;n n m m l l k k @ @     . . + + # # # # # # # # # # $ $ ; > , 5 ! { ^ 4 3 _ _ _ (@3 4 / ^ { ~ ) ' $+> j ; ; ; j j > , ' ) ~ ^ 3 1 S.O.b e g h '.y U z V Q.B !*B B B 8&Q.Q.Q..+A A w.V 4+z g.h ].r.V.u :+,@] <#)+' 6 > > j j j j j j j j ; $ # # + .           . . . + + + + + # # $ ; > , 5 ~ ^ 4 2 | } i 8 9 9 8 i | _ 4 / ] { { { ] / 3 2 } O.c x h.).*.W X #.@.+.....@#E.}+T.T.-+-+<+<+<+-+T.E...+.@.$.%.A S y g c 0 i | 2 3 / ^ ^ ] ] { ~ ! ! ! ! ~ { ++4 :+u V.r.w+/.v@c@n@y@}.|.1.1.R+R+R+R+R+R+1.1.1.1.1.1.1.1.|.|.|.|.$@$@=#)@|@!@s!4+U {.].a 8 | _ / ] ~ ! ) 5 5 5 5 ",
". . . . . .         @ @ @ @ @     . .     @ @   . + # $ ; ; j j j j j j > > 6 6 , , ' ' ' ' l., , 6 6 > > > 6 , ' 5 ) ! ~ { ] ^ / 4 3 _ 2 2 1 1 1 1 1 1 | | } } } i i i i i i i i i } | 2 _ 3 4 4 / / ^ ^ ] ] { { { ~ ! ) 5 ' , , , 6 6 > > j j ; ; ; ; ; j > , ' ) ~ ^ 4 _ | m.8 0 a b c e e f f f f f e e e e e e e e e e c c b a 0 0 9 8 i | 1 _ 3 / ^ ] ~ ! ) 5 , 6 > j ; # + + .   @ k l m n n o o p p p q r r s s s s s s s s s s s r r q p o o o o o o o o o o o P;P;P;P;n n n m m l l k k @ @   . . + # $ $ $ $ $ $ $ $ $ $ $ ; ; j > , ) ~ ] ,@A.2 1 1 1 2 2 _ 3 4 / ] <#) ' , j#> j > 6 , ' 5 ! M.^ z.7+i 0 c t.'.g.U z z S A B R Q Q D.%,R R =+=+B B B Q..+A w.S U '.f F.p.} 2 4 ++~ ) ' , 6 > j j j j j j ; ; ; $ $ # # + . . . . . . . + + + + + + + + # ; > , 5 ~ ] 4 _ 1 } i 8 8 8 8 m.< _ 4 / ^ ] ] ] / 4 2 | 8 c.q.h.-.=.&.%.$.@.+...@#E.E.##T.T.-+-+-+<+<+<+-+T.E...+.@.$.%.&.S y g c 0 i | 2 _ 3 4 4 / / / ^ ] { { { ] ++/ 3 2 u V.r.].4@v@S@4#[.}.|.1.1.R+R+R+R+R+R+1.1.1.1.1.1.1.1.|.|.|.|.$@$@=#)@|@!@&@w.z y g F.9 } 2 4 ] ~ ) 5 ' ' , , ",
"@ @ @ @ @ @ @ @ @ @ @ k k k @ @     .     @     . + # $ ; ; j j ; ; ; j j j > > > 6 6 6 6 6 6 6 > > j j j j j > 6 ' 5 ) ! ~ { ] ^ 4 3 _ 2 2 1 2 2 2 2 2 2 2 2 1 1 1 1 1 1 1 1 1 1 1 2 _ 4 / ^ ] ] { { ~ ~ ~ ! ! ! ) 5 ' , 6 > > > j j j ; ; $ $ # # # $ ; j > , 5 ~ ] 4 _ | i 9 0 b c e e f f f g g f f f e e e e e f f f f f e c b b a 0 9 8 } 1 T 3 / ^ ] ~ ! ) 5 , 6 > j $ # + . .   @ k l m n n o o p p q q r s s s s s s s s s s s s r r q p o o n n n n n n n n n n n n n n n n m m l l k k @ W@  . + # $ ; ; j j j ; ; ; ; ; ; j j > 6 ' ) { ^ 3 2 | } } } | | 1 1 :+3 / '#<#) E+, 6 6 , ' 5 ) ~ { ^ 4 2 S.0 ,.g y z V V *.A Q.B C o.P *+P D o.D.D.R R =+9.B I..+w.4+!.'.q.j.p.S.7+z.^ i#5+5 , 6 > > j j j j j j ; ; ; ; $ $ # # + + + + + + + + + . . . . + # $ j 6 5 ! ] 4 _ 1 | } i i i i } 1 _ 4 / ^ ^ ^ ^ 4 _ 1 i 0 ,.x ;.t@-@_+X #.@...@#E.E.######T.'--+-+<+<+I -+T.E...+.@.$.%.&.=.U h c 0 i | 1 2 _ _ _ _ _ _ 3 4 / / / / ,@z._ 1 } V.r.].4@a@<@+@[.}.|.1.1.R+R+R+R+R+R+1.1.1.1.1.1.1.1.|.|.|.|.$@$@=#6.7.!@t!h*S U h d 0 i : 4 ] ~ ) ' , 6 6 6 ",
"k k k k k k k k k k k k k k k @                 . + # $ $ ; ; ; ; ; ; ; j j j j > > > > > > > j j j ; ; $ $ ; j > , ' 5 ) ! ~ ] ^ / 4 3 _ 2 2 2 T _ _ _ _ _ _ _ _ _ _ _ _ 3 3 3 3 4 4 / ] { ~ ~ ! ! K.) ) 5 5 5 ' ' , 6 > j ; ; ; $ $ $ # # + + + + + # $ j 6 ' K.{ / /+1 i 9 a b c e f f g g g g g g f f f.e e f f f f g g f f e c c b a 0 8 m.;+2 3 / ^ { ~ ! 5 ' , 6 > ; $ # + .     @ k l m n o o p p p q r r s s s s s s t+t+s s s s s r q p o o o n n n n n n n n n n n n n n n m m m l k k @   . + # $ ; j j > > > j j j j j j > > 6 , 5 ! ] / _ 1 m.8 8 8 i i } } | 2 3 b.'#<#) 5 ' ' 5 ) ! M.] / 3 2 } p.j.g y %+A B B B B =+R o.E 0&F a#E 0#P o.D+D.'+k.!@U+&@~@4+N@{.].F.O.m.}$z.-$i#5+5 ' , 6 > > j j j j j j j j j j j ; ; $ $ # # # # + + + . . . . . + $ j 6 5 ! ] ]+_ 2 1 | } } } } | 1 _ 4 / ^ ^ ^ / 3 2 } N.c.].4@a@Y+U@ +d+-#+...@#E.########T.'-'--+-+j--+'-T.E.a#0#@.#.X W V -.>.e a 8 } | 1 1 1 1 < | ;+1 2 _ _ A.3 /+_ 2 | i 9 r.].4@a@<@+@[.}.|.1.R+R+R+R+R+R+R+1.1.1.1.1.p@U*|.|.|.|.|.$@$@=#_#7.G;9..+V z '.f.a i 1 4 ] ! 5 , 6 > > j ",
"l l l ,#k k k k k k k k k k k @ @             . . + # # $ ; ; ; ; $ ; ; ; j j j j j j j j j ; ; ; $ $ # # # $ ; j 6 , ' ) ! ~ { ] ^ / 4 3 _ _ _ _ 3 3 3 3 4 4 4 4 4 / / / b.^ ^ ] ] { ~ ! ) ) 5 5 ' ' ' , , , 6 6 6 > j ; $ $ # # # + + + . . . . . + # $ j J.5 ~ ^ ( 2 } V.a b e f.q.g g g g g g g g q.f f f f f f f f g g g f f e c b a 0 8 } 1 _ 4 / ] { ~ ) 5 ' , > j ; $ # + .   @ @ k l m n o p p q q r r s s t+t+t+t+t+t+t+t+t+t+t+s s r q p p o o o o n n n n n n n n n n n n n m m l l k @   . + # $ ; j > > > > > > > > > > > 6 $+' ) ~ ^ 4 2 } 8 9 0 0 9 9 8 8 m.| :+z.7 '#~ 5+) ) K.~ { ^ ]+3 7+} 9 b q.~.).A %.R R R R D.o.0#F }+}+}+a#a#0#;#c+-#D+7.8.!@M@~@z@N@H.W.n%h#o#^$/$-$r#H#)+E+6@$+6 6 p;p;p;6 6 6 6 6 6 6 6 6 > > j ; ; $ $ # + + . . . . . + $ j , 5 ~ ] 4 3 2 1 1 | | | | 1 2 _ 4 / / ^ ^ / 3 1 i p.j.t.L+a@<@w@ +/#-#7#8#@#3.3.3.3.3.######'-'-'-'-'-####@#>#;#D+d+%.A %+y t.j.0 8 i i m.m.i i 8 U.i i } [ | < 1 < | } 8 p.F.q./.M+u!+@[.}.|.1.R+R+d@R+R+R+1.1.1.1.|.|.|.|.|.l!Q+Q+$@$@$@7#%@)@8.J;I.A S y f b 8 1 4 { ) ' 6 > j j ; ",
"l l l l l l l l l l l l l l k k @ @         . . + + # # $ $ ; $ $ $ $ ; ; j j j ; ; ; ; $ $ $ $ # # # + + + # $ j > , ' 5 ) ! ~ { ] / 4 3 3 _ _ 3 3 3 4 4 / / / ^ ^ ] ] { { ~ ~ ! ) ) 5 ' ' , , , 6 6 6 > > > j j j ; ; $ # & + + . . . .       . . + # ; - , )+{ / _ | U.0 b e f q.g x h h h x x x g q.q.f f f f f f f g g g g f e e c a 0 8 } 1 _ 4 ^ ] ~ ! ) 5 , 6 > j ; $ # + .   @ k k l m n o p q q r r s s t+t+Z+Z+Z+Z+Z+Z+Z+Z+Z+t+t+s s r q p p p o o o n n n n n m m n n n n n n m m l k @   . # $ ; j > > 6 6 6 > > > > > 6 6 , , 5 ! { / 3 1 } 9 0 a a a a @+O.N.m.< T ( 7 '#M.~ ~ M.w 7 4 _ 1 m.9 b ].{.-.*.W R #.o.o.@.P 0#a#9#}+}+9#9#8#3+7#T+_#6.)@|@e@M@S@Z.,+^.>+g#D#E#F#O%o%G#X%r+t#6@6@, , , , , , ' ' 5 5 5 5 5 5 ' , 6 6 > j ; $ # + . .   ,&. + $ > , ) ~ ^ 4 3 _ 2 2 2 2 1 1 2 _ _ 3 4 / ^ ^ / 3 1 i 0 ,.<%L+M+<@w@}@/#_#7#8#@#3.C+8#8#4.3.3.3.##y=y=y=y=3.3.8#3+T+6.'+ +W V !.{.].b a 0 O.9 O.O.0 @+@+@+@+0 O.N.B.i i i 8 9 @+j.t.L+M+v.+@[.}.|.1.R+d@d@d@R+R+1.1.1.|.|.|.l!l!Q+Q+Q+Q+Q+$@$@5.%@6.7.G;9.Q.V g.g b 8 1 4 { 5 , > j ; ; $ ",
"l l l l l l l l l l l l l l l k k @ @     . . . + # # # $ $ $ $ $ $ $ $ ; ; j ; ; ; $ $ # # # + + + + + . + + $ ; > 6 , ' ) ! ~ { ] ^ / 4 3 3 3 3 4 4 4 / / ^ ^ ] { { ~ ~ ! ) 5 ' ' , 6 6 6 > > > j j j j ; ; ; ; $ $ # # + + . .                 . + % ; y.l.K.w ( : m.9 a c f.q.x x h h h h h x x x g q.q.q.f f f f f g g g g f f e c a 0 8 } 2 3 4 ^ { ~ ! 5 ' , 6 > j ; $ # + .   @ k l l m n o p q r r s s t+t+Z+Z+Z+Z+i@i@i@3!Z+Z+Z+Z+t+s s r q q p p o o o n n n m m m m n n n n n n m l k @   + # $ ; j > > 6 6 6 6 6 6 6 6 6 , , ' ) ! ] / _ 1 i O.a b c c c b a O.U.[ : A.,@7 #+w w #+7 ]+A.: m.9 b e h ;.%+&.%.Y @.+.+. ...a#@#9#3.3.3.C+4.8#$@5.7#=#%@)@o@R#S@E$C%6$:$&$*$X#g%H%u%G#X%r+W%E+v!6@' ' ' 5 5 ) ) ! ! ~ ~ ~ ! ! ) 5 ' 6 > j ; # + .       . + ; > ' ) { ^ 4 (@_ _ _ _ _ _ 2 _ _ _ 3 4 / ^ ] ^ 3 1 i s.d ^..#M+<@z+}@/#x@7#8#C+C+4.8#8#8#8#8#C+3.l#2.2.2.3.C+4.8#7#;#D+d+9..+%+y i.].c b b c.c.F.F.,.,.,.d ,.,.c.@+O.9 N.9 0 a ,.<%.#M+v.+@[.}.|.1.d@d@d@d@R+R+1.1.|.|.2+l!Q+B+B+B+B+=#Q+Q+$@5.7#%@6.'+k.B w.U x b 8 1 / ~ 5 6 j ; $ $ $ ",
"l l l l l l l l l l l l l l l k k @ @     . . + + # # # $ $ $ $ # # $ $ ; ; j ; ; $ $ # # + + + + . . . . . + # ; j 6 , ' 5 K.~ { ] ^ / 4 4 3 3 3 4 4 / / ^ ^ ] { { ~ ! ) ) 5 ' , 6 > > > j j j j ; ; ; ; $ $ $ $ # # + + . .     @ @ @ @ @ @     . + % = y.x.L.#+A.< i p.b e f g x >.>.h h h h x x x x q.q.q.q.f f f f g g g g f f e c a 0 8 | 2 3 / ^ { ~ ) 5 ' , 6 > h@; $ + . .   @ k l m [#n o p q r s s t+t+Z+Z+Z+i@i@i@i@i@i@i@i@Z+Z+t+t+s r r q q p p o o n n n m m m m n n n n n n m l k @ . + # $ ; j > > 6 6 6 6 6 6 6 6 6 , ' 5 ) ~ ] 4 _ | B.0 b c e e e c b @+N.m.< T ( ]+7 #+#+7 ]+( T | 8 a c g h.-.*.W X #.+.....a#E.E.9#3.3.3.C+C+C+4.$@$@$@'@=#q@]#R#:.E$C%6$2%F$*$7%Y#t%`#w%y%s#S%t#E+m;m;@,5 ) ) ! ~ ~ { { { { { ~ ! ) 5 , 6 > ; # + .       . # ; > ' ! { / 4 _ _ _ 3 3 _ _ _ _ _ 3 3 4 / ^ ] ^ ( 1 U.a d b+Y.M+v.z+}@o@x@=#$@C+C+8#$@$@$@$@$@$@C+C+2.2.2.3.C+4.8#5.T+6.'+9..+4+U '.g f e ,.,.,.,.f.f.q.q.x x q.f.F.c.@+O.0 0 c.d i.Y.b@v.+@[.}.|.#@d@d@d@d@R+R+1.1.|.|.l!Q+B+B+B+}.}.}.=#Q+$@5.7#%@6.7.k.9.A !.h c 8 1 / ~ ' 6 j ; $ # # ",
"l l l l l l l l l l l l l l l k k @ @     . . + + # # # $ $ $ $ # # # $ ; ; j ; ; $ $ # # + + + . . . . . . + # ; j 6 , ' 5 ) ! ~ { ] r$J#4 3 3 4 4 4 / / ^ ^ ] { ~ ! ! ) 5 ' , 6 > > j j j j ; ; ; ; $ $ $ $ $ # # # + + . .     @ @ @ @ @ @     . + % = y.x.L.#+A.< B.0 b e q.x h >.>.h h h h x x x x q.q.q.q.f f f f g g g g g f e c a 0 8 | 2 3 / ^ { ~ ) 5 ' , > j ; $ # + .     @ k l m n o t p q r s s t+t+Z+Z+Z+i@i@i@i@i@i@i@i@Z+Z+Z+t+s r r q q p p o o n n n m m m m n n n n n n m l k @ . + # $ ; j > 6 6 6 6 6 6 6 6 6 6 , ' 5 ) ~ ] 4 _ | 8 0 b w!e f e ,.F.a O.=@< T A.]+7 7 7 7 ]+A.: [ N.c.e x y ).*.W >@{;+...E.E.E.##3.3.3.3.C+C+C+C+$@$@$@$@'@q@]#R#q!E$g$!$~%{$3%7%A%t%`#w%y%s#S%W%E+E+m;5 l*) ! ! ~ { { ] ] ] ] { ~ ! 5 ' 6 > ; $ + .       . # ; y.' ! { / 4 _ _ 3 3 3 3 _ _ _ _ 3 3 4 / ^ ] ^ 4 1 8 a n+b+Y.Z.1$z+}@o@x@=#$@C+C+$@$@$@$@$@$@$@C+C+2.2.2.C+C+C+8#5.T+6.'+!@I.V !.'.x f f.e e f.f.f.q.];x >.>.x I+,.c.@+0 0 @+r.d i.Y.b@c@+@h$}.|.#@d@d@d@d@R+R+1.1.|.|.l!Q+B+B+B+}.}.}.=#Q+$@$@7#T+6.7.'+9.A z h c 8 1 / ~ ' 6 j ; $ # # "};
