/* XPM */
static char * ceiling_xpm[] = {
"512 512 256 2",
"  	c #000000",
". 	c #800000",
"+ 	c #008000",
"@ 	c #808000",
"# 	c #000080",
"$ 	c #800080",
"% 	c #008080",
"& 	c #808080",
"* 	c #130404",
"= 	c #900708",
"- 	c #C87473",
"; 	c #91444C",
"> 	c #CE080A",
", 	c #8F2C24",
"' 	c #D13B4C",
") 	c #4F0708",
"! 	c #CF2D2B",
"~ 	c #632C2B",
"{ 	c #AF0709",
"] 	c #D05553",
"^ 	c #6F0808",
"/ 	c #D0232D",
"( 	c #AF2C2B",
"_ 	c #D4546C",
": 	c #F02C2B",
"< 	c #B0434D",
"[ 	c #EF0B10",
"} 	c #B01424",
"| 	c #6F1C24",
"1 	c #901B25",
"2 	c #FCAFAB",
"3 	c #53141C",
"4 	c #EF5553",
"5 	c #CF1E13",
"6 	c #701C14",
"7 	c #B05C5C",
"8 	c #E4949C",
"9 	c #D2443A",
"0 	c #F13A4D",
"a 	c #B04543",
"b 	c #901C12",
"c 	c #903136",
"d 	c #782C2B",
"e 	c #B01C1B",
"f 	c #E87572",
"g 	c #D0333D",
"h 	c #800708",
"i 	c #B0333D",
"j 	c #9F0708",
"k 	c #904444",
"l 	c #D00B1D",
"m 	c #F35C6E",
"n 	c #BF080A",
"o 	c #5F0808",
"p 	c #310404",
"q 	c #EE4544",
"r 	c #DF5554",
"s 	c #7A343C",
"t 	c #EF1B2D",
"u 	c #BF1B25",
"v 	c #F28E8A",
"w 	c #BF434C",
"x 	c #935652",
"y 	c #A03136",
"z 	c #EF323E",
"A 	c #D0494F",
"B 	c #400605",
"C 	c #EC1C13",
"D 	c #EC6458",
"E 	c #EF484F",
"F 	c #EC7A86",
"G 	c #9F1424",
"H 	c #60141C",
"I 	c #B1616C",
"J 	c #E02D2B",
"K 	c #E00B12",
"L 	c #700C14",
"M 	c #C12D2B",
"N 	c #801B24",
"O 	c #E01D1A",
"P 	c #900B15",
"Q 	c #E0323E",
"R 	c #7F0C15",
"S 	c #C0323E",
"T 	c #F16A6F",
"U 	c #9F0B15",
"V 	c #BF0B15",
"W 	c #E0484F",
"X 	c #4F140C",
"Y 	c #B00B15",
"Z 	c #DE5B6C",
"` 	c #F0585F",
" .	c #60140C",
"..	c #F4183C",
"+.	c #F04C5D",
"@.	c #B02127",
"#.	c #FB7573",
"$.	c #DF6459",
"%.	c #7C4441",
"&.	c #C04F51",
"*.	c #42140C",
"=.	c #D0585E",
"-.	c #C25C5B",
";.	c #842F30",
">.	c #A05453",
",.	c #E10C1E",
"'.	c #C12435",
").	c #FC3540",
"!.	c #A0444C",
"~.	c #643134",
"{.	c #DF222E",
"].	c #B04F51",
"^.	c #F0131F",
"/.	c #811C14",
"(.	c #903C3E",
"_.	c #A03C3F",
":.	c #9F2027",
"<.	c #611E1F",
"[.	c #F76C7D",
"}.	c #D01413",
"|.	c #A02C23",
"1.	c #FC2D31",
"2.	c #A01D1B",
"3.	c #FC222D",
"4.	c #802427",
"5.	c #AF2335",
"6.	c #DA7472",
"7.	c #D13C32",
"8.	c #FCCFC7",
"9.	c #FC9096",
"0.	c #DC8884",
"a.	c #FC9E9A",
"b.	c #DF3B4C",
"c.	c #531D1D",
"d.	c #E04543",
"e.	c #F41E22",
"f.	c #FC8086",
"g.	c #C3686D",
"h.	c #A2595D",
"i.	c #FCB6B7",
"j.	c #230404",
"k.	c #D0666D",
"l.	c #CF1F22",
"m.	c #BF4443",
"n.	c #C01D1B",
"o.	c #9F4544",
"p.	c #E0585F",
"q.	c #CF4C5D",
"r.	c #E16970",
"s.	c #C0545C",
"t.	c #431414",
"u.	c #FCA1A5",
"v.	c #CC847C",
"w.	c #AF3C34",
"x.	c #EC3C2C",
"y.	c #8F2428",
"z.	c #B46C64",
"A.	c #FC384D",
"B.	c #793C34",
"C.	c #E9847C",
"D.	c #341410",
"E.	c #84393D",
"F.	c #FC6564",
"G.	c #E03C34",
"H.	c #BF3C34",
"I.	c #FC243C",
"J.	c #FC847A",
"K.	c #844544",
"L.	c #6C3335",
"M.	c #843C34",
"N.	c #8E140C",
"O.	c #CB7B7C",
"P.	c #924C4C",
"Q.	c #D00B14",
"R.	c #902C2C",
"S.	c #510C14",
"T.	c #CF2F34",
"U.	c #6C2C2B",
"V.	c #AF140C",
"W.	c #6F140C",
"X.	c #CC243C",
"Y.	c #B03034",
"Z.	c #EF2E34",
"`.	c #EE1414",
" +	c #702426",
".+	c #FC5554",
"++	c #701C1C",
"@+	c #B26064",
"#+	c #D04544",
"$+	c #901D1C",
"%+	c #943244",
"&+	c #793034",
"*+	c #E87A7C",
"=+	c #D03C41",
"-+	c #80140C",
";+	c #B03C40",
">+	c #9F140C",
",+	c #D0141D",
"'+	c #FC5B6E",
")+	c #C0140C",
"!+	c #5F0C14",
"~+	c #FC4544",
"{+	c #7A3C3C",
"]+	c #F0242E",
"^+	c #BF2429",
"/+	c #FC8D89",
"(+	c #945C5C",
"_+	c #A23444",
":+	c #EE3C42",
"<+	c #430C14",
"[+	c #F16564",
"}+	c #FC4851",
"|+	c #E68486",
"1+	c #E02F34",
"2+	c #E01413",
"3+	c #701417",
"4+	c #C02F34",
"5+	c #841C34",
"6+	c #DF1F24",
"7+	c #8F1418",
"8+	c #E03C41",
"9+	c #7F1417",
"0+	c #C03C41",
"a+	c #FC696F",
"b+	c #A01418",
"c+	c #C01418",
"d+	c #E04C5C",
"e+	c #511414",
"f+	c #AF1417",
"g+	c #FC5960",
"h+	c #5F1414",
"i+	c #F0243E",
"j+	c #FC4B5E",
"k+	c #FA787C",
"l+	c #DF6564",
"m+	c #7C444C",
"n+	c #D06463",
"o+	c #C06064",
"p+	c #E0141E",
"q+	c #A04C4E",
"r+	c #E0243C",
"s+	c #B1535C",
"t+	c #FC1420",
"u+	c #7F1D1C",
"v+	c #A02434",
"w+	c #63242C",
"x+	c #A02C2C",
"y+	c #D87A7C",
"z+	c #C0C0C0",
"A+	c #FF0000",
"B+	c #00FF00",
"C+	c #FFFF00",
"D+	c #0000FF",
"E+	c #FF00FF",
"F+	c #00FFFF",
"G+	c #FFFFFF",
") ) ) ) B B B B B B B B B B B B B B B B X X X X e+e+e+<+B p p p p p p p p p p p p p p p B B B B p p p p p p p p p p p p B B B B B B B B *.*.*.*.B B B B B B B B ) ) ) ) S.S.S.S.S.S.S.S.) B B B B B B B p p p p p p p p p p p B <+S.S.S.) B B B p p p p B B B B p p p p p p p p p p p p p p p p p p p p B B B B B B B B p p p B <+<+<+<+e+e+e+3 H H H H H h+h+h+h+h+h+H <.<.<.<.c.e+e+<+B p p p p p p p p p p B <+<+<+<+B B B B B B B B B B B B B B B B B B B B ) ) ) ) ) ) ) ) S.S.S.S.*.*.*.*.B B B B B B *.e+3 <.<.<.<.<.<.h+e+S.) ) X e+e+X X ) ) ) ) ) ) ) ) ) ) ) ) ) ) ) ) ) ) X X e+e+e+S.S.S.S.) ) ) ) B B B B ) ) e+<. + + + +<.X B B p p p p p p p p p p B t.3 <.<.H 3 S.S.) B B B t.e+c.c.e+e+S.) ) o o o h+H <.<.<.++++++H h+e+H <. + + + +<.X B B p p p p *.*.t.e+c.<.<.<. + + + +<.<.<.3 e+*.B B B B B ) S.S.S.S.S.S.S.S.) B B B B B B B B B B B B B B B B B B B p p p p B B B B B B B B B B B B p p p p p p p p B B B B B B B ) S.S.S.S.S.S.S.S.S.S.S.S.<+<+<+<+B B B B B B B B p p p B *.t.t.*.B p p p p p p p p p p p p p p p B B B B <+<+<+<+",
") ) ) ) B B B B B B B B B B B B B B B B X X X X e+e+e+<+B p p p p p p p p p p p p p p p B B B B p p p p p p p p p p p p B B B B B B B B *.*.*.*.B B B B B B B B ) ) ) ) S.S.S.S.S.S.S.S.) B B B B B B B p p p p p p p p p p B B <+S.S.S.) B B B p p p p B B B B p p p p p p p p p p p p p p p p p p p p B B B B B B B B p p p B <+<+<+t.e+e+e+3 H H H H h+h+h+h+h+h+h+H <.<.<.H 3 e+e+<+B p p p p p p p p p p B <+<+<+<+B B B B B B B B B B B B B B B B B B B B ) ) ) ) ) ) ) S.S.S.S.S.X *.*.*.B B B B B B <+e+3 <.<.<.<.<.<.H e+S.S.S.S.e+e+S.S.) ) ) ) ) ) ) ) ) ) ) ) ) ) ) ) ) ) X X e+e+e+S.S.S.S.) ) ) ) B B B B ) ) e+<. + + + +<.X B B p p p p p p p p p p B t.3 <.<.H 3 S.S.) ) B <+t.e+c.c.e+e+S.) ) o o !+h+H <.<.<.++++++H h+h+H <. + + +<.<.X B B p p p p *.*.t.e+c.<.<.<. + + + +<.<.<.3 e+*.B B B B B ) S.S.S.S.S.S.S.S.) B B B B B B B B B B B B B B B B B B B p p p p B B B B B B B B B B B B p p p p p p p p B B B B B B B ) S.S.S.S.S.S.S.S.S.S.S.S.<+<+<+<+B B B B B B B B p p p B *.t.t.*.B p p p p p p p p p p p p p p p B B B B <+<+<+<+",
") ) ) ) ) B B B B B B B B B B B B B B ) X X X X e+e+e+*.B p p p p p p p p p p p p p p p B B B B p p p p p p p p p p p B B B B B B B B B *.*.*.*.B B B B B B B ) ) ) ) S.S.S.S.S.S.S.S.) B B B B B B B B p p p p p p p p p p B <+<+S.S.S.) B B B p p p B B B B B p p p p p p p p p p p p p p p p p p p p B B B B B B B B p p p p B <+<+t.e+e+e+3 3 H H h+h+h+h+h+h+h+h+H H H H c.e+e+X <+B p p p p p p p p p p B <+<+<+<+B B B B B B B B B B B B B B B B B B B ) S.S.S.S.e+e+e+e+e+3 3 e+e+t.*.*.*.B B B B ) ) e+3 H <.<.<.<.<.H h+S.S.S.e+e+e+S.S.) ) ) ) ) ) ) ) ) ) ) ) ) ) ) ) ) ) S.S.e+e+e+S.S.S.S.S.) ) ) ) B B B ) ) e+<. + + +<.H X B B p p p p p p p p p p B t.3 <.<.H 3 S.S.S.) <+X e+e+c.c.e+e+S.) ) o o !+h+H <.<.<.++++++<.H H <.<. + + +<.c.X B p p p p p B *.*.e+3 <.<.<.|  + + +<.<.<.e+e+*.B B B B B ) S.S.S.S.S.S.S.S.B B B B B B B B B B B B B B B B B B B B B p p B B B B B B B B B B B B B B p p p p p p B B B B B B B B B ) S.S.S.S.S.S.S.S.S.S.S.<+<+<+<+B B B B B B B B p p p B *.t.t.*.B p p p p p p p p p p p p p p p B B B B <+<+<+<+",
"S.X X X ) ) B B B B B B B B B B B B ) X X X X X X X X *.B p p p p p p p p p p p p p p p p B B p p p p p p p p p p p B B B B B B B B B B B *.*.*.*.B B *.*.B ) ) ) ) S.S.S.S.S.S.S.S.) ) B B B B B B B B p p p p p p p B B B <+<+<+S.S.<+B B B B B B B B B B B B p p p p p p p p p p p p p p p p p p p p B B B B B B B p p p p p B <+<+t.e+e+3 3 3 h+h+h+h+h+h+h+h+h+h+H H h+3 e+e+X <+B B p p p p p p p p p p B <+<+<+<+B B B B B B B B B B B B B B B B B <+<+S.e+3 3 H H H <.<.H 3 3 3 e+t.*.<+<+<+) ) ) ) S.e+h+H <.<.<.<.H H H h+h+h+h+3 e+S.S.S.) ) ) ) ) ) ) ) S.S.S.S.S.S.S.S.S.S.S.S.S.S.S.S.S.S.S.S.) ) ) ) ) ) ) X e+<. + + +<.H X B B p p p p p p p p p p B t.3 <.<.H 3 S.S.S.S.e+e+e+e+c.3 e+e+S.S.) o o !+h+H <.<.<.++++++<.<.<.<.<. + + +<.e+*.B p p p p p B *.*.t.e+3 <.<.|  + +| <.<.c.e+X *.*.B B *.) X S.S.S.S.S.S.S.<+B B B B B B B B B B B B B B B B B B B B B B B B B B B B B B B B B B B B B B p p p p B B B B B B B B B B ) ) S.S.S.S.S.S.S.S.S.<+<+<+<+<+<+<+B B B B B B p p p B *.t.t.*.B p p p p p p p p p p p p p p p p B B B B <+<+<+",
"S.X X X X X X B B B B B B B B B *.X X X X X X X X X X *.B p p p p p p p p p p p p p p p p p p p p p p p p p p p B B *.B B B B B B B B B B B B B *.*.*.*.*.X X X S.S.S.S.S.X X X ) ) B B B B B B B B B B p p p p p B B B *.<+<+<+<+<+<+<+B B B B B B B B B B B B p p p p p p p p p B B B B B B p p p p p B B B B B B p p p p p p B B <+t.e+e+c.3 e+e+e+e+S.S.S.h+h+H H H h+e+e+S.<+<+B B p p p p p p p p p p p B <+<+<+<+B B B B B B B B B B B B B B B B *.X e+3 3 <.<.<.<.<.<.<.<.<.<.3 3 e+S.S.S.S.S.S.S.S.S.!+h+h+H H H H H H H H H H H H 3 e+S.S.S.) ) ) ) ) ) S.S.S.S.S.S.S.S.S.S.S.S.S.S.S.S.3 3 S.S.S.S.) ) ) ) ) ) X e+<.<. + +<.3 X B B p p p p p p p p p p B t.3 <.<.H 3 S.S.S.e+e+3 3 3 3 e+e+S.S.S.S.!+!+!+H H <.| ++++H <.<.<.<.<.w+ + +<.<.e+<+B p p p p p p B *.<+e+e+H <.|  + +<.<.H e+e+X *.*.*.*.X X X e+e+e+S.S.S.<+<+B B B B B B B B B B B B B B B B B B B B B *.*.B B B B B B B B B B B B B B B B B B B B B B <+<+B B B B B B B ) ) ) ) ) ) ) ) B B B B B <+<+<+<+<+*.D.D.p p p p B *.t.t.*.B p p p p p p p p p p p p p p p p p p p p B B B ",
"e+e+e+X X X X *.B B B B B B B B *.X X X ) ) ) X X X X *.B p p p p p p p p p p p p p p p p p p p p p p p p p p p B *.*.*.B B B B B B B B B B B *.*.*.*.*.*.X X X S.S.S.S.X X X X ) B B B B B B B B B B B p p p p B B B B <+X e+t.<+<+<+<+B B B B B B B B B B B B p p p p p p p p B B B B B B B B p p p p B B B B B p p p p p p p B B <+t.e+c.c.3 e+e+X X X ) S.e+h+H H H e+S.) ) B B p p p p p p p p p p p p p B <+<+<+<+B B B B B B B B B B B B B B B *.X e+e+c.<.<.w+w+w+w+w+w+w+w+<.<.3 3 S.S.S.S.S.S.S.!+!+!+h+h+h+h+H H H H <.| | H H H H 3 S.S.S.S.) ) ) ) S.S.S.S.S.3 3 S.S.S.S.S.) ) S.S.S.3 3 3 S.S.S.) ) ) ) ) X X e+<.<. +| <.3 X B B p p p p p p p p p p B t.3 <.<.H 3 e+e+3 3 H H c.3 e+e+e+S.S.S.S.!+!+!+H H | | ++H H <.<.<.U.U.U.w+<.<.c.e+B p p p p p p p p B B <+S.3 H <.| | <.<.c.e+e+*.*.*.*.*.X X X e+e+e+S.S.<+<+<+B B B B B B B B B B B B B B B B B B B B *.*.*.*.B B B B B B B B B B B B B B B B B B B B <+<+<+<+B B B B B B B B B B B B B B B B B B B B <+<+<+<+D.D.D.D.p p p B *.t.t.*.D.p p p p p p p p j.j.p p p p p p p p p p p p p ",
"e+e+e+X X X X *.*.B B B B B B B *.X X X ) ) ) ) X X X *.B p p p p p p p p p p p p p p p p p p p p p p p p p p B *.*.*.*.B B B B B B B B B *.*.*.*.*.*.*.*.X X X S.S.S.S.X X X X B B B B B B B B B B B B B B B B B B <+X S.e+e+S.<+<+<+<+B B B B B B B B B B B B B p p p p p p p B B B B B B B B p p p B B B B B p p p p p p p p B B <+t.e+3 c.e+e+X X X ) ) S.e+3 <.<.3 e+S.) B B p p p p p p p p p p p p p p B <+<+<+<+B B B B B B B B B B B B B *.X X e+e+3 c.<.<.w+w+w+w+w+w+w+w+w+<.<.H 3 3 3 3 3 S.!+!+!+!+!+h+h+h+h+H H H <.| | | H H H H 3 3 S.S.S.) ) S.S.S.S.S.3 3 3 3 S.S.S.S.) ) S.S.S.e+3 S.S.S.S.) ) ) ) ) X X e+H <.<.<.<.e+<+B B p p p p p p p p p p B t.e+c.<.<.H 3 3 H <.<.<.H 3 e+e+S.S.S.S.S.!+!+H H H | | <.H H <.<.U.U.U.U.w+<.<.e+<+B p p p p p p p p p B <+S.e+H <.| | <.<.3 e+X *.*.*.*.*.X X X e+e+e+S.<+<+<+<+B B B B B B B B B B B B B B B B B B B B *.*.*.*.B B B B B B B B B B B B B B B B B B B B <+<+<+<+B B B B B B B B B B B B B B B B B B B B <+<+<+<+D.D.D.D.p p p B *.t.t.*.D.p p p p p p p j.j.j.j.p p p p p p p p p p p p ",
"X X X X X X X *.*.*.B B B B B B B *.X ) ) ) ) ) X X X *.B p p p p p p p p p p p p p p p p p p p p p p p p p p B *.*.*.B B B B B B *.<+X X e+X X *.*.*.*.*.X X X S.S.S.S.X X *.B B B B B B B B B B B B B B B <+<+<+S.S.S.S.S.S.S.<+<+<+B B B B B B B B B B B B B B B p p p p p p B B B B B B B B B B B B B B B B p p p p p p p p B B <+t.t.e+e+e+X X X ) ) ) ) e+3 c.c.3 e+) B B p p p p p p p p p p p p p p p B <+<+<+<+B B B B B B B B B B *.*.X e+e+e+e+3 c.c.c.c.<.<.w+w+w+w+w+w+w+w+<.<.<.<.<.H H h+!+!+!+!+!+!+!+!+!+h+H H H H ++| | <.H H H H 3 e+S.S.S.S.S.S.S.S.S.3 3 S.S.S.S.S.) ) S.S.S.S.S.S.S.S.S.) ) ) ) ) X X e+3 <.<.<.3 e+B B p p p p p p p p p p p B <+e+3 <.<.<.<.<.<.<.<.<.H 3 e+S.S.S.S.S.!+!+!+H H H | <.H H H <.U.U.L.L.U.~ <.3 e+<+B p p p p p p p p p B B <+S.3 <.<.<.<.H e+e+X *.*.*.*.*.X X X e+e+e+S.<+<+<+<+B B B B B B B B B B B B B B B B B B B B B *.*.B B B B B B B B B B B B B B B B B B B B B B <+<+B B B B B B B B B B B B B B B B B B B B B B <+<+D.D.D.D.p p p p B *.t.t.t.D.D.p p p p p p j.j.j.j.j.p p p p p p p p p p p ",
"*.*.*.) ) *.*.*.*.*.*.B B B B B B B B ) ) ) ) ) X X X *.B p p p p p p p p p p p p p p p p p p p p D.D.D.D.D.D.D.*.B B B B B B B <+X e+e+e+e+e+e+X *.*.B B B B ) ) ) ) ) ) B B B B B B B B p p p p p B B B <+<+S.S.S.S.S.S.S.S.) <+B B B B B B B B B B B B B B B B B B p p p p p B B B B B B B B B B B B B B B B p p p p p p p p B <+<+<+t.t.t.t.*.*.B B B B ) e+3 c.c.e+t.B B p p p p p p p p p p p p p p p p B <+<+<+<+B B B B B B B B B *.*.X e+e+3 c.H <.c.c.c.c.c.c.c.<.<.<.w+w+w+w+w+ + + +| <.<.H h+S.) ) ) S.S.!+!+!+H H H H H H | | | <.<.H H h+h+h+S.S.S.S.S.S.S.S.S.S.S.S.) ) S.S.S.S.S.S.S.S.) ) ) B B B ) ) ) S.e+e+H H 3 e+<+B B p p B B B B B B B B B B <+e+3 c.<.<.<.<.<.<.<.<.H e+S.S.S.S.!+!+!+!+H H H H H H H H <.<.U.L.B.B.L.~ <.3 S.B p p p p p j.j.j.p p p B B S.e+<.<.<.<.h+e+X X *.*.B B B *.) X S.S.S.S.<+<+<+<+B B B B B B B B B B B B B B B B B B B B B B B B B B B B B B B B B B B B B B B B B B B B B B B B B B B B B B B B B p p p p p p p p p p p p B B p p p p p p p p B *.t.t.t.D.D.D.p p p p p j.j.j.j.j.j.p p p D.D.p p p p p ",
"B B B B B B B B *.*.*.*.B B B B B B B ) ) ) ) ) X X X *.B p p p p p p p p p p p p p p p p p p p D.D.D.D.D.D.D.D.B B B B B B B B X X e+e+3 c.3 e+X *.B B B B B B B B B B B B B B B B B B B p p p p p B B <+X e+e+3 3 h+S.S.) ) ) B B B B B B B B B B B B B B B B B B B B p p p p B B B B B B B B B B B B B B B B p p p p p p p p B <+<+<+<+<+<+<+<+B B B B B *.e+e+c.c.e+t.B p p p p p p p p p p p p p p p p p B <+<+<+<+B B B B B B B B *.*.*.e+e+c.<.<.<.<.<.c.c.3 e+3 3 c.c.<.<.w+w+w+ + + + + + +<.<.h+S.S.) ) ) S.S.!+!+!+h+h+h+H H ++| | | <.<.<.H h+h+h+!+S.S.S.S.S.S.S.S.S.) ) ) S.S.S.S.S.S.) ) ) B B B B B B ) S.S.S.S.e+e+S.S.<+B p p B B B B B B B B B B <+<+e+3 c.<.<.w+w+w+<.<.<.h+e+S.S.S.S.!+!+!+H H H H H H H H <.<.U.L.B.{+{+B.U.<.e+<+B p p p p j.j.j.j.j.p p B B <+e+H <.<.<.3 e+X X *.B B B B B B ) S.S.S.S.<+<+<+<+B B B B B p p p B B B B B B B B B B B B B p p B B B B B B B B B B B B B B B B B B B B B B B B B B B B B B B B B B p p p p p p p p p p p p p p p p p p p p p p B *.t.t.t.D.D.D.D.p p p p j.j.j.j.j.j.j.p D.D.D.D.p p p p ",
"B B B B B B B B *.*.*.*.*.*.B B B B B ) ) ) ) X X X X *.B B p p p p p p p p p p p p p p p p p p D.D.D.D.D.D.D.D.B B B B B B B B *.X e+e+c.H c.e+e+<+B B B B B B B B B B B B B B B B B B p p p p p p B <+X e+e+3 h+h+h+S.S.) ) B B B B B B B B B B B B B B B B B B B B B p p p p B B B B B B B B B B B B B B B B p p p p p p p B B <+<+<+<+<+<+<+B B B B B B *.t.e+c.e+t.*.B p p p p p p p p p p p p p p p p p B <+<+<+<+B B B B B B B *.*.*.t.e+c.c.<.<.<.<.c.3 e+e+t.t.e+e+3 c.<.<.w+w+ + + + + + + +<.<.H e+S.S.S.) S.S.!+!+!+h+h+h+H <.| | <.<.<.<.H h+h+h+h+S.S.S.S.S.S.S.S.S.) ) S.S.S.S.S.) ) ) ) ) B B B B B B ) S.S.S.S.S.S.S.S.<+B B B B B B B B B B B B <+X e+3 c.<.<.w+w+w+w+<.<.H h+e+S.S.S.!+!+!+!+H H H H H H <.<.<.w+U.B.{+%.%.s U.<.e+) B B p p p j.j.j.j.j.p p p B <+e+3 <.<.<.e+e+X *.B B B B B B B B ) S.S.S.<+<+<+<+<+B B B B p p p B B B B B B B B B B B B p p p p B B B B B B B B B B B B B B B B B B B B B B B B B B B B B B B B B p p p p p p p p p p p p p p p p p p p p p p *.t.t.t.t.t.t.D.D.p p p p p j.j.j.j.j.j.p D.D.D.D.p p p p ",
"B B B B B B B B B *.*.*.*.t.t.*.<+*.) ) ) ) ) X X X X *.B B p p p p p p p p p p p p p p p p p p p D.D.D.D.D.D.p B B B B B B B B <+X e+e+3 3 3 e+X B B B B B B B B B B B B B B B B B B p p p p B B B <+t.e+e+3 h+h+h+S.S.S.) ) B B B B B B B B B B B B B B B B B B B B B B B p p B B B B B B B B B B B B B B B B p p p p p p p p B <+<+<+<+<+B B B B B B B B *.t.t.e+t.t.*.p p p p p p p p p p p p p p p p p p B <+<+<+<+B B B B B B B *.*.t.e+e+c.c.c.c.3 3 e+e+e+X X X X X e+3 3 c.<.<.<. + + + + + + +<.<.<.H e+S.) ) ) o o S.S.h+h+h+H <.<.<.<.H H H H h+h+h+h+3 S.S.S.S.S.S.S.S.S.S.S.S.S.S.) ) ) ) ) B B B B B ) ) S.S.S.S.S.S.S.S.<+<+*.*.*.<+<+*.*.t.t.X e+e+e+3 <.<.<.w+w+w+w+<.<.H h+e+S.S.S.!+!+!+!+h+h+H H H H H <.w+U.U.B.{+K.K.K.{+L.<.3 ) B B p p p p j.j.j.j.p p p B B e+3 <.<.c.e+e+X *.B B B B B B B B ) ) <+<+<+<+<+<+<+<+B B B p p p p B B B B B B B B B B B p p p p B B B B B B B B B B B B B B B B B B B B B B B B B B B B B B B B B B p p p p p p p p p p p p p p p p p p p p B *.t.t.t.t.t.t.*.*.p p p p p p j.j.j.j.j.j.p D.D.p p p p p ",
"p p p p p p p p p B *.*.t.t.e+e+e+X X S.S.S.S.S.e+e+X X *.B B p p p p p p p p p p p p p p p p p p p p p p p p p p p p p p p B B B *.X S.e+e+e+S.S.B B B B B B B B B B B B B B B B p p p p B B B B <+X e+3 c.H H h+S.S.S.) ) B B B B p p p p p B B B B B B B B B B B B B B B B B p p B B B B B B B B B B B B B B p p p p p p p p B B B B B B p p p p B B B *.*.t.t.t.t.t.*.p p p p p p p p p p p p p p p p p p B <+<+S.<+B B B B B B B *.t.e+e+c.3 3 e+e+e+e+e+X X X ) ) ) ) S.S.e+e+3 3 H <.<.<.w+w+w+U.U. +w+<.H e+S.) ) ) ) ) X X e+h+h+H H H H H H H H H H H H H H H H H 3 S.S.S.S.S.S.S.S.S.) ) ) ) ) ) ) ) ) ) ) ) S.S.S.S.S.S.S.S.X X <+<+X X X e+e+e+e+e+e+3 c.<.<. + + + +<.<.<.H h+e+S.S.!+!+!+!+!+H H h+h+h+H H <.<.U.L.B.{+K.K.K.K.{+&+<.3 S.) B B p p p p p p p p p p p B t.3 <.<.c.3 e+t.*.B B B B B B B B B B <+<+<+*.*.t.t.X <+<+B p p p p p p B B B B B B B B B p p p p B B B B B B B B B *.*.*.<+<+<+B B B B B B B B B B B B B B *.*.B B B B p p p p p p p p p p p p p p p p p p B B *.t.e+e+e+t.t.t.*.B p p p p p p j.j.j.j.j.p p p p p p p p ",
"p p p p p p p p p p B *.t.e+e+e+e+e+e+S.S.S.S.S.e+e+e+X *.B B B p p p p p p p p p p p p p p p p p p p p p p p p p p p p p p p B B B B S.S.S.S.S.) B B B B B B B B B B B B B B B B p p B B B B B <+X e+e+c.<.H H e+S.) ) ) B B B B p p p p p p B B B B B B p p B B B B B B B B B p p p B B B B B B B B B B B B B p p p p p p p p B B B B B p p p p p p B *.*.*.t.t.t.t.*.D.p p p p p p p p p p p p p p p p p p B <+S.S.S.B B B B B B B t.e+e+c.3 e+e+t.<+<+<+<+) ) ) ) ) ) ) ) ) S.<+S.S.S.e+h+<.<.w+w+U.U.U.U.w+<.c.e+e+S.S.S.X X X e+e+h+h+h+h+h+h+h+H H H H H H H H H H H H 3 S.S.S.S.S.S.S.S.) ) ) ) ) ) ) ) ) ) ) ) S.S.S.S.e+e+e+e+e+e+e+e+e+e+e+e+e+c.c.c.c.<.<.<. + + + +| <.H H e+S.S.S.!+!+!+!+!+H H H H h+H H H <.w+U.&+{+%.K.K.k K.E.&+w+H S.) B B B p p p p p p p p p p B t.3 <.<.c.c.t.t.*.*.B B B B B B B B B B *.*.*.*.t.X X X <+B p p p p p p B B B B B B B B B p p p p B B B B B B B B *.*.*.*.<+<+<+<+B B B B B B B B B B B B *.*.*.*.B B B B p p p p p p p p p j.j.p p p p p B B B t.t.c.c.c.e+e+e+*.B p p p p p p p j.j.j.p p p p p p p p p ",
"p p p p p p p p p p B *.t.e+c.c.3 e+e+e+e+e+e+e+e+e+e+X <+B B B B p p p p p p p p p p p p p p p p p p p p p p p p p p p p p p p B B B ) S.S.S.S.) B B B B B B B B B B B B B B B B B B B B B ) X X e+e+3 H <.H h+e+S.) ) B B B B B p p p p p p B B B B B B p p B B B B B B B B B p p p B B B B B B B B B B B B B p p p p p p p p B B B B p p p p p p p B *.*.*.*.t.t.t.*.B p p p p p p p p p p p p p p p p p B B <+S.S.S.B B B B B B B t.e+c.c.3 e+t.<+<+<+B B ) ) ) ) ) ) ) ) ) ) ) ) ) ) X e+3 <.<.w+U.U.U.U.U.w+<.<.c.c.c.c.3 e+e+e+e+h+h+h+h+h+!+!+!+H H H H H H H H H H H H 3 S.S.S.S.S.S.S.S.S.) ) ) ) ) ) ) ) ) S.S.S.S.e+e+e+e+e+e+e+e+e+e+e+e+e+3 c.c.c.c.<.<.<. + + + +<.<.H h+S.S.S.S.!+!+!+!+H H H H H H H H <.<.w+U.B.{+%.K.K.k K.E.&+ +<.3 S.<+B B B p p p p p p p p p *.e+3 <.<.c.c.t.t.t.*.*.B B B B B B B B B *.*.*.*.X e+e+X <+*.B p p p p p B B B B B B B B B B p p p B B B B B B B B *.*.*.*.<+<+<+<+B B B B B B B B B B B B *.*.*.*.B B B B p p p p p p p p p j.j.p p p p p B B B t.e+3 c.c.c.c.e+e+<+B p p p p p p p p p p p p p p p p p p ",
"p p p p p p p p B B *.*.t.t.e+e+3 3 3 3 3 3 3 3 e+e+e+t.<+<+*.B B B p p p p p p p p p p p p p p p p p p p p p p p p p p p p p p p B B B ) ) ) ) ) B B B B B B B B B B B B B B B B B B B ) S.S.S.e+e+e+H H H H 3 S.) ) B B B B B B p p p p B B B B B B B B B B B B B B B B B B B p p B B B B B B B B B B B B B B p p p p p p p p B B B B p p p p p p p B *.*.*.*.*.*.*.*.B B p p p p p p p p p p p p p p p p B B <+<+S.<+B B B B B B B t.e+3 3 3 e+S.<+<+B B B ) ) ) ) ) ) ) ) ) ) ) ) ) ) ) X e+c.<.w+w+U.U.U.U.U.U.U.~ ~ ~ w+<.<.c.e+e+e+h+h+h+h+!+!+h+H H H H H H H <.<.H H H H 3 3 3 3 S.S.S.S.S.S.S.S.S.S.X X S.S.S.e+3 3 e+e+e+e+e+e+e+e+e+e+e+e+e+3 c.c.c.c.<.<.<.<. +| <.<.H h+h+!+S.S.!+!+!+!+!+H H H H <.<.<.<.<.<. +U.&+{+{+%.K.K.E.E.&+ +<.H e+S.B B B B p p p p p p p B *.e+3 <.<.c.c.t.t.t.t.t.t.*.*.<+*.<+<+*.*.*.*.*.X X e+e+e+X <+B B B B B B B B B B B B B B B B B p p B B B B B B B B B *.*.*.<+<+<+B B B B B B B B B B B B B B *.B B B B B p p p p p p p p p p p p p p p p p B B B <+e+e+c.c.c.<.c.e+t.B p p p p p p p p p p p p p p p p B B ",
"B B B B B B B B *.*.*.*.*.t.t.e+3 c.H <.<.H 3 3 e+e+t.<+t.t.*.*.*.*.*.B p p p p p p p p p p p p p B B B B B B B B B B p p p p p p p B B ) ) ) ) B B B B B B B B B B B B B B B B B B ) ) S.S.S.e+h+h+h+h+H H H 3 S.) B B B B B B B B B B B B <+B B B B B B B B B B B B B B B p p B B B B B B B B B B B B B B B B p p p p p p p p B B B B p p p p p p p B *.*.*.*.*.*.B B B B B p p p p p p p p p p p p p p B B B <+<+<+<+B B B B B B B <+e+3 3 3 e+S.S.) ) ) ) ) ) ) S.S.S.S.S.S.S.) ) ) ) X X e+3 c.<.<.w+w+U.U.d &+&+L.L.L.L.~ w+<.c.e+e+e+e+h+h+h+h+h+H H H H <.<.<.<.<.<.<.H H H H H H H H 3 3 S.S.S.S.S.S.X X S.e+e+3 3 3 3 e+e+S.S.S.S.S.S.S.S.e+e+e+3 3 3 c.c.H <.<.<.<.<.H H h+h+h+!+!+!+!+!+!+!+h+3+3+++++| | | |  + +U.U.L.s s {+E.E.s &+d  +<.H e+X B B B B p p p p p B *.X e+c.<.<.c.c.t.t.t.t.e+e+e+e+X X X X X X X X X S.e+X X X X <+<+<+<+<+<+<+B B B B B B <+<+B B B B B p p p p p p B B B B B B B B B B B B B B B *.*.B B B B B B B B p p p p p p p p p p p p p p p p p p p p p B B B <+S.e+3 c.<.<.<.c.e+<+B B B B B B p p p p p p p p B B *.*.",
"B B B B B B B B *.*.*.*.*.B <+t.e+c.<.<.<.<.c.3 e+t.<+<+t.t.t.*.*.*.*.B p p p p p j.j.p p p p p B B B B B B B B *.*.*.D.p p p p p p B B B ) ) ) B B B B B B B B B B B B B B B B ) ) ) S.S.h+h+h+h+h+h+h+H H H e+S.) B B B B B B B B B B <+<+<+<+B B B B B B B B B B B B B p p p B B B B B B B B B B B B B B B B p p p p p p p p B B B B p p p p p p p B *.X X X *.B B B B B B B p p p p p p p p p p p p B B B B <+<+<+<+B B B B B B B <+e+3 3 3 S.S.S.S.) ) ) ) S.S.S.S.S.S.S.S.S.S.S.S.X X X e+e+3 c.c.<.<. +U.&+&+s {+{+{+B.L.U.w+<.H 3 e+e+e+h+h+h+h+H H H H <.<.<.<.<.<.<.H H H H H H H H 3 3 3 3 e+e+e+e+e+e+e+e+3 H <.<.H 3 e+S.S.S.S.S.S.S.S.S.e+e+e+e+e+e+e+e+3 3 3 h+h+h+h+h+h+h+h+h+!+!+!+!+!+3+3+3+++++|  + + + + + +U.U.L.L.&+&+&+&+d d  +<.<.3 e+X <+B B B p p B B *.X e+e+c.<.<.c.3 t.t.t.e+c.c.e+e+e+e+e+e+e+e+S.S.S.S.S.X X X X <+<+<+<+<+<+<+<+B B B B <+<+<+<+B B B B p p p p p p p B B B B B B B B B B B B B *.*.*.*.B B B B B p p p p p p p p p p p p p p p p p p p p p p p B B B ) S.S.3 <.<.w+w+<.c.t.B B B B B B B B B B p p p p B *.*.*.",
"B B B B B B B *.*.*.*.*.D.p B t.e+c.<.<.<.<.c.3 e+<+<+<+<+t.t.*.*.*.*.*.B p p p p j.j.p p p p p B B B B B B B *.*.*.*.*.p p p p p p B B B ) ) ) B B B B B B B B B B B B B B ) ) ) ) S.S.h+H H H h+h+h+h+H H H S.S.) B B B B B B B B B B <+<+<+<+B B B B B B B B B B B B p p p p B B B B B B B B B B B B B B B B B p p p p p p p B B B B B p p p p p p B *.X X X *.B B B B B B B p p p p p p p p p p p p B B B B <+<+<+<+B B B B B B B <+S.e+3 3 S.S.S.S.) ) ) S.S.S.S.S.S.S.S.S.S.S.S.e+e+e+e+e+e+e+e+3 H <.<.U.d &+s {+%.%.{+B.L.U.<.<.H 3 e+e+h+h+h+H H H H H H <.<.<.<.<.<.H H H H H H H H 3 3 3 e+e+e+e+e+e+e+e+3 c.<.<.<.<.H 3 S.S.S.S.S.S.S.S.S.S.e+e+e+e+e+e+e+e+e+S.S.e+h+h+h+h+h+h+h+h+h+!+!+h+3+3+3+++++| |  + + + +w+w+w+w+U.U.d d d d d  + +<.<.c.3 e+t.<+<+B B *.*.X e+e+c.<.<.<.c.e+t.t.t.e+c.c.e+e+e+e+e+e+e+e+S.S.S.S.S.X X X X <+<+<+<+<+<+<+<+B B B B <+<+<+<+B B B B p p p p p p p p B B B B B B B B B B B B *.*.*.*.B B B B B B B B B B B p p p p p p p p p p p p p p p p p B B B B ) S.3 <.<.w+w+<.c.e+<+B B B B B B B B B B B B B *.*.*.*.",
"B B B B B B B B *.*.*.*.p p B <+e+3 3 c.c.3 e+e+t.<+<+<+<+*.*.*.*.*.*.B B B p p p p p p p p p p B B B B B B B *.t.t.t.*.D.p p p p p B B B ) ) ) B B B B B B B B B B B ) ) ) ) ) ) S.!+!+H H H H h+h+h+h+H H H S.S.) B B B B B B B B B B B <+<+<+B B B B B B B B B B B B p p p p B B B B B B B B B B B B B B B B B p p p p p p p B B B B B B p p p p p B *.X X X ) B B B B B B B p p p p p p p p p p p p B B B B <+<+<+<+B B B B B B <+<+S.S.S.S.S.S.S.S.S.S.S.S.e+3 3 e+e+e+e+e+e+e+e+e+e+e+e+e+e+e+e+e+e+H <.w+U.&+&+{+E.K.K.{+&+U. +<.<.H 3 h+h+h+h+H H H H H H H H H H H h+3 3 e+S.S.S.S.S.S.S.S.S.S.S.X e+e+e+3 H <.<.<.<.<.H 3 S.S.S.S.S.S.S.S.S.S.S.S.X X X X S.S.S.S.S.e+h+h+h+h+h+h+H H H h+h+3+3+3+3+3+++++++++<.<.<.<.<.<.w+w+w+ + + + + + + + +<.<.<.c.3 3 e+t.t.e+e+c.c.<.<.<.<.c.c.e+t.t.t.t.e+e+e+e+e+X X X X X S.S.S.S.S.X X X *.<+<+<+<+<+<+<+<+B B B B <+<+<+<+B B B B p p p p p p p p p B B B B B B B B B B B B *.*.B B B B B B B *.*.*.*.*.*.B B p p p p p p p p p p p p p p B B B B <+S.e+c.<.~ U.w+<.3 e+S.S.<+<+<+<+<+<+*.*.*.B *.*.*.*.*.",
"p p p p p p B B *.*.*.*.p p p <+<+e+e+e+e+e+e+X <+<+B B <+*.*.*.*.B B B B B B p p p p p p p p p B B B B B B B *.t.e+t.t.*.p p p p B B B ) ) ) ) B B B B B B B B B ) ) ) X S.S.S.S.!+!+h+H H ++H h+h+h+h+H H H S.S.) ) B B B B B B B B B B B B B ) ) ) B B B B B B B B B p p p p B B B B B B B B B B B B B B B B B B B p p p p p B B B B B B B p p p p B *.X X X ) B B B B B B B p p p p p p p p p p p p B B B B <+<+<+<+B B B B B <+<+<+S.S.S.S.S.S.S.S.S.S.e+e+3 H H 3 3 e+e+e+3 3 3 3 3 3 e+e+S.S.S.e+e+3 H <.<. +d s E.K.K.E.s d  +<.<.<.<.H H H H H H H H H H 3 3 3 e+e+e+S.S.S.S.S.S.S.S.S.S.<+<+<+<+<+X e+e+c.<.<.<.<.<.<.<.H 3 S.S.S.S.S.S.S.S.S.S.S.) ) ) X X X X X X e+h+h+h+h+H H H H H 3+3+3+3+h+h+h+h+h+H H H H H H <.<.<.<.<.<.<.<. + + + + +U.U.w+w+<.c.c.3 3 c.c.<.<.<.<.<.<.c.e+e+t.<+t.t.t.t.t.t.*.*.<+<+<+) ) ) ) ) ) ) ) B B B B <+<+<+<+<+<+B B B B <+S.S.<+<+B B B p p p p p p p p p p p p p p B B B B B B B B B B B B B B B <+t.t.t.t.t.t.*.B B B B B B p p p p p p p p p B <+<+<+B <+e+c.<.~ U.w+<.c.3 e+e+e+S.S.S.X X X X <+*.*.*.B B B ",
"p p p p p p p B *.*.*.*.B p p B <+<+<+<+<+<+B B B B B B B B B B B B B B B B B B p p p p p p p p B B B B B B B t.e+e+e+t.*.p p p p B B B ) ) ) ) B B B B B B B B ) ) ) ) S.!+h+!+!+!+!+h+3+++++++h+h+h+h+H H H !+S.) ) ) B B B B B B B B B B B B ) ) ) ) B B B B B B B B p p p p B B B B B B B B B B B B B B B B B B B B p p p p B B B B B B B B p p p B *.X X X *.B B B B B B B p p p p p p p p p p p p B B B B <+<+<+<+B B B B <+<+<+<+S.) ) ) ) ) ) S.S.e+e+3 H <.<.H 3 e+e+e+3 c.c.3 3 H h+S.S.S.X X e+e+3 h+<.<. +&+E.K.K.E.E.&+d  +<.<.<.H H H H H H H H H 3 S.S.S.S.S.S.) ) ) ) B ) ) B B B B B B B B X e+3 <.<.<.|  +| | <.H H !+S.S.S.S.S.S.S.S.S.) ) ) ) ) ) X X X X e+h+h+h+h+h+H H H H ++++3+h+h+h+h+h+h+h+h+h+h+3 H H H H H H H H <.<.<.<. +U.U.U.U.w+w+<.<.<.<.<.<.<.w+w+w+<.c.c.e+t.*.*.*.t.t.t.t.*.*.B B B B B ) ) ) ) ) ) B B B B B B <+<+<+<+<+B B B B <+S.S.S.B B B B p p p p p p p p p p p p p p p p B B B B B B B B B B B <+X X e+e+e+e+e+t.*.B B B B B B B p p p p p p p B <+<+<+<+B <+e+c.<.~ U.w+<.<.<.3 3 3 e+e+e+e+e+e+e+e+X <+B B p p ",
"p p p p p p p B *.*.*.B B p p B <+<+<+<+B B B B B B B B B B B B B B B B B B B B p p p p p p p p B B B B B B B *.e+e+e+t.*.B p B B B B B ) ) ) ) B B B B B B B B ) ) ) S.S.h+h+!+!+!+!+h+3+++++++H h+h+h+H H h+!+S.) ) ) B B B B B B B B B B B ) ) ) ) ) B B B B B B B B B p p p B B B B B B B B B B B B B B B B B B B B B p p B B B B B B B B B p p B B *.X X X *.B B B B B B B p p p p p p p p p p p B B B B B <+<+<+<+B B B B <+<+<+<+) ) ) ) ) ) ) S.X e+e+3 c.<.<.c.e+e+e+e+e+c.c.3 3 H H h+S.S.S.X X e+e+e+h+H | d s E.E.E.E.&+d  + +<.<.<.H H H H H H H 3 S.S.S.S.) ) ) ) B B B B B B B B B B B B B B <+e+c.<.<. + + + +| | <.H H h+S.S.S.S.S.S.S.S.) ) ) ) ) ) X X X X e+h+h+h+h+h+H H H H ++++H H H h+h+h+!+!+!+S.e+e+3 H H H H 3 e+3 3 H <.<. +U.U.U.U.w+w+w+w+<.<.<.<.w+w+w+<.<.c.c.t.*.*.B *.t.t.t.<+<+B B B B B B ) ) ) ) ) ) B B B B B B B <+<+<+<+B B B B ) S.S.) B B B B p p p p p p p p p p p p p p p p B B B B B B B *.*.X X X e+e+e+e+e+3 e+e+*.B B B B B B B B p p p p p p B <+<+<+<+B B X c.<.w+~ w+<.<.<.<.3 3 3 e+e+e+e+e+e+e+e+<+B B p p ",
"p p p p p p p p B B B B B p p B B B B B B B B B B B B B B B B B B B B B B B B B B B p p p p p p p B B B B B B <+t.t.t.t.*.B B B B B ) ) ) ) ) B B B B B B B ) ) ) ) S.S.S.!+h+!+!+!+!+h+H 3+3+H H H h+h+h+h+!+!+S.X ) ) B B B B B B B B B B ) ) ) ) ) ) B B B B B B B B B B B B B B B B B B B B B B B B B B B B B B B B B B B B B B B B B B B B B B B B *.X X X *.B B B B B B p p p p p p p p p p p B B B B B B <+<+<+<+B B B B <+<+<+<+) ) ) ) ) ) ) X X e+e+3 c.c.H 3 e+e+e+e+e+3 3 3 3 3 3 e+S.S.X X X X X S.e+h+<. +&+s E.E.E.;.&+d  +<.<.H H H H H H h+e+e+S.S.) ) B B B B B B B B B B B B B B B B B B <+e+<.<. + + + + + +| | <.<.H h+h+!+S.S.S.S.S.S.) ) ) ) S.S.e+e+e+h+h+h+h+h+h+h+h+h+H H H H H H H H h+h+h+h+e+e+3 3 3 3 3 3 S.S.e+e+h+H <.<. + +U.w+w+w+w+w+w+w+w+w+w+w+<.<.c.e+t.t.*.*.*.*.<+t.<+<+<+B B B B B B ) ) ) ) ) ) B B B B B B B B <+<+B B B B B B ) ) ) B B B B B B p p p p p p B B p p p p p p p B B B B B X e+e+3 c.3 e+e+e+e+e+e+e+e+<+B B B B B B B B B B B B B B <+<+<+<+<+B B *.e+c.<.w+w+<.<.<.<.3 3 3 3 e+e+e+e+e+e+S.<+B B p p ",
"p p p p p p p p p p B B B B B B B p p p p p p B B B B B B B B B B B B B B B B B B B B p p p p p p p p B B B B B <+*.*.*.B B B B B ) ) ) ) B B B B B B B B ) ) ) ) S.S.S.S.S.S.!+!+!+!+h+h+h+H H H H H h+!+!+!+!+X X X ) B B B B B B B B B ) ) ) ) ) ) ) B B B B B <+<+B B B B B B B B B B ) ) ) ) ) ) ) ) ) ) ) ) ) ) B B B B B B B ) B B B B B B B B B *.X X X *.B B B B p p p p p p p p B B B B B B B B B B B <+<+<+<+B B B B *.X X X ) B ) ) ) ) ) X X e+e+3 3 3 3 3 e+X <+<+t.t.e+e+3 3 3 e+e+e+S.X X X X S.S.h+<.|  +d &+&+E.E.;.d  +<.<.H H <.<.H h+e+e+S.S.) B B B B B B B *.*.*.<+<+) B B B B B B <+t.c.<. + + + + + + + + + +| | <.H h+!+!+o o o !+!+!+!+!+!+!+h+h+h+h+h+h+h+h+h+e+e+e+h+h+H H H H <.<.H H H H 3 3 3 3 3 3 3 e+e+e+e+e+h+h+H <.<.<.<.<.<.<.w+w+w+w+w+<.<.<.c.c.e+t.*.*.*.*.*.*.<+S.S.S.) ) ) ) ) ) ) ) ) ) ) ) ) ) ) ) ) ) ) ) B B B B B B B B B B B B B B B B B B B B B B B B B *.B B p p p p p p B B B X e+3 c.<.<.c.c.e+e+S.e+e+S.X ) B B B B B B B B <+<+<+<+<+<+<+<+<+<+<+B B *.e+c.<.<.<.<.<.<.<.3 3 3 S.S.S.S.S.S.S.S.S.B B B B ",
"p p p p p p p p p p p p B B B B B p p p p p p B B B B B B B B B B B B B B B B B B B B B p p p p p p p B B B B B B B B B B B B B ) S.S.) ) B B B B B B B ) ) ) ) S.S.S.S.S.S.S.S.!+!+!+!+h+h+h+h+H H H h+!+!+o  .X X X X B B B B B B B B ) ) ) ) ) ) ) ) B B B B <+<+<+<+B B B B B B B B ) ) ) ) ) ) ) ) ) ) ) ) ) ) ) ) B B B B ) ) ) ) B B B B B B B B X X X X *.B B B B p p p p p p p B B B B B B B B B B B B <+<+<+<+B B B B X X X X ) B B B ) ) ) X X e+e+3 3 3 3 e+S.<+<+<+<+<+t.e+e+e+e+e+e+e+e+X <+<+) S.S.H H <.<.|  +&+;.E.M.&+d | <.H <.<.<.H e+e+X X ) B B B B B B B *.*.*.*.S.S.S.) ) B B B <+<+e+<.<. + + + + + + + + + + + +| ++H h+!+!+o !+!+!+!+!+!+!+!+h+h+h+h+h+h+h+h+e+e+e+e+e+e+h+H H | | <.<.<.<.<.c.c.c.3 3 e+e+e+e+e+e+e+h+h+h+h+H H H H <.<.<.<.w+w+w+<.<.c.3 e+t.*.B B *.*.*.*.X S.S.S.) ) ) ) ) ) ) ) ) ) ) ) ) ) ) ) ) ) ) ) B B B B B p p B B B B B B B B B B B B B B B B B *.*.*.B p p p p p p B B <+e+e+c.<.<.<.<.c.3 S.S.S.S.) ) B B B B B B B B <+<+<+<+<+<+<+<+<+<+<+<+B B <+t.e+c.c.<.<.<.<.H 3 e+S.S.S.S.S.S.S.S.S.S.<+B B B ",
"p p p p p p p p p p p p B B B B B B B B B B B B B B B B B B B B B B B B B B B B B B B B B B p p p p p B B B B B B B B B B B B B <+S.S.S.B B B B B B B B ) ) ) ) S.S.S.S.S.S.S.S.!+!+!+!+!+h+h+h+h+h+h+!+!+!+o  .X X X X B B B B B B B B ) ) ) ) ) ) ) ) ) B B B <+<+<+<+B B B B B B B B ) ) ) ) ) ) ) ) ) ) ) ) ) ) ) ) B B B B ) ) ) ) ) B B B B B B B X X X X *.B B B B p p p p p p B B B B B B B B B B B B B <+<+<+<+B B B B X X X X B B B B ) ) ) S.X e+e+e+e+e+e+<+<+B B B <+<+<+<+t.e+e+e+e+e+X X B B B S.S.3 H H H H | d ;.E.E.;.d | <.<.<.<.<.c.e+X X *.B B B B p p p B *.*.*.e+e+e+S.S.) ) B <+<+e+c.<. + +d d  + +|  + +d d  + +| | ++H h+!+!+!+!+!+!+!+!+!+!+!+h+h+h+h+h+h+h+e+e+e+e+e+3 H H <.| | | <.<.<.c.c.c.c.e+e+e+e+e+e+e+e+e+e+h+h+h+e+S.e+3 H <.<.<.<.<.<.c.c.e+e+*.B B B B *.*.*.X S.S.S.S.S.) ) ) ) ) ) ) ) ) ) ) ) ) ) ) ) ) ) ) B B B B B p p p B B B B B B B B B B B B B B B B *.*.*.*.B p p p p p B <+t.e+c.<.<.w+w+<.<.3 S.S.S.) ) ) B B B B B B B B <+<+<+<+<+<+<+<+<+<+<+<+B B B t.e+c.c.c.<.<.<.3 e+S.S.S.S.S.S.S.S.S.S.<+<+B B B ",
"p p p p p p p p p p p p p B B B *.*.*.t.t.t.t.t.t.t.t.*.B B B B B B B B B B B B B B B B B B B B B p B B B B B B B B B B B B B B <+S.S.<+B B B B B B B ) ) ) ) S.S.S.S.S.S.S.S.S.S.S.!+!+!+!+!+!+!+!+!+!+!+!+ . .X X X *.B B B B B B B B B ) ) ) ) ) ) ) ) ) B B <+<+<+<+B B B B B B B B B ) ) ) ) ) ) ) ) ) ) ) ) ) ) ) ) ) ) ) ) ) ) ) ) ) B B B B B *.X X X X *.B B B B p p p p p B B B B B B B B B B B B B B <+<+<+<+B B B ) X X X X B B B B ) ) X X X X X t.<+<+<+<+B B B B B B <+<+<+<+<+X X X X <+B B B ) S.S.S.!+!+H <. +&+;.E.;.d  +<.<.<.<.c.3 e+X *.B B B B p p p p B *.*.e+e+3 H H e+S.) ) S.3 c.<. + +d d d  +| |  + +d d  + + +| | ++H H h+h+!+!+!+!+!+!+!+!+!+!+!+!+h+h+h+h+e+3 c.<.<.<.<.<.| | <.<.H H 3 3 e+e+t.t.t.<+<+<+<+X X e+e+e+e+S.S.S.S.e+3 H c.c.c.c.3 e+e+<+B B B B B *.*.t.e+e+S.S.S.S.S.S.) ) ) ) ) ) ) ) ) ) ) ) ) ) ) ) ) B B B B B p p p B B B B B B B B B B B B B B B B B *.*.B B B p p p B <+<+e+3 c.<.<.<.<.<.<.3 3 S.S.S.) ) B B B B B B B <+<+<+<+<+<+<+<+<+<+<+<+) ) ) ) <+t.e+3 c.c.c.c.3 e+S.S.) ) S.S.S.S.S.<+<+B B B B ",
"B B B B B B B p p p p p p p B *.t.t.t.t.t.t.t.e+e+e+e+t.*.B B B B B B B B B B B B *.*.*.*.*.*.B B B B B B B B B B B B B B B B B <+<+<+<+B B B B B ) ) ) ) ) ) S.S.S.S.S.S.S.) ) ) ) S.S.S.S.S.S.S.S.S.!+!+!+ . .X X X *.B B B B B B B B B B ) ) ) ) ) ) ) ) ) *.*.*.*.*.B B B B B B B B B B ) ) ) S.S.S.S.S.S.) ) ) ) ) ) ) ) ) ) S.S.) ) ) ) B B B B *.X X X X *.B B B B B B B B B B B B B B B B B B B B B B B *.*.*.*.B B B ) X X X X ) B B B ) S.X X X X <+<+<+<+<+B B p p p p p B B B B B *.<+<+<+B B B B B ) S.S.S.S.h+<. +d &+&+&+d  + +<.<.<.3 e+t.*.B B B p p p p p p B <+<+e+3 H <.<.H e+S.S.e+<.<. + +d d d d 4.N N  + + + + + + + +| | ++++H H h+h+!+!+!+!+!+!+!+!+!+!+!+h+h+h+H <.<.<. + +| | <.H H H H 3 e+e+t.t.<+*.*.B B B *.*.X X X e+e+S.S.S.S.S.e+e+e+3 3 e+e+t.<+B B B B B B *.X e+e+e+e+3 e+e+S.S.X ) ) ) ) ) ) ) ) ) ) ) ) ) ) ) ) B B B B B B B B p p p B B B B B B B B B B B B B B B B B B B B B B <+<+t.3 c.<.<.<.<.<.<.<.H H 3 S.S.S.) B B B B B B B <+<+S.S.S.S.S.) ) ) ) ) ) ) ) ) <+<+t.e+e+3 3 e+e+S.S.) B B ) <+<+<+t.<+<+B B p p ",
"B B B B B B B B p p p p p p B *.t.e+e+c.c.c.c.c.c.c.e+t.*.B B B B B B B B B B B *.*.*.*.*.X X *.B B B B B B B B B B B B B B B B <+<+<+<+B B B B ) ) ) ) ) ) ) S.S.h+h+S.S.) ) ) ) ) ) ) ) ) ) ) ) ) S.S.!+h+h+h+e+X X *.B B p p B B B B B B B ) ) ) ) ) ) ) ) ) *.*.*.*.B B B B B B B B B B B ) ) S.S.S.S.S.S.S.) ) ) ) ) ) ) ) S.S.S.S.) ) ) ) B B B B X X X X B B B B B B B B B B B B B B B B B B B B B B B B *.*.*.*.B B B *.X e+e+X *.B B ) X X e+X X B B B B B B p p p p p p p p p p p B B B B B B B B B B B B ) S.S.h+<. +d &+&+&+d d  + +<.<.3 e+<+B p p p p p p p p p B <+S.e+H <.<.<.H h+S.e+h+<. + +d d d d d 4.N N N  + + + + + + + + + +| <.H h+h+h+!+!+!+!+!+!+!+!+!+!+h+h+H <.<.<. + + + +| <.H H H 3 S.S.S.<+B B B B B p p B B *.X X X e+S.S.S.S.S.S.S.S.X <+<+<+<+B B B B B B *.X e+e+e+e+3 3 3 e+e+e+X ) ) ) ) ) ) ) ) ) ) ) ) ) ) ) ) B B B B B B B B p p p B B B B B B B B B B p p B B B B B B B B B <+<+<+e+3 c.<.<.c.c.c.c.<.<.<.H 3 S.S.) ) B B B B B B <+S.e+e+S.S.) ) ) ) ) ) ) ) ) ) ) <+<+t.e+e+e+e+e+X B B B B B B <+<+t.t.<+B p p p ",
"B B B B B B B B B p p p p p B *.t.e+c.c.c.c.c.c.c.c.e+t.<+B B B B B B B B B B B *.*.*.*.*.X X *.B B B B B B B B B B B B B B B B <+<+<+<+B B B B ) ) ) ) ) ) ) S.!+h+h+S.X ) ) ) ) ) ) ) ) ) ) ) ) ) ) S.!+h+h+h+e+X X *.B p p p B B B B B B B B ) ) ) ) ) ) ) ) *.*.*.*.B B B B B B B B B B B ) S.S.S.S.S.S.S.S.) ) ) ) ) ) ) ) S.S.S.S.) ) ) ) B B B ) X X X X B B B B B B B B B B B B B B B B B B B B B B B B *.*.*.*.B B B *.X X X X *.B B <+X e+e+X <+B B B p p p p p p p p p p p p p p p p B B B B B B B B B B B ) X e+H <. +U.d &+&+d d  +<.H e+<+<+B p p p p p p p p B B <+S.e+H <.<.<.<.h+e+e+h+<. + +d d d d d 4.4.4. + + + + + + + + + + +| | <.H H h+h+h+!+!+!+!+!+!+!+!+H H H <.<. + + + + +| H H H S.S.S.S.) B B B B p p p p p p B *.X X X S.S.S.S.S.) ) ) ) B B B B B B B B B B <+X e+e+e+3 3 3 3 e+e+e+X X ) ) ) ) ) ) ) ) ) ) ) ) ) ) ) ) B B B B B B B B p p B B B B B B B B B B p p B B B B B B B B B <+<+<+e+3 c.c.H 3 3 3 3 H <.<.H 3 e+S.S.<+B B B B B B <+e+3 3 e+S.) ) ) ) ) ) ) ) ) ) <+<+<+<+t.t.e+X X *.B B B B B B *.<+t.t.*.B p p p ",
"B B B B B B B B B B p p p p p <+t.t.e+e+e+t.t.t.t.t.t.t.*.B B B B B B B B B B B B *.*.*.*.*.*.*.*.B B B B B B B B B B B B B B B <+<+<+<+<+B ) ) ) ) ) S.S.S.S.S.S.!+S.S.X ) ) ) ) ) ) ) ) ) ) ) ) ) ) S.!+h+h+h+e+X *.B B p p p B B B B B B B B ) ) ) ) ) ) ) ) ) *.*.*.*.B B B B B B B B B ) ) S.S.S.S.S.S.S.S.) ) ) ) ) ) ) S.S.S.S.S.S.) ) ) ) ) B ) X X X *.B B B B B B B B B B B B B B B B B B B B B B B B B *.*.B B B B *.*.X X *.*.B B <+X e+e+X <+B B p p p p p p p p p p p p p p p p p p B B B B B B B B B B B X e+h+<.w+U.U.d &+&+&+d  +H S.<+B p p p p p p p p p B B <+S.S.H H <.<.H h+e+e+h+<.<. + + +d d d 4.4.4. +| | <.<.<.<.<.<.| | | | <.<.<.<.H H H H H h+h+H H H H H <.<.++|  + + +| <.H H !+S.S.S.) B B B B B B p p p p p B B *.*.X S.S.S.S.) ) ) ) ) B B B B ) ) ) ) ) <+S.S.S.e+e+e+S.e+e+e+e+e+X X ) ) ) ) ) ) ) ) ) ) ) ) ) ) ) ) B B B B B B B B B B B B B B B B B B B B B B B B B B B B B B B <+<+S.e+e+e+3 e+e+e+e+3 H H H H H 3 e+S.S.B B B B B B <+e+3 3 e+S.) ) ) ) ) ) ) ) ) S.<+<+<+<+<+<+<+<+*.B B B B B B *.*.*.<+<+*.B B p p ",
"p p B B B *.*.B B B B p p p p <+<+t.t.t.t.t.t.t.t.t.*.*.B B B B B B B B B B p p p B B B B B B *.<+<+<+B B B B B B B B B B B B B <+<+<+<+<+) ) ) ) S.S.S.S.S.!+S.S.S.S.X X X X ) ) ) ) ) ) B B ) ) ) ) S.!+h+h+e+S.X B B B p p p B B B B B B B B ) S.S.) ) ) ) ) ) ) ) <+<+<+<+B B B B B B ) ) ) S.S.S.S.S.S.S.S.) ) ) ) ) ) ) S.S.S.S.S.S.) ) ) ) ) ) ) <+<+<+<+B B B B B B B B B B B B B B B B B B B B B B B B B B B B B B B *.*.*.*.*.B B B <+X e+e+X <+B p p p p p p p p p p p p p p p p p p p p p p p p p p p p B B *.X e+c.<.<. +d &+;.;.d  +H S.B B p p p p p p p p B B B <+S.S.h+H H H h+h+e+e+e+h+<.<. + + +d d d d d  +| <.H H H <.<.<.<.<.<.| | | | | | ++++++++++++++++++++++++++++++++++<.H H H !+!+S.S.S.) B B B B B *.D.D.p p p p B B B *.X S.S.S.) ) ) ) ) ) ) ) ) ) S.S.S.S.S.S.S.S.S.S.S.S.S.S.e+e+e+X X ) ) ) ) ) ) ) ) ) ) ) ) ) ) ) ) ) ) B B B B B B B B B B B B B B B B B B B B B B B B B B B B B <+S.S.S.S.e+e+e+e+e+h+h+h+3 c.H H H 3 e+X B B B B B B t.e+3 3 e+S.) B B B B B ) ) <+<+<+<+t.t.<+<+*.B B B B B B B *.X X X X <+B B B B B ",
"p p p B *.*.*.*.B B B B p p p B <+<+<+<+<+B B B B B p p p p p p B B B B B p p p p p p B B B B B <+<+<+<+B B B B B B B B B p p B <+<+<+<+) ) ) ) S.S.S.S.S.h+h+!+S.) ) X X X X X ) ) ) ) ) B B ) ) ) ) S.h+h+h+e+S.) B B p p p p B B B B B B B ) ) S.S.S.) ) ) ) ) ) ) ) <+<+<+<+B B B B ) ) ) ) S.S.S.S.S.S.S.S.) ) ) ) ) ) ) S.S.!+!+S.S.) ) ) ) ) ) ) <+<+<+<+B B B B B B B B B B B B B B B B B B B B B B B B B B B B B B B B *.*.*.*.B B B <+X e+e+<+*.B p p p p p p p p p p p j.j.p p p p p p p p p p p p p p p p B *.*.X e+3 c.w+U.&+E.;.&+ +H S.B B p p p p p p p B B B B ) S.S.S.!+h+h+h+e+e+e+e+e+e+h+<.<. + +d d d d  +<.H 3 3 3 3 3 H H H <.<.| | | | | | | | | | | | | | | | ++++++++H H H H h+!+!+!+S.S.S.S.) B B *.*.*.*.*.p p p p p p B *.<+e+e+S.S.) ) ) ) ) ) ) ) S.S.S.S.S.S.S.S.S.S.S.S.S.S.S.e+e+e+X S.) ) ) ) ) ) ) ) ) ) ) ) ) ) ) ) ) ) ) B B B B B B B B B B B B B B B B B B B B B B B B B B B B S.S.S.S.S.<+X X e+h+h+h+e+e+3 3 H <.H e+e+<+B B B B B t.e+3 3 e+X <+B B B B B B <+<+<+<+t.t.t.<+<+B B B B B B B *.X X X X ) ) ) B B B B ",
"p p p B *.*.*.*.B B B B p p p B <+<+<+<+B p p p p p p p p p p p p B B B p p p p p p p p B B B B <+<+<+<+B B B B B B B B B p B B <+<+<+<+) ) ) ) S.S.S.S.S.h+h+S.S.S.) X X X X X ) ) ) ) ) B B ) ) ) S.S.h+H H e+S.B B B p p p p B B B B B B B ) ) S.S.S.) ) ) ) ) ) ) ) <+<+<+<+B B B B ) ) ) ) S.S.S.S.S.S.S.S.S.) ) ) ) ) ) ) !+!+!+!+S.) ) ) ) ) ) ) <+<+<+<+B B B B B B B B B B B B B B B B B B B B B B B B B B B B B B B B *.*.*.*.B B B <+X e+e+<+B p p p p p p p p p p p p j.j.p p p p p p p p p p p p p p p p p B *.*.t.e+3 <.U.&+;.;.&+ +H S.) B B p p p p p p B B B B ) S.S.S.!+!+!+h+e+e+e+e+X X e+h+<.<. +d d &+&+U.<.H e+e+e+e+e+e+3 H H <.<.| | | | | | | | | | | | | | ++++++++3+H h+h+!+!+!+!+!+S.S.S.S.) ) <+<+t.t.t.*.B p p p p p p B <+e+e+S.S.) ) ) ) ) ) ) ) S.S.S.S.S.S.S.S.S.S.S.S.) S.S.S.e+e+X X ) ) ) ) ) ) ) ) ) ) ) ) ) ) ) ) ) ) ) B B B B B B B B B B B B B B B B B B B B B B B B B B B ) S.S.S.S.) ) ) ) S.h+h+h+e+e+e+3 H H H e+e+<+B B B B B t.t.e+e+e+t.<+B B B B B B <+<+<+<+t.t.*.*.B p p p B B B B X X X X X ) ) ) ) B B B ",
"B B B B *.*.*.B B B B p p p p p B B B p p p p p p p p p p p p p p p p p p p p p p p p p B B B B B <+<+B B B B B B B B B B B B <+<+<+<+<+) ) ) ) ) S.S.S.S.!+h+S.S.S.X X X X X ) ) ) ) ) ) ) ) ) ) S.S.h+H H H 3 S.B B B p p p p B B B B B B B ) ) S.S.) ) ) ) ) ) ) ) ) <+<+<+<+B B B B B ) ) ) S.S.S.S.S.S.S.S.S.S.) ) ) ) ) ) !+!+!+!+S.S.) ) ) ) ) ) <+<+<+B B B B B B B B B B B B B ) ) B B B B B B B B B B B B B B B B B B B *.*.B B B B <+X e+e+<+B p p p p p p p p p p p p p p p p p p p p p p p p p p p p p p p p *.*.*.<+e+c. +d ;.;.d  +<.e+) B B p p p p p p B B B B ) S.S.S.!+!+!+h+e+e+e+X X X X e+H <. +U.d &+&+U.w+c.e+e+X X X S.S.S.3 H H <.<.<.<.++++++++++++++++++++++++3+3+3+3+h+h+h+!+!+!+!+!+S.S.S.S.S.S.S.e+t.t.*.B p p p p p p B <+<+S.S.S.) ) ) ) ) ) ) ) ) S.S.S.S.S.S.S.S.S.S.S.S.S.S.S.S.S.X S.X X X ) ) ) ) ) ) ) ) ) ) ) ) ) ) ) ) B B B B B B B B B B B B B B B B B B B B B B B B B B B ) S.S.S.S.) ) ) ) S.S.e+e+S.S.e+e+3 3 3 e+X B B B B B B *.t.t.t.t.<+<+B B B B B B B <+<+<+<+<+<+D.p p p p B B B *.X X X X X X ) ) ) ) ) ) ",
"<+<+<+<+B B B B B B p p p p p p p p p p p p j.j.j.j.j.j.j.j.p p p p p p p p p p p p p p B B B B B B B B B B B B B B B B *.*.*.<+<+B B ) ) ) ) ) ) ) S.S.S.S.S.S.S.S.X X X ) ) ) ) ) ) ) ) ) ) ) S.S.h+h+H H H 3 S.B B B p p p p B B B B B B B B ) ) ) ) ) ) ) ) ) ) ) ) <+<+<+<+B B B B B B ) ) S.S.!+!+!+!+!+!+!+!+S.) ) ) ) ) !+!+!+!+S.S.S.S.S.S.S.) <+B B B B B B B B B B B B ) ) ) ) ) ) ) B B B B B ) ) ) ) ) ) B B B B B B B B B B B B <+X e+e+<+B p p p p p p p p p p p p p p p p p p p p p p p p p p p p p p p p p B B B <+3 <. +d &+d  +<.3 e+<+B B p p p p p B B B B ) ) S.S.!+!+h+h+e+e+e+X X *.X X e+H <.U.U.&+&+U.w+c.3 e+X <+<+) ) S.S.e+3 H H H H H H H H H H H H H H H H H H 3+3+3+3+h+h+h+!+!+!+!+!+S.S.S.e+e+e+e+t.<+B p p p p p p B <+<+<+S.S.) ) ) ) ) B B ) ) ) ) ) ) ) ) ) ) S.S.S.S.S.S.S.S.S.X X X X X X X X ) ) ) ) ) ) X X X X X X ) B B B B B B B B B B B B B B B B B B B B B B B B B B B ) S.S.S.S.) ) ) ) S.S.S.S.S.S.S.S.e+3 e+S.S.B B B B B B B *.*.t.<+<+<+<+B B B B B B B B B B B p p p p p p B B B ) X X e+e+e+X S.S.S.S.S.S.",
"<+<+<+<+B B B B B p p p p p p p p p p p p j.j.j.j.j.j.j.j.j.j.j.j.j.p p p p p p p p p p B B B B B B B B B B B B B B B B *.*.*.*.<+B B B ) ) ) ) ) ) ) S.S.S.S.S.e+e+e+X X ) ) ) ) ) ) ) ) ) ) ) S.h+h+h+<.<.<.3 e+<+B B p p p p B B B B B B B B ) ) ) ) ) ) ) ) ) ) ) ) <+<+<+<+B B B B B B ) ) S.!+!+!+!+!+!+!+!+!+!+S.) ) ) ) !+!+!+!+S.S.S.S.S.S.S.S.<+B B B B B B B B B B B ) ) ) ) S.S.S.) B B B B ) ) ) ) ) ) ) ) B B B B B p p p B B B *.X e+e+<+B p p p j.j.j.p p p p p p p p p p p p p p p p p p p p p p p p p p p p p B <+e+<. +d d d  +<.<.e+X *.B B p p p p B B B B ) ) S.S.!+H H H 3 e+e+X *.B ) X e+3 <.w+U.&+&+U.w+<.c.e+t.<+B B B ) ) S.S.e+h+h+h+!+!+!+!+H H H H H !+!+!+!+h+h+3+3+3+3+h+h+h+h+!+!+!+!+!+h+h+3 e+e+e+<+B p p p p p p B <+<+<+S.) ) ) ) ) B B B B B B ) ) ) ) ) ) ) ) S.S.!+h+S.S.) ) S.S.e+e+X X X X X ) ) ) ) X X X X X X X X B B B B B B B B B B B B B B B B B B B B B p p p B B B ) S.S.S.S.) ) ) ) S.S.S.S.S.) ) S.S.S.S.S.<+B B B p p p B B B <+<+<+<+<+<+B B B B B B B B B p p p p p p p B B B *.X e+e+e+e+e+e+S.S.S.S.S.",
"<+<+<+<+B B B B p p p p p p p p p p p p j.j.j.j.j.j.j.j.j.j.j.j.j.j.j.j.p p p p p p p p B B B B B B B B B B B B B B B B *.*.*.*.*.B B ) ) ) ) ) ) ) ) ) S.S.S.S.S.e+e+X X ) ) ) ) ) ) ) ) ) ) ) S.h+h+H <.<.<.3 e+<+B B p p p p B B B B B B B ) ) ) ) ) ) ) ) ) ) ) ) S.<+<+<+<+B B B B B B B ) S.!+!+!+!+!+!+!+!+!+!+!+S.) ) S.!+!+!+!+S.S.S.S.S.S.S.S.) B B B B B B B B B B B ) ) ) S.S.S.S.S.B B B B ) ) ) ) ) ) ) ) ) B B B p p p p B B B *.X e+e+<+B p p p j.j.j.j.p p p p p p p p p p p p p p p p p p p p p p p p p p p p B B X 3 <. + + + +<.<.c.e+X *.B B B B B B B ) ) ) S.S.!+H H H H 3 e+e+X <+B B ) S.e+<.w+U.&+&+U.w+<.c.e+e+<+) B ) ) ) S.S.S.S.!+!+!+!+!+!+!+!+!+!+!+!+!+!+!+!+h+H 3+++++H H h+h+h+!+!+!+h+H H h+3 e+e+<+B p p p p p p B <+<+<+<+) ) ) ) B B B B B B B B ) ) ) ) ) ) ) S.S.S.S.S.S.) ) S.S.e+e+X X X X X ) ) ) ) X X X X X X X X ) B B B B B B B B B B B B B B B B B B B p p p p B B B ) S.S.S.S.) ) ) ) S.S.S.S.) ) ) S.S.S.S.S.) B B B p p p p B B B B <+<+<+<+B B B B B B B B B p p p p p p p B B B <+X e+e+e+e+e+e+e+S.S.S.S.",
"t.<+<+<+B B B p p p p p p p p p p p p j.j.j.j.j.j.j.j.j.j.j.j.j.j.j.j.j.j.p p p p p p p B B B B B B B B B B B B B B B B *.*.*.*.*.*.<+X X X S.S.) S.) ) S.S.S.S.S.X X X X ) ) ) ) ) ) ) ) ) ) ) S.!+h+H <.<.<.<.e+S.B B p p p p B B B B B B ) ) ) ) ) ) ) ) ) ) ) ) ) S.S.<+<+<+B B B B B B B ) S.!+!+!+!+!+!+!+!+!+!+!+!+S.S.!+!+!+!+!+!+S.S.S.S.S.S.S.) B B B B B B B B B B ) ) ) S.S.S.S.S.S.) B B B ) ) ) ) ) ) ) ) ) B B B B p p p B B B *.t.t.t.<+B p p p j.j.j.j.p p p p p p p p p p p p p p p p p p p p p p p p p p p p p B <+e+H <. + + + +w+<.c.e+t.<+B B B <+<+S.S.S.S.S.!+h+H <.<.<.H 3 e+S.<+B B ) S.e+H w+U.U.U.U.w+<.c.3 e+S.S.S.) ) ) S.S.S.S.!+!+!+!+h+h+h+h+h+h+h+h+h+h+!+h+h+h+h+h+H <.<.<.H h+h+!+!+!+H H h+3 e+S.<+B p p p p p p B <+<+<+<+<+) ) B B B B B B B B B B ) ) ) ) ) ) ) S.S.S.S.S.S.S.S.S.S.X X X X X ) ) ) ) ) X X X X X X X X S.) ) ) ) ) B B B B B B B B B B B B B B p p p B B B B ) S.S.S.S.) ) ) ) ) S.S.) ) ) ) ) S.S.S.<+B B B B p p p p B B B B B <+<+B B B B B B B B B B B p p p p p B B B B ) X e+e+e+e+e+e+e+e+S.S.S.",
"t.*.*.*.B B p p p p p p p D.D.p p p j.j.j.j.j.j.j.p p j.j.j.j.j.j.j.j.j.j.j.p p p p p p B B B B *.*.*.B B B p p p p p p B B *.*.<+X X X X X S.S.S.S.S.S.) ) ) <+<+<+*.X X X X X S.S.S.) ) ) ) ) ) S.h+H <.<.<.<.3 S.<+B B p p p B B B B B ) ) ) ) ) ) ) ) ) ) ) ) S.S.S.S.S.<+<+B B B B B B B ) S.!+!+!+!+!+!+!+!+!+!+!+!+!+!+!+!+!+!+!+!+!+!+S.S.S.S.S.) B B B B B B B B B B ) X S.S.S.S.S.S.S.B B B B ) S.S.) ) ) ) ) ) X *.B B p p p B B B *.t.t.t.*.B p p p j.j.j.j.p p p p p p p p p p p p p p p p p p p p p p p p p p p p p p B X e+h+<. + +U.U.w+<.c.e+t.<+<+<+S.S.S.S.S.!+h+H H <.<.<.<.H 3 e+S.<+B B ) S.3 H <. + + + +w+<.<.c.3 3 S.S.S.S.S.S.S.h+h+h+h+h+h+h+h+3+3+3+3+3+H h+h+h+e+h+h+h+h+H <.<.<.<.H h+h+!+!+!+!+!+S.S.S.<+B p p p p p p B <+<+<+<+<+B B B B B B B B B B B B B B ) ) ) ) ) ) ) ) S.S.S.S.S.S.S.X X ) ) ) ) ) ) ) ) X X X X X S.S.S.S.S.S.S.S.S.) ) B B B B B B B B B B p p B B B B B B B ) S.S.S.S.) ) ) ) ) ) ) ) ) ) ) ) S.<+<+<+B B B B p p p p B B B B B B B B B B B B ) ) ) B B B B B B B B B B B B ) X e+h+h+h+h+3 3 e+e+e+e+",
"*.*.*.*.B p p p p p p p D.D.D.D.p j.j.j.j.j.j.j.p p p p j.j.j.j.j.j.j.j.j.j.j.p p p p p B B B B *.X X *.B B p p p p p p p p B *.*.X e+e+e+e+e+S.S.S.S.S.) B B B B B B ) X X X X S.S.S.S.) ) ) ) ) ) S.h+<.| <.<.H e+S.<+B B p p B B B B ) ) ) ) ) ) ) ) ) ) ) ) S.S.S.S.S.S.S.<+B B p p B B B ) S.!+!+!+!+!+!+!+!+!+!+!+!+!+!+!+!+!+!+!+h+h+h+h+S.S.S.S.) B B B B B B B B B B ) X h+h+!+S.S.S.S.) B B ) ) S.S.S.) ) ) ) X X X *.B p p p B B B *.t.t.t.*.B p p p j.j.j.j.p p p p p p p p p p p p p p p p p p p p p p p p p p p p p p B B ) e+H <. +U.U.U.w+c.c.e+e+S.S.S.3 3 H H H H H <.<.| | <.<.3 3 S.<+B ) S.S.H H <.| |  +| <.<.<.<.H H H h+h+h+h+h+h+h+h+h+h+h+h+h+3+++++++++++++H h+e+e+S.S.S.h+h+<.| | <.<.H h+h+!+!+!+!+S.S.S.<+B p p p p p p D.<+t.t.<+<+B B B B B B B B B B B B B B ) ) ) ) ) ) ) ) ) S.S.S.S.S.) ) ) ) ) ) ) ) ) ) ) X X X X X S.S.S.S.S.S.S.S.S.S.) B B B B B B B B B p p p B B B B B B B ) S.S.S.S.) ) ) ) ) ) ) ) ) ) ) ) <+<+<+<+B B B B p p p p B B B B B B B B B B B ) S.S.S.) B B B B B B B B B B B ) X h+h+h+H H H 3 3 e+e+e+",
"*.*.*.B p p p p p p p p D.D.D.D.p j.j.j.j.j.j.j.p p p p p j.j.j.j.j.j.j.j.j.j.j.p p p p B B B B *.X X *.B B p p p p p p p p B *.*.e+e+e+e+e+e+S.S.S.S.) <+B B B B B B *.X X X X S.S.S.S.) ) ) ) ) ) S.h+<.<.| <.H H S.S.<+B B B B B B B ) ) ) ) ) ) ) ) ) ) ) ) S.S.S.S.S.S.S.<+B B p B B B ) ) S.!+!+!+!+!+!+!+!+!+!+!+!+!+!+!+!+!+!+!+h+h+h+h+S.S.S.) ) B B B B B B B B B ) X S.h+h+h+S.S.S.) ) B B ) ) S.S.S.) ) ) ) X X X *.B p p p B B B *.<+t.t.<+B p p p p j.j.p p p p p p p p p p p p p p p p p p p p p p p p p p p p p p p p B B ) e+<. +U.d U.U.<.<.c.3 3 e+3 3 H H H H H H <.<.| | <.<.3 3 S.<+B ) S.S.H H H | | | | <.<.<.<.H H H H h+h+h+h+h+h+h+h+h+h+h+h+h+3+++++++++H H h+e+e+X ) ) S.h+<.<.| <.<.H h+h+!+!+!+!+S.S.S.<+B p p p p p p B <+t.t.t.<+B B B B B B B B B B B B B B B ) ) ) ) B B B ) ) S.S.S.) ) ) ) ) ) ) ) ) ) ) ) X X X X S.S.S.S.S.S.S.S.S.S.S.) ) B B B B B B B B p p B B B B B B B B ) S.S.S.S.) ) ) ) ) ) ) ) ) ) ) S.<+<+<+<+B B B B p p p B B B B B B B B B B B B <+S.S.S.S.) B B B B B B B B B B ) X h+h+H H H H H 3 e+e+e+",
"*.*.B B p p p p p p p p D.D.D.D.p p j.j.j.j.j.j.p p p p p p j.j.j.j.j.j.j.j.j.j.p p p p p B B B *.*.*.B B B p p p p p p p p B B X X e+e+e+X X S.S.S.<+<+B B B B B B *.*.*.X X X S.S.S.) ) ) ) ) ) ) S.h+H <.<.<.<.H H S.S.<+B B B B B B B ) ) ) ) ) ) ) ) ) ) ) S.S.S.S.S.S.S.<+B B B B B B ) S.S.h+h+h+!+!+!+!+!+!+!+!+!+!+!+!+!+!+!+h+h+h+h+h+S.S.) ) ) ) B B B B B ) ) ) X S.h+h+h+h+S.S.S.) ) ) ) ) X S.S.S.) ) ) ) X X X X B B p p p B B B <+<+<+<+B p p p p p p p p p p p p p p p p p p p p p p p p p p p p p p p p p p p p p p p B B S.<.w+U.d d U. + +<.<.H 3 3 H H H !+!+h+H H <.<.<.<.<.3 3 S.S.) ) S.S.H H H H | <.<.<.<.<.<.<.<.H H H h+h+h+h+h+h+h+h+h+h+h+h+h+h+H H H h+h+e+X <+B B B ) e+H <.<.<.<.<.H H h+!+!+!+S.S.S.S.B p p p p p p B <+t.t.t.<+B B B B B B B B B B B B B B B B ) ) ) B B ) ) ) S.S.) ) ) ) ) ) ) ) ) ) ) ) ) ) X X X S.S.S.) ) S.S.S.S.S.S.S.) ) B B B B B B B B B B B B B B B B ) S.S.S.S.S.) ) ) ) ) ) ) ) ) ) S.S.<+<+<+<+B B B B B B B B B B B B ) ) ) ) ) ) <+S.S.S.S.S.) ) B B B B B B B B B ) X e+h+H <.<.<.<.c.3 3 e+",
"B B p p p p p p p p p p D.<+<+D.p p p j.j.j.j.j.p p p p p p p j.j.j.j.j.j.j.j.j.p p p p p p B B B B B B B B B p p p p p p B B B X X X X X X <+<+<+) B B *.*.*.*.*.*.X *.*.*.) ) ) ) ) ) ) ) ) ) ) ) S.e+h+H <.<.<.H H H S.S.<+B B B B B B B B ) ) ) ) ) ) ) ) ) S.S.S.S.S.S.S.<+B B B B B ) ) S.h+H H H h+S.S.S.S.S.S.S.S.S.S.!+!+!+h+h+H h+h+S.S.) ) ) ) X X ) ) ) ) ) ) S.S.h+h+h+h+h+S.S.) ) ) ) ) ) X X X X ) ) ) ) S.S.S.) B B p p p p B B <+<+<+<+B p p p p p p p p p p p p B B p p p p p p p p p p p p p p p p p p p p p p p p p p B <+3 <. +d d d d  + +<.<.H H 3 3 S.S.S.S.e+h+<.<.<.<.c.3 3 S.S.) ) S.S.H H H H H H <.<.<.<.<.<.<.<.H H h+h+h+h+S.S.S.S.S.S.!+h+h+h+h+h+e+e+e+<+<+B B B B B X e+H <.<.<.<.<.H h+!+S.S.S.S.S.S.B B p p p p p <+<+t.t.t.<+B B B ) ) ) ) B B B B B B B B B B B B ) ) ) ) ) ) ) ) ) ) ) ) ) ) ) ) ) ) ) ) ) ) ) ) ) ) ) B ) ) ) ) X X X X ) ) ) B B B B B B B B B B B B B ) ) S.S.S.S.S.S.) ) ) ) ) S.S.S.S.S.S.S.<+<+<+<+B B B B B B B B B ) ) ) ) ) S.S.S.S.S.S.S.S.S.S.S.) ) ) ) ) ) B B B B ) X e+3 H <.<.<.<.c.c.c.c.",
"p p p p p p p p p p p B <+<+<+<+p p p p j.j.j.j.p p p p p p p p j.j.j.j.j.j.j.j.p p p p p p p B B B B B B B B B p p p p B B B B X X X X *.B B B B B B B *.*.*.*.X X X X *.B B B ) ) ) ) ) ) ) ) ) ) ) S.h+h+H <.<.| <.H H S.S.<+B B B B B B B ) ) ) ) ) ) ) ) ) S.S.S.S.S.S.S.S.B B B B B ) S.e+h+H H H 3 S.S.S.S.e+e+S.S.S.S.S.!+h+h+h+H H h+S.S.) B ) X X X X ) ) ) S.S.h+h+h+h+h+h+!+S.) ) ) ) ) ) ) X X X X ) B ) ) S.S.S.S.B B p p p p p B <+<+<+<+B p p p p p p p p p p p B B B B p p p p p p p p p p p p p p p p p p p p p p p p p B <+e+<. + +d d d d  + +<.<.H 3 3 S.S.S.S.S.e+c.c.c.c.c.3 3 S.S.S.S.S.!+H H H H H H <.<.<.<.<.<.<.<.<.H h+h+h+S.S.S.S.S.S.S.S.S.S.S.S.S.S.S.<+<+B p p p p B <+e+e+H <.<.| | <.h+S.S.S.!+h+e+S.<+B p p p p B <+t.e+e+S.<+B B ) ) S.S.) ) B B B B B B B B B B B ) ) ) ) ) ) ) ) ) ) ) ) ) ) ) ) ) ) ) ) ) ) ) ) ) B B B B B B ) X X X X ) ) ) ) B B B B B B B B B B B B ) S.S.S.S.S.S.S.) ) ) ) S.S.S.S.S.S.S.S.<+<+<+<+B B B B B B B B B ) ) ) S.S.S.S.S.S.S.S.S.3 e+S.S.) ) ) ) ) ) ) B B B *.X e+3 c.<.<.w+<.c.c.c.c.",
"p p p p p p p p p p p B <+<+<+<+B p p p j.j.j.p p p p p p p p p p j.j.j.j.j.j.p p p p p p p p p B B B B B B B B p p p p B B B B *.X X *.B B B B B B B *.*.*.*.X X X X X B B B B ) ) ) ) ) ) ) ) ) ) ) ) S.h+h+H ++| | H H 3 S.S.<+B B B B B B ) ) ) ) ) ) ) ) ) S.S.S.S.S.S.S.S.) B B B B ) S.e+H <.<.H 3 S.S.S.e+e+e+S.S.S.S.S.!+h+h+h+H H h+S.S.) ) ) X X X X ) ) S.S.h+h+h+h+h+h+h+S.S.) ) ) ) ) ) ) X X X X B B B ) S.!+S.S.) B p p p p p B <+<+<+<+B p p p p p p p p p p p B B B B p p p p p p p p p p p p p p p p p p p p p p p p p p B e+H <. + +d d d  + +<.<.H 3 3 S.S.S.S.S.e+3 c.c.c.c.3 3 3 S.S.S.h+h+H H H H H H H H <.<.<.<.<.<.<.H h+h+h+S.S.S.S.S.S.S.S.S.S.S.S.S.<+<+<+B p p p p p p B *.e+e+<.<.| | <.h+S.S.S.h+h+h+e+X <+B B B B <+<+e+3 3 S.S.) ) ) S.S.S.S.) B B B B B B B B B B B ) ) ) ) ) ) ) ) ) ) ) ) ) ) ) ) ) ) ) ) ) ) ) ) ) B B B B B B ) X X X X ) ) ) ) B B B B B B B B B B B ) S.S.S.S.S.S.S.S.) ) ) ) S.S.S.S.S.S.S.S.<+<+<+<+B B B B B B B B ) ) ) ) S.S.S.S.S.S.S.S.S.3 e+S.S.) ) ) ) ) ) ) B B B B *.X e+3 c.<.<.<.c.c.c.c.",
"p p p p p p p p p p B B B <+B B B p p p j.j.j.p p p p p p p p p p p j.j.j.j.p p p p p p p p p p B B B B B B B B B B p p B B B B B *.*.B B B B B B B B *.*.*.*.X X X X X B B B B B ) ) ) ) ) ) ) ) ) ) ) ) S.h+H H | | | H H 3 e+S.X *.B B B B ) ) ) ) ) ) ) ) ) S.S.S.S.S.S.S.S.<+B B B B ) S.e+H <.<.H 3 S.S.S.e+e+e+e+X S.S.S.h+h+h+H H H 3 S.S.X X X X X X X S.S.S.h+h+h+h+h+h+h+e+S.S.S.S.) ) ) ) ) X X X ) B B B ) S.!+!+S.) B p p p p p B <+<+<+<+B B p p p p p p p p p p B B B B p p p p p p p p p p p p p p p p p p p p p p p p p p B <+e+H <.|  + + +| <.<.H 3 3 3 S.S.S.S.S.e+3 c.c.<.<.<.<.H h+h+h+H H <.<.<.H H H H h+h+H H H H H H H H h+h+S.S.S.S.e+3 3 e+S.S.S.S.S.t.t.<+<+p p p p p p B *.X e+<.<.| | <.h+S.S.S.h+h+h+3 e+e+t.t.t.t.e+e+3 3 3 S.S.S.S.S.S.S.S.S.S.) ) <+<+<+<+B B B B B B ) ) ) ) ) ) ) ) ) ) ) ) ) ) ) ) ) ) ) ) ) ) ) ) ) ) ) B ) ) ) ) X X X ) ) ) ) B B B B B B B B B B B ) S.S.S.S.S.S.S.S.) ) ) ) S.S.S.S.S.S.S.S.<+<+<+<+B B B B B B B <+<+) ) S.S.S.S.S.S.S.S.S.S.S.S.S.S.S.) ) ) ) ) B B B B B B <+t.e+3 c.c.c.c.c.c.c.",
"p p p p p B B B B B B B B B B B p p p p j.j.j.p p B B B B B B p p p p p p p p p p p p p p p p p B B B B B *.*.B B B B B p p B B B B B B B p p B B <+<+<+*.X X X X X X X ) B B B B B B B B B B ) ) ) ) ) ) S.!+H H | | | <.H H e+e+e+X ) ) ) ) ) ) ) ) ) ) ) ) ) S.S.S.S.S.S.S.X <+B B B B <+S.e+c.<.<.H 3 S.S.S.e+e+e+e+e+S.S.e+h+h+H H H 3 S.S.S.S.X X S.S.S.S.S.S.h+h+h+H H H h+e+S.S.S.S.S.S.S.S.S.S.) ) ) ) B B B ) S.!+!+S.) B B p p p p B <+<+<+<+B B B p p p p p p p p p B B B B p p p p p p p p p p p p p p p p p p p p p p p p p p p *.X e+3 H <.<.<.<.h+h+e+e+h+h+!+!+!+!+!+h+H <.<.<.<.<.<.<.H H H ++++| | <.H H h+h+h+e+e+e+3 3 3 H H H H h+e+S.S.S.3 3 3 3 e+S.S.S.e+e+t.t.<+p p p p p p B *.*.e+c.<.| | <.h+S.S.S.h+H H H c.3 3 3 3 3 3 3 3 H H 3 S.S.S.S.!+!+S.S.S.S.S.S.S.X X *.B B B B B B ) ) ) ) ) ) ) ) ) ) S.X X X ) ) ) ) ) S.S.S.S.S.S.S.S.S.) ) ) ) ) ) ) S.S.) ) B B B B B B B B B B ) S.S.S.S.S.S.S.S.) ) ) ) S.S.S.S.S.S.S.S.<+<+<+<+B B B B B <+<+<+<+<+<+<+<+<+<+<+<+<+<+<+<+<+<+<+<+<+<+<+*.*.*.*.B B B B B B <+<+t.e+3 c.c.c.c.c.",
"p p p p B B B B B B B B B B B B p p p p j.j.p p D.<+<+<+B B B B p p p p p p p p p p p p p p p p B B B B *.*.*.*.B B B B p p p p p p p p p p p B <+<+<+<+X X X X e+e+e+X *.B B B B B B B B B B ) ) ) ) ) ) ) S.h+H | | | <.<.<.c.e+e+e+X ) ) ) ) ) ) ) ) ) ) ) ) S.S.S.S.e+e+e+X <+B B B <+<+S.3 c.<.<.H 3 e+S.S.e+h+h+h+e+e+e+e+h+H H H 3 S.S.S.S.e+e+e+S.S.S.S.h+h+h+h+H <.<.H 3 e+S.S.e+e+e+e+!+!+!+S.S.) ) ) B B B ) S.h+h+S.) B B B p p p D.<+t.t.*.*.B B B p p p p p p p p B B B B p p p p p p p p p p p p p p p p p p p p p p p p p p p B B <+X S.e+e+h+e+S.S.S.S.h+h+H !+!+!+!+h+H <.<.<.<.|  +| ++++++++| | | <.<.H h+h+S.S.S.S.S.S.3 3 H <.H h+e+S.S.e+3 H H 3 3 S.S.e+e+3 e+t.<+p p p p p p B *.*.e+c.<.| | <.h+S.S.e+h+H <.<.<.<.<.<.<.H H H H H H h+!+!+!+!+!+!+!+S.S.S.S.S.S.e+X X B B B B B B B ) ) ) ) ) ) ) ) S.X X X X ) B B ) ) S.S.S.S.S.S.S.S.S.S.) ) B B ) S.S.S.) ) B B B B B B B B B B ) S.S.S.S.S.S.S.S.) B B ) S.S.S.S.S.S.S.S.<+<+<+<+B B B B <+<+<+<+<+<+<+<+<+<+<+<+<+B B <+<+<+<+<+<+<+<+<+*.*.*.*.B B B B B B B B <+<+t.e+3 c.c.c.",
"p p p p B B B B B B B B B B B B p p p p j.j.p p <+<+<+<+<+B B B B p p p p p p p p p p p p p p p B B B *.*.*.*.*.*.B B B B p p p p p p p p p B B <+<+<+S.e+X e+e+e+e+X X ) B B B B B B B B B B ) ) ) ) ) ) ) S.h+H | | | <.<.<.<.3 3 e+S.S.S.) ) ) ) ) ) ) ) ) ) S.S.S.S.e+e+e+X <+B B B <+<+S.3 c.<.<.H 3 e+S.S.e+h+h+h+h+3 3 h+H H H !+S.S.S.S.S.e+e+e+e+e+e+e+h+h+h+H H <.<.H 3 e+e+e+3 3 h+h+h+!+!+!+S.) ) ) B B B ) S.h+h+S.S.) B B p p p B *.*.*.*.B B B B p p p p p p p p B B B B B p p p p p p p p p p p p p p p p p p p p p p p p p p p B B B ) ) ) ) ) ) ) S.S.S.h+h+!+!+!+H H <.<.<. + + + + +| ++++| | | | <.<.h+h+h+S.S.S.S.S.S.e+3 H <.<.H e+S.S.e+3 H H 3 e+S.S.e+e+e+e+t.*.p p p p p p B *.*.e+c.<.| | <.h+S.S.S.e+H <.<.<.<.<.<.<.<.<.H H H H !+!+!+!+!+!+!+!+!+S.S.S.S.S.e+X X B B B B B B B B ) ) ) ) ) ) ) S.X X X X ) B B ) ) S.S.S.S.S.S.S.S.S.S.) ) B ) ) S.S.S.S.) B B B B B B B B B B ) ) S.S.S.S.S.S.) ) B B ) S.S.S.S.S.S.S.S.<+<+<+<+B B B B <+<+<+<+<+<+<+<+<+<+<+<+B B B B <+<+<+<+<+<+<+t.t.*.*.*.*.B B B B B B B *.<+t.t.e+c.c.c.",
"p p p B B B B B B B B B B B B B p p p p p p p B <+S.S.S.) ) B B B B p p p p p p p p p p p p p B B B *.*.*.*.*.*.*.*.B B B B p p p p p p B B *.<+<+S.S.e+e+e+e+e+e+S.X X B B B B B B B B B B ) ) ) ) ) ) ) S.S.!+H H | | | <.<.<.H H 3 e+S.S.S.S.) ) ) ) ) ) ) ) ) S.S.S.e+e+e+X *.B B B B <+S.e+c.<.<.<.3 e+e+e+e+e+h+h+H H H H H h+!+!+S.S.S.S.S.e+e+e+e+3 3 h+h+h+h+H H H H 3 3 e+h+H <.<.<.<.H h+!+!+S.) ) ) B B ) S.S.h+h+e+S.) B B B p p B *.*.*.*.B B B B p p p p p p p p B B B B B p p p p p p p p p p p p p p p p p p p p p p p p p p p B B B B ) ) ) ) ) ) S.S.S.S.S.!+!+h+H <.<.|  + + + + + + +| | | ++<.<.<.h+h+h+h+e+e+e+e+S.S.e+3 <.<.<.H e+S.S.e+3 3 3 3 e+S.S.S.e+e+t.t.*.p p p p p B B *.t.e+<.<.| | <.h+S.S.S.e+h+h+H H H H H H H h+h+h+h+!+!+!+!+!+!+!+!+!+!+S.S.S.S.S.X X *.B B B B B B B B ) ) ) ) ) ) ) ) S.X X X ) ) ) ) ) S.S.S.S.S.S.S.S.S.S.) ) ) ) ) S.S.S.S.) B B B B B B B B B ) ) ) S.S.S.S.S.S.) ) ) ) ) S.S.S.S.S.S.S.<+<+<+<+<+B B B B <+<+<+<+<+<+<+<+<+<+<+B B B B B <+<+<+t.t.t.t.t.*.*.*.*.*.*.<+<+*.*.*.*.t.t.t.t.e+e+c.c.",
"B B B B B B B B B B B B B <+<+B p p p p p p p B S.S.S.S.S.) ) B B B B p p p p p p p p p p p p B B *.*.*.*.*.*.*.*.X X <+B B B p p p p B B <+X S.e+e+e+e+h+h+h+e+S.S.) ) B B B B B ) ) ) ) ) ) ) ) X X X S.S.S.!+H H <.| | | <.<.H H H h+h+!+S.S.) ) ) ) ) ) ) ) ) ) S.S.e+e+e+X *.B B B B ) S.e+H <.<.<.3 e+e+e+e+e+e+h+<.<.<.<.H h+S.S.S.!+S.S.S.S.e+e+3 H H H H H H H H 3 3 3 h+h+h+<.<. + +<.<.h+h+!+S.) ) ) B B ) S.S.h+h+h+S.S.<+B B p p p B B B B B B B B p p p p p p p p B B B B B B B B B B B p p p p p p p p p p p p p p p p p p p p p B B B B ) ) ) ) ) S.S.S.S.S.S.S.!+H H <.|  + + + + + + + + +| ++<.H h+h+h+e+e+e+h+h+3 3 e+e+e+3 <.<.<.H 3 S.S.e+e+3 e+e+S.S.<+<+<+t.<+*.B p p p p B B <+<+e+3 <.<.| | <.h+S.) ) S.e+e+e+e+e+e+e+e+e+h+h+!+!+!+!+!+o S.!+!+!+!+!+S.S.S.) ) <+<+B B B B B B B B B ) ) ) ) ) ) ) ) ) ) ) ) ) ) ) ) ) ) ) ) ) ) ) ) ) ) ) ) ) ) ) ) S.S.S.S.) B B B B <+<+<+) ) ) ) ) ) ) ) ) ) ) ) ) ) ) ) S.S.S.S.S.S.<+<+<+<+<+<+B B B B <+S.S.<+<+<+<+<+<+<+B B B B B B *.*.*.*.*.*.*.*.t.t.t.t.t.X X t.t.t.t.t.t.e+e+e+t.t.t.t.",
"B B B B B B B B B B B B <+<+<+<+B p p p p p B <+S.e+e+S.S.) ) ) B B B B p p p p p p p p p p p B *.*.X *.*.B B *.X X X X *.B B B p p p B <+X e+e+e+h+h+h+h+h+h+S.S.S.) ) B B B B ) ) ) ) ) ) ) ) X X X X S.S.S.S.H H H <.| | | <.H H H H H H h+S.S.) B B ) ) ) ) ) ) ) S.S.e+e+X <+B B B ) ) S.e+H <.<.H 3 e+e+e+e+e+e+H <.<.<.<.h+S.S.S.S.!+!+!+S.S.e+3 H <.<.H H H H H 3 3 S.S.h+h+H <. + + + +<.H h+!+S.) ) ) B B ) S.S.h+H h+S.S.S.<+B p p p B B B B B B B B p p p p p p p p B B B B B B B B B B B B p p p p p p p p p p p p p p p p p p p p B B B B ) ) ) ) S.S.S.S.) ) ) S.S.H H |  + +d d  + + + + + +| <.H h+e+S.e+e+e+3 H H H 3 3 e+e+3 H <.<.H 3 S.S.S.e+e+e+e+X B B B B B B B B p p p B B B <+S.e+3 <.<. +| <.h+S.) ) ) S.S.S.S.S.S.S.S.S.S.S.o o o o o ) ) S.!+!+!+!+S.) ) ) ) B B B B B B B B B B B ) ) ) ) ) ) ) ) ) ) ) ) ) ) ) ) ) ) ) ) ) ) ) ) ) ) ) ) ) ) ) S.S.h+e+S.) B B B <+<+<+<+) ) ) ) ) ) ) ) ) ) ) ) ) ) ) ) S.S.S.S.S.<+<+<+<+<+<+<+B B B <+S.S.S.S.<+<+<+<+<+B B B B B B B *.*.*.*.*.*.*.*.t.t.t.t.e+e+e+e+e+c.c.c.c.c.c.e+e+t.t.t.",
"B B B B B B B B B B B B <+<+<+<+B p p p p p B ) S.h+h+!+S.) ) ) B B B B p p p p p p p p p p p B B *.*.*.B B B <+X X e+X X <+B B B B B <+X e+e+e+h+h+h+h+h+h+h+S.S.) ) ) B B B B ) ) ) ) ) ) ) ) X X X X S.S.S.S.h+H H H | | | | H H H H H H H e+S.) B B ) ) ) ) ) ) ) ) X S.X <+B B B B ) ) S.e+3 H <.H 3 e+e+e+e+e+e+<.<.<.<.<.h+S.) ) S.!+!+!+!+3 3 H H <.<.H H H H 3 S.S.S.S.S.h+H <. + + + +<.h+h+S.) ) ) ) B B ) S.S.H H H !+S.S.<+B p p p B B B B B B B B B p p p p p p B B B B B B B B B B B B B p p p p p p p p p p p p p p p p p p p p B B B B ) ) ) ) S.S.S.<+B B ) S.S.H <.|  +d d d d  + + + + +<.<.h+S.S.S.S.e+e+3 H <.H c.e+e+e+e+3 H H H e+S.S.S.S.e+e+X *.B B B B B B B B B B B B B B S.e+3 H <.<.| | <.h+S.) ) ) ) ) ) ) ) ) ) ) ) ) ) o o o o o ) S.S.!+!+!+!+S.) ) ) B B B B B B B B B B B B ) ) ) ) ) ) ) ) ) ) ) ) ) ) ) ) ) ) ) ) ) ) ) ) ) ) ) ) ) ) ) S.S.!+S.S.) B B B <+<+<+<+) ) ) ) ) ) ) ) ) ) ) ) ) ) ) ) S.S.S.S.S.<+<+<+<+<+<+<+<+B B <+S.S.S.S.<+<+<+<+<+B B B B B B B *.*.*.*.*.*.*.*.t.t.t.t.e+e+e+e+c.c.c.c.c.c.c.c.3 e+t.t.",
"B B B B B B B B B B B B B <+<+B B B p p p B B ) S.h+h+!+S.) ) ) B B B B p p p p p p p p p p p B B *.*.B B B B B <+X X e+e+e+e+<+<+<+<+<+e+e+3 h+H H H h+h+h+!+S.S.) ) ) ) ) B ) ) ) ) ) ) ) ) ) ) X X X S.S.S.S.h+h+H H <.| | H H H H H H H H h+e+S.<+) ) ) ) ) ) ) ) ) X X X <+B B B B ) ) ) S.e+3 3 3 e+e+e+e+e+e+e+<.<.<.<.<.h+S.) ) S.S.!+!+H H H H H <.H H 3 3 3 S.S.S.S.S.S.h+h+<.<.<.<.<.H h+S.S.) ) ) ) B B ) S.S.H H H h+S.S.S.B B p p B B B B B B B B B p p p p p p B B B B B B B B B B B B B B p p p p p p p p p p p p p p p p p p p B B B B B ) ) ) ) <+<+B B B B ) S.3 <. +d &+&+&+d d  + +| <.<.H e+S.S.S.S.S.e+e+3 3 3 e+e+e+e+e+e+e+e+e+S.S.S.S.S.S.) ) B B B B B B B B B B B B B B ) S.3 H <.<.| <.<.<.h+S.) ) ) ) ) ) ) ) ) ) ) ) ) ) ) o o o S.S.S.!+h+h+h+!+S.) ) ) B B B B B B B B B B B B ) ) ) ) ) ) ) ) ) ) ) ) ) ) ) ) ) ) ) ) ) ) ) ) ) ) ) ) ) ) S.S.S.S.S.X ) B B B B <+<+<+) ) ) ) ) ) ) ) ) ) ) ) ) ) ) ) ) S.S.S.S.S.<+<+<+<+<+<+<+<+<+<+S.S.S.<+<+<+<+<+<+B B B B B B *.*.*.*.*.*.*.*.*.*.t.X e+e+e+e+3 3 c.c.<.<.<.c.c.c.3 e+e+",
") ) ) ) ) ) ) B B B B B B B B B B B B B B B B ) S.h+h+!+S.) ) ) B B B B p p p p p B B p p p p p B B B B B B B B B *.X e+e+e+e+e+e+S.S.S.3 3 H H H <.H H h+S.S.S.) ) ) ) ) ) ) ) ) B B B B B B B B B ) ) ) ) S.S.!+h+H H H H H H H H H H H H H H h+e+X <+) B ) ) ) ) ) ) ) ) B B B B B B B ) ) S.S.3 3 e+e+e+e+e+e+e+3 H <.<.<.<.h+S.) ) S.S.!+H H H H H H H 3 3 3 e+S.S.S.S.S.S.S.S.h+h+H H H h+h+S.S.) ) ) ) ) B B ) S.S.H H H h+h+S.S.B B p p B B B B B B B B B B B B B B B B B B B B B ) ) B B B B B B B B B B B B p p p p p p p p p p p p p B B B B B B B B B B B B B B B ) S.3 <. +d &+&+&+&+d  + +<.<.h+e+S.S.S.S.S.S.e+e+e+e+e+e+e+X X S.S.S.S.S.S.) ) ) ) ) ) ) B B B B B X X X <+<+<+) ) ) S.e+H <.<.| <.<.<.<.h+S.) ) ) ) ) ) ) ) ) ) ) ) ) ) ) S.S.S.S.!+h+h+h+H H h+S.) ) ) B B B B B B B B B B B B ) ) ) ) ) o o ) ) S.S.) ) ) ) ) ) ) ) ) ) ) ) ) ) S.S.S.S.S.S.S.S.S.) ) ) B B B B B B ) ) ) ) ) ) S.S.) ) ) ) ) ) ) ) ) ) ) ) S.S.S.S.<+<+<+<+<+<+X X S.S.<+<+<+<+<+B <+<+<+<+<+<+<+<+<+<+) ) *.*.*.*.*.*.X X X e+e+e+3 3 H <.<.<.<.<.<.<.3 3 3 ",
") ) ) ) ) ) ) ) B B B B B B B B B B B B B B B S.e+H H h+S.) ) ) B B B B p p p p B B B B p p p p p p p B B B B B B B <+e+e+c.c.c.3 3 3 3 3 H H H H <.H h+e+S.) ) ) ) ) ) ) ) ) ) B B B B B B B B B B B ) ) ) ) S.!+h+h+H H H H H H !+!+H 3+++++H h+e+e+X *.B B ) ) ) ) ) ) B B B B p B B B ) ) S.S.S.S.e+e+e+e+e+3 3 3 H <.<.<.H e+S.) ) S.S.S.H H <.<.H H 3 3 3 e+S.S.S.S.) ) S.S.S.S.S.S.e+S.S.S.) ) ) ) ) ) ) B B ) S.S.H H H H h+e+S.<+B p p B B B B B B B B B B B B B B B B B B B B ) ) ) ) B B B B B B B B B B B B p p p p p p p p p p p p B B B B B B B B B B B B B B B B ) S.H w+d &+s &+&+d  + +<.h+S.S.S.S.S.S.S.S.S.e+e+e+e+X X S.S.S.S.S.S.S.S.S.S.S.S.S.S.) ) B B <+X e+e+e+e+e+e+X X ) S.h+<.<.| | <.<.<.H e+S.) ) ) ) ) ) ) ) ) ) ) ) ) ) S.S.S.S.!+h+h+h+H <.H h+e+S.) ) B B B B p p p p B B B B ) ) ) ) o o o o S.S.S.S.) ) ) ) ) ) ) ) ) ) ) ) S.S.S.S.S.S.S.S.S.) ) ) ) B B B B B B B ) ) ) ) S.S.S.S.) ) ) ) ) ) ) ) ) ) ) S.S.S.S.<+<+B B <+X X e+S.<+<+<+<+<+B B B <+<+<+<+<+<+<+<+) ) ) ) B B B B ) ) ) X X e+e+3 3 H H <.<.w+w+<.<.H H H ",
") ) ) ) ) ) ) ) B B B B B B B B B B B B B B X e+H H H H h+S.) ) B B B B p p p p B B B B B p p p p p p p B B B B B B <+e+e+c.<.<.c.c.3 3 H H H H H H H e+e+S.) ) ) ) ) ) ) ) ) ) B B B B B B B B B B B ) ) ) ) S.S.h+h+h+h+H H !+!+!+!+h+3+++++H h+e+e+X X B B B ) ) ) ) B B B B B p B B B ) ) ) S.S.S.S.e+e+e+e+3 3 3 c.<.<.H h+e+S.) S.S.S.3 H H <.<.H H 3 3 e+<+<+<+<+) ) ) ) S.S.S.S.S.) ) ) ) ) ) ) ) ) ) ) B B ) S.S.H H H H H h+S.<+B p B B B B B B B B B B B B B B B B B B B B ) ) ) ) ) ) ) ) ) ) B B B B B B B p p p p p p p p p p p p B B B B B B B B p p p p B B B B ) S.3 w+U.&+&+&+&+d  +<.h+e+) ) ) S.S.S.S.S.S.S.e+e+e+e+e+e+3 3 H c.<.<.H H H H H H 3 3 e+e+e+e+e+e+e+e+e+e+e+e+e+e+h+<.<.|  +| <.<.H h+e+S.) ) ) ) ) ) ) ) ) ) ) ) ) ) S.S.S.S.!+h+h+h+<.<.<.H e+S.) ) ) B B B p p p p B B B B ) ) ) ) o o o o S.S.S.S.S.) ) ) ) ) ) ) ) ) ) ) S.S.S.S.S.S.S.S.) ) ) ) B B B B B B B B ) ) ) S.S.S.S.S.) ) ) ) ) ) ) ) ) ) ) ) S.S.S.) B B B <+X e+e+e+<+<+<+<+B B B B <+<+<+<+<+<+<+<+) ) ) B B B B B B ) ) ) X e+e+e+3 H H <.<.<.<.<.<.H H H ",
") ) ) ) ) ) ) ) ) B B B B B B B B B B B *.t.e+c.<.<.<.<.H e+) ) B B B B B B B B B B B B B p p p p p p p p B B B B B *.e+3 c.<.<.<.<.<.<.H H h+h+3 3 e+e+X ) ) ) ) ) ) ) ) ) ) B B B B B B B B B B B ) ) ) ) ) ) S.S.S.S.S.!+!+!+!+!+!+h+h+3+H H H h+e+e+X X ) B ) ) ) B B B B B B B B B B ) ) ) S.S.S.S.S.e+e+3 3 3 3 H H H h+e+S.) ) S.S.3 H H H H H H 3 3 S.<+<+<+<+B B ) ) ) ) ) ) ) ) ) ) ) ) ) ) ) ) ) ) ) B B ) S.!+H H H H H H e+S.B B B B B B B B B B B B B B B B B B B B ) ) ) ) ) S.S.S.S.S.S.X X ) ) B B B B B B p p p p p p p p p p p B B B B B B p p p p p p B B B B S.3 <.U.&+&+&+U. +<.<.e+X ) ) ) S.S.S.S.S.S.S.S.S.e+e+H <.<.w+w+~ U.U.U.w+w+w+w+w+w+<.<.<.<.c.c.c.c.3 3 c.c.c.c.<.<.<.|  + +| <.H h+e+S.) ) ) ) ) ) ) ) ) ) ) ) ) ) ) S.S.S.S.S.h+h+h+<.<.<.H h+e+S.) ) ) B B B p p p B B B B ) ) ) ) o o o o !+S.S.S.S.) ) ) ) ) ) ) ) ) ) ) ) S.S.S.S.S.) ) ) ) ) ) ) ) *.*.B B B ) ) ) S.S.S.S.S.S.) ) ) ) S.S.S.S.S.) ) ) S.S.) ) B B B <+S.e+e+e+<+<+<+<+B B B <+<+<+<+<+<+<+<+B B B B B B B B B B B B ) ) X S.S.S.S.3 3 3 c.c.3 3 3 S.S.",
"X X X ) ) ) B ) ) X *.*.B B B B B B B *.t.e+c.<.w+ + +<.<.e+X ) B B B B B B B B B B B B B B B p p p p p p p p B B B B X e+c.<.<.<.w+<.<.H h+S.S.S.e+S.X ) B B B B B B B B B B B B B B B B ) ) ) ) ) ) ) ) ) ) ) ) ) ) S.S.S.S.!+!+!+!+!+h+h+h+H H H 3 e+e+X X ) B B B B B B B B B B B B ) ) ) ) S.S.S.S.S.S.e+3 3 H H H 3 e+e+S.) ) ) S.e+H H H H H H 3 3 S.<+<+<+B B B B B B B B ) ) ) ) ) ) ) ) ) ) ) ) ) ) ) B B ) S.!+h+3+3+++++H h+S.B B B B B ) ) ) ) ) ) ) ) ) ) ) ) ) ) ) ) S.S.S.S.!+!+h+h+h+h+h+S.S.) ) B B B B B B B B B B p p p p p p p p p p p p p p p p p p p B B B <+e+<.w+U.U.U.w+<.c.e+S.) ) ) ) ) S.S.S.3 3 S.S.S.e+H <.w+U.U.L.L.&+&+&+&+&+&+&+&+d U.U.U.w+w+<.<.<.<.<.<.<.<.<.<.<. + + + +<.<.h+e+S.) ) ) ) ) ) ) ) ) ) ) ) ) ) ) S.S.S.!+S.S.S.e+h+H <.<.<.h+h+S.S.) ) B B B p p p B B B B ) X X ) o o o o !+!+!+S.S.S.S.) ) ) ) ) ) ) ) ) ) ) ) ) ) ) ) B B B B ) ) X X *.*.*.*.*.S.S.S.S.S.S.S.S.S.) ) S.S.S.S.S.S.S.S.) ) ) B B B B B <+S.e+e+e+<+<+<+<+<+<+<+<+<+<+B B B B B B B B B B B B B B B B B B B <+<+) S.S.S.S.e+3 3 e+e+S.S.S.",
"X X X X ) B B ) X X X X B B B B B B B *.t.c.c.w+U.U.U. +<.e+X ) B B B B B B B B B B B B B B B B p p p p p p p p B B B t.e+c.c.<.w+w+w+<.H e+S.) ) ) <+B B B B B B B B B B B B B B B B B ) ) ) ) ) ) ) ) ) ) ) ) ) ) ) ) ) ) ) o o o o !+h+h+h+H H H h+e+e+X X X B B B B B B B B B B B B ) ) ) ) S.!+!+S.S.S.S.3 3 <.<.H e+S.S.) ) ) S.e+h+H H H H 3 S.S.S.<+<+<+B B p B B B B B B B B ) ) ) ) ) o o o o ) ) ) ) B B ) S.!+h+3+++++| <.H S.) B B B ) ) ) ) ) ) ) ) ) ) ) ) ) ) ) S.S.S.S.S.!+!+h+h+3+H H h+h+e+X ) B B B B B B B B B B B p p p p p p p p p p p p p p p p p p p B B B t.3 <.w+w+w+<.3 e+<+<+B B B ) ) S.S.!+h+H 3 3 3 3 <.w+U.&+&+s {+{+{+s s s &+&+&+&+&+&+d U.U.w+<.<.<.<.<.<.<.w+w+ + + + + +<.H e+S.) ) ) ) ) ) ) ) ) ) ) ) ) ) ) ) S.S.h+h+!+S.S.S.e+H <.<.<.h+h+h+S.) ) ) B B p p p B B B B X X X X o o o o !+!+!+S.S.S.S.S.) ) ) ) ) ) ) ) ) ) ) ) ) B B B B B B ) X e+e+X *.*.*.*.X S.S.S.!+h+h+S.S.) ) S.S.e+3 S.S.S.S.S.) B B B B B B <+S.e+e+S.<+<+B B <+<+<+<+<+B B B B p p p p p p p p p p p p p B B B B B B B B B <+<+<+<+<+<+B B B ",
"X X X X B B B B X X X X ) B B B B B B <+e+c.c.w+U.U.U.w+<.e+X X B B B B B B B B B B B B B B B B B p p p p p p B B B B t.e+c.c.<.w+w+w+<.c.S.) B B B B B B B B B B B B B B B B B B B B B ) ) ) ) ) ) ) ) ) ) ) ) ) B B B ) ) ) ) ) o o !+!+h+h+h+h+h+h+h+e+e+X X ) B B B B B B B B B B B ) ) ) ) S.!+!+S.S.S.S.e+3 H H 3 e+S.) ) ) ) S.e+h+H H 3 e+S.S.<+<+<+<+<+B p p p B B B B B B B ) ) ) ) ) o o o o ) ) ) ) B B ) S.!+3+3+++| | | H e+) B B ) ) ) ) ) ) ) ) ) ) ) ) ) ) S.S.S.S.S.!+!+!+h+H ++++++++H h+h+e+X ) B B B B B B B B B B p p p p p p p p p p p p p p p p p p p p B B <+e+c.<.<.c.3 t.<+<+B B B B ) ) ) S.!+h+H H H H <.<. +U.&+&+{+{+{+{+s s s &+&+&+&+&+&+d U. +w+<.<.<.<.<.<.<.w+w+U. + + +| <.H S.S.) ) ) ) ) ) ) ) ) ) ) ) ) ) ) ) S.!+h+h+!+S.S.S.e+h+H H H h+h+h+S.S.) ) B B B p p B B B ) X X X X  .o o !+!+!+!+!+S.S.S.S.) ) ) ) ) ) ) ) ) ) ) ) B B B B B B B X e+e+e+e+X *.*.*.X S.S.S.h+h+h+!+S.) ) S.S.3 3 3 S.S.S.S.) B B B B B B <+S.e+e+S.<+<+B <+<+<+<+<+B B B B p p p p p p p p p p p p p p p p B B B B B B B B B B B B B B B B ",
"X X X X B B B B X X X X ) B B B B B B <+e+3 c.<.w+w+w+<.<.e+X X B B B B B B B B B B ) ) B B B B B B p p p p p B B B B <+e+e+c.<.<.<.<.c.e+X B B B B B B B B B B B B B B B B B B B B B B B ) ) ) ) ) ) ) ) ) ) ) ) B B B B ) ) ) ) o o o !+h+h+h+h+h+h+h+e+e+X X ) B B B B B B B B B B B ) ) ) ) S.S.S.S.S.S.S.S.e+e+e+e+S.) ) ) ) ) S.S.e+h+3 e+S.S.<+<+<+<+B B p p p p p B B B B B ) ) ) ) ) ) o o o o ) ) ) ) ) ) ) S.!+h+3+++| | | H e+S.B B ) ) ) ) ) ) ) ) ) ) S.S.S.S.S.!+h+h+h+h+h+h+h+H ++++++++<.<.h+e+e+X *.B B B B B B B B B p p p p p p p p p p p p p p p p p p p p p B B t.3 3 3 3 t.<+<+B B B B B B ) ) S.S.h+H H <.<.w+w+U.U.d &+&+&+B.&+&+&+&+&+&+&+d U.U.U. + +<.<.<.H <.<.<.<.<.<.<. + + +| <.H h+S.S.) ) ) ) ) ) ) ) ) ) ) ) ) S.S.!+!+!+!+!+!+S.S.e+h+h+h+h+h+h+!+S.S.) ) B B B B B B B <+X X X e+ . .!+!+!+!+!+!+!+S.S.S.S.S.) ) ) ) ) ) ) ) ) ) ) B B B B B B B X e+e+e+e+X *.*.*.) S.S.S.h+h+h+!+S.) ) S.S.e+3 3 e+S.S.S.) B B B B B B <+<+S.S.<+<+<+<+<+<+<+<+<+B B B p p p p p p p p p p p p p p p p p B B B B B B B B B B B B B B B B ",
"S.S.S.) B B B B X X X X ) ) ) B B B B <+S.e+3 c.<.<.<.<.c.e+e+X *.B B B B B B B *.X X X ) ) ) B B B B B B B B B B B B <+S.e+3 c.c.<.c.3 e+*.B B B B B B B B B B B B B B B ) ) B B B B B B B B B B B ) ) ) ) ) ) ) ) ) B B B ) ) ) ) o o !+h+h+h+!+S.S.S.h+e+e+X ) B B B B B B B B B B B B ) ) ) ) ) ) ) ) ) S.S.S.e+S.S.) ) ) ) ) S.S.S.S.e+e+S.<+B B B B B p p p p p p p p B B B <+) ) ) ) ) ) !+!+!+!+) ) ) ) ) ) ) S.!+h+H ++| | | <.e+X B B ) ) S.) ) ) ) ) ) S.!+!+!+!+h+h+H H H h+h+h+h+H ++| | | <.<.H 3 e+e+X *.B B B B B B B B p p p p p p B B B B p p p p p p p p p p p p B <+<+t.t.t.<+B B B B B B B B B ) ) S.h+H <. + +U.U.U.U.U.U.U.U.U.U.U.w+w+w+w+w+w+<.<.<.<.<.H H H H H H H H <.<.<.<.| | ++++H h+!+S.S.) ) ) ) ) ) ) ) ) ) ) S.S.!+!+!+!+!+!+!+!+!+e+e+e+e+e+e+S.S.S.S.) ) ) B B B B B <+<+X e+e+h+h+S.S.S.S.S.S.S.S.!+!+!+S.S.S.S.) ) ) ) ) ) ) ) ) B B B B B B B X e+3 c.e+e+*.B B ) ) S.S.h+h+h+!+S.) ) S.S.e+e+e+e+e+S.X <+B B B B B B <+<+<+<+<+<+<+<+<+<+<+<+<+B B p p p p p p p p p p p p p p p p p p B *.*.B B B B B B p p p p p p p ",
"S.S.S.) ) B B B X X X X ) ) ) ) B B B <+S.S.e+3 3 c.c.3 e+e+e+X *.B B B B B B *.X X S.X ) ) ) ) B B B B B B B B B B B <+S.S.e+e+3 3 e+e+*.B B B B B B B B B B B B B B B ) ) ) ) B B B B B B B B B B B B ) ) ) ) ) ) ) ) B B B ) ) ) ) S.!+h+h+h+S.S.S.S.h+h+e+X X B B B B B B B B p B B B ) ) ) ) ) ) ) ) ) ) ) ) ) ) ) ) ) ) ) S.S.S.S.S.S.) ) B B p p p p p p p p p p p p B B <+S.S.S.) ) ) S.!+!+!+!+S.) ) ) ) ) ) S.!+h+H ++| | | <.3 X B ) ) S.S.S.) ) ) ) S.!+!+!+!+H H H H ++3+H h+h+H <.++|  +| <.<.<.H 3 e+e+X *.B B B B B B B B p p B B B B B B B B B p p p p p p p p p p p p B <+<+B p p p p B B B B B B ) X S.h+<.|  +U.U.U. +w+<.<.<.<.<.c.H H H H H H H h+h+h+h+h+h+h+h+h+h+h+h+h+3 3 H H <.++++++H H h+S.S.) ) ) ) ) ) ) ) ) ) S.S.!+h+!+!+o o !+!+h+h+S.S.S.S.S.S.S.S.S.) ) ) ) B B B B <+<+<+S.e+e+h+h+S.S.S.S.S.S.S.S.!+!+!+S.S.S.S.S.) ) ) ) ) ) ) ) B B B B B B <+e+e+c.c.e+e+*.B B ) ) ) S.!+h+h+!+S.) ) S.S.e+e+e+e+e+e+X <+B B B B B B <+<+<+<+<+<+<+<+<+<+<+<+<+B p p p p p p p p p p p p p p p p p p B *.*.*.*.B B B B B p p p p p p p ",
"S.S.S.) ) B B B X X X X X ) ) ) B B B B <+S.S.S.e+e+e+e+e+e+e+X ) B B B B B B <+X e+e+S.S.) ) ) B B B B B B B B B B B <+S.S.S.S.e+e+X <+B B p p B B B B B B B B B B B ) ) ) ) ) B B B B B B B B B B B B ) ) ) ) ) ) ) ) ) B B ) ) ) ) S.!+h+h+!+S.S.S.S.!+h+h+S.X ) B B B B B B p p B B B ) ) ) ) ) ) ) ) ) ) ) B B B B ) ) ) ) S.S.S.S.) ) ) B B B p p p p p p p p p p p p B B <+S.S.S.) ) ) S.!+!+!+S.S.) ) ) ) ) ) S.!+h+h+<.++| | <.3 S.) ) S.S.S.S.) ) ) ) !+!+!+!+!+H H H H 3+3+3+h+h+h+H <.| | | <.<.<.H 3 e+e+X X X <+<+t.t.t.t.t.t.t.t.t.t.t.t.<+<+B B B p p p p p p p p p p p p p p p p p p p B B B B B B S.e+h+H <. + +U.U.U.w+<.<.h+e+S.S.S.S.S.S.S.S.S.S.S.S.S.S.!+!+!+!+!+h+h+h+h+e+e+h+h+H ++++H H H h+S.S.) ) ) ) ) ) ) ) ) ) S.S.!+!+!+o o o o !+!+!+S.S.) ) ) S.S.S.S.) ) ) ) B B B <+<+<+<+S.e+h+h+!+S.S.S.S.S.S.S.S.!+!+!+!+S.S.S.S.) ) ) ) ) ) ) ) ) B B B B B ) e+e+H c.3 e+X ) ) ) ) S.S.!+h+h+S.S.) ) S.S.e+e+e+e+e+e+X <+B B B B B B B <+<+<+<+<+<+<+<+<+<+<+<+B p p p p p p p p p p p p p p p p p p B *.*.*.*.B B B B B p p p p p p p ",
"S.S.S.) B B B B X X X X S.S.) ) B B B B ) ) S.S.S.X X e+e+e+e+S.X ) B B B B B <+S.e+e+e+S.S.) ) B B B B B B B B B B B <+) S.S.S.S.X <+B B p p B B B B B B B B B B B ) ) ) ) ) ) B B B B B B B B B B B B B ) ) ) ) ) ) ) ) ) ) ) ) ) ) S.!+!+!+!+!+S.S.S.S.S.S.S.S.X *.B B B B B B B B B B B ) ) B B B B ) ) ) B B B B B ) ) ) S.S.S.S.) ) ) ) B B B p p p p p p p p p p p p B B ) S.S.S.S.S.S.S.S.S.S.S.) ) ) ) ) ) S.S.!+!+h+H ++| | <.H S.S.S.S.S.) ) ) ) ) ) !+!+!+!+!+H H H H 3+3+h+h+h+h+H <.<.<.<.<.H H h+h+e+S.S.S.e+e+e+c.c.c.c.c.c.c.c.c.c.c.c.e+e+X <+B B p p p p p p p p p p p p p p p p p p p B B B B <+S.3 <.<. + + + + +<.<.H h+e+S.) ) ) ) ) ) ) ) ) ) S.S.!+!+!+!+!+!+!+!+h+h+h+e+3 h+h+H H H H H H !+S.S.) ) ) ) ) ) ) ) ) ) ) S.S.!+o o o o o !+!+S.S.) ) ) ) ) ) ) ) ) ) ) B B B <+<+<+<+S.S.S.S.S.S.S.S.S.S.S.S.S.S.S.S.S.S.S.S.S.S.) ) ) ) ) ) ) ) ) ) B B B B ) e+e+3 c.3 e+X X S.S.S.S.S.!+!+S.S.S.S.S.S.S.S.e+e+e+e+S.X <+B B B B B B <+<+<+<+<+<+<+<+<+<+<+<+B B p p p p p p p p p p p p p p p p p B B B *.*.*.) B B B B B p p p p p p ",
") ) ) ) B B B B ) S.S.S.S.S.S.) B B B B B B B B B ) X X e+e+e+S.S.) ) B B B B <+S.e+3 e+S.S.S.) ) B B B B *.*.*.<+<+<+<+) ) ) ) ) ) B B B p p B B B ) ) ) ) ) ) ) ) ) ) ) ) ) ) B B B B B B B B B B B B B B B ) ) ) ) ) ) ) ) ) ) ) ) S.!+!+!+!+!+!+!+S.S.S.S.S.S.S.X *.B B B B B B B B B B B B B B B B B B B B B B B B ) S.S.S.S.) ) ) ) ) ) B B B B p p p p p p p p p p B B B ) ) ) S.S.S.S.S.S.S.S.) ) ) ) ) ) S.S.S.!+!+h+h+++++++<.H h+S.S.S.) ) ) ) ) ) ) !+!+!+!+!+!+!+!+h+h+h+h+!+!+h+h+H H <.H H H h+h+!+!+!+e+e+3 c.c.<.w+~ ~ w+w+w+w+~ ~ w+<.c.c.e+X *.B B p p B p p p p p p p p p p p p p p p p B B <+S.3 <.<. + + + +<.<.<.h+e+S.S.) ) ) ) ) ) ) ) S.S.S.e+h+h+h+h+!+S.S.S.S.e+e+e+h+h+H h+h+h+h+h+h+3 S.S.) ) ) ) ) ) ) ) ) ) ) ) ) ) ) ) ) ) ) ) ) ) ) ) ) ) B B B ) ) ) B B B B B <+<+<+<+S.S.S.S.S.S.S.) ) ) ) ) ) ) S.S.S.S.S.S.S.S.S.) ) ) ) ) ) ) ) ) ) ) ) ) ) ) S.e+3 3 e+e+e+S.S.S.!+!+!+S.S.S.S.S.S.S.S.S.S.S.S.S.S.S.S.<+B B B B <+<+<+<+B <+<+<+S.S.<+<+<+B B B B B B B B B p p p p p p B B B B B B B B ) ) ) ) ) ) B B B B p p p p p ",
") ) ) ) B B B ) S.S.S.S.S.S.S.) ) B B B B B B B B B ) X e+h+h+S.S.) ) ) B B B <+S.e+3 3 S.S.S.) ) B B B *.*.*.*.<+<+<+<+) ) ) ) ) B B B p p p B B ) ) ) ) ) ) ) ) ) ) ) ) ) ) ) B B B B B B B B B B B B B B B ) ) ) ) ) S.S.S.S.) ) ) S.!+!+!+!+h+h+h+h+S.S.S.S.e+e+X X B B B B B B B B B B B B B B B B B B B B B B B ) ) S.S.S.) ) ) ) ) ) ) ) B B B B p p p p p p p p B B B B ) ) ) S.!+!+!+!+S.) ) ) ) ) ) ) S.S.S.S.!+o  .h+3+++++++H H H !+S.S.) ) ) ) ) S.!+!+!+!+!+!+!+!+!+!+!+!+!+!+!+h+h+H H H H h+h+!+!+h+h+H H <.<.w+~ ~ U.U.U.U.U.U.U.U.~ ~ w+<.<.e+e+<+B B B B B B B p p p p p p p p p p p p p B <+<+3 c.<. +U.U. +<.H e+S.S.S.S.) ) ) ) ) S.S.S.S.S.e+e+h+h+H H h+h+S.S.S.S.e+e+3 3 H H H h+e+e+e+e+S.S.S.) B B B ) ) ) ) ) ) ) ) ) ) ) ) ) ) ) ) ) ) ) ) ) B B B B B B B B B B B <+<+<+<+e+e+e+S.S.S.) ) ) ) ) ) ) ) ) S.S.S.S.S.S.S.S.S.) ) ) ) ) ) ) ) ) ) ) ) ) ) ) X e+e+e+e+e+h+h+h+h+h+h+h+S.S.S.S.S.S.S.S.S.S.S.S.S.S.S.S.) B B B <+<+<+<+<+B B <+S.S.S.S.<+B B B B B B B B B B B p p p p B B B B B B B B ) ) ) ) ) ) ) ) B B B B p p p p ",
") ) ) ) B B B <+S.S.S.S.S.S.S.S.) B B B B B B B B B ) X S.h+h+!+S.) ) ) B B B <+e+3 3 3 3 S.S.S.) B B B *.*.*.*.<+<+<+S.S.) ) ) B B B B p p B B B ) ) ) ) ) ) ) ) ) ) ) ) ) ) ) ) B B B B B B B B B B B B B B ) ) ) ) S.S.S.S.S.S.) ) S.S.!+!+!+h+h+h+h+h+3 3 e+e+e+S.X B B B B B B B B B B B B B p p B B B B B B B B ) ) S.S.S.S.S.S.S.S.S.S.X X B B B B p p p p p p B B B B ) ) ) ) S.!+!+!+!+S.) ) ) ) ) ) ) S.S.S.!+!+!+ .3+3+++++++++<.<.H h+h+e+S.S.S.S.!+!+!+!+!+!+!+!+!+!+o o !+!+!+!+h+h+H H H H H H H H <.<.<.<.<. +U.U.U.L.L.&+d d d U.U.U.U.U.w+<.<.<.c.3 e+e+e+t.t.*.B B B p p p p p p p p p p <+<+3 c.<.w+U.U.U. +<.e+S.) ) ) ) ) ) ) ) ) S.S.S.S.S.e+e+h+<.++++H h+S.S.S.S.e+e+e+3 3 3 3 e+e+e+S.S.S.S.<+B B B B B ) ) ) ) ) ) ) ) ) ) ) ) ) ) ) ) ) ) ) B B B B B B B B B B B B <+<+<+t.e+e+e+e+S.) ) ) ) ) ) ) ) ) ) S.S.S.S.S.S.S.S.S.S.) ) ) ) ) ) ) ) ) ) ) ) ) ) ) X e+e+e+e+h+h+h+h+H H !+S.S.S.S.S.S.S.S.S.S.S.S.S.S.S.S.) B B B <+<+<+<+<+B B <+S.S.S.S.) B B B B B B B B B B B p p p p B B B B B B B B ) ) ) ) ) ) ) ) B B B B p p p p ",
") ) ) ) ) ) X X S.S.S.S.S.S.S.S.) ) B B B B B B B B B S.S.h+h+!+S.) ) ) B B B <+e+3 3 3 3 3 S.S.) ) B B *.*.*.*.t.t.S.S.S.) ) ) B B B B B B B B B ) ) ) ) ) ) ) ) ) ) ) ) ) ) ) ) ) B B B B B B B B B B B B ) ) ) ) S.S.S.S.S.S.S.S.S.S.S.!+!+!+h+h+h+h+H H H H e+e+X X B B B B B B B B B B B B p p B B B B B B B B B ) ) S.S.S.S.S.S.h+h+H c.e+e+X *.B B B p p p p B B B B ) ) ) ) S.!+!+!+!+!+) ) ) ) ) ) ) ) S.S.!+!+!+!+L 3+3+3+++++| | | | <.<.<.H H h+h+H H H H H !+!+!+!+!+o o !+!+!+h+h+H H <.++++++++| |  + + + + + +U.U.U.U.d d d d d d U.U.U.U. + + + + +w+<.<.<.c.c.e+t.<+B B B B p p p p p B B <+3 c.<.w+ +U. + +<.H S.) ) ) ) ) ) ) ) ) S.S.S.S.S.S.e+e+h+<.++++<.H h+e+e+e+e+e+e+S.S.S.S.S.X X <+<+<+<+B B B B B B B B B ) ) ) ) ) ) ) ) ) ) ) ) ) ) ) ) B B B B B B B B B B B B <+<+t.e+e+3 3 e+S.S.) ) ) ) ) ) ) S.S.S.S.S.S.S.S.S.S.S.S.S.) ) ) ) ) ) ) ) ) ) ) ) ) ) X X S.e+e+h+h+h+h+H H 3 S.S.S.S.S.S.S.S.S.S.S.S.S.S.S.S.) B B B <+<+<+<+<+<+) <+S.S.S.S.) B B B B B B B B B B B B B B B B B B B B B B B ) ) ) ) ) ) ) ) B B B B B B p p ",
"B B B ) X X X e+e+e+S.S.S.S.) ) S.S.) ) B B B B B B B S.S.h+h+!+S.) ) ) B B B t.e+3 3 3 3 3 3 S.S.) ) B B B *.*.t.e+S.S.S.S.S.) B B B B B B B B ) ) ) ) ) ) ) ) ) ) ) ) ) ) ) ) ) ) ) B B B B B B B B B B ) ) ) ) S.!+!+!+!+3 S.S.S.S.S.S.S.S.!+h+h+h+H <.<.<.H h+S.X ) B B B B B B B B B p p p B B B B B B B B B B B B ) ) S.S.S.!+h+H <.<.<.<.3 e+X *.B B B B B B B B B ) S.S.S.S.!+!+!+!+!+!+) ) ) ) ) ) ) S.S.!+h+h+h+3+3+3+3+3+++|  + +d  + + + +<.<.<.<.<.<.H H H H h+!+!+!+!+!+!+!+!+h+H <.++| | | |  +d d d &+&+d d d d d U.U.U. + + + + + + + +d d d d d &+&+d U.U.w+<.<.c.e+X ) B B B B B B B B <+S.c.<.w+U.U. + +<.<.h+S.) ) ) ) o o o o o !+!+!+h+S.S.S.e+h+<.| | | <.H 3 e+e+e+S.S.S.S.S.S.) <+<+B B B B B B p p B B B B B B B ) ) X S.S.X ) ) B ) ) ) ) ) B B B B B B B B B B ) ) *.*.t.e+3 c.H h+h+!+S.) ) ) ) ) X X S.S.S.!+!+!+!+!+!+S.S.S.S.) ) ) ) ) ) S.S.) ) ) ) ) ) S.S.S.S.S.S.S.3 S.S.!+!+!+!+S.S.S.S.S.S.S.S.S.S.S.S.) ) B B B <+t.t.<+<+S.S.S.S.<+<+<+) ) ) ) ) ) ) B B B B B B B B B B B B B B B B ) ) ) S.) ) ) ) ) B B B B B B B B ",
"B B B ) X e+e+e+e+e+e+S.S.) ) ) S.S.S.) B B B B B B B S.S.h+h+h+S.) ) ) B B B t.e+c.c.c.H H H !+S.) ) ) B B B *.X e+e+S.S.S.S.) ) B B B B B B B ) ) ) ) ) ) ) ) ) ) ) ) ) ) ) ) ) ) ) ) B B B B B B B B ) ) ) ) S.!+!+!+!+H H 3 S.S.S.S.S.S.S.S.h+h+h+<.<.<.<.<.h+S.) ) B B B B B B B B B p p p B B B B B B B B B B B B ) ) S.S.S.h+H <.<.w+w+<.c.e+e+*.B B B B B B B B ) S.S.S.S.!+!+!+!+!+!+!+) ) ) ) ) ) ) S.S.h+h+h+h+3+3+3+3+3+++| 4.d d d d  + + + + +| | | | | ++H H h+h+!+!+!+!+h+h+H <.<.|  + + +4.4.d &+&+&+&+;.;.d d d  + + + +++++++++ + + +d d ;.;.;.;.;.&+&+d U. +w+<.<.3 e+S.X ) B B <+<+<+S.3 <.w+U.U. + +<.H h+S.S.) S.!+!+!+!+!+o o o !+h+h+S.S.S.S.h+<.|  +| <.<.H 3 e+t.<+<+<+<+B B B B B B B B p p p p p p p p B B B B B ) X X X X ) B B ) ) ) ) ) B B B B p p B B B ) ) ) *.*.t.e+c.c.H H h+!+!+S.) ) ) ) X S.e+S.S.!+!+!+!+!+!+S.S.S.S.S.) ) ) ) S.S.S.S.) ) ) ) ) ) ) S.S.S.S.S.S.S.S.S.!+!+!+!+S.S.S.S.S.S.S.S.S.S.S.S.) B B *.*.t.t.t.S.S.S.S.<+<+<+<+) ) ) ) ) ) ) ) B B B B B B B B B B B B B B B ) ) S.S.S.) ) ) ) B B B B B B B B ",
"B B B <+X e+e+e+e+e+e+S.S.) ) ) S.S.S.S.) B B B B B B S.e+H H h+S.S.) ) B B B t.e+c.c.c.H H H h+S.S.) ) B B B *.X X e+S.S.S.S.S.) <+<+B B B B B ) ) ) ) ) ) ) ) ) ) ) ) ) ) ) ) ) ) ) ) B B B B B B B ) ) S.S.S.!+!+!+!+H H H H 3 S.S.S.S.S.S.S.e+h+h+<.<.<.<.<.h+S.) ) B B B B B B B B B p p p B B B B B B B B B B B B ) ) S.S.S.H H <.<.w+w+<.c.e+e+X B B B B B B B B ) S.S.S.!+!+!+!+!+!+!+S.S.) ) ) ) ) ) S.h+h+h+h+h+3+3+3+3+3+++| 4.4.d d d d  + + + + +| | | | | ++++H H H H H H H H <.<.| |  + + +4.4.d &+&+&+&+;.;.d d  + + +++++++6 6 ++++++ +d d ;.;.;.;.;.;.&+&+d d U. + +<.<.<.<.c.3 3 3 3 3 H <.w+U.d d  +| <.h+h+S.S.S.h+H H H H h+!+o o !+!+!+S.) ) S.h+<.| | | <.<.H 3 e+<+<+<+B B B B B B B B B p p p p p p p p p B B B B B ) X X X X ) B B ) ) ) ) ) B B B B p p B B B ) ) ) *.*.t.e+3 c.H H h+!+!+!+S.) ) X X e+e+S.S.!+!+!+!+!+!+S.S.S.S.S.S.) ) S.S.S.S.S.) ) ) ) ) ) ) ) S.S.S.S.S.S.S.S.!+!+!+!+S.S.S.S.S.S.S.S.S.S.S.S.) B B <+<+t.t.t.S.S.S.S.S.<+<+<+) ) ) ) ) ) ) ) ) B B B B B B B B B B B B B B <+S.S.S.S.) ) ) ) B B B B B B B B ",
"B B B <+S.e+e+e+e+e+S.S.) ) ) ) S.S.S.S.) ) B B B B ) S.3 H H H S.S.) ) B B B *.e+e+c.<.<.H H H !+S.) ) B B B B <+X X S.S.S.S.S.S.e+X X <+B B B B ) ) ) ) ) ) ) ) ) ) ) ) ) ) ) ) ) ) B B B B B B B ) S.S.e+e+!+!+!+!+!+H H H H 3 S.S.S.S.S.S.S.e+h+h+h+<.<.<.h+h+S.) ) ) ) B B B B B B B B p p B B B B B B B B B B B B ) ) S.S.S.h+H <.<.<.<.<.c.e+e+X B B B B B B B B ) S.S.S.!+!+!+!+!+!+S.S.S.S.S.S.S.S.S.!+h+h+h+h+h+h+h+h+3+3+++++ +4.4.4.4. + + + +| | | | | | | | |  +| | | ++++++++++| | | | | | |  +d d &+&+&+d d 4. + +| ++++++6 6 6 3+++++++ + +d d ;.;.;.&+d d d d d d d d d U.U.U.w+w+w+w+w+w+U.U.d d  + +<.H h+!+S.e+h+<.|  + +| H !+o o o !+S.S.) ) S.h+H <.<.<.<.H 3 e+S.<+<+B B B B B B B B B B B B B B B B B B B B B B B B B *.X X X ) B ) ) ) ) ) ) B B B B B B B B B B ) ) *.*.t.e+e+3 H h+h+h+!+!+S.S.S.X X X S.S.S.S.!+!+!+!+S.S.S.S.S.S.S.S.S.S.S.S.S.) ) ) ) ) ) ) ) ) S.S.S.S.S.S.S.S.S.S.S.S.S.S.S.S.S.S.S.S.S.S.S.S.) ) ) <+<+t.t.e+e+S.S.S.S.S.<+S.) ) ) ) ) ) ) ) ) ) B B B B B B B B B B B B <+<+S.S.S.S.) ) ) ) B B B B B B B B ",
"B B B <+S.e+3 3 e+S.S.S.) ) ) ) S.S.S.S.) ) ) B B B ) S.3 H H H 3 S.S.) B B B *.e+e+3 H <.<.H H h+S.S.) B B B B B <+*.<+<+) S.S.e+e+e+e+X B B B B B B B B B B B B B B B B B B B B B B B B B B B B ) S.S.e+h+h+h+h+!+!+!+H H H H 3 e+S.S.S.S.S.S.X e+e+h+h+h+h+h+S.) ) ) ) ) S.S.S.<+*.B B B B p p p p p p p p p p p B B ) S.S.S.S.3 3 3 c.<.c.c.c.e+e+X B B B B B B B B ) ) ) S.o o o o o o S.S.S.S.S.S.S.S.h+h+h+h+h+h+!+!+!+!+h+h+3+++++| N  +| ++++++++++++++| N N 4.4.d d  + + + + + + + + +| <.<.++++++| |  + + + + + + +++++++H H h+h+h+h+h+h+++++++|  + + + + + + + +d d &+;.;.M.E.s &+&+&+&+&+&+&+&+&+d d  + +| <.h+h+!+h+h+<. +d d d  +| h+o ) ) ) ) ) ) ) S.h+H <.<.H H h+e+S.<+<+B B B B B B B B B B B B <+<+<+<+<+B B B B B B B B B B <+) ) ) ) ) ) ) ) ) ) B B B B B B B B B B B B <+<+t.e+e+e+e+h+h+h+h+!+S.S.X X X X S.) ) ) ) ) ) ) ) ) ) ) S.S.S.S.S.S.S.S.) ) ) ) ) ) ) ) ) ) S.S.S.S.S.S.S.S.S.S.S.S.S.S.S.S.S.S.S.S.S.S.S.S.) ) ) ) S.S.S.e+e+e+S.S.S.S.) ) S.S.S.S.S.S.S.) ) ) ) B B B B B B B B B B <+<+<+S.S.S.S.) ) ) ) B B B B B B B B ",
"B B B <+S.e+3 3 e+S.S.S.) ) ) ) S.S.S.S.) ) ) B B B ) e+3 H <.H 3 S.S.) B B B *.X e+3 H <.| | H H S.S.) ) B B B B B B B B B <+e+e+3 3 e+e+<+B B B B B B B B B B B B B B B B B B B B B B B B B B S.S.S.3 3 H H H h+!+!+H H H H H 3 e+e+S.S.) ) ) X X X X X S.S.S.) ) ) ) S.S.S.S.e+e+e+X *.B B B B p p p p p p p p p B B <+S.S.S.S.S.S.e+e+e+e+e+e+e+e+<+B B p p B B B B ) ) ) ) o o o o o ) S.S.S.e+e+e+e+h+h+h+h+h+h+!+!+S.o !+!+h+h+3+++++++++3+3+3+3+3+3+++++u+N N 4.4.d d d d d  + + + + + +<.<.H h+H H H H <.<.| | ++++++3+3+H h+h+h+h+h+h+h+h+h+h+H H <.<.++++++++++|  +d ;.M.E.E.E.E.E.E.E.s s s s &+&+&+d  +| ++H h+h+h+H <. +d &+;.;.d  +h+S.) ) ) ) ) ) ) S.S.h+H H H h+S.S.) ) B B B B B B B B B B B <+<+<+<+t.e+e+S.S.) ) ) B B B B B B B B ) ) ) ) ) ) ) ) B B B B B B B B B B B B <+<+<+t.X e+e+e+h+h+h+h+e+e+e+e+S.S.) ) ) ) ) ) ) ) ) ) ) ) ) S.S.h+h+S.S.) ) ) ) ) ) ) ) B B ) S.S.S.S.S.S.S.S.S.S.S.S.S.S.S.S.S.S.S.S.S.S.S.S.) ) ) ) S.S.S.S.e+e+e+S.S.) ) ) S.S.S.S.!+!+!+S.) ) ) ) B B B B B B B B <+<+<+<+S.S.S.S.) ) ) ) B B B B B B B B ",
"B B *.<+e+3 3 3 3 S.S.S.) ) ) ) S.S.S.S.S.) ) ) B B <+e+3 <.<.H H e+S.S.) B B <+X e+3 H <.| | H H S.S.S.) ) B B B B B B B B B e+e+c.c.3 e+<+B B B B B B B B B B B B B B B B B B B B B B B B B S.S.e+3 H H <.<.H H H H H H H H 3 e+e+e+S.) ) ) ) X X X X ) ) ) ) ) ) ) ) S.S.e+3 H c.c.3 e+<+B B B B p p p p p p p p B B <+S.S.S.S.S.S.S.e+X X X e+e+X <+B B p B B B B ) ) ) ) ) o o o o o S.S.S.e+e+e+e+h+h+h+h+h+h+h+S.S.) ) S.S.h+h+h+h+3+3+3+3+3+3+3+3+3+3+3+++N N 4.4.4.d d d  + + + + + + +<.H h+h+h+h+H H H H H H 3+3+3+h+!+!+!+!+!+h+h+h+h+h+h+h+h+h+h+h+h+h+h+h+3+++ +d ;.;.E.E.E.E.E.E.E.s s s s &+&+d d  +++3+3+h+H <.|  +d &+;.E.;.d  +H S.) ) ) ) ) ) ) S.S.h+H H h+h+S.S.) B B B B B B B B B B B B <+<+S.e+e+3 h+h+H 3 3 e+S.<+B B B B B B B ) ) ) ) ) ) ) ) B B B B B B B B B B B <+<+<+<+X X X e+h+h+h+h+H H 3 3 e+S.S.) ) ) ) ) ) ) ) ) ) ) ) S.!+h+h+!+S.) ) ) ) ) ) ) ) B B ) S.S.S.S.S.S.S.S.S.S.S.S.S.S.S.S.S.S.S.S.S.S.S.S.) ) ) ) S.S.S.S.S.e+e+S.S.) ) ) S.S.S.S.!+!+!+S.) ) ) ) B B B B B B B B <+<+<+S.S.S.S.S.) ) ) ) B B B B B B B B ",
"B B *.t.e+3 3 3 3 e+S.S.) ) ) ) S.S.S.S.S.S.) B B B *.e+3 <.<.<.H e+S.S.S.<+<+<+X e+e+H <.<.<.H H S.S.S.S.) ) ) ) B B B B B B X e+3 c.3 e+S.<+<+B B B B B B B B B B B B B B B B B B B B B <+X e+3 H H H <.<.<.<.H H H H H H h+e+e+S.X X ) ) ) ) B *.*.B B ) ) ) ) ) ) o !+!+H <.<.w+w+<.3 e+) ) B B B B B B B B B p B B B <+) S.S.S.S.S.S.X X X X X <+<+B B B B B B <+X X X S.S.o  .!+!+!+h+h+h+h+e+e+e+e+h+!+!+!+!+S.S.) ) ) ) S.S.S.!+!+!+!+3+3+3+3+3+3+3+3+3+3+++++|  + + + + + + + + + +<.<.<.h+h+h+h+h+h+h+h+!+!+!+!+!+!+!+!+!+!+!+!+!+S.S.S.S.S.e+h+h+h+h+h+h+h+h+3+3+++ +d d ;.;.M.M.M.&+&+&+&+&+&+&+d d  +| ++3+3+3+++| d &+&+E.E.;.;.d | H S.) ) ) ) ) ) ) S.S.!+H H H h+e+S.X ) B B B B B B B B B ) ) S.S.S.3 H <.<.<.<.<.<.<.3 <+B B B B B B B ) ) ) S.S.S.S.<+B B B B B B B B B B B B <+<+<+*.X X X e+h+H <.<.<.<.<.H 3 e+S.S.S.) ) ) ) ) ) ) ) o o !+!+!+!+!+S.S.) ) ) ) ) ) ) ) ) S.S.S.S.S.S.S.S.S.S.S.S.S.S.S.S.S.S.S.S.S.S.S.S.) ) ) ) ) ) S.S.S.S.S.S.S.) ) ) S.S.S.!+!+!+!+S.S.) ) ) B B B B B B B B <+<+<+S.S.S.S.S.) ) ) ) B B B B B B B B ",
"*.*.*.t.e+3 c.3 3 e+S.S.) ) ) ) S.S.S.S.S.<+<+B B B *.e+3 <.<.<.H h+e+S.S.<+<+<+S.e+e+H <.<.<.H H S.S.S.S.S.S.) ) ) B B B B B <+e+e+3 3 e+e+S.S.) ) ) B B B B B B B B B B B B B B B B B *.X e+3 H <.<.<.<.H H <.<.<.<.<.H H S.S.S.S.) ) ) B B B B B B B B B ) ) ) ) o o !+h+H |  +U.U.U.<.h+S.S.S.<+<+<+<+<+<+*.B B B B B B ) ) ) ) ) S.S.S.S.X X <+<+<+<+<+<+<+<+X X X X X S.S.!+!+h+h+h+h+h+h+h+h+h+e+S.S.S.S.S.S.) ) ) ) ) ) ) ) ) ) S.!+!+h+3+3+3+3+3+L 3+3+3+3+3+++++++++++<.<.<.<.<.<.H H h+h+h+h+H H H h+h+S.S.S.!+!+!+o o ) ) S.S.S.S.) ) ) X X e+h+h+H H ++++H H H H ++|  + +d d d d d  + + + + + + + +| N ++3+3+3+++d ;.E.E.E.E.;.d  +<.3 S.) ) ) ) ) ) S.S.S.h+H H H H h+e+e+X B B B B B B B B ) ) ) S.S.!+H ++|  + +d d U.w+c.e+<+B B B B B B B ) ) S.S.S.S.<+<+<+B B B B B B B B B B B B B B B ) X e+h+H <.w+ +U.w+<.<.h+e+S.S.S.) ) ) ) ) ) o o o !+!+!+!+!+!+S.S.S.S.S.) ) ) ) ) S.S.S.S.S.S.S.S.S.S.S.S.S.S.S.S.S.S.S.S.S.S.S.S.) ) ) ) ) ) ) S.S.S.S.S.) ) ) ) S.!+!+!+!+S.S.S.S.) ) ) B B B B B B B B ) ) ) S.S.S.S.S.) ) ) ) B B B B B B B B ",
"*.*.*.t.e+c.c.c.3 e+e+S.) ) ) S.S.e+e+S.S.<+<+<+B B <+e+3 <.<.<.H h+h+S.S.<+<+<+e+e+e+c.<.<.<.H 3 e+S.S.S.!+S.S.) ) ) B B B B *.X e+e+3 3 3 e+S.S.) ) ) B B B B B B B B B B B B B B B *.X e+e+H <.<.<.<.<.H H <.<.<.<.<.H 3 S.S.S.) ) ) ) B B B B B B B B B ) ) ) o o !+!+3+++ +d &+&+d  +H !+S.S.e+e+e+e+e+X <+B B B B B B B ) ) ) ) S.S.S.S.S.) ) B <+<+<+<+<+S.e+e+e+e+e+e+e+h+h+h+h+h+3+3+H h+h+h+!+S.) ) ) ) ) ) ) ) ) ) ) ) ) ) ) ) ) !+h+h+3+3+3+3+3+L L L L !+h+h+h+h+h+h+h+e+e+e+e+h+h+h+h+h+H H <.H h+e+S.) ) ) ) ) ) ) ) ) ) ) ) ) ) ) ) ) X S.h+h+H <.| | ++H H h+h+H 3+++++++++++++<.<.<.<.<.H ++++++N N u+++++ +;.c (.(.(.;.d  +| H 3 S.) ) ) ) ) S.S.S.S.H H H H H <.H 3 e+X B B B B B B ) ) ) ) S.!+h+H ++ +4.d &+&+&+U.<.3 <+B p p p B B B B S.S.e+e+e+S.<+<+<+B B B B B B B B B B B B B B ) S.S.H <.|  +U.U.U.w+<.<.3 e+S.S.S.) ) ) ) o o o o !+!+!+!+!+!+!+S.S.S.S.S.) ) ) ) S.S.S.S.S.S.S.S.h+h+h+S.S.) ) S.S.S.S.S.S.S.S.S.) ) ) ) ) B B ) S.S.S.S.) ) ) ) S.!+!+!+S.S.S.S.) ) ) ) B B B B B B B B ) ) ) S.S.S.S.S.) ) ) ) B B B B B B B B ",
"*.*.t.t.e+c.c.c.e+e+e+S.) ) ) S.S.e+e+e+<+<+<+<+<+<+X e+3 H <.H h+h+h+e+e+t.t.t.e+e+3 c.<.<.<.<.H 3 S.S.!+!+!+S.) ) ) B B p p B <+X e+e+3 3 3 S.S.S.) ) ) B B B B B B B B B B B B <+X X e+e+H <.<.| | <.<.H c.<.<.<.<.<.H S.S.S.) ) ) ) ) B B B B p p B B B ) ) o !+!+!+3+3+| d &+&+&+&+ +H !+!+!+e+e+e+e+e+e+S.X ) B B B ) ) ) ) ) S.S.S.S.S.S.S.) ) S.S.S.S.e+e+e+e+e+e+e+e+e+h+h+h+h+3+3+3+3+h+h+h+!+S.) ) ) ) ) ) ) ) ) ) ) B B B B ) ) ) !+h+3+++3+3+3+3+L L !+!+!+!+!+o o o ) ) ) ) ) S.!+h+h+h+H H <.H h+e+S.) ) ) ) ) ) ) ) ) ) ) ) ) ) ) B ) ) S.h+h+H <.| | ++H H !+!+!+!+!+!+!+ . . .h+h+h+ . . .h+3+++N N N N 4.4.;.(.(.(.E.&+d | <.H e+S.S.) ) ) ) S.S.S.S.h+H H <.<.<.<.<.c.3 e+e+<+B B B ) ) ) ) S.!+!+3+++ +4.d ;.&+&+U.w+3 <+B p p p p B B B <+e+3 3 3 3 e+t.<+<+B B B B B B B B B B B B B ) S.e+H <.|  +U.U. + +<.<.H 3 S.S.S.) ) ) ) o o o o !+!+!+!+!+!+!+!+S.S.S.S.) ) ) ) S.S.S.S.S.S.S.S.h+h+h+!+S.) ) S.S.S.S.S.S.S.S.S.S.) ) ) B B B ) ) S.S.S.) ) ) ) S.!+!+!+S.S.S.S.) ) ) ) B B B B B B B ) ) ) ) S.S.S.S.S.S.) ) ) B B B B B B B B ",
"*.t.t.t.3 c.c.3 e+e+X X ) ) ) S.S.e+t.t.<+<+<+<+<+t.e+e+3 3 H H h+h+e+e+e+e+e+e+e+3 c.<.<.w+w+<.<.H 3 3 !+!+!+S.) ) ) B B p p B B <+t.e+3 3 3 3 S.S.S.) ) ) ) B B B B B B B B ) X e+e+e+3 H <.<.<.<.<.<.<.H H H <.<.<.H e+S.S.) ) ) ) ) ) B B B B B B B B B ) S.!+h+h+3+++++ +d &+&+&+d  +H !+!+!+!+h+h+h+e+S.S.S.X ) ) S.S.S.S.S.S.S.!+!+!+!+!+!+e+e+e+e+3 3 3 3 3 3 e+e+e+e+h+h+h+h+h+H 3+3+h+h+h+!+o o o ) ) ) ) ) ) ) ) ) ) B B B B B ) ) S.h+h+H 3+3+3+3+3+3+!+!+!+!+o o o o ) ) ) ) ) S.!+h+h+h+H H h+h+e+S.) ) ) ) ) ) ) ) ) ) ) ) ) ) ) ) ) ) ) ) S.h+H <.<.++++++H h+!+!+o o o o o o o  . . . . .o  .3+++N 4.4.4.;.;.c c E.E.;.d  +<.H e+e+S.S.S.S.S.S.S.S.S.S.h+H H <.++|  + +w+<.<.c.e+S.) ) ) ) ) ) ) !+!+h+++++ +d &+&+&+U.w+c.t.<+B p p p B B B <+e+3 3 3 3 3 3 e+<+B B B B B B B B B B B B B S.S.h+H <.|  + + + +| <.<.H 3 S.S.S.) ) ) ) o o o !+!+!+!+!+!+!+!+!+S.S.S.S.S.S.S.S.S.S.S.S.S.S.S.!+!+!+!+!+S.S.S.S.S.S.S.S.S.S.S.S.S.) ) ) B B B B ) ) S.) ) ) ) ) ) S.S.S.S.S.S.) ) ) ) ) B B B B B B ) ) ) ) ) S.S.S.S.S.S.) ) ) B B B B <+<+<+<+",
"<+t.t.t.3 3 3 e+e+<+<+<+<+<+<+<+t.t.t.t.<+<+<+<+t.e+e+e+3 3 3 3 e+e+e+e+e+3 3 c.c.c.c.<.w+U.U. +<.<.H 3 3 S.S.S.) ) ) B B p p p B B <+S.e+3 H H h+h+S.S.S.S.) ) ) ) ) ) ) ) ) X e+e+3 <.<.<.<.<.<.<.<.<.<.<.H H 3 3 e+e+S.) ) ) ) ) ) ) ) ) B B B B B B B ) ) S.h+H ++++| |  +d &+&+&+d  +H !+!+!+!+!+!+!+!+!+S.S.S.S.S.S.S.S.S.S.!+!+!+h+h+h+h+h+h+h+h+H H H H H H H h+h+!+!+!+!+!+!+h+h+h+h+h+!+!+o o o o o ) ) ) ) ) ) ) ) ) B B B B B B ) S.S.h+H H ++++++3+3+3+L L L L ^ o o o o ) ) o !+h+h+H H H h+h+e+S.) ) ) ) ) ) S.) ) ) ) ) ) S.) ) ) ) ) ) ) S.S.h+H <.<.++++3+3+3+L L ^ o o o o  .h+3+3+h+ . . .3+++N 4.;.c c c c ;.;.&+ +| <.h+e+e+e+e+S.S.S.S.S.S.S.S.S.h+h+H ++|  + +d d U.U.w+<.e+S.) ) ) ) ) ) ) !+h+H ++|  +d d d  +<.3 e+<+B p p p B B B <+e+3 c.c.c.c.c.3 t.<+B B B B B B B B B B B ) S.e+H H ++| | | | <.<.<.H H 3 S.S.S.) ) ) ) o !+!+!+!+o o o o o !+!+S.S.S.S.S.S.S.S.S.S.S.S.S.!+!+!+!+!+!+!+S.S.S.S.S.S.S.S.S.S.S.S.S.S.S.) B B B B ) ) ) ) ) ) ) ) ) ) ) S.S.) ) ) ) ) ) ) B B B B B ) ) ) ) S.S.S.S.S.S.S.S.S.S.) B B B <+<+S.S.S.",
"<+<+<+t.e+3 3 e+<+<+B <+<+<+<+t.t.t.t.t.<+<+<+t.e+e+3 3 3 e+e+e+e+e+e+e+3 c.c.c.c.c.c.w+U.U.U.U.w+<.<.H 3 S.S.S.) ) ) B B p p p p p B <+S.3 H H h+h+h+S.S.S.S.S.) ) ) ) ) ) S.e+3 H <.<.<.<.| <.<.H H H <.<.H 3 e+e+X <+B B B ) ) ) ) ) ) ) ) ) *.*.*.*.) ) S.!+H H | | |  + +d d &+&+U.| H !+!+!+L L !+!+!+!+!+h+h+h+h+h+h+H H H H H H H 3+3+3+3+3+++++++++++H H H H h+!+!+!+!+!+!+!+!+!+!+!+!+!+o o o o o o o ) ) ) ) ) ) ) ) B B B B B B ) ) S.S.h+H H | | ++3+3+3+3+L L L L o o o o !+!+!+h+3+3+3+h+h+S.S.) ) ) ) ) S.S.S.S.) ) ) ) S.S.S.S.) ) ) ) ) ) S.S.h+h+H H ++++++3+3+L L ^ o o o  .3+3+6 6 h+h+h+++++4.4.;.c (.(.c ;.d | <.H h+S.X X X X X S.S.S.S.S.S.S.S.h+h+H ++++ +4.d &+&+&+U.w+3 S.S.) ) ) ) ) ) S.!+h+h+<.|  + + +<.<.3 e+<+B p p p B B B t.e+c.c.c.<.w+<.c.3 <+B B B B B B B B B B <+S.S.h+H ++++++++<.<.H H H H H 3 S.S.S.) ) ) ) !+!+!+!+o o o o o o o !+S.S.S.S.S.S.S.S.S.S.S.S.S.!+!+!+!+!+!+!+S.S.S.S.S.S.S.S.S.S.S.S.S.S.S.) ) B B B ) ) ) ) ) ) ) ) ) ) ) ) ) ) ) ) ) ) ) ) B B B B ) ) ) ) S.S.S.S.S.S.S.S.S.S.S.) ) B B <+S.e+3 3 ",
"<+<+<+<+S.e+e+S.<+B B B <+<+t.t.t.t.t.t.<+<+<+e+e+c.c.3 3 S.S.S.e+e+e+e+e+c.c.c.c.c.c.<.U.U.U.U. +<.<.H 3 S.S.S.S.S.) ) B B p p p p B <+S.3 h+h+h+h+h+h+S.S.S.S.S.S.S.S.S.h+h+H <.<.<.<.<.<.<.<.H h+h+h+H H c.e+e+<+B B B B B ) ) ) ) ) ) ) ) X X *.*.*.) ) S.!+H <.| | | |  + +U.d U. +| H H !+L L L L L !+h+h+h+h+h+h+H H H H H H H H 3+3+3+3+3+++++++++++++++H H H H !+!+!+!+!+!+!+!+!+!+!+!+o o o o o o o o o ) ) ) ) ) ) ) ) ) B B B B B ) S.S.S.H H ++| ++++3+3+3+3+L L L ^ o o !+!+!+h+3+3+++3+h+h+S.) ) ) ) ) S.S.S.S.S.) ) ) S.S.S.S.S.S.) ) ) ) ) ) S.S.h+h+H ++++++3+3+L L L ^ o  .h+3+6 ++++6 6 ++++ +4.;.c c (.(.;.d | H !+S.) ) ) X X X X S.S.S.S.S.S.S.!+h+h+H ++++4.4.;.;.&+&+&+U.<.H 3 e+S.S.) ) ) ) ) S.h+h+<.<.<.<.<.H e+e+<+B B p p B B *.t.e+c.c.<.w+w+w+c.3 <+B B B B B B B B B <+S.S.!+h+H 3+3+H h+h+h+h+H H H H 3 S.S.S.) ) ) ) S.!+!+!+o o o o o o o !+S.S.S.S.S.S.S.S.S.S.S.S.!+!+!+!+!+!+!+S.S.S.S.S.S.S.S.S.S.S.S.S.S.S.S.S.) B B B ) ) ) ) ) ) ) ) ) ) ) ) ) ) ) ) ) ) ) ) B B B B ) ) ) ) S.S.S.S.S.S.S.S.S.S.S.S.) B B <+e+3 3 3 ",
"<+<+<+<+<+<+<+<+B B B <+<+t.t.e+3 3 e+e+e+S.S.e+3 3 3 3 3 S.S.S.e+e+e+e+e+e+e+e+e+e+c.<.w+ + + + +<.<.H h+h+S.S.S.S.S.) B B p p p p B B S.S.S.e+h+h+h+h+h+3 !+!+!+h+h+H H <.<.<.<.<.<.<.<.<.<.H h+h+h+h+e+e+e+e+X B B B B B B ) ) ) ) S.S.S.S.X X X X *.) ) ) S.H H <.<.<.<.<.<.w+U.U. +| <.H 3+3+L L L 3+3+3+3+3+3+3+3+3+3+3+3+3+H H 3+3+3+3+3+3+++++++++++++++3+3+H H h+!+!+!+!+!+!+!+!+!+!+!+o o o o o o o !+!+S.S.S.S.S.) ) ) ) ) ) ) ) ) ) ) S.S.h+H H ++++++++++3+3+L L L L ^ !+L L 3+3+3+3+3+3+h+!+S.) ) ) S.S.S.S.S.S.S.S.S.S.S.S.S.S.S.S.) ) ) ) ) ) ) S.S.h+h+++++++++3+3+L L L W. . .h+3+++++++ + +d d 4.;.;.c c ;.d  +H S.) ) ) ) ) ) X X X ) S.S.S.S.S.!+!+h+h+3+++++u+4.d ;.&+&+&+d U.w+<.<.3 e+S.) ) ) ) ) S.e+h+H H H H 3 e+t.<+B B B B B B *.e+c.<.<.w+w+w+w+<.3 S.) B B B B B B ) ) S.S.!+h+h+h+h+h+h+h+h+h+h+h+H H H 3 S.S.S.) ) ) ) ) S.!+o o o o o o o o !+S.S.S.S.S.S.S.S.S.S.S.S.S.!+!+S.S.S.S.S.S.<+<+<+<+S.S.S.S.S.S.S.S.S.S.S.) ) ) ) ) ) ) ) ) ) ) ) ) ) ) ) ) ) ) ) ) ) ) B B B B B ) ) ) ) S.S.S.S.S.S.S.S.S.S.S.) B B B S.e+3 3 c.",
"B B B <+<+<+<+B B B B <+t.e+3 c.c.c.c.3 3 3 3 3 H H H 3 3 S.S.S.e+e+e+e+e+t.t.t.t.t.e+c.<.<.| | <.<.H H h+h+h+h+h+!+S.S.) B B p p p p B B S.S.S.e+e+e+h+h+H H H H H <.|  + + + + +| <.<.H H e+e+S.S.S.S.S.e+X X B B B B B B B ) ) S.!+!+!+!+e+e+e+e+X X ) ) ) S.h+H H H H 3 c.<.<.w+w+w+| | ++++3+3+L 3+3+3+3+++++++++3+3+3+3+3+3+3+3+3+3+3+3+3+3+3+3+3+3+9+3+3+3+3+3+3+3+3+3+3+3+3+3+L L L L L ^ ^ ^ o o !+!+!+!+!+!+!+!+!+!+S.S.S.S.S.S.S.S.) ) ) S.S.h+H ++++++u+u+++3+3+L L L L L L 3+3+++++3+3+3+h+!+S.S.S.S.S.S.S.S.S.S.S.S.S.!+!+!+!+!+S.S.S.S.) ) ) ) ) ) S.!+h+H ++++++3+9+L L L W.W. .h+h+++ + +d d d ;.;.;.;.;.d d  +<.h+S.) ) B B B B B B B B ) ) S.S.S.!+!+h+3+3+3+++++N 4.d &+&+&+&+&+U.U.w+<.3 e+X ) B B ) ) X X e+e+e+e+e+S.<+<+B B B B B B *.e+c.<.w+w+w+w+w+<.3 S.) ) ) ) ) ) ) ) S.!+!+!+h+h+h+h+h+h+ .e+e+h+h+H H H 3 S.S.S.) ) ) ) ) ) ) ) ) ) ) ) ) S.S.S.!+!+!+!+!+!+!+!+!+!+!+S.S.S.) ) ) ) ) ) B B B B B B <+<+<+<+S.S.S.S.S.S.) ) ) ) ) ) ) ) ) ) B B B B B B B B B B B B B B B B B B ) ) ) ) S.S.S.S.S.S.S.S.S.S.S.X B B <+X e+3 <.<.",
"B B B B B B B B B B *.t.e+3 c.c.c.<.<.H H H H H H H H 3 3 S.S.S.e+e+e+X X <+*.B B <+X e+H <.<.<.H H H H h+h+h+h+h+h+h+S.S.B B p p p p B B B ) X S.e+e+e+3 H H H H | |  + +d d d  +| | H 3 e+S.) ) ) ) ) ) ) B B B B B B B B B ) S.S.!+!+!+h+h+e+e+e+e+X *.B ) S.e+h+h+h+e+S.e+e+c.c.<.<.<.| | ++3+3+3+3+3+u+u+u+u+u+u+u+9+9+9+3+3+3+3+3+3+3+3+3+3+3+3+3+9+9+9+9+3+3+3+3+3+3+3+3+3+3+3+3+L L L L ^ ^ ^ ^ !+!+!+!+!+h+h+!+!+!+!+!+!+!+S.S.S.S.S.S.) ) ) S.h+h+H ++++N N u+++3+L L L L 3+3+++N N u+++3+3+h+h+S.S.S.S.e+e+S.S.S.S.S.!+!+!+!+!+!+!+!+S.S.S.S.) ) ) ) ) ) S.h+H ++++++9+9+R L W.W.W.W.h+h+++ +d d ;.;.;.;.d d  +| | H h+e+S.) ) B B B B B B B B B ) ) S.!+!+!+h+3+3+3+3+++++ +d d d &+&+&+&+d U.<.<.e+e+X B B B ) ) ) ) X X <+<+<+<+<+B B B B B B X 3 <.w+~ ~ w+w+w+<.3 S.) ) ) ) ) ) S.!+!+!+!+3+h+!+!+!+S.X X X e+e+h+H H H S.S.S.S.) ) ) ) ) ) ) ) ) ) ) ) S.S.S.S.!+!+!+!+h+h+h+h+!+!+!+!+S.) ) ) ) ) B B B B B B B B B <+<+<+<+S.S.S.S.S.) ) ) ) ) ) ) ) ) B B B B B B B B B B B B B B B B B B B ) ) ) ) S.S.S.S.S.) ) S.S.e+e+X <+B <+e+3 H <.<.",
"B B B B B p p B B B <+t.e+c.c.c.c.<.<.H H H H H H H H !+S.S.S.S.S.e+e+X ) B B B B B ) S.e+H H H H H H h+h+h+h+h+h+H 3 S.S.B B B p p p p B B B B <+X e+e+3 H H H H | |  +d d d d  +| <.H e+X B B ) ) ) ) B B B B B B B B B B B ) S.!+!+!+h+h+h+e+e+e+e+*.*.B B ) S.h+h+S.X ) *.t.e+c.c.<.<.<.| ++++3+3+3+9+u+u+u+u+u+u+u+9+9+9+9+3+3+3+3+3+3+3+3+3+3+3+9+9+9+9+9+3+3+3+3+3+3+3+3+3+3+3+L L L L L L L L L !+!+!+!+!+h+h+!+!+!+!+!+!+!+S.S.S.S.S.S.) ) ) ) S.h+h+++++| N u+++3+3+3+3+3+3+u+N N N N N ++++3+H h+e+e+e+e+e+S.S.S.S.S.!+!+!+!+!+!+!+!+S.S.S.S.) ) ) ) ) ) S.h+H ++++++9+R R R L W.W.3+++++ +d d ;.M.;.;.;.d  +| ++H H H h+3 e+X ) B B B B B B B B ) ) S.!+!+!+!+3+3+3+3+3+++++ + +d &+&+&+&+&+U. +<.H e+e+X X <+) ) B B B B <+<+<+<+<+B B B B B ) X c.<.w+w+w+w+w+<.<.3 S.) ) ) ) ) S.!+!+!+!+3+3+h+!+!+) ) ) X X X e+h+H H 3 S.S.S.S.) ) ) ) ) ) ) ) ) ) ) ) S.S.S.S.!+!+!+!+h+h+h+h+h+!+!+!+S.) ) ) B B B B B p p B B B B B <+<+<+<+<+S.S.S.) ) ) ) ) ) ) ) B B B B B B B B B B B B B B B B B B B B ) ) ) ) S.S.S.S.S.) S.S.e+e+e+e+X <+X e+3 <.<.<.",
"*.*.B B B B B B *.t.t.e+3 c.c.c.c.c.H h+h+h+h+!+!+!+!+S.S.S.S.S.S.S.S.X ) B B B B B B S.S.e+3 h+h+!+!+S.S.S.S.e+h+3 3 S.S.B B B p p p p p B B B *.<+<+S.S.S.3 H H | |  + + + + +| <.H e+S.*.B B B ) B B B B B B B B B B B B <+S.S.S.!+h+h+h+e+e+e+e+X *.B B B ) S.S.S.S.) B B *.t.e+e+c.<.<.<.++++3+3+3+3+9+9+9+u+u+u+9+9+9+9+9+9+9+3+3+3+3+3+3+3+3+9+9+9+9+9+9+9+9+3+3+3+3+3+3+3+3+3+L L L L L L 3+3+h+h+!+!+!+!+S.S.S.S.S.S.S.S.S.S.S.S.S.) ) ) ) ) ) ) !+h+H ++++| | ++++++++++++u+N 4.4.4.4.4.4.| ++<.H 3 e+e+e+X X S.S.S.e+h+h+H H H H H H h+3 S.S.S.) ) ) ) ) S.!+H ++++3+3+R R L L W.3+++ + +d d &+&+;.;.d d  +| ++H H <.<.<.<.c.e+X B B B B B B B B ) ) ) S.!+!+!+L L L 3+3+3+++++ + + +d d d d  + +| <.<.<.c.e+e+S.S.) ) B B <+<+<+<+<+B B B ) ) X e+3 <.<.w+w+<.<.<.H h+S.) ) ) ) !+!+!+!+!+h+h+h+!+!+S.) ) ) ) X X e+e+h+3 S.S.S.S.) ) ) ) ) ) ) ) ) ) ) ) ) S.S.S.S.!+!+!+h+h+h+h+h+h+h+h+h+!+S.) ) B B B B B p p p B B B B B B <+<+<+<+S.S.) ) ) ) ) ) ) ) B B B B B B B B B B B B B B B B B B B B B ) ) ) S.S.S.S.S.S.S.e+c.c.c.c.e+e+e+e+c.c.<.<.",
"*.*.*.B B B B *.t.t.e+3 3 3 3 3 3 e+e+e+e+S.S.S.S.S.S.S.S.S.) ) ) S.) ) ) ) ) B B B B <+S.e+e+e+S.S.S.S.S.) S.S.S.S.S.S.) B B B p p p p p p p B B B <+<+<+S.S.3 H H | | | | | <.H h+e+S.*.*.*.B B B B B B B p p p p B B B <+<+S.S.e+e+e+e+e+e+e+e+X *.*.B B B B S.S.S.S.) B B B *.<+e+e+3 H H H ++3+3+3+3+3+3+3+3+3+9+9+9+9+9+9+9+u+u+u+u+u+u+u+u+u+u+u+u+u+u+9+9+9+9+3+3+3+3+3+3+L L L L L !+!+h+h+H h+h+h+h+!+S.S.) ) ) ) ) ) ) ) ) ) ) ) ) ) ) ) ) ) ) S.!+h+H ++++++ + + + +N N N 4.4.;.;.;.;.4.d  +| <.H e+e+X X X X X e+e+h+H H H H H H H H H !+S.S.) ) ) ) ) S.!+h+3+3+3+L L L ^ L L 3+ +d ;.;.;.;.&+&+d d  +| ++++++|  +U.U.~ w+c.e+) ) ) ) ) ) ) ) ) ) ) ) o o !+!+!+W.W.W.3+3+++++| |  + + + + + + + + + +<.<.H 3 S.S.X X X ) ) ) ) ) ) ) ) ) ) S.e+h+<.<.<.<.<.H H h+!+o o o o !+!+!+!+L 3+h+h+!+!+S.) ) ) ) ) ) X S.S.S.S.S.S.S.) ) ) ) ) ) ) S.S.) ) ) ) ) S.S.S.S.!+H H H h+3+3+3+3+3+H h+h+S.X ) B B B B B B B B p p p p p p p B B B <+<+<+<+<+S.X X X ) B B B B B B B B B B B B B B B B B B B B B B ) ) S.S.S.S.S.S.e+3 c.<.<.c.c.c.e+c.c.c.c.c.",
"t.t.*.*.B B B <+t.e+c.c.3 3 3 3 e+e+e+X X S.) ) ) ) ) ) ) ) ) ) ) ) ) ) ) ) ) ) B B B <+S.e+e+e+S.S.) ) ) ) ) S.S.S.S.S.) B B B p p p p p p p p p p B B B B ) S.3 H H H <.<.H H e+S.X *.*.*.*.*.B B B B B p p p p p p B B <+<+<+S.e+e+e+e+e+e+e+X *.*.*.B p B B S.S.S.S.) B B B B B <+S.S.e+h+H H ++++3+3+3+3+3+3+3+3+3+9+9+9+9+u+u+u+u+u+u+u+u+u+u+u+u+u+u+u+u+9+9+9+9+3+3+3+3+L L L L L !+!+h+h+H <.H H h+h+S.X ) B B B B B B B B B B B B B ) ) ) ) ) ) ) S.!+h+h+<.++ + + +4.4.4.4.4.;.;.c ;.;.;.d  + +<.H e+e+<+*.) X X e+e+h+H <.<.<.<.<.H H H H !+S.) ) ) ) ) ) !+h+3+3+3+L L ^ ^ L 3+++4.;.;.M.M.;.d d  +| ++H H ++|  +U.&+L.L.U.<.e+) ) ) ) ) ) ) ) ) ) ) ) ) o o o  .W.W.W.W.3+3+H H H H <.++| |  +4. + + + +| <.H h+e+e+X X X ) ) ) ) ) ) ) ) S.h+h+h+h+H H h+h+h+!+!+o o o o !+!+!+!+!+3+3+h+!+!+S.S.) B B B ) ) ) S.S.S.S.S.S.) ) ) ) ) ) ) S.S.S.S.) ) ) ) S.S.S.S.H H H H 3+3+3+3+3+++++H h+e+e+X <+B B B B B B B p p p p p p p p B B B B <+<+<+<+X X X X B B B B B B B B B B B B B B B B B B B B B B B ) S.S.S.S.S.S.e+c.<.w+w+<.c.c.c.c.c.c.c.c.",
"t.t.t.<+B B B *.t.e+3 3 3 3 e+e+e+X X X ) ) ) ) ) ) ) ) ) ) ) ) ) ) ) ) ) ) ) ) B B B ) X e+e+S.S.) ) ) ) ) ) ) S.S.S.S.) B B B p p p p p p p p p p p B B B B S.S.3 H H H H 3 S.S.) B *.*.*.*.*.B B B B p p p p p p p p B <+<+<+t.e+e+e+e+e+e+X *.*.*.*.B p B B <+S.S.S.) B B B B B B <+S.S.S.h+H H ++++++++++++3+3+3+3+3+9+9+9+9+u+u+u+u+u+u+u+u+u+u+u+u+u+u+9+9+9+9+9+3+3+3+L L L L L L !+!+h+H <.<.H h+h+e+S.) B B B B B B B B B B B B B B ) ) ) ) ) ) ) ) S.S.h+h+<. + + +d 4.4.4.4.;.;.;.;.;.;.d  + +<.H e+X *.B B X X e+e+3 H <.<.<.<.<.H H H H !+S.) ) ) ) ) ) !+h+3+3+3+L ^ ^ L L 3+N 4.;.;.E.;.;.d  +| <.H H H H |  +d &+s &+U.w+H S.) ) ) ) ) ) ) ) S.S.) S.o o  . . .W.W.W.W.!+!+!+!+!+!+H 3+++| 4.4.d  + + +| H H h+e+e+X X X ) ) ) ) ) ) S.!+h+h+h+h+h+h+!+!+o o o o o o !+!+!+!+!+!+3+h+!+!+S.S.<+B B B B B ) ) ) S.S.S.S.) ) ) ) ) ) ) ) S.S.S.S.S.) ) S.S.S.S.S.H H H H 3+3+3+3+3+++++<.<.<.c.3 e+t.<+<+B B B B B p p p p p p p p B B B <+<+<+<+X X X X *.B B B B B B B B B B B B B B B B B B B B B B ) S.S.S.S.S.e+3 c.<.w+w+w+c.c.c.c.c.c.c.c.",
"t.t.t.<+<+B B *.t.e+e+e+e+e+S.S.X X X ) ) ) ) ) ) ) ) ) ) ) ) ) ) ) ) ) ) ) ) ) ) ) ) ) S.S.S.S.S.) ) ) ) ) ) S.S.S.S.S.) B B B p p p p p p p p p p p B B B B ) S.S.S.S.S.S.S.S.) ) B <+*.t.t.*.*.B B p p p p p p p p p B B <+<+<+X X X X X X *.*.*.*.B B B B B <+S.S.S.) B B B B B B B B ) S.S.h+H ++|  + + +| ++3+3+L L 3+9+9+9+9+9+9+9+9+9+9+9+9+9+9+9+9+9+9+9+9+9+3+3+3+L L L L L L L h+h+H H H H 3 e+e+X ) ) B B B B B B B B B B B B B B ) ) ) ) X X X X S.S.S.e+H <.<. + + +4.4.4.4.4.;.;.4.4.d  +| <.3 e+X B B B ) X X e+e+h+h+H H H H H H H H !+S.) ) ) ) ) ) !+h+3+3+3+W.^ L 3+++N 4.;.;.;.;.;.d  +| ++H H H H ++|  +d &+s s L.w+<.S.) ) ) ) ) o !+!+!+!+S.!+!+!+h+h+W.W.W.W.!+!+!+!+!+!+!+!+3+3+++++ + + + +| | H H h+h+h+e+e+S.S.) ) ) ) o o !+!+!+!+!+!+!+o o o o o o !+!+!+!+!+!+!+!+!+!+!+S.S.<+B B B B B B ) ) ) ) S.S.) ) ) ) ) ) ) ) ) S.S.S.S.S.S.S.S.S.S.S.!+h+H H H h+3+3+3+3+++++<.<.w+w+<.c.3 3 e+S.<+B B B B p p p p p p p p p B B <+<+<+t.X X X X <+B B B B B B B B B B B B B B B B B B B B B B S.S.S.e+e+3 3 c.<.w+w+<.c.c.c.c.c.e+e+e+",
"t.<+<+<+B B B B *.t.t.t.<+<+<+<+*.B B B B B B ) ) ) ) ) ) ) ) ) ) S.S.) ) ) ) ) ) ) ) ) S.S.S.S.) ) ) ) ) ) S.S.S.S.S.S.) B B B p p p p p B B B B B B B B B B B ) ) S.S.<+<+<+) ) ) ) X S.e+t.t.<+B p p p p p p p p p p p B B B <+<+<+<+<+<+*.*.B B B B B B B B <+S.S.S.) B B B B B B B B B ) S.S.h+<. + +d d  +| 3+3+L L L 3+3+3+3+3+3+3+3+3+3+3+3+3+3+3+3+3+3+3+3+3+3+3+L L L L L L L 3+3+H H H H 3 e+e+X ) ) B B B B B B B B B B B B B ) ) ) X S.X X X X X X X X S.e+H <.<.| | |  +4.4.4.4.4.4.4.| | <.H e+S.<+B B B ) S.S.e+e+e+e+h+h+h+h+h+H H H !+S.) ) ) ) ) ) !+h+3+3+3+W.L L 3+N 4.;.;.;.;.d d  +++++H H H H H ++|  +d &+s s &+U.<.h+S.) ) ) S.h+h+h+h+h+h+h+h+h+h+3+3+h+!+!+!+!+!+!+!+o o !+!+3+3+++++| | | | ++3+3+h+h+h+h+h+!+!+!+o o o o o o o o o o o o o o o o o !+L L !+!+!+!+!+!+!+!+S.S.<+B B B p B B B B B ) ) ) ) ) ) ) ) ) ) ) ) ) S.S.S.S.S.S.!+!+!+!+!+!+h+h+h+h+h+!+h+h+h+H <.| U.U.U.w+w+<.c.3 e+S.<+B B B B p p p p p p p p p p B B <+t.t.t.X X S.<+) B B B B B B B B B B B B B B B B B B B <+S.S.e+e+3 3 c.c.c.c.c.c.c.c.c.c.e+t.t.t.",
"<+<+<+<+B B B B B B B B B B B B B B B B B B B ) ) ) ) ) ) ) ) ) S.S.S.S.) ) ) ) ) ) ) ) S.S.S.S.) ) ) ) ) S.S.S.S.S.S.S.) B B B p p p p B B B B B B B B B B B B B B B B B B B B B ) ) S.S.e+e+<+<+B p p p p p p p p p p p p p B B B B B B B B B B B B B B B B B S.S.S.S.) B B B B B B B B B ) ) S.e+H  +d &+&+d  +++H L L L L L L L L L L L L L L L L 3+3+3+3+3+3+3+3+3+L L L L ^ ^ L 3+3+++++<.H 3 e+e+X ) B B B B B B B B B B B B B B ) ) ) ) X e+e+e+e+e+e+X ) ) ) S.e+3 H H ++++++++++++++++++++++3+H h+S.S.) B B ) S.S.S.S.S.S.S.S.!+!+!+!+H H H !+S.) ) ) ) ) ) h+h+3+3+3+!+ .3+++4.;.;.;.;.d  + +++H h+h+h+H H H ++++ +d &+s s &+U.<.H S.S.S.S.h+h+3+++H H H H H H 3+3+3+h+!+!+!+!+!+!+!+o o o o !+!+h+h+H H H H 3+3+3+3+h+h+h+h+!+!+!+!+o o o o o o o o o o o o o o o !+L 3+3+L !+!+!+!+!+S.S.S.<+B p p p p p B B B B ) ) ) ) ) ) ) ) ) ) ) ) ) S.S.S.S.!+h+h+!+!+!+!+!+h+h+h+h+!+!+!+!+h+h+<. +U.U.L.U.w+w+<.c.3 S.S.) B B B B p p p p p p p p p p p B *.t.t.t.S.S.S.) B B B B B B B B B B B B B B B B B B B <+X e+e+e+3 c.c.c.c.c.c.c.c.c.c.e+t.<+<+B ",
"<+<+<+<+B B B B B B B B B B B B B B B B B B B ) ) ) ) ) ) ) ) ) S.S.S.S.) ) ) ) ) ) ) ) S.S.S.S.) ) ) ) ) S.S.S.S.S.S.S.) B B B B p p p B B B B B B B B B B B B B B B B p p p B B ) ) S.S.e+e+t.<+B B p p p p p p p p p p p p B B B B B B B B B B B B B B B B <+S.S.S.S.) B B B B B B B B B B ) ) S.H w+d &+&+&+ +| ++3+3+L L L L L L L ^ ^ ^ L L L L L L 3+3+3+3+3+3+3+L L L L ^ ^ L 3+3+++| <.H e+e+X *.B B B B B B B B B B B B B B ) ) ) ) S.e+e+e+e+e+e+e+X ) ) ) ) S.S.h+H ++++++++3+3+3+3+3+3+3+h+h+!+S.S.S.) ) S.S.S.S.S.S.S.S.o o o !+!+!+h+h+!+S.) ) ) ) ) S.h+h+++++3+h+!+3+| 4.;.;.;.d  +| <.h+h+!+!+h+H H H H ++|  +d &+&+d  +<.H H H H H <.++++++++H H H H H ++++++H h+!+!+!+!+!+!+o o o o o o !+!+!+H H H 3+3+3+3+h+h+h+!+!+!+!+!+o o o o o o o o o o o o o o o L L 3+3+3+!+!+!+!+S.S.S.<+B p p p p p p B B B B B ) ) ) ) ) ) ) ) ) ) ) S.S.S.S.S.!+h+h+!+!+!+!+!+h+h+h+h+!+!+!+!+!+h+H w+U.U.L.U.U.w+w+<.3 3 S.S.S.<+B B B p p p p j.j.p p p p B *.*.t.t.S.S.S.S.) B B B B B B B B B B B B B B B B B ) S.S.e+e+3 c.c.c.c.c.c.c.c.c.c.e+e+t.*.B B ",
"<+<+<+B B B B B B B B B B B B B B B B B B B B ) ) ) ) ) ) ) ) ) ) S.S.S.S.) ) ) ) ) ) ) ) ) ) ) ) ) ) ) ) ) S.S.S.S.S.) <+<+B B B B B B B B B B B B B B B B B B B B p p p p p B B B ) S.S.e+e+S.<+<+B B B B B B B B B p p p B B B B B B B B B B B B B B B B *.<+S.S.S.S.) B B B B B B B B B B B ) S.3 <.U.&+&+&+d  + +| 3+L L ^ ^ ^ ^ ^ ^ ^ ^ L L L L 3+3+3+3+3+3+3+3+L L L L ^ ^ ^ L 3+++++++H h+e+X *.B B B B B B B B B B B B B B ) ) ) S.S.h+h+h+h+h+h+e+S.S.) ) ) ) S.h+h+H 3+3+3+3+3+3+L L L L !+!+!+!+!+!+!+e+e+h+h+H H h+h+h+!+!+!+!+!+!+!+!+!+!+S.) ) ) ) ) ) h+h+++++3+h+!+3+ +;.;.c ;.d  +<.h+h+ . .!+h+h+H H h+H <.|  +U.U. +<.H H <.<. + + + + + +++H H h+H H ++++H H H !+!+!+!+!+!+o o o o o o o o !+!+!+!+!+L L !+!+ .!+!+!+!+!+o o o o o o o o o o o o o o o L L 3+3+3+3+!+!+!+S.S.S.<+B B p p p p p p B B B B B ) ) ) ) ) ) ) ) S.S.S.S.S.S.S.!+!+!+h+!+!+!+!+!+h+h+h+h+h+!+!+!+!+h+h+<.w+w+U.w+w+w+w+<.<.H 3 e+S.S.<+B B B p p p p j.p p p p p B *.<+<+S.S.S.S.S.) ) ) ) ) ) ) B B B B B B B ) ) ) S.S.S.e+3 3 c.c.c.c.c.e+e+e+e+e+e+t.<+B B B ",
"B B B B B B B B B B B B B B B B B B B B B ) ) ) ) ) ) ) ) ) ) ) ) ) ) S.S.S.S.) ) ) ) ) ) ) ) ) B B B B ) ) ) ) ) ) ) <+X X X <+B B B B B B B B B <+<+B B B B B B p p p p p p B B B ) S.S.e+e+e+S.<+<+<+<+<+<+<+<+<+B B B B B B B B ) ) ) ) ) B B B B B B *.*.*.S.S.S.S.) B B B B B B B B ) ) B B ) e+<. +d d &+&+&+d  +++3+^ ^ ^ ^ ^ ^ ^ ^ W.W.L 3+3+3+3+3+3+3+3+3+3+L L !+^ ^ ^ L L 3+3+++++H h+S.*.B B B B B B ) ) B B B B B B ) ) ) S.S.h+h+h+H H H h+h+S.S.) ) ) S.h+h+H 3+3+3+3+3+L !+!+!+!+!+!+!+!+h+h+h+h+h+H H H H H H H H h+h+h+h+!+!+!+!+!+!+) ) ) ) ) ) ) h+h+++++3+h+!+H  +;.c c ;. +<.h+e+X X X h+h+h+h+h+h+h+h+H <.<.<.<.H H H |  +d d d d d  +| H h+h+h+H <.<.<.H H !+!+!+S.S.S.S.S.S.) ) ) ) o o !+!+!+!+!+!+!+!+!+ .o o o o o o o o o o o o o o o o o o L L L 3+3+3+3+!+!+o o ) ) B B B p p p p B B B B B B B ) ) ) ) )  . . . . .!+!+!+!+!+!+!+!+!+!+!+!+!+!+h+h+h+h+h+h+h+!+!+S.e+3 c.<.<.w+w+<.<.<.<.<.H 3 3 e+S.<+B B B p p p p p p p p p B B <+<+S.S.S.S.S.S.S.S.S.S.) ) ) ) ) ) ) ) ) ) ) S.S.S.!+h+H H <.<.c.c.e+e+t.t.t.t.*.*.B B B B ",
"B B B B B B B B B B B B B B B B B B B B ) ) ) ) ) ) ) ) ) ) ) ) ) ) ) ) S.S.S.S.) ) ) ) ) B B B B B B B B B B B B B B <+X X X <+B B B B B B B B <+<+<+<+B B B B B p p p p p p B B B B X S.e+e+e+S.S.S.S.S.e+e+t.<+<+<+<+B B B B ) ) ) ) ) ) ) ) B B B B *.*.*.X S.S.S.S.) B B B B B B B ) ) ) ) B ) S.3 <. +d &+&+&+&+d  +++L ^ ^ ^ L W.W.W.W.W.3+3+3+3+3+++++3+3+3+3+3+L !+!+^ L L L 3+++++++H e+X B B B B B B ) ) ) ) B B B B ) ) ) ) S.h+h+h+H ++++H h+!+!+S.) ) S.!+h+3+++++3+3+3+3+L !+!+!+!+!+!+h+3+3+3+3+3+3+++++++| | ++++++3+h+h+h+h+!+!+!+o o ) ) ) ) ) ) S.h+h+++++3+h+H | d ;.E.E.;. +<.e+X X X X e+h+h+h+h+!+S.S.e+h+h+h+h+h+H <. +d ;.;.;.;.d  +| H h+S.e+h+<.<.<.H H H !+S.S.) S.S.S.S.S.) ) ) o o o o o o o o o o o o o o o o o o o o o o o o o o o o o L L L L 3+3+3+3+!+o o ) ) ) B B p p p p B B B B B B B B ) ) ) )  . . . .h+h+h+!+!+o o o !+!+!+!+!+!+!+!+h+h+h+h+h+h+h+!+S.S.S.S.S.e+3 c.c.<.<.<.<.<.<.3 3 3 e+S.<+B B B p p p p p p p p B B B <+S.S.S.S.S.S.S.S.S.S.S.S.) ) ) ) ) ) ) ) S.!+!+!+h+H H H <.<.<.c.e+X <+B B B B B B B B B ",
"B B B B B B B B B B B B B B B B B B B B ) ) ) ) ) ) ) ) ) ) ) ) ) ) ) ) S.S.S.S.) ) ) ) B B B B B B B B B B B B B B B <+X X X X B B B B B B B B <+<+<+<+<+B B B B B B p p p p B B <+<+e+e+e+e+e+S.S.S.S.e+e+e+e+S.S.<+<+<+B ) ) ) ) ) ) ) ) ) ) B B B B *.*.*.X S.S.S.S.) B B B B B B B ) ) ) ) B B X e+H <. +d &+E.E.;.d N ++3+3+3+3+3+3+6 6 3+3+3+3+3+3+3+++3+3+3+3+3+3+L L L L L 3+3+++++++H e+) B B B B B B ) ) ) ) B B B B ) ) ) ) !+h+h+h+3+3+3+3+h+!+!+!+S.) S.h+H ++++++++3+3+3+3+h+h+h+h+H H 3+3+3+3+3+3+3+++++++| | ++++++++3+h+h+h+!+!+o o o ) ) ) ) ) ) S.h+h+++++++++|  +;.;.(.E.;. +H S.) ) X X X h+h+h+!+o ) ) ) S.S.!+!+!+H |  +&+;.;.;.;.d  +| H e+S.S.h+H <.<.<.<.H H !+S.S.S.S.S.S.S.S.) ) ) o o o o o o o o o o o o o o o o o o o o o o o o o o o o L L L L 3+3+3+L !+o o ) ) B B B p p p B B B B B B B B ) ) ) ) o  . . . .h+h+h+!+o o o o !+!+!+!+!+!+!+!+h+h+h+h+h+h+h+S.S.) ) ) B B <+e+e+c.<.<.<.<.<.c.3 3 e+S.<+B B B B B p p p p p p B B B B ) S.S.S.S.S.S.S.S.S.S.S.) ) ) ) ) ) ) S.!+!+!+h+H H H <.<.<.<.c.e+<+B B B B B B B B B B ",
"B B B B B B B B B B B B B B B B B B B B ) ) ) ) ) ) ) ) ) ) ) ) ) ) ) ) ) S.S.) ) ) ) B B B B B B B B B B B B B B B <+<+<+X X <+B B B B B B B B <+<+<+<+<+<+<+<+<+<+*.*.B B B <+t.e+3 3 3 3 3 3 3 3 3 3 3 3 3 3 3 S.S.S.S.) ) ) ) ) ) ) ) ) ) ) ) B B B *.*.X X S.S.S.S.) B B B B B B B ) ) ) ) B B ) X e+<. +d s E.E.E.;.4.4.u+u+++++++++++++++++3+h+h+h+h+h+H 3+++++++3+3+3+3+3+L 3+3+++++++H h+) B B B B B B B ) ) ) ) B ) ) ) ) ) ) o !+h+h+h+3+3+H h+!+!+!+S.S.!+h+H ++++++++3+3+3+3+3+++++++| | ++++3+3+3+3+3+3+3+++++++++++++++3+h+h+h+!+o o o o ) ) ) ) S.S.!+h+h+3+++|  +4.;.c (.(.(.;. +H ) B B ) ) X X  . .o o ) ) ) o !+!+h+H ++|  +d ;.;.&+d d  +<.H e+S.S.e+h+H <.| | | <.h+S.S.S.S.S.S.S.S.) ) ) ) ) ) o o o o o o o o o o o o o o o o o o o o o o o !+!+!+L L 3+3+3+3+L !+o o ) ) B B B B B B B B B B B B B ) ) ) ) o o  . . . . . .!+!+o o o o o !+!+!+!+!+!+!+h+h+h+h+h+h+e+X ) ) ) B B B B *.X e+3 3 3 3 3 3 3 3 e+S.S.) B B B B B B B B B B B B B B ) ) S.S.S.S.S.S.S.S.S.S.S.S.) ) ) ) S.S.!+!+h+H H H <.<.<.<.<.c.e+<+B B B B B B B B B B ",
"B B B B B B B B B B B B B B B B B B B B ) ) ) ) ) ) ) ) ) ) ) ) ) ) ) ) ) ) ) ) ) B B B B B B B B p p p p p p B B <+<+<+<+<+B B B B B B B B B B <+S.S.<+<+<+<+t.t.t.t.t.*.B <+t.3 c.c.c.H H H H H H H H H H H 3 3 3 3 S.S.S.S.S.S.!+S.S.) ) ) ) ) ) ) ) ) ) X X S.S.S.S.) B B B B B B ) X X X ) B B B ) S.h+<.d s E.(.(.E.;.;.4.4.4.4.4.4.4.4. +++H h+!+!+h+h+h+H <.++++++++++++3+3+3+++++| ++<.h+S.) B B B B B B B B ) ) ) ) ) ) ) ) ) o o !+!+h+h+h+h+!+!+!+!+!+!+!+H H ++++++++3+3+3+++++++ + + + + +++3+3+3+3+3+3+3+3+3+3+3+3+3+3+3+h+h+h+!+o o o o ) ) ) S.S.!+h+h+3+3+++4.4.;.c (.(.(.(.;. +H ) B B B ) ) ) o o o o o o o !+h+h+++++++|  + +d d d d  + +<.h+S.) ) S.e+h+<. + + +| H e+S.S.S.3 3 S.S.) ) ) ) ) ) ) o !+!+!+!+!+!+!+!+S.S.!+!+!+!+!+!+!+!+!+!+!+!+!+!+!+L 3+3+3+3+!+!+o ) ) ) B B B B B B B B <+) ) ) ) ) ) )  . . . .o o o o o o o o o o o o o o !+!+!+!+!+H h+h+h+h+e+X X ) ) B B B B B B *.<+t.e+e+e+3 3 3 3 e+S.S.) ) ) ) <+<+B B B B B B B B B B B ) S.S.S.S.S.S.S.S.S.S.S.S.S.S.S.S.S.!+h+h+H H <.<.<.<.<.<.c.e+<+B B B p p B B B B B ",
"B B B B B B B B B B B B B B B B B B B B ) ) ) ) ) ) ) ) ) ) ) ) ) ) ) ) ) ) ) ) ) B B B B B B B p p p p p p p B <+<+<+<+<+B B B B p p p B B B B S.S.S.S.<+<+<+t.t.e+e+t.<+<+<+e+c.<.<.<.<.H H H H H H H H H H H H H H !+!+!+!+!+!+!+!+S.) ) ) ) ) ) ) ) ) ) ) S.S.h+h+S.) B B B B B B *.X e+e+X *.B B B ) e+<.U.&+E.(.(.(.(.(.c ;.;.;.;.;.d d  +<.H S.S.S.S.S.h+h+<.<.| |  +N u+++++++++|  +| <.h+S.) B B B B B B B B B ) ) ) ) ) ) ) ) o o o !+!+!+!+!+!+!+!+!+!+!+!+H ++| | ++H H H ++++| 4.4.4.d d 4.| ++3+3+!+!+!+!+L L 3+3+3+3+3+3+h+h+h+!+o o o o ) ) ) S.!+h+H H 3+3+++4.;.c (._._._.(.M.d <.e+) ) ) ) X o o  .o o  .!+h+3+++++++|  + + +| | |  + + + +<.h+S.) ) ) S.h+<. +d d  +<.H S.S.3 H h+!+S.) ) ) ) ) ) ) S.!+h+!+!+!+!+!+S.S.S.S.!+!+!+!+!+!+!+!+!+!+!+!+!+!+!+L 3+3+3+!+!+o ) ) B B B B B B B B ) S.S.S.) ) ) )  . . . .o o o o o ) ) o o o o o o o o o !+!+!+!+H H H h+e+e+X X ) B B B B B B B B B <+<+<+<+t.e+e+e+e+S.S.) ) ) ) S.S.<+B B B B B B B B B B B ) S.S.S.S.S.S.S.S.S.S.S.S.S.S.S.S.h+h+h+H H <.<.<.w+w+<.c.3 <+B B p p p B B B B B ",
"B B B B B B B B B B B B B B B B B B B ) ) ) ) ) ) ) ) ) ) ) ) ) ) ) ) ) ) ) ) ) ) B B B B B B B p p p p p p p B <+<+<+<+B B B B p p p B B B B B ) S.S.S.<+<+t.t.e+e+e+t.t.<+t.3 <.w+w+w+<.H H H H H H H H H H H H H H h+!+!+!+!+!+!+!+S.) ) ) ) ) ) ) ) ) ) ) S.h+h+h+e+X B B B B B B X e+e+e+e+<+B B B ) S.H U.&+E.(.k k k k k k (.(.c ;.;.d  +<.3 S.) ) ) S.e+e+H <.++|  +4.N N N N  + + + +<.H S.) B B B B B B B B B ) ) ) ) ) ) ) ) o o o o !+!+!+!+!+!+!+!+!+!+!+H H ++++H H h+h+3+++| 4.4.4.d d 4. +++++3+!+!+o o L L L L 3+3+3+3+h+h+h+ .o o o o o S.S.!+h+H H H 3+++N 4.R.c _._._._.(.M.d  +<.H 3 3 3 h+h+h+3+3+3+3+++++++++|  + + +| ++++H <.<.|  + +<.H S.) ) ) ) h+<. +d d d  +<.H H H H h+!+S.) ) ) B B ) ) S.!+h+!+!+!+!+!+S.S.S.S.S.!+!+!+!+!+!+!+!+!+!+!+!+!+!+!+3+3+3+!+!+S.) ) B B B B B B B ) S.S.S.S.S.) ) o  . . . . .o o o ) ) ) ) o o o o o o o o !+!+!+!+H H H h+e+X X *.B B B B B B B B p p p B <+<+<+<+S.e+e+S.S.) ) ) S.S.S.) B B B B B B B B B B B B <+S.S.S.S.S.S.S.S.S.S.S.S.S.S.e+h+h+h+h+H <.<.<.w+w+<.c.3 <+B B p p p p B B B B ",
"B B B B B B B B B B B B B B B B B B ) ) ) ) ) ) ) ) ) ) ) ) ) ) ) ) ) ) ) ) ) ) ) B B B B B B p p p p p p p B B <+<+<+B B B B B p p B B B B B B ) ) S.S.S.<+t.t.e+e+e+t.<+<+e+c.<.w+ +w+<.<.H H H H H H H H H H H H h+h+!+!+!+!+!+!+!+o o ) ) ) ) ) ) ) ) ) ) !+h+h+h+h+S.) B B B B B X e+e+e+e+X B B B B ) h+<.U.s E.k q+q+>.>.q+q+!.k E.&+ +<.H e+S.) ) ) ) X e+e+H <.++|  +4.4.4.4.4.d d  +<.H S.) B B B B B B B B B ) ) ) ) ) ) ) ) ) o o o o !+!+!+!+!+!+!+!+!+h+H 3+H H H h+h+h+h+H ++|  +d d d d 4. +++++3+!+o o o L L L L L L h+h+h+ . .o o o o !+!+h+h+H H H ++++++4.4.R.c c _._._.(.(.;.&+d U.w+w+w+| | |  +4.4.4.4.4.4.4.4.4. +| ++H H h+H <.|  + +<.H S.) ) ) ) h+<.d &+;.&+d  +<.<.H H h+!+S.) ) ) ) ) ) ) S.S.!+!+!+!+S.S.S.S.S.S.S.S.S.S.S.S.S.!+!+!+!+!+!+!+!+!+3+3+3+h+!+S.) ) B B B B B B B ) S.!+!+!+!+o o o  . . . . .o o o ) ) ) ) o o o o o o o o !+!+!+!+H h+h+e+e+X *.B B B B B B B B B p p p p B B <+<+<+X X X S.) ) ) S.S.) ) B B B B B B B B B B B B B <+<+<+<+<+<+<+S.S.S.S.S.S.e+e+h+h+h+h+h+3 c.<.<.<.<.c.3 t.*.B B B p p B B B B ",
"B B B B B B B B B B B B B ) ) ) ) ) ) ) ) ) ) ) ) ) ) ) ) ) ) ) ) ) ) ) ) ) ) ) ) ) B B B B p p p p p p B B *.*.*.B B B B B p p B B B B B B B B B B ) <+X X X X t.t.t.<+<+S.e+<.<. + + +| <.H H H | | <.H H H H h+h+h+h+!+!+o o o o o o o o o o o !+S.) ) ) ) !+h+h+h+h+X ) B B B B B X e+3 3 e+X B B B B ) e+<. +d E.k q+s+7 7 7 7 >.q+E.d <.h+e+X ) B B B B ) X e+e+h+H ++| 4.;.;.c ;.;.d U.w+H e+) B B B B B B B B B ) ) ) ) ) X X ) ) ) o o o o !+!+!+L 3+3+3+3+3+3+H H H h+!+S.S.!+h+H H ++|  + +d d 4. +++3+ .o o o o o !+!+!+!+ . . . . .o o o  .h+h+h+H H ++++++++N 4.4.;.R.c c c (.(.(.(.M.M.;.&+&+d d d 4.;.;.;.;.c c ;.;.4.4.| ++H h+!+!+h+<.|  + +| <.e+S.) ) ) h+<.d &+;.;.&+d  +| <.H !+!+S.) ) ) ) ) ) ) ) S.S.S.S.S.S.S.S.S.S.S.S.) ) ) ) ) ) S.!+!+!+!+!+!+!+!+3+3+3+h+!+S.S.) B B B B B B ) ) !+!+!+!+!+o o o  . . . . .o o o ) ) ) ) o o o o o o o o !+!+!+!+h+h+h+e+X X B B B B B B B B B B p p p p B B B B B <+<+<+<+<+<+<+<+<+B B B B B B B <+<+B B B B B B B B B B B B <+<+<+S.S.S.e+e+3 H H H h+e+e+e+c.<.<.<.c.3 t.*.B B B B B p p p p ",
"B B B B B p p p B B B B ) ) ) ) ) ) ) ) ) ) ) ) B B B B ) ) ) ) ) ) ) ) ) ) ) ) ) ) ) B B B p p p p p B B *.*.*.B B B B B p p p B B B B B B B B B B B ) X X X X *.*.<+<+S.S.3 <. + + + +| <.H H <.| | | H H H h+h+h+ . . .o o o o ) ) ) o o o o !+!+!+S.) ) S.h+h+3+H h+e+) B B B B <+e+e+H H e+e+*.B B ) ) S.e+<.U.s k >.7 @+o+o+@+7 >.K.U.<.X ) B B B B B B B B ) X S.h+H | 4.;.c c c ;.&+d w+<.e+B B B B B B B B B B ) ) ) ) X X X X ) ) ) ) o o o !+L 3+3+3+3+3+3+3+h+!+!+!+S.S.) ) S.!+h+h+<.<. + +d d d  +++h+o o o o o o o o o  . . . . . .o  .h+3+3+++++++++++++u+4.4.4.4.4.;.;.c c c (.(.(.(.(.E.E.&+;.;.;.c c c c c c c c ;.4.| H !+S.) S.h+<. + + + +<.H S.S.) S.H  +d &+E.;.;.;.d  +| H !+!+) ) ) ) ) ) ) ) ) ) ) ) ) ) ) S.S.S.S.S.) ) B B B B ) ) S.!+!+!+!+!+!+!+3+3+3+h+!+S.S.) ) B B B B B ) S.!+h+3+!+!+o o o  . . . .o o o o ) ) ) ) o o o o o o o o !+!+!+!+h+h+h+S.X ) B B B p p B B B B B p p p p B B B B B B B <+<+<+<+<+<+B B B B B B B <+<+<+<+B p p p p p p p p p B B <+<+<+S.S.e+e+3 H <.H 3 e+e+e+e+c.<.<.c.3 t.t.*.B B B B p p p p ",
"B B B B p p p p B B B B ) ) ) ) ) ) ) ) ) ) ) ) B B B B ) ) ) ) ) ) ) ) ) ) ) ) ) ) ) B B B p p p p B B *.*.*.*.B B B B p p p p B B B B B B B B B B B B *.X X *.B B B <+S.S.3 <. + + + +<.H H H H | | H H H h+h+h+ . . .o o o o ) ) ) ) o o !+!+!+!+!+!+S.) S.h+h+++H h+e+) B B B B ) e+3 H H 3 e+X B B ) ) ) S.e+<.&+k >.7 o+g.g.o+@+>.K.U.e+B B B B B B B B B B B B ) S.h+<.d ;.c c c c ;.&+U.<.e+B B B B B B B B B B ) ) ) ) X X X X ) ) ) ) o o o !+!+3+3+3+3+3+3+3+!+!+!+!+) ) ) ) ) ) S.e+h+<.<. +d d d 4.++3+!+o o o o o o o o  . . . . . . .h+3+3+++++++++++++u+u+N 4.4.4.4.4.4.;.;.c c (.(.(.(.E.E.;.;.;.c c c c c c c c ;.;. +++h+) ) ) ) e+H |  + + +<.<.H H h+h+<. +d &+&+;.;.;.d  +++H !+!+) ) ) ) ) ) ) ) ) ) ) ) ) ) ) ) S.S.S.) ) B B B B B B ) S.S.!+!+!+!+!+!+L 3+3+h+h+!+S.S.) B B B B B ) S.!+h+3+L !+o o o  . . . .o o o o ) ) ) ) o o o o o o o o !+!+!+!+h+h+h+S.) B B B p p p B B B B B B p p B B B B B B B B <+<+<+<+<+B B B B B B B B <+<+<+B B p p p p p p p p p p p B <+<+<+S.e+e+3 H <.H 3 e+S.X e+3 c.c.c.e+t.t.<+*.B B B p p p p ",
"B B B B B p p p B B B B B ) ) ) ) ) ) ) ) ) ) B B B B B ) ) ) ) ) ) ) ) ) S.S.X ) ) ) B B B B B B B B B *.*.*.B B B B p p p p p p B B B B B B B B B B B B *.*.B B B B <+S.e+H <.<.| | | <.H H H H H H H H h+h+h+h+ . . .o o o ) ) ) ) ) !+h+h+h+!+!+!+!+S.S.S.h+H <.<.h+e+) B B B B ) e+e+H H e+e+X ) B B ) ) ) S.H U.E.q+h.@+o+o+o+@+>.K.~ e+B B B B B B B B B B B B B ) S.H  +4.;.c c c E.&+U.<.e+) B B B B B B B B B B ) ) ) ) X X ) ) ) ) ) ) o o !+!+!+h+3+3+3+3+h+h+!+!+o ) ) ) ) ) ) ) S.e+h+<. +d d ;.4. +++3+L ^ o o o o o o o  . . .h+h+h+3+3+3+++++u+u+u+u+u+u+u+u+++++++++|  +4.d ;.;.c c c ;.;.;.;.;.R.R.R.c c c c ;.;.4.| H S.) ) ) ) S.h+<. + + + + + + +<.<.<. +d &+&+;.;.;.4. +++h+!+o o S.) ) ) ) ) ) ) ) ) ) ) ) ) ) ) S.) ) B B B B B B B ) ) S.S.S.S.!+!+!+!+!+3+h+h+h+h+S.S.B B B B B ) S.!+!+L !+!+!+o o  . . . .o o o o o ) ) o o o o o o o o o !+!+!+!+!+!+S.X ) B B B B B B B B B B B B B B B B B B B B B B <+<+<+<+B B B B B B B B B B B B B p p p p p p p p p p p p p <+<+<+S.e+e+3 H H H h+e+e+e+e+e+3 3 3 e+e+t.*.*.B B B p p p p ",
") ) B B B p p p B B B B B B ) ) ) ) ) ) ) B B B B B B B ) ) ) ) ) ) ) ) S.S. .S.X X X ) B B B B B <+<+<+B B B B B p p p p p p p p p p p p p p p p p p B B B B B B B B X e+3 H <.<.<.<.H H H H !+!+h+h+!+!+S.S.S.X X X X ) ) ) ) ) ) ) S.h+h+H h+h+!+!+!+S.S.S.h+H <.<.h+e+) B B B ) ) S.h+h+h+h+e+X X B B B ) ) ) e+w+s k q+h.7 @+@+7 >.K.~ e+B B B B B B B B B B B B B B X h+<. +4.;.;.c E.;.d <.3 ) B B ) ) B B B B B B B B B B B B ) ) ) ) ) ) ) o o !+!+h+H H H H H h+!+) ) ) o ) ) ) ) ) ) S.e+H | d d ;.4.4.++3+3+L ^ ^ o o o o o  . . .h+<.++++++++9+u+u+u+N N u+u+9+3+3+3+H H H ++| |  +d d d ;.;.4.4.4.4.4.4.4.4.4.4.4.4. +| <.h+S.) ) ) ) S.h+H <. + +d &+&+d  + + + + +d d d 4.4.4.| 3+!+!+o !+!+S.S.) ) ) ) ) ) ) ) ) ) ) ) ) ) ) ) B B B B B B B B ) ) ) ) ) ) S.!+!+!+h+h+H H h+h+S.) B B B ) ) S.!+!+!+!+!+!+!+!+o o o o o o o o o o o o o o o o o o o o !+!+!+!+!+S.) ) ) B B B B B B B B B B B B B B B B ) ) ) <+<+<+<+<+B B B B B B B B B p p p B p p p p p p p p p p p p p p p p B <+<+S.e+e+h+h+h+h+h+3 e+e+3 e+e+e+e+e+e+*.<+B B B p p p p ",
") ) ) B B p p p B B B B B B B ) ) ) ) ) ) B B B B B B B ) ) ) ) ) ) ) ) S.h+h+e+X X X *.B B B B <+S.S.S.<+B B B B p p p p p p p p p p p p p p p p p p p p p B B B B <+e+e+H <.H H H H h+!+!+!+!+!+S.S.S.S.) S.X X X X X ) ) ) ) ) ) S.e+h+H H H h+!+!+!+S.S.S.3 H <.H 3 e+) B B B ) ) S.h+h+h+h+e+X X X ) B B B ) e+<.d E.k q+h.7 7 h.P.{+~ t.B B B B B B B B B B B B B B ) X h+++ +d ;.;.E.E.&+ +H S.) ) ) ) ) B B B B B B B B B B B ) ) ) ) ) ) ) ) ) S.S.!+h+H <.H h+h+S.) ) o o o o ) ) ) ) ) S.h+++ +d ;.4.4.N u+3+L L ^ ^ o o o o  . .h+h+++| | ++++u+9+u+N N N u+9+3+L L !+!+!+!+h+h+H H <.| | | u+u+u+u+u+u+u+u+u+u+++++++++H h+h+S.) ) ) ) ) S.h+H |  +&+;.;.;.&+d  + + + + +4.4.N N ++3+!+!+!+!+h+h+!+S.) ) ) ) ) ) ) ) ) ) ) ) ) ) ) B B B B B B B B B B ) ) ) ) ) o !+!+!+h+3+3+H h+S.) B B B ) ) S.!+!+!+!+!+!+!+!+o o o o o o o o o o o o o o o o o o o !+!+h+h+!+S.) ) ) B B B B B B B B B B B B B B B B B ) ) ) <+<+<+<+B B B B B B B B p p p p p p p p p p p p p p p p p j.j.p p p B B <+S.S.e+h+h+h+H <.<.<.c.3 e+e+e+e+e+e+X <+B B B p p p p ",
") ) ) B B p p p B B B B B B B B ) ) ) ) B B B B B B B ) ) ) ) ) ) ) ) ) S.S.e+e+X X X ) B B B ) S.S.S.S.S.<+<+B B B B B B p p p p p p p p p p p p p p p p B B B B B S.e+3 H H H H !+!+!+!+!+!+S.S.) ) ) ) ) ) X X X X X X ) ) ) S.S.e+h+H <.<.H h+!+!+!+S.S.3 3 H <.H 3 e+) B B ) ) ) S.!+h+h+h+h+e+e+X X ) B B ) S.H  +&+E.k q+h.h.h.P.{+w+t.B B B B B B B B B B B B B B B ) S.h+++ +d ;.E.E.;. +<.!+) ) ) ) ) B B B B B B B B B B ) ) ) ) ) ) ) ) ) ) S.S.S.3 3 H H e+e+S.) ) o o o o o ) ) ) ) o h+++ +d ;.;.4.4.N u+3+L ^ ^ o o o o  . .3+++++|  +| u+u+u+N N 1 N 9+9+L ^ o o o ) ) ) S.S.!+!+!+3+3+3+9+9+9+9+9+9+3+3+L L 3+h+h+h+h+!+S.) ) ) ) ) ) !+h+<. +;.;.E.;.;.d d  + +++++u+N N N ++3+3+h+h+h+h+h+h+h+h+S.S.) ) ) ) ) ) ) ) ) ) ) ) B B B B B B B B B B B B ) ) ) ) !+!+!+h+3+3+H h+e+) B B ) ) ) ) !+!+!+!+!+!+!+!+o o o o o o o o o o o o o o o o o o o !+!+h+h+!+S.) ) ) B B B B B B B B B B B B B B B B ) ) ) ) <+<+<+<+B B B B B B B B p p p p p p p p p p p p p p p p j.j.j.j.p p p B <+S.S.S.S.h+h+<.<.w+<.<.c.3 t.t.e+e+e+X <+B B B p p p p ",
") ) B B B p p p B B B B B B B B ) ) ) ) B B B B B B ) ) ) ) ) ) ) ) ) ) X X X X X X X ) B ) ) ) S.S.S.e+e+e+e+S.S.<+<+<+<+B B B B B B B B B B B B B B B B B B <+<+S.S.e+3 H H h+h+!+!+!+!+!+S.) ) ) ) ) ) ) ) S.S.e+e+e+S.S.S.S.h+h+h+H <.<.H H h+!+!+!+!+S.3 H H H H e+S.) ) ) ) ) ) ) o !+h+h+h+h+h+e+X ) ) ) ) ) h+| d ;.(.; q+>.>.; {+w+X B B B B B B B B B B B B B B B B ) S.h+++d ;.c c ;.d | H !+S.) ) ) ) B B B B ) ) ) ) ) ) ) ) ) ) ) ) ) ) ) ) S.S.S.e+e+e+e+S.) ) ) o o o o o o ) ) o o h+++ +4.4.4.4.4.N u+9+L ^ ^ ^ ^ ^ L W.W.3+++++|  +N u+u+N N N 1 N 9+9+L ^ o o o ) ) ) ) ) o !+!+!+L L L L L L L L L L !+!+!+!+!+!+!+h+h+!+!+o o o o o h+H  +d ;.;.;.;.;.4.4.u+u+u+u+N N N u+++3+3+++++++++++<.<.H h+e+) ) ) ) ) ) ) ) ) ) ) B B B B B B B B B B B B B ) ) ) o !+!+h+h+3+h+h+S.S.) B B ) ) ) S.!+!+!+!+!+!+!+o o o o o o o o o o o o o o o o o o o o !+h+h+S.S.) ) B B B B B B B B B B B B B B B B B B ) ) ) <+<+<+B B B B B B B B p p p p p p p p p p p p p p p p p j.j.j.j.p p p B <+<+S.S.S.h+H <.U.U.U.~ <.c.e+e+e+e+e+X <+<+B B p p p p ",
"B B B B B p p p B B B B B B B B ) ) ) ) B B B B B ) S.S.S.S.S.) B B B B ) ) ) ) ) ) ) B ) ) ) S.S.3 H 3 3 3 3 e+e+e+S.S.S.<+<+<+<+<+*.*.*.*.*.*.<+<+<+<+<+<+<+S.S.S.e+3 3 3 h+h+!+!+o o o o ) ) ) ) ) ) ) ) ) S.S.e+h+h+h+h+h+h+H <.<.<.<.H H h+!+!+!+!+!+!+H H H H h+e+S.) ) ) ) ) ) ) o o h+h+<.<.<.h+e+) ) ) ) o h+H  +d ;.k q+q+q+k s w+e+B B B B B B B B B B B B B B B B ) ) h+<. +;.c c ;.4. +++h+!+S.) ) ) ) ) ) ) ) S.S.S.S.S.S.) ) ) ) ) B B ) ) ) ) S.S.e+S.X ) ) ) ) o !+!+!+!+!+!+o o o L ++| 4.4.4.y.y.4.u+9+L ^ ^ ^ L L L L 3+3+++u+u+u+u+N N N N N N N 9+9+L L ^ o o o ) ) o !+!+!+!+L L L L ^ ^ ^ o o o o o o o o ) S.h+h+h+h+h+!+o o o o !+h+++4.;.;.;.;.4.4.4.u+u+u+u+N N N N N ++++++++| |  + + +<.<.h+S.) ) ) S.S.S.) ) ) ) B B B B B B B B B B B B B B ) ) ) o !+!+h+h+h+h+S.S.) ) ) B ) ) S.!+!+!+!+!+!+!+o o o o o o o o o o o o o o o o o o o o !+h+h+S.) ) B B B B p p p p B B B B B B B B B B B B B B B B B B B B B B B p p p p p p p p p p p p p p p p p p p j.j.j.j.p p p B <+<+S.S.S.e+<.w+L.L.L.L.~ c.c.e+e+e+e+e+<+<+<+B p p p p ",
"B B B B p p p p B B B B B B B B ) ) ) ) B B B B ) S.S.S.S.S.S.<+B B B B B B B B B B B B ) ) ) S.S.H H H H <.H H H H 3 e+e+e+e+e+e+e+e+X X X X X S.S.S.S.S.S.S.S.3 3 h+3 3 S.S.!+!+o o o o ) ) ) ) ) ) ) ) ) ) S.S.h+H h+h+h+h+<.<.| | <.<.H h+h+!+o !+!+!+H H H h+h+h+h+S.) ) ) ) ) ) ) o o !+h+<.| <.<.h+S.) ) ) o !+h+3+| d E.k q+P.k &+<.e+B B B B B B B B B B B B B B B B B ) S.H | d ;.c ;.;.4.| ++h+!+) ) ) ) ) ) ) S.S.S.S.h+h+S.S.) ) ) B B B ) ) ) ) ) ) ) ) ) ) ) ) ) !+!+!+!+!+!+!+o o ^ L 3+u+4.4.;.R.R.y.4.u+3+L ^ L L L L 3+9+9+9+u+u+u+u+N 4.N N N N N N 9+L L L o o o o !+!+!+!+!+L L L ^ o o o o o o o ) ) ) ) ) ) S.h+h+h+3+h+!+o o o o o h+++ +4.4.4.y.y.y.4.N u+9+u+N N N N N N 4.4.4.4.4. + + + +<.h+S.) ) S.!+!+S.) ) ) ) B B B B B B B B B B B B B B ) ) ) o o  .h+h+h+h+S.S.S.) ) ) ) ) S.!+!+!+!+!+!+!+o o o o o o o o o o o o o o o o ) ) ) S.!+h+h+S.X ) B B B p p p p p p B B B B B B B B B B B B B B B B B B B B B B p p p p p p p p p p p p p p p p p p p j.j.j.j.p p p B <+<+<+S.S.e+<.~ L.{+{+L.~ <.c.e+e+e+e+e+<+<+<+B p p p p ",
"B B B B p p p p B B B B B B B B ) ) ) ) ) B B ) S.S.S.S.S.S.S.<+B B p p B B B B B B B B B ) S.S.h+H H H <.<.<.H H H h+h+e+e+e+e+e+e+e+e+e+e+e+e+S.S.S.S.S.S.S.S.!+h+h+!+S.S.S.S.!+o o o ) ) ) ) ) ) ) ) ) ) ) S.S.h+H H H <.<.<.| | | <.<.h+h+!+o o !+!+H H H H h+h+h+S.) ) ) ) ) ) ) o o o h+++|  + +| H h+o o o o o o L ++ +;.(.o.k (.&+<.e+) B B B B B B B B B B B B B B B B ) ) h+| 4.;.;.R.;.4.4.| H h+S.) ) ) ) ) S.S.S.!+h+h+h+h+S.) ) ) B B B ) ) ) ) ) ) B B ) ) ) ) ) !+!+!+!+!+!+!+!+^ ^ L u+N 4.;.R.R.R.R.y.u+9+3+L L 3+3+3+9+9+9+9+9+u+u+u+u+N N N N N N u+3+3+L L ^ o o !+!+!+!+!+L L L !+o o o o ) ) ) ) ) ) ) ) ) ) S.!+h+3+3+3+h+ .o o o o L 3+++4.4.y.R.R.y.y.N u+u+u+N N N N N 4.4.4.4.4.4.4.d  + +<.h+S.) ) !+!+!+!+S.) ) ) B B B B B B B B B B B B B B B ) ) o o !+h+h+h+h+e+e+S.S.S.) ) S.!+!+!+!+!+!+!+!+o o o o o o o o o o o o o o o o ) ) ) S.h+h+h+e+X ) B B B p p p p p p B B B B B B B B B B B B B B B B B B B B B p p p p p p p p p p p p p p p p p p p p p j.j.p p p p B <+<+<+S.S.S.<.~ L.{+{+L.~.w+c.c.e+e+e+S.S.<+<+<+B p p p ",
"B B B B p p p p B B B B B B B B ) ) ) ) ) ) ) S.S.S.S.S.S.S.S.B B p p p p p B B B B B B B ) S.S.H H H <.<.<.H H H h+h+h+h+e+e+e+3 3 3 3 e+e+e+e+e+3 S.S.S.S.S.!+!+!+!+!+!+S.S.!+!+o o o ) ) ) ) ) ) ) ) ) ) ) S.S.3 H <.<.<.| | | | ++<.H h+!+!+o o !+h+H <.<.H h+h+S.S.) ) ) ) ) ) o o o !+3+++ + + + +++h+h+o o o o o o 3+| ;.(.k k (.&+<.e+) B B B B B B B B B B B B B B B ) ) ) !+++ +4.R.R.R.;.4.4.++h+!+S.) ) ) ) ) S.!+h+H H H h+!+) ) ) ) ) ) ) ) ) ) ) ) ) B ) ) ) ) ) !+!+!+!+!+!+!+L ^ ^ 3+u+4.;.c c c c c R.4.u+++3+3+++++3+3+9+9+3+3+3+3+++++++++| | N N u+9+3+L L L L !+L 3+3+3+3+L !+!+o o o ) ) ) ) ) ) ) ) ) ) ) ) ) !+h+h+3+3+3+!+!+o o !+L 3+++N 4.y.R.R.R.R.y.1 N u+N N N N N 4.4.4.N N N  + + + +<.h+S.) ) !+!+!+!+S.S.) ) B B B B B B B B B B B B B B B ) ) ) o o !+h+h+h+h+3 3 e+S.S.S.S.h+h+h+h+!+!+!+!+o o o o o o o o o o o o o o o o ) ) ) S.h+h+h+e+e+X B B B B p p p p p B B B B B B B B B B B B B *.*.*.*.B B B B p p p p p p p p p p p p p p p p p p p p p p p p p p p B <+<+<+S.S.S.c.w+L.s s L.~.~ <.c.3 e+S.S.S.<+<+B B p p p ",
"B B B B p p p p B B B B B B B B ) ) ) ) ) S.S.S.S.S.!+S.S.) ) B B p p p p p p p p p B B B <+S.3 H H | <.<.H h+h+h+S.S.S.h+h+h+h+H H H H H h+h+h+H H H !+!+!+!+!+!+!+!+!+!+o o !+!+!+!+o ) ) ) ) ) S.) ) ) ) ) ) S.S.H <. + + + +| <.<.H h+h+!+!+o o !+h+<.<.<.<.h+h+S.) ) ) ) ) ) o o o o L 3+++ +d d  +| ++h+h+ .o o o o !+++;.c (.(.c d <.h+X ) B B B B B B B B B B B B ) ) ) ) ) !+3+++N 4.y.R.;.;.4. +++h+!+S.) ) ) ) o !+h+H H H H !+S.) ) ) ) ) ) S.S.S.S.) ) ) ) ) ) ) ) !+!+!+!+!+L L L ^ L 3+N R.c c c y y c c R.4.u+++++++++++++3+3+3+3+3+h+h+h+H H ++| | | ++9+9+3+L L L L 3+3+3+3+3+!+!+o o o ) ) ) ) ) B ) ) ) ) ) ) ) ) S.!+h+h+3+3+3+L L L L L 3+u+N 4.R.c c c c R.y.y.N N u+u+u+u+u+| ++++++++++++++<.H h+S.) ) !+!+!+!+S.S.S.) B B B B B B B B B B B B B B B ) ) ) ) o !+h+h+h+H H H 3 3 3 h+h+H H 3+3+3+L L !+o o o o o o o o o o o o o o o o ) ) S.e+h+H H h+e+X *.B B B B B B B B B B B B B ) ) ) ) B B B *.t.t.t.t.*.B B B p p p p p p p p p p p p p p p p p B B p p D.D.p p p p B <+<+S.S.S.S.3 w+~ L.L.L.~ ~ w+c.c.e+S.) ) ) ) B B p p p ",
"B B B B p p p p B B B B B B B B ) ) ) ) S.S.S.S.S.!+!+S.S.) ) B B p p p p p p p p p p B <+<+S.3 H | | ++H H h+h+S.S.S.S.S.h+h+h+H <.<.H H H H H H H H H !+!+!+!+!+!+o o o o o !+!+h+h+!+S.) ) ) S.S.S.S.) ) ) ) S.S.H <. +U.U. +| <.H h+h+!+!+!+o o !+h+++| | <.h+S.) ) ) ) ) ) o o o o ^ L 3+++4.4.d d  +++++h+ .o o o o !+++4.c (.(.c d | h+X ) B B B B B B B B B B B ) ) ) ) ) ) o !+3+u+N 4.R.R.;.;.4.++++h+!+S.) ) o o !+h+H ++H H h+S.) ) ) ) ) ) S.!+!+S.S.) ) ) ) ) ) ) !+!+!+!+3+3+3+L L L 9+4.R.c _._._._.c c R.4.4. + +| | ++++3+3+3+!+!+!+o S.!+h+H ++| | ++u+9+9+R L L L 3+3+3+3+3+h+!+) ) ) ) ) ) ) B B B ) ) ) ) ) ) ) S.!+!+!+h+3+3+3+L L L 3+3+9+N 4.R.c c y c R.y.y.N u+u+u+u+++++++++++++++++++H h+h+S.) ) ) !+!+!+!+S.S.S.) ) B B B B B B B B B B B B B B B ) ) ) S.!+h+h+h+H <.<.H H H H H H ++++3+3+L L L o o o o o o o o o o o o o o o o ) ) S.e+h+H H h+e+X X *.B B B B B B B B B B B ) ) S.S.) B B B *.e+e+e+e+t.B B B p p p p p p p p p p p p p p p p B B B B D.D.D.D.p p B B <+e+e+S.S.S.3 <.w+w+~ ~ ~ ~ w+<.c.e+S.) ) ) ) B B p p p ",
"B B B B p p p p B B B B B B B B ) ) ) ) S.S.S.S.S.!+!+S.S.) ) B B p p p p p p p p B <+<+t.3 3 <.<.| | ++H h+h+S.) ) ) ) S.h+h+h+H H H H H H H H H H H H H H h+!+!+!+!+o o o !+ .h+h+h+h+S.) ) S.S.S.S.S.S.) ) S.S.3 H <. +d d  +| <.h+h+!+!+!+!+o o !+H ++| | <.h+S.) ) ) ) ) o o o o ^ L L 3+u+4.4.4.4.4.++++3+W. .o o o  .3+4.;.c c c 4.| H e+) ) B B B B B B B B B B ) ) ) ) ) ) o !+L 9+u+4.y.R.;.;.4.4.++++h+!+o o o o !+h+3+++++H h+S.) ) ) ) ) o !+!+!+!+S.) ) ) ) ) ) S.!+!+!+h+3+3+3+3+L 3+u+4.c _._._._._.c c ;.4.4.| | | | ++++3+3+!+!+) ) ) ) ) S.h+H | | u+u+9+9+9+9+3+3+3+9+u+3+3+h+o ) ) ) ) ) ) B B B ) ) ) ) ) ) ) ) ) !+!+!+!+3+3+3+3+3+3+3+3+9+N 4.;.c c c c R.y.y.N u+u+u+++++++++3+3+3+3+3+h+h+h+!+S.) ) ) S.!+!+!+S.S.S.S.) B B B B B B B B B B B B B B B ) ) ) S.!+h+h+h+H H H H H H H H 3+++3+3+3+L L L o o o o o o o o o o o o o o o ) ) ) S.e+h+H H H e+X X ) B B B B B B B B B B B ) S.S.S.) ) B <+X e+e+3 e+t.*.B B p p p p p p p p p p p p p p p p B B B B D.D.D.D.D.p B *.*.e+e+e+S.S.3 3 <.w+w+w+w+w+w+<.c.e+X ) ) ) ) B B B p p ",
"B B B B B B B B B B B B B B B B ) ) ) ) S.S.S.S.S.S.S.S.S.) ) B B p p p p p p B *.<+t.3 c.c.<.<.| | | ++H h+S.) ) ) ) ) ) S.e+e+e+3 3 3 3 e+3 h+h+H H H H H H H h+h+h+!+!+!+!+h+h+h+h+h+e+X X S.S.S.S.S.S.S.S.e+3 H <. + + + + +| H H h+!+!+!+!+o o !+H ++| | <.H !+) ) ) ) o o o !+!+L L L 3+u+4.4.4.4.4.4.++++3+W.o o o o 3+ +;.c c ;.4. +++h+S.) B B B B B B B B B B ) ) ) ) ) ) o o L 3+u+N 4.;.;.;.4.4.4.| ++h+!+o o o o !+3+3+++H !+!+) ) ) ) ) o o !+!+!+!+S.) ) ) ) ) S.!+h+h+3+3+3+3+3+3+++N ;.c _._._.c c c ;.4.4.++++++++++++H h+!+!+o ) ) ) ) ) S.h+H ++| u+u+9+9+9+9+9+9+u+u+++3+3+!+) ) ) ) ) ) ) B B B ) ) ) ) ) ) ) ) ) !+!+!+h+3+3+3+3+3+3+3+3+++u+N 4.;.;.R.R.y.4.u+u+u+3+3+3+3+3+3+3+3+3+L !+ .!+!+o ) ) ) ) ) S.!+!+S.S.S.S.S.) B B B B B B B B B B B B B B ) ) ) ) o !+h+h+h+h+h+h+h+h+h+H 3+3+3+3+L L L o o o o o o o o o o o o o o o o ) ) ) S.e+h+H H H e+X X ) ) ) B B ) ) ) ) ) ) ) ) S.S.S.) ) ) ) X e+e+3 e+e+t.t.*.B p p p p p p p p p p p p p B B B B B B *.D.D.D.D.D.*.*.X e+e+e+e+e+e+3 c.c.c.<.<.<.<.c.c.e+e+X S.S.) ) B B p p ",
"B B B B B B B B B B B B B B B ) ) S.S.S.) ) ) ) ) ) S.S.S.S.) B B p p p p B B *.*.t.c.c.<.w+w+ + + +| <.H h+S.) ) ) ) ) ) ) X X X e+e+S.S.S.S.S.h+h+H H <.++++++++3+3+3+3+3+3+h+H H H h+e+X X S.e+h+3 3 3 3 3 H H <.<. + + + +| <.H H h+h+h+!+!+o o !+H ++| | <.H !+o o o o o o !+L L L 3+3+3+++u+4.4.4.4.4.u+++3+W.W.o o o 3+| 4.;.c ;.4.4.++H h+S.) B B B B B B B B B ) ) ) ) ) ) o !+L 3+3+u+N 4.4.;.;.;.4.4.| ++h+ .o o o !+3+3+3+3+!+o o o o o o o o o o !+!+!+S.) ) ) ) !+h+h+3+3+3+3+3+3+++u+4.R.c _._.c c ;.4.4.++++3+3+3+h+h+h+h+!+!+o ) ) ) ) ) ) S.!+3+++N N u+9+9+u+u+N N u+++3+3+!+!+) ) ) ) B B B ) ) ) ) ) ) ) ) ) ) ) ) !+!+!+h+3+++++++++++3+3+3+++++u+4.4.4.4.u+u+9+3+3+3+W.W.W.h+h+ . .!+!+!+ .o o o ) ) ) ) ) ) S.S.!+!+S.S.S.S.) ) B B B B B B B B B B B B ) ) ) ) o o !+!+h+e+e+e+S.S.!+!+3+3+3+L L L o o o o o o o o o o o o o o o ) ) ) ) ) ) S.h+H H h+e+X ) ) ) ) ) ) ) ) S.S.S.S.S.S.) ) ) ) ) ) ) S.S.e+e+e+e+e+t.t.*.p p p p p p p p p p p B B B B B p B B *.t.t.*.*.*.*.*.X e+e+e+e+e+e+e+3 c.c.c.c.c.c.c.c.3 e+e+e+e+X ) B B B B ",
"B B B B B B B B B B B B B B B ) ) S.S.S.) B B ) ) ) ) S.S.S.S.<+B B p p B B B *.t.c.c.<.w+U.U.U. + +| <.h+S.) ) B B B B B B B B B <+<+<+B ) ) S.S.h+H <.<.| | | ++++++3+3+3+3+3+H <.<.h+e+e+e+e+h+H H H H H H H <.| |  + + +| | <.H H H h+h+h+!+o o !+H ++ + +++H  .o o o o o !+L 3+3+3+3+3+3+++u+u+u+4.4.4.N ++6 3+W.o o o h+++4.;.;.;.4.4. +++h+S.) B B B B B B B B B ) ) ) ) ) ) ) !+!+3+3+u+N N 4.4.;.;.;.4.4.++++3+h+ .!+L 3+3+3+3+!+o o o o o o o o o o !+!+!+!+S.) ) S.!+h+3+++++3+3+3+++u+N 4.R.c _._.c R.4.u+3+3+3+!+!+!+!+!+!+!+o ) ) ) ) ) ) ) ) !+h+++N N N u+9+u+u+N N N N ++3+!+!+S.) ) ) B B B B ) ) ) ) ) ) ) ) ) ) ) ) !+!+!+h+3+++++++++++++++3+3+3+3+3+3+3+3+3+L L L W.W. . . . .o o o o o o o o o o ) ) ) ) ) ) ) S.!+!+!+S.S.S.S.) B B B B B B B B B B B B ) ) ) ) o o o o o S.S.S.) ) S.!+!+L L L L o o o o o o o o o o o o o o o o ) ) ) ) ) ) S.h+H H h+S.S.) ) ) ) ) ) ) S.S.S.S.S.S.S.) ) ) ) ) ) ) S.S.S.e+e+3 3 e+t.*.B p p p p p p p p p p *.*.*.*.B p p B *.t.t.t.*.*.*.*.X e+e+e+e+e+e+e+e+e+e+e+3 c.c.c.c.c.c.3 e+e+e+X *.B B B ",
"B B B B B B B B B B B B B B B ) S.S.S.) B B B B ) ) ) S.S.S.S.S.<+<+B B B <+<+e+e+c.<.w+U.U.d U. + +<.H h+S.) B B B B B B B B B B B B B B B B ) X e+h+H <.| | | | ++++++3+3+3+3+H <.<.H h+e+e+h+h+H H H H H H H <.| | | | | | | H H H H H H h+!+!+ .h+++ + + + +++h+o o o o o !+3+3+3+3+3+3+3+3+++u+u+u+u+N u+++6 3+W. .o  .h+++ +4.;.;.4.4.4.++H !+) ) B B B B B B B B ) ) ) ) ) ) ) !+!+3+3+u+N N 4.y.R.R.R.;.4.4.u+++++3+3+3+3+3+3+3+L !+o o o !+!+!+!+!+!+!+!+!+!+!+) ) o h+h+++++++3+3+3+++u+4.4.R.c c c R.4.u+3+L L ^ o o o o o o o o ) ) ) ) ) ) ) ) !+3+++N N N u+u+u+N y.y.4.N ++H !+S.) ) ) ) B B B ) ) ) ) ) ) ) ) ) ) ) ) S.!+!+!+H 3+++++++++++++3+3+3+3+3+h+ . . .^ ^ ^ ^ ^ o o o o o o o o o o o o o o o ) ) ) ) ) ) ) S.!+!+!+!+S.S.S.S.) B B B B B B B B B B B ) ) ) ) o o o o o ) ) ) ) ) o o !+L L L !+o o o o o o o o o o o o o o o o ) ) ) ) ) ) S.!+h+h+!+S.) ) ) ) ) ) ) ) S.S.S.S.S.S.S.) ) ) ) ) ) ) S.S.S.S.e+3 c.c.t.t.<+<+B p p p p p p p B *.*.*.*.B B B B <+t.t.t.*.*.*.*.X e+e+e+e+e+e+e+t.t.t.t.t.e+e+e+c.c.c.c.3 e+e+S.X <+<+*.",
"B B B B B B B B B B B B ) ) ) ) S.S.S.) B B B B ) ) S.e+h+H H 3 e+e+t.e+e+e+e+e+c.c.<.w+ +U. + + +<.<.3 S.) B B B B B B B B B B B B B B B B B B ) X e+h+H <.<.| | | ++++++3+3+3+H H H H H H H H H H H H H H H H H ++++++++++H H H H H H H H H h+!+!+h+++ +d d  +++h+o o o !+L L 3+3+3+3+3+3+3+3+3+3+3+++u+u+u+++3+3+W. .o !+h+H |  +4.4.4.4.4.++3+!+) ) B B B B B B B B ) ) ) ) ) ) ) !+!+L 3+9+N N 4.y.y.y.R.R.y.4.4.4.4.N N u+u+++++3+3+L L L L L 3+3+3+3+3+L !+!+!+!+o o !+h+3+++++++3+3+3+3+u+N 4.R.R.R.R.y.N 9+L L ^ ^ ^ ^ ^ o o o o o o o o o ) ) o o !+3+u+N 4.N N N N y.y.y.4.4.++h+!+) ) ) ) ) ) ) ) ) ) ) ) ) ) ) ) ) ) ) ) o !+!+!+h+H 3+++3+3+3+3+3+3+3+W. . .o o o o ^ ^ ^ ^ o o o o o o o o o o o o o o o ) ) ) ) ) ) ) ) !+!+!+!+!+S.S.S.) ) B B B B B B B B B B ) ) ) ) o o o o o S.) ) ) ) o o !+L L L !+o o o o o o o o o o o o o o o o o ) ) ) ) ) S.!+h+h+S.S.) ) ) ) ) ) ) ) ) S.S.S.S.S.) ) ) ) ) ) ) S.S.S.S.S.e+e+3 c.c.3 t.t.<+<+p p p p p p B *.*.*.*.<+B B <+<+t.t.t.*.*.*.*.X e+e+e+e+e+e+e+t.t.t.*.*.*.t.e+e+3 c.3 3 e+e+e+e+e+e+e+",
"B B B B B B B B B ) ) ) ) ) S.S.S.) ) ) B B B B *.X e+h+H <.<.<.H 3 3 3 3 3 c.c.<.<.<.<.w+ +| <.<.3 e+S.<+B B B B p p p p p p p p p p p p p B B B B X e+3 H <.<.| | | ++++3+3+3+H H H H H <.<.H H H H H !+!+!+h+h+h+H H H H H H H H H H H H H H !+!+h+ +d ;.;.d  +h+ .o o L 3+3+3+3+3+3+3+3+3+3+3+3+3+3+3+3+3+3+3+3+h+h+!+!+!+H ++++4.4.4.4.4.4.++h+) ) B B B B B B B B ) ) ) ) ) ) ) o !+L 3+u+N N y.y.y.y.y.y.R.R.R.R.R.y.y.4.4.N u+++3+3+3+3+3+3+3+++++3+3+3+3+!+!+!+o o !+h+3+++u+3+3+3+3+3+u+N 4.4.y.y.y.N 9+9+R L L L L L L L L L !+!+!+o o o o o o !+3+++N 4.y.y.y.y.y.y.y.R.4.4.++h+S.) ) ) ) ) ) ) ) ) ) ) o o o o o o o o o !+!+!+h+H H h+h+h+h+h+h+h+h+ . . . . .o o o o o o L L L L ^ ^ ^ ^ ^ L L o o o o o ) ) ) ) ) ) ) ) !+!+!+!+!+!+3 S.S.) ) B B B B B B B B B ) ) ) ) o !+!+!+!+!+!+o o o o o L L L L  . . .o o o o o o  . . .!+!+!+o o o o ) ) ) ) S.!+h+h+S.S.) B B B B B B ) ) ) ) ) ) ) ) ) ) ) ) ) S.S.S.S.S.S.e+e+e+c.c.c.c.c.3 <+B p p p p p B <+<+<+<+<+<+<+<+<+<+<+<+*.*.*.*.X e+e+e+e+e+e+e+t.*.*.*.*.*.<+t.e+3 3 3 3 e+e+e+e+3 3 3 ",
"B B B B B B B B ) ) ) ) S.S.S.S.) ) ) B B B B B <+e+e+H <.<.<.<.<.<.<.c.<.<.<.<.<.<.<.<.<.<.<.H 3 S.<+B B B p p p p p p p p p p p p p p p p p p p B B <+S.e+H <.<.| | ++++3+3+3+h+h+H H H | | <.H H H h+!+!+!+!+!+!+h+h+h+h+H H H H H H | | ++H !+!+3+ +;.;.;.;. +3+!+o !+3+3+3+3+3+3+3+3+3+3+3+L  .W.W.L L L W.W.h+h+h+S.S.!+h+3+++++4.4.y.4.4.++h+) ) B B B B B B B B ) ) ) ) ) ) ) o !+L 3+u+N y.y.1 1 1 1 y.R.R.x+y y R.R.R.y.4.4.N u+9+9+9+u+N N N N N u+3+3+!+!+!+o o !+3+3+u+N 9+3+L L 3+u+N N N N u+9+9+9+R R R R R R L L L L L L L L !+o o o o !+L 3+u+4.y.y.y.y.y.y.y.R.;.4. +<.h+) ) ) ) ) ) ) ) ) ) ) o o o o o o o o o o !+h+H H H H h+h+h+!+ . . . . . . . . . . .o o o !+L 3+3+L L ^ ^ ^ L L L L o o o o ) ) ) ) ) ) ) ) !+!+!+!+H H h+!+S.) ) ) B B B B B B B B ) ) ) S.!+h+h+h+h+h+h+!+o o o o L L L L  . . . .o o o o  . . . .!+!+!+!+o o o ) ) ) ) S.!+h+h+e+X ) B B B B B B B B B ) ) ) ) ) ) B B ) ) S.S.S.S.S.S.S.t.t.t.c.c.c.c.c.t.<+p p p p p B <+<+<+<+<+<+<+<+<+<+<+<+B B B *.X e+e+e+e+e+e+e+t.*.*.*.B B B <+t.3 3 3 e+S.e+e+3 H <.<.",
"B B B B B B B B ) ) ) ) S.S.S.S.) ) ) B B B B <+X e+3 <.<.<.<.<.<.<.<.c.c.c.<.<.<.<.<.H H H H 3 S.) B B B p p p p p p p p p p p p p p p p p p p p p B B <+S.3 H <.| | | ++3+3+!+!+!+H H H | | | H H H !+!+!+!+o !+ . .h+h+h+h+H H H H H <.<.H H !+h+++d ;.c c ;. +++!+!+L 3+3+3+3+3+3+3+3+3+3+L  .o o ^ ^ ^ ^ W. .h+h+!+S.S.S.!+!+3+++N 4.R.4.4.++h+) ) B B B B B B B B ) ) ) ) ) ) ) o !+L 3+u+N y.y.1 $+$+$+1 y.x+x+y y y y R.R.R.y.y.y.N N N N N N N N N N u+3+3+!+!+!+!+L 3+u+N N u+9+R L 9+9+N N 9+9+R R R R R R R R R R R L L L L L L L L o o !+L L 3+u+N y.y.R.R.R.R.R.R.;.4.d  +<.e+) ) ) ) ) ) ) ) ) ) o o o o o o o o o o !+h+++| | | <.H h+h+!+o o  . . . . . . . . .o o o !+3+3+3+3+L L ^ ^ L L L L o o o o ) ) ) ) ) ) ) S.!+!+!+H H H H !+!+!+S.S.S.) ) ) B B B ) ) ) ) S.!+h+h+h+h+h+h+h+!+o o o L L L L  . . . .o o o o  . . . .!+!+!+!+o o o o ) ) ) S.!+h+h+e+e+e+X *.B B B B B B B B ) ) ) ) ) B B ) S.S.S.S.S.S.S.S.t.t.t.c.c.<.c.c.3 t.<+D.p p p B <+<+<+<+<+<+<+<+<+<+<+<+B B B *.X e+e+e+e+e+e+e+t.*.*.*.B B B <+t.e+3 3 S.S.S.3 H <.<.<.",
"B B B B B B B B ) ) ) ) S.S.S.S.) ) ) B B B *.*.e+e+3 H <.<.<.<.c.3 3 3 3 3 3 3 3 3 3 3 H 3 3 S.S.) B B B B p p p p p p p p p p p p p p p p p p p p p B B S.S.H <.<.| ++++h+!+!+!+!+!+H H | | | H H !+!+!+!+!+!+!+h+h+h+h+h+h+h+H H H H H H H h+!+h+++4.;.c c ;.d ++!+!+L 3+3+3+3+3+3+3+3+3+W. . . .o o ^ ^ ^ ^  . .!+!+S.S.S.!+!+3+++N 4.R.;.4.++h+) ) B B B B B B B B ) ) ) ) ) ) ) o !+L 3+u+1 1 1 1 $+7+$+1 y.x+x+x+x+x+y y c c R.R.R.y.y.y.1 1 1 1 1 N N N 3+3+L L L 3+3+3+u+N N N 9+9+9+9+9+9+9+9+R R R R R R R R R R R R R R L L L L L L ^ ^ L 3+9+u+N y.y.y.R.R.R.R.R.R.;.4. +<.h+S.) ) ) ) ) ) ) ) ) ) o o o o o o o o o !+3+++ +4.d  +| ++H h+!+o o o  . . . . . . . .o o  .3+3+++++3+3+L L ^ L L L ^ o o o o ) ) ) ) ) ) ) S.!+!+!+H H H H H h+!+!+!+!+S.S.S.) ) ) ) ) S.S.!+!+h+h+h+h+h+h+h+!+!+^ ^ L L L L W. . . .o o o o o  . . .!+!+!+o o o o o ) ) ) S.!+h+h+h+3 c.e+e+*.B B B B B B B ) ) ) ) ) ) <+S.S.S.S.S.S.S.S.<+<+<+t.3 c.c.c.c.c.c.t.t.t.*.D.B B <+<+<+<+<+<+<+<+<+B B B B B *.t.e+e+3 3 e+e+e+t.*.*.B B B *.*.t.t.e+e+S.S.S.3 H <.<.<.",
") ) ) B B B B B ) ) ) S.S.S.S.S.) ) B B B *.X e+e+3 H H H 3 3 3 e+e+t.t.t.t.t.e+e+e+e+e+S.S.S.S.S.S.) B B B B p p p p p p p p p p p p p p p p p p p p B B ) S.h+<.<.<.<.H h+!+!+S.S.!+H H | | ++H !+!+!+!+!+h+h+h+3+3+h+h+h+h+h+H H H H H h+h+!+!+3+++4.c c c ;.d ++!+!+L 3+3+3+L L  . . . . . . . . .o ^ ^ ^ ^ o o o o S.S.S.S.!+!+++N 4.;.;.4.++h+o ) ) B B B B B B B ) ) ) ) ) ) ) !+!+L 3+u+1 1 1 1 $+7+7+$+1 1 y.y.R.R.R.y y y y y y y v+v+:.y.1 1 1 1 N N 9+9+3+3+3+3+9+u+N N 1 1 N N 9+9+9+9+9+9+R R R R R 9+9+9+9+9+9+9+9+9+L L L L ^ ^ ^ L L 9+u+y.y.y.y.:.x+x+y y c R.4. +++h+e+) ) ) ) ) ) ) ) ) ) ) o o o o o L L L L L 3+N 4.;.;.;.d | H H !+o o o  .h+3+3+L L L !+o o !+3+++++u+++3+L L ^ ^ ^ ^ ^ o o o o ) ) ) ) ) ) ) S.!+!+H H H 3+3+3+3+3+3+3+H H H e+S.) ) ) S.S.!+!+!+!+h+h+H 3+3+3+3+L L L ^ o o ^ ^ ^ ^ o o o o o o o o o o o o o o o o o ) ) ) S.!+h+h+<.<.<.<.c.e+*.B B B B B B ) ) ) ) X X X S.S.S.) ) ) ) B B B *.<+t.3 c.c.c.c.c.c.c.t.t.*.B B B B B B B B B B B p p p p B <+t.e+c.3 3 3 e+e+<+*.B B B *.*.*.t.t.t.t.<+S.S.3 c.<.<.<.",
") ) ) ) B B B B ) ) ) S.S.e+e+X ) B B B *.X X e+e+h+H 3 3 e+t.<+<+<+B B B B B B B <+<+S.S.S.S.S.S.S.S.) B B B B p p p p p p p p p p p p p p p p p p p B B ) S.e+H <.<.H h+S.S.S.S.S.!+H H | | ++H !+!+!+!+H H H H 3+3+3+h+h+h+h+H H H h+S.S.!+!+!+3+++4.c c c c 4.++!+!+L 3+3+3+L !+o  . . . . . . . . .^ ^ ^ ^ o o o o ) ) ) ) !+!+3+ +4.;.;.4.| 3+o ) ) B B B B B B B ) ) ) ) ) ) ) !+!+3+9+N 1 1 :.1 $+7+7+7+$+$+1 1 y.y.R.y y y i i i i y v+v+:.:.1 1 1 1 N 9+9+9+9+9+u+u+u+N 1 1 1 1 1 1 7+9+9+9+9+9+9+9+9+9+9+9+9+9+9+9+9+9+9+9+L L ^ o o L L 3+u+1 y.y.:.:.:.x+x+y y c c 4.++h+!+) ) B ) ) ) ) ) ) ) ) ) o o o o L L L L L L ++4.R.c c c ;. +| H !+S.o !+!+3+3+3+3+L L L o o !+3+++N N u+++3+L L L ^ ^ ^ o o o o ) ) ) ) ) ) ) S.!+h+H H 3+L 3+3+++N | | | | H H !+S.) ) S.!+h+!+!+!+!+h+3+3+3+3+3+L L L ^ o o o ^ ^ ^ ^ o o o o o o o o o o o o o o o o ) ) ) S.!+h+h+<.<.w+<.<.3 X B B B B B B ) ) ) ) X X S.S.S.) ) ) ) B B B B B *.<+t.t.c.c.c.<.c.c.c.t.t.<+B B p p p p p p p p p p p p B *.t.c.c.c.3 3 3 S.<+B B B *.*.*.*.t.t.t.t.<+<+S.e+3 <.<.<.",
") ) ) S.X X X X X S.S.S.e+e+e+X ) B B ) X X e+e+e+h+3 S.S.<+<+<+B p p p p p p p B B B B <+S.S.S.S.S.S.<+B B B B p p p p p p p p p p p p p p p p p p B B ) ) S.h+H <.H h+e+S.) ) S.S.3 H H <.<.H h+!+!+!+!+h+H H H ++3+H h+h+h+h+h+h+h+S.S.) ) o !+3+u+;.c (.c c 4.++!+!+L 3+3+L !+o o  . . . . . . . . .^ ^ ^ ^ ^ o o o ) ) ) ) o !+3+| 4.;.;.4.N 3+ .o ) ) B B B B B B ) ) ) ) ) ) o !+h+3+u+N 1 :.:.:.:.1 $+$+7+7+$+$+1 y.y.x+y y i i i i i Y.v+v+:.:.1 1 1 N 9+9+9+9+u+u+u+1 1 1 1 1 1 1 1 1 1 7+9+9+9+9+9+9+9+9+9+9+9+9+9+9+9+9+9+L L o o o L L 9+u+y.y.x+:.:.:.x+x+y _.c c 4.++!+) ) ) ) ) ) ) ) ) ) ) ) o o o o ^ L L L L L L u+4.c y _.c ;. +++H !+S.o !+!+3+3+3+3+L L L ^ o L ++u+4.4.N u+3+3+L L ^ ^ ^ o o o o ) ) ) ) ) ) ) S.!+H H 3+L L 3+3+N N N N  +| | H h+S.) S.!+h+h+!+!+!+!+h+3+3+3+3+3+L L L ^ o o o ^ ^ ^ ^ o o o o o o o o o o o o o o o o ) ) ) ) S.h+h+<.<.w+w+<.c.e+X ) B B B ) ) ) ) ) S.X X S.S.) ) ) ) B B B B B B B *.t.t.c.c.<.<.c.c.t.t.t.*.B B p p p p p p p p p p p B *.t.c.c.c.c.3 3 e+<+B B *.*.*.t.t.t.t.t.t.t.<+t.e+3 c.<.<.",
"S.S.S.e+e+e+e+3 e+e+e+e+e+e+X X ) ) ) ) X X e+e+e+S.S.S.<+<+B p p p p p p p p p p B B B B <+<+<+<+<+<+B B B B B p p p p p p p p p p p p p p p p p p B B ) ) S.h+h+H H h+S.S.) ) S.S.h+H H H H H h+!+!+!+!+h+H H H H H h+h+h+!+S.S.S.S.S.) ) ) o !+3+N R.c _.c c 4.++!+!+!+L L L  . . . . . . . . . . . .^ ^ ^ ^ ^ o o o o ) ) ) o !+3+| 4.;.R.4.4.++W.o ) ) B B B B B B ) ) ) ) ) ) o !+3+3+u+N y.:.:.:.:.:.1 1 1 $+$+$+1 1 y.R.x+y y i i i i i Y.v+v+:.y.1 1 u+9+9+9+9+$+$+1 1 1 1 :.:.:.y.y.y.1 1 $+$+$+$+$+7+7+7+9+9+9+9+9+9+9+R L L ^ o o !+L 3+3+N y.y.:.:.:.:.:.x+y _.c c 4.3+o ) ) ) ) ) ) ) ) ) ) ) o o o o ^ L L L L L L 3+u+R.c _._.c ;. +H !+S.) ) !+!+L 3+3+3+3+3+L L ^ 3+++N 4.y.4.N u+3+3+L L ^ ^ o o o o o ) ) ) ) ) ) !+!+H 3+3+L L 3+u+N 4.4.4.4. +| ++H !+o o !+!+!+!+!+!+!+!+h+3+3+3+L L L ^ ^ ^ o ^ ^ ^ ^ o o o o o o o o o o o o o o o o o o ) ) ) S.!+h+H <.<.<.<.<.c.e+e+X X ) ) ) ) ) ) ) X X ) ) ) ) ) ) ) B B B B B B B *.t.e+c.c.c.c.c.c.t.t.t.t.*.D.p p p p p p p p p p B t.t.c.c.c.c.3 3 e+<+B B *.*.t.t.t.t.t.t.t.t.t.t.e+e+e+3 3 ",
"!+h+h+c.c.c.c.c.c.c.3 e+e+e+X X ) ) ) ) X X e+e+S.S.S.<+B B p p p p p p p p p p p p p B B B B B B B B B B B B B p p p p p p p p p p p p p p p p p B B ) ) S.h+h+h+h+h+h+S.) ) S.S.S.h+h+H H H h+h+e+S.S.S.3 3 h+h+h+h+h+!+S.S.S.S.S.S.) ) ) ) o L 3+N R.c _.c c d <.!+!+!+L L L  . . . . .W.W. . . .o o L L L ^ ^ ^ o o o ) ) ) o !+3+++4.R.R.y.4.u+3+ .o ) ) B B B B B ) ) ) ) ) o o  .3+3+u+y.y.x+x+v+v+:.:.1 1 1 1 $+$+N y.y.y.x+x+y Y.i i i i Y.v+x+y.1 u+u+9+9+9+u+$+1 1 :.:.:.v+v+v+x+x+x+y.1 1 1 1 1 1 $+$+7+7+9+9+R L L L L L ^ ^ o o !+3+3+++N 1 y.y.:.1 1 :.x+y _.c c d H o ) ) ) ) ) ) o o o o o o o o !+L L L L L L L 3+u+R.y _._.c ;.| h+S.) ) ) o !+L 3+3+3+9+3+3+L L 3+u+4.R.R.R.4.N u+++3+L L ^ o o o o o o o ) ) ) ) !+!+h+3+3+L L 3+u+4.4.4.4.d d  +| H !+o o !+!+!+!+!+!+!+!+!+!+!+L L L ^ ^ ^ ^ ^ ^ ^ o o o o o o o o o o o o o o o o o o o o o o o ) S.S.e+H <.<.<.<.<.<.H e+e+X ) ) ) ) ) ) ) ) ) ) ) ) ) ) ) ) B B B B B B B *.t.t.e+c.c.c.c.c.e+e+t.t.t.D.p p p p B B B B B B t.e+c.c.c.c.c.3 e+<+B B *.t.e+e+t.t.t.t.t.t.t.t.t.t.e+e+e+",
"H H H <.<.w+w+<.<.<.H h+e+e+X X ) ) ) X X e+e+X X <+B B B p p p p p p p p p p p p p p p p p p p p p B B B B B B p p p p p p p p p p p p p p p p B B B ) S.h+h+h+h+h+h+h+S.) ) S.S.h+h+h+h+e+e+e+e+e+e+S.S.S.S.S.S.S.S.S.S.) ) ) ) ) B B B B ) o L 3+N R.c _.c ;.d H !+o !+L L L  . . . .W.3+3+L  .o o o L L L L ^ ^ ^ o o ) ) ) ) o 3+++4.y.R.y.4.u+++3+ .) ) B B B B B ) ) ) ) o o  .W.3+u+N y.R.x+x+v+v+v+:.:.1 1 1 1 N u+u+$+$+1 :.x+y i i i i i y x+y.y.u+u+9+9+9+$+$+1 :.:.:.v+v+v+v+x+x+x+:.:.:.:.:.:.1 $+$+7+7+9+R L L L L ^ ^ ^ o o  .h+3+++++u+N 1 1 1 1 $+y.x+y _.c ;. +H o ) ) o o o o o o o o o o o L L L L L L L L L 3+N R.y _._.c ;.++!+) ) ) ) o !+L 3+3+9+u+u+3+W.L 3+N y.R.c R.R.4.N u+3+3+L L o o o o o o o ) ) ) ) !+!+3+3+3+L L 3+u+4.4.;.;.d d  +| H h+o o !+!+!+!+!+o o o o o o ^ ^ ^ ^ ^ ^ ^ ^ ^ o o o o o o o o o o o o o o o o o o o o o o o o o ) S.S.e+3 H <.<.<.<.<.H e+e+X S.) ) ) ) ) ) ) ) ) ) S.S.S.S.S.<+B B B B B *.<+*.t.t.e+e+c.c.c.c.c.t.t.*.B p p B B B B B B B t.e+c.c.c.c.c.c.e+t.<+*.*.t.e+c.e+t.t.t.t.t.t.t.t.<+<+*.*.",
"H H <.<.w+w+~ w+<.<.<.3 e+X X X ) ) ) S.S.e+X X *.B B B p p p p p p p p p p p p p p p p p p p p p p p p B B B B p p p p p p p p p p p p p p p p B B ) S.S.h+h+h+h+h+h+S.) ) ) S.S.h+h+h+e+e+e+e+e+e+e+S.S.S.S.S.S.S.S.S.) ) ) B B B B B B B ) o L 3+N R.c c c ;. +H !+o !+L L L  . . .h+3+3+3+3+!+o o ^ L L L L L L ^ o o ) ) ) ) o h+++u+4.y.y.4.4.u+++h+!+) ) B B B B ) ) ) ) o o !+3+6 u+4.y.R.R.x+v+v+v+:.1 1 1 1 N N u+u+u+$+$+1 :.v+Y.i i i i i y R.y.u+u+u+u+$+$+1 1 :.:.:.:.v+v+v+x+x+R.:.:.:.1 :.1 1 $+7+7+9+9+R L L L ^ ^ ^ ^ o  . .3+3+++u+N N 1 1 1 $+1 y.x+y y c ;. +H o ) o o o o o o o o o o o ^ L L L L L L L L L 3+N R.y _._.c d <.S.) ) ) ) o !+L 3+9+u+u+u+9+3+L 9+4.R.y y c R.y.4.N ++3+L L ^ o o o o o o o ) ) ) !+!+3+3+3+L 3+3+N 4.;.;.;.d d  +| ++h+!+o !+!+!+!+!+o o o o o o ^ ^ ^ ^ ^ ^ ^ ^ ^ ^ o o o o o o o o o o o o o  . .!+!+!+ .o o o o o ) ) ) S.S.h+H <.<.<.<.<.c.3 e+e+e+e+e+e+e+e+e+e+e+e+e+e+3 e+e+e+S.<+<+<+<+<+<+<+<+<+t.t.e+c.c.c.c.e+t.*.B B B B B B B B B <+t.e+c.c.c.c.c.c.e+t.<+*.t.t.e+c.e+t.t.t.t.t.t.t.*.*.B B B ",
"H <.<.<.w+w+w+w+<.<.3 e+e+X X X X X X X X X X <+B B B p p p p p p p p p p p p p p p p p p p p p p p p p p B B p p p p p p p p p p p p p p p p B B B ) S.e+h+h+h+h+!+S.S.) ) ) S.S.S.e+e+e+S.X X X <+<+<+<+<+<+<+<+<+<+B B B B B B B B p p B ) o !+3+N R.c c c ;. +H !+o !+L L L  . . .h+3+3+3+3+L ^ ^ ^ L L L L 3+L L  .o ) ) ) ) o  .3+u+4.y.y.y.4.4.++3+!+) ) B B B B ) ) ) o o !+L 3+u+N y.y.R.R.R.R.y.y.1 1 1 N N N u+u+u+u+$+$+1 :.v+y Y.i ;+;+;+y R.y.u+u+u+$+$+1 1 1 1 1 1 1 1 y.y.y.y.y.1 1 $+1 $+$+$+7+7+9+9+R L L L ^ ^ ^ ^ ^  .h+3+3+++u+N N 1 1 1 $+$+1 :.x+y y c ;. +H o o o !+!+o o o o o o o ^ L L L L L L L L L 3+++4.R.c _._.c d <.S.) ) ) ) o !+L 3+u+u+u+u+u+9+3+u+y.c _._._.c R.4.N u+3+L L L L o o o o o o ) ) ) !+!+h+3+3+L 3+3+N 4.;.;.;.d d  +++3+L !+!+!+!+!+!+!+o o o o o ^ ^ ^ ^ ^ ^ ^ ^ ^ L L !+!+!+!+o o !+!+!+!+!+!+h+h+3+3+3+3+3+W. .o o o o ) ) ) S.!+h+H <.<.<.<.<.<.<.<.<.<.<.<.<.<.<.<.<.<.<.<.<.<.c.c.3 3 3 3 3 e+t.<+<+*.*.t.t.t.t.e+e+e+t.t.*.B B B B B ) ) ) <+S.e+e+c.c.c.c.c.e+t.*.B *.t.t.e+t.t.t.t.t.t.t.*.*.*.*.B B ",
"<.<.<.<.w+w+w+w+<.c.3 e+X ) ) ) X X X X X *.B B B B p p p p p p p p p p p p p p p p p p p p p p p p p p p p p p p p p p p p p p p p p p p p p B B <+S.S.h+h+h+h+!+S.S.) ) ) ) ) S.S.S.S.S.S.) ) <+<+B B B B B B B B B B B B B B B p p p p B B ) !+3+u+;.c c c ;. +H S.o !+L L L  . . .h+3+3+3+3+W.^ ^ L L L 3+3+3+3+3+h+!+) ) ) ) ) !+3+3+u+4.y.y.R.4. +++h+) ) B B B B ) ) ) o o !+3+u+u+4.y.R.R.R.y.y.y.N N 9+9+9+9+u+N N N N 1 1 1 :.:.v+Y.i ;+a a _.c y.u+u+$+y.y.1 1 $+7+7+7+7+1 1 N N N u+u+9+9+9+9+9+9+9+9+R R L L W. . .o o o  .h+3+3+++u+N N 1 7+7+7+$+$+:.:.x+y y c R.4.3+!+o !+L L L ^ ^ ^ ^ ^ ^ ^ L L L R L L L 3+3+++N 4.;.c (.(.;.d H ) ) ) ) ) o !+L 3+u+N 4.4.u+9+3+u+R.(._.o._.y R.y.N u+3+3+L L L L !+!+!+!+o ) ) ) S.!+H H 3+L 3+3+N 4.;.;.;.4. +++++3+L L L L L L L L L L ^ ^ ^ ^ ^ ^ L L L L L L L L L L L L L L L L L 3+3+3+3+3+++++++++++3+W. .o o o o o o o !+!+h+h+H <.<.<.w+w+ + + + +<.<.<.<.<.<.<.<.w+w+<.<.<.<.c.c.c.c.c.3 t.t.*.*.*.*.*.t.t.t.t.t.t.<+<+<+<+S.S.) ) S.S.S.e+e+c.c.c.c.c.e+t.B B *.t.t.t.t.t.t.t.*.*.*.*.*.*.*.*.*.",
"<.<.<.<.w+w+w+<.<.3 S.S.) ) ) X X e+e+X X B B B B p p p p p p p p p p p p p p p p p p p p p p p p p p p p p p p p p p p p p p p p p p p p p B B <+S.S.S.h+H h+h+S.S.) ) ) ) ) S.S.S.S.S.S.) ) ) B B p p p p p p p p p p p p p p p p p p p p B ) !+3+| 4.;.c c ;. +H !+!+!+3+3+3+!+ . .h+3+++++3+3+L ^ L L 3+3+3+++++3+h+h+S.) ) ) ) o !+3+9+N y.R.R.;.4.| h+) ) B B B B ) ) ) o !+L 3+u+4.y.y.R.y.4.4.N u+9+9+L L 3+3+u+u+N 4.N 1 1 1 1 :.x+y i a w < ;+y y.u+$+y.y.y.y.1 7+7+9+9+9+9+9+9+9+9+9+9+R R R R 9+9+9+9+L L 3+3+W. . .o o  .h+3+3+++u+N N 1 1 7+7+7+7+$+:.:.x+y y c R.N 3+!+o !+L 3+L L ^ ^ ^ ^ ^ ^ L L 9+9+R L L 3+3+u+N 4.;.c (.c ;. +H ) ) ) ) ) o !+L 3+u+4.y.y.u+u+3+u+;._.o.o._._.R.y.N u+3+3+L L L L L !+!+!+o ) ) ) S.!+H H 3+L 3+3+4.;.;.;.;.4.| ++3+3+L L L L L L L L L L L ^ ^ ^ ^ L L L L L L L L L 3+3+L L L L L L 3+3+3+3+++++++++u+u+++6 3+W. .o o o o o o o o !+!+h+<.<.w+U.U. + + + + +U.U.~ ~ ~ ~ ~ U.~ w+w+w+w+w+w+w+w+<.c.c.t.t.*.<+*.*.B *.<+<+*.X e+e+e+S.S.S.S.S.S.S.S.e+e+3 c.<.<.c.3 t.B B B *.t.t.t.t.*.*.*.*.*.*.*.*.*.*.*.",
"<.<.<.<.<.<.<.<.3 3 S.S.S.X X X X e+e+X <+B B B p p p p p p p p p p p p p p p p p p p p p p p p p p p p p p p p p p p p p p p B B B B B B B B <+S.S.S.!+h+h+h+!+S.) ) ) ) ) ) ) S.S.S.S.S.) ) B B p p p p p p p p p p p p p p p p p p p p p B ) !+3+++d ;.E.E.&+ +H !+!+h+3+3+3+L !+ .h+3+++++++3+3+L L 3+3+3+++++++++<.h+S.) ) ) ) o !+L 9+u+4.R.R.;.4.| h+) ) B B B B ) ) ) o !+L 3+u+4.y.R.R.4.4.N u+3+L L L L L 3+3+++N N 4.y.y.1 1 :.:.y ;+w &.&.a _.R.N $+y.y.y.y.1 7+7+9+9+9+9+9+9+9+9+9+9+R R R R 9+9+9+9+3+3+3+3+3+W.W.W.W.3+3+3+++++u+N N 1 7+7+7+7+7+G :.:.x+y y y R.4.3+!+o L L L L L ^ ^ ^ ^ ^ ^ L L 9+9+R L L 3+++u+4.4.;.;.c ;.d  +h+) ) ) ) ) o o L 3+N 4.R.R.4.u+9+u+;.(.o.!.o._.R.y.N u+++3+3+L L L !+!+!+!+S.) ) ) S.!+H H 3+L 3+++4.;.c c ;.4.| 3+3+3+3+L L L L L L L L L L ^ ^ ^ ^ L L L L L L L L 3+3+3+3+3+L L 3+3+3+3+3+3+++++++| 4.4.u+++++6 3+W. .o o o o o o o o h+H <. + + + + + + + +U.U.U.U.~ ~ ~ ~ w+w+w+w+w+w+w+w+w+<.c.c.c.t.t.t.t.<+<+B B *.X e+e+e+e+e+e+S.S.S.S.S.S.e+e+3 c.<.<.c.3 t.B B B *.t.t.t.*.*.*.*.*.*.*.*.*.*.*.*.",
"h+H H <.<.<.<.H 3 3 S.S.e+e+e+e+e+e+t.<+B B B p p p p p p p p p p p p p p p p p p p p p p p p p p p p p p p B B B B B B B B B B B B <+<+) <+) S.S.S.S.!+!+!+!+!+!+o ) ) ) ) ) S.S.S.S.S.S.) ) B B p p p p p p p p p p p p p p p p p p p p p B ) !+h+++d ;.E.E.&+ +H h+h+++++++++3+!+ .3+++++++++++3+3+3+3+3+++++ + + +| H h+S.) ) ) o o L 3+u+4.R.c R.4.| h+) ) ) ) ) ) ) ) ) o L L 9+u+y.R.R.y.4.u+u+3+3+L ^ ^ ^ L L 3+3+++u+4.y.y.y.:.:.:.y a &.-.-.&._.R.N $+y.y.y.y.1 $+7+7+$+$+$+$+$+u+u+9+9+9+9+9+9+9+9+9+u+u+u+u+9+3+3+3+3+3+3+++++++++u+u+N 7+7+7+7+7+7+$+:.:.x+y y y R.4.3+o o ^ L L L ^ ^ ^ ^ ^ L L L L L L L L L 3+u+N 4.4.;.;.;.d  +<.h+) ) ) ) ) o o L ++4.R.R.R.y.u+u+u+;.(.o.o._.c R.4.u+u+++++3+3+!+!+!+!+!+S.) ) ) ) S.!+H H 3+L 3+++4.R.c c ;.4.| ++3+3+3+3+3+L L L L L L L L L L L L L L L L L L 3+3+3+3+3+3+3+3+3+3+3+3+3+3+3+3+3+++++N 4.4.u+u+++++3+3+h+!+!+o o o o o  .h+<.<. + + + + + + + +<.<.<.<.<.<.<.<.<.<.<.<.<.<.<.<.<.c.c.c.c.c.c.t.t.t.*.*.*.e+e+H <.H H 3 3 3 e+S.S.e+e+e+3 c.<.<.<.3 t.B p B *.t.t.t.*.*.*.*.*.*.*.*.*.*.*.*.",
"e+e+e+3 3 3 3 3 h+h+h+h+3 3 3 e+e+e+<+<+B B p p p p p p p p p p p B B B B B B p p p p p p p p p p p p p B B <+<+<+<+<+<+<+<+X X X X S.S.S.S.S.S.e+h+h+!+!+!+!+!+o o o ) ) S.S.S.S.) ) S.S.S.) B B p p p p p p p p p p p p p p p p p p p p p B ) S.h+| d ;.E.E.&+ +H h+H ++ + +++3+h+ .3+++++N | ++++++3+++++++ + +d  + +<.h+!+) ) ) o o L L u+4.R.c R.4.N h+o ) ) ) ) ) ) ) o o L 3+u+N y.R.R.y.u+u+3+3+L L L ^ ^ ^ L L 3+3+++N y.R.R.:.:.:.y a s.=.=.s.a c 4.u+1 y.y.y.1 1 1 1 1 1 y.y.y.y.1 $+$+$+$+$+1 1 1 1 1 N N N N u+u+u+u+u+u+u+++++3+9+9+9+7+7+7+7+7+7+$+1 :.x+y _.y c 4.3+o o ^ ^ ^ ^ ^ ^ ^ ^ L L L L L L L L L L 3+u+N 4.4.4.4. + +<.h+S.) ) ) ) ) o o h+++4.R.c c R.4.u+u+;.c (._.(.c 4.N u+++++++++h+!+!+o o ) ) ) ) ) ) S.!+h+3+3+L 3+u+4.R.c c c 4. +| ++++u+9+3+3+L L L L L L L L L L L L L L L L 3+3+3+3+3+3+3+3+9+9+3+3+3+L L L 3+3+3+++++ +4.4.4.4. +++++3+h+!+!+!+o o  . .h+h+H <.<.++++++++<.<.<.<.<.<.<.<.<.<.H H 3 3 3 3 c.c.c.c.c.<.c.c.c.c.c.3 t.t.X e+c.<.<.<.<.H H h+h+h+h+e+e+3 3 c.<.<.<.3 t.B B B *.t.t.t.*.*.*.*.*.*.*.*.*.B B B ",
"S.S.S.S.S.S.S.S.h+h+h+h+H H c.3 e+t.<+<+B p p p p j.j.p p p p p B B B B B B B B p p p p p p p p p p p p B <+<+<+t.e+e+e+e+e+e+e+e+e+h+h+h+h+h+h+h+h+h+!+!+!+o o o o o o S.S.S.S.) ) ) ) S.S.S.<+B p p p p p p p p p p p p p p p p p p p p p B B ) !+++d ;.E.E.&+ +H h+<. +d 4. +++h+h+3+++N 4. +| | | ++++++++ + +d d  +<.H h+S.) ) ) o !+L 9+4.R.R.R.y.N 3+o ) ) ) ) ) ) ) o !+L 9+u+N y.y.y.4.u+9+L L L L L L ^ ^ ^ ^ ^ L 3+N y.R.x+R.y.R.y &.=.n+n+-.].c 4.u+$+y.y.y.:.:.:.:.:.:.:.x+x+y.:.:.:.:.1 1 :.1 1 1 y.y.y.1 1 1 1 1 1 N N u+u+3+3+3+9+9+9+7+7+7+7+7+$+$+:.x+y _._.c ;.++3+o ^ ^ ^ ^ ^ ^ ^ L L 3+3+3+L L L L L L 3+u+N 4.4.N u+++H h+!+) ) ) ) ) ) ) o  .++4.;.c c R.4.u+++4.;.(.(.c ;.4.++++++| | <.h+!+) ) ) ) ) ) ) B ) S.!+3+3+3+L 3+u+4.c c c c ;.4.| | N N N 9+3+L L L L L L L L L L L L L L L 3+3+3+3+3+3+3+3+9+u+u+9+3+3+L L L !+h+3+3+++++ +4.d d 4. +++++3+h+!+!+!+ . . . . .h+h+h+h+h+h+h+h+h+h+h+h+e+e+e+e+e+e+e+S.S.e+e+e+e+c.c.<.w+w+w+w+w+<.c.3 t.e+e+<.<.<.<.<.<.<.H H h+h+h+3 3 3 3 <.<.c.e+t.B B B <+e+e+X *.*.B *.*.*.*.*.B p p p ",
") ) ) ) ) ) ) S.S.h+h+h+H H c.3 e+<+<+B p p p p j.j.j.p p p p B B B B B B B B B B B B B p p p p p p p B <+<+<+S.S.e+e+e+e+e+e+e+h+h+h+h+h+h+h+h+h+h+h+!+o o o o o o o !+S.S.S.S.) ) ) S.S.S.S.<+B B p p p p p p p p p p p p p p p p p p p p B B ) !+<.d ;.E.E.&+ +H h+<. +d d  +++h+h+3+++u+N N | | | ++++++++ + +U.U. +<.H h+S.) ) ) o o L 3+N y.R.R.R.N 3+!+o o ) ) ) ) ) o !+L 9+u+u+y.y.4.N u+3+L L L L L L ^ ^ ^ ^ o o 3+N y.R.x+x+y.R._.&.n+6.6.n+]._.y.u+N y.y.1 1 :.:.:.:.:.y.R.R.y.:.:.:.:.:.:.:.:.1 1 1 y.y.1 1 1 1 1 1 y.N N u+3+3+3+R R R 7+7+7+7+7+7+$+:.x+y ;+_._.c 4.++++3+L L ^ ^ L L L 3+3+3+3+3+L L L L L 3+u+N N N u+3+L  .o o ) ) ) ) ) ) ) o  .++4.;.c c ;.4.++++ +;.;.;.;.d ++++++++| <.<.h+S.) ) ) ) ) ) B B ) S.h+3+3+3+L 3+u+y.c _._.c ;.4.| | N N N 9+3+L L L L L L L L L L L L L 3+3+3+3+3+3+3+3+3+3+u+u+u+9+9+3+L L L !+ .h+3+++++ +d d d 4. + +++++3+H h+h+h+ . . . . .o o o o o  .o o o o o ) ) ) ) ) ) ) ) S.S.X X e+e+c.<.<.w+w+w+w+w+c.c.e+e+c.<.<.<.<.<.<.<.<.<.H H H 3 3 3 3 c.<.c.e+t.B B *.t.e+e+e+X *.B *.*.*.*.*.B p p p ",
") ) ) ) ) ) ) ) S.e+h+h+h+3 e+e+t.<+<+p p p p p j.p p p p p B B B B B B B B ) ) <+<+<+<+B B p p p p p B <+<+S.S.S.e+e+e+e+S.S.S.!+!+!+!+!+!+!+!+!+!+!+o o o o o o o !+!+S.S.S.S.) ) ) ) S.S.S.S.<+B p p p p p p p p p p p p p p p p p p p p B B ) S.<. +;.E.E.&+ +H h+<. +d d  +++h+h+3+++++| | ++++++H H H <.<.|  + +<.<.h+!+S.) ) ) o o L 3+N y.R.R.R.4.u+3+h+!+) ) ) ) ) o !+3+9+u+u+N 4.N u+9+3+L L L L L L ^ ^ ^ o o o 3+u+y.R.x+:.y.R._.&.n+6.6.k.s+_.R.u+u+N 1 1 1 1 1 1 1 y.y.y.y.y.y.1 1 1 1 1 1 1 1 1 1 1 1 1 1 1 1 1 1 1 N u+9+3+3+R R R 7+7+7+7+7+7+7+$+:.x+y ;+;+_.(.c ;.4.u+++3+W.W.L 3+3+3+3+3+3+3+3+3+3+3+3+9+u+u+u+u+9+3+^ o o o o ) ) ) ) o o o  .3+ +4.;.;.4.++3+3+++ +d d  +| ++h+h+H <.H 3 e+) ) ) ) ) ) B B ) ) !+h+3+3+3+3+9+N R.c _._.%+c 4.4.| N N 9+9+9+L L L L L L L L L L L 3+3+3+3+3+3+3+3+3+3+3+3+9+u+u+u+9+3+3+3+L L !+h+3+3+++++ + +d d d 4. + +++++3+3+3+h+ . . .o o o o o o o o o o o o ) ) ) ) ) ) ) ) ) ) S.S.e+e+3 c.<.<.w+w+w+w+<.c.c.e+c.<.<.<.<.<.<.<.<.<.<.<.H 3 3 3 3 3 c.3 e+<+B B <+e+e+e+e+e+X *.*.*.*.*.*.B p p p ",
") ) ) ) ) ) ) S.S.e+e+e+e+e+e+<+<+B p p p p p j.p p p p p B B B B <+<+<+) ) ) X e+e+e+e+<+B B p p p p B <+<+S.S.S.S.S.S.S.S.S.S.o !+!+!+!+S.S.S.S.S.o o o o o o o !+!+!+S.X X X ) ) ) S.S.S.S.S.) B B B B B B p p p p p p p p p p p p p p p p B ) S.H  +;.E.E.&+ +H h+<. +d d  +<.H !+h+3+++++++++3+h+h+h+h+h+h+<.<.<.H h+S.S.) ) ) ) o o  .3+u+y.R.R.R.y.N u+3+h+!+) ) ) ) o  .3+9+u+u+u+u+u+u+9+9+R L L L L L ^ ^ o o o o 3+u+y.R.x+:.1 R._.-.k.*+*+k.-.o.R.N u+u+u+$+7+7+7+$+$+u+u+u+u+u+u+$+$+7+$+$+$+$+$+$+$+N N u+u+u+u+u+N u+u+9+9+L L R R 9+7+7+7+b+b+b+b+b+:.x+Y.i ;+;+_._.(.c ;.u+9+9+9+9+9+9+9+u+u+u+u+u+u+u+u+u+9+9+9+9+9+3+L ^ ^ o o o o o o o o o o  .h+++|  + +| 3+h+!+h+<.| | <.H h+!+!+e+e+e+e+X ) B B B B B B B ) ) !+3+3+9+9+9+9+N R.y _._._.c ;.4.N ++++3+9+R R R L L L L L L L L 3+3+9+9+u+u+u+u+3+3+3+3+3+9+9+9+u+u+9+9+3+3+3+L W.h+h+3+++++| |  +d d 4.4.4.| ++++3+3+3+L L L L L L L L !+ .!+!+!+!+!+!+S.S.S.S.S.S.!+!+!+!+!+h+e+3 c.c.<.w+w+w+<.c.c.c.c.c.<.<.<.<.w+w+w+w+<.<.c.3 3 e+e+3 3 e+e+<+B B X e+3 c.3 e+e+X *.*.*.*.*.B p p p ",
") ) ) ) ) ) ) S.S.e+e+e+X <+B B B p p p p j.j.j.p p p p B B B B <+<+<+<+) ) ) e+e+3 3 e+X B B B p p p B <+S.S.S.S.S.S.S.S.) ) ) o o o o o ) ) ) ) ) ) o o o o o !+!+!+!+e+X X X ) ) ) S.S.h+e+S.) B B B B B B B p p p p p p p p p p p p p p p B B S.H  +&+E.E.&+ +H h+H  + + + +<.h+!+!+h+3+3+3+3+h+h+h+ .S.S.S.e+e+e+S.S.S.) ) ) ) ) ) o  .3+u+4.R.R.R.y.y.N u+3+!+) ) ) ) o h+3+u+u+u+9+9+3+9+9+9+9+9+L L L L ^ o o o o o 3+u+y.R.x+:.$+R._.-.6.*+*+6.-.o.R.N u+u+9+9+9+9+9+9+9+9+9+9+9+9+9+9+9+9+9+9+9+9+9+9+9+9+9+9+9+9+9+9+9+9+9+9+L L L R R 7+7+7+7+b+b+b+b+b+2.:.Y.i ;+;+a o.o.(.c 4.u+u+u+u+u+u+u+u+u+u+u+N N u+u+u+u+9+9+3+L L ^ ^ ^ ^ o o o o o o o o o o  .h+3+++++H !+!+S.S.h+h+h+h+!+S.) ) ) X X ) B B B B B B B B ) ) o h+3+++u+9+9+u+4.R._._._._.c ;.4.u+++3+3+L R R R R L L L L L L 3+3+9+u+u+u+u+u+u+9+3+3+L 3+9+9+9+9+u+N N u+3+3+3+3+h+h+h+h+h+H ++|  +d d 4.4.4.N ++++3+3+3+L L L L L 3+3+3+h+h+h+h+!+!+!+!+h+h+h+h+h+h+h+h+!+!+!+!+S.e+3 c.<.w+w+w+c.c.c.c.e+e+c.<.<.w+U.U.w+w+w+c.3 e+t.e+e+e+e+X *.B *.X e+c.H H 3 e+e+X *.*.*.*.B p p p ",
") ) ) ) ) ) ) S.S.e+e+X <+B B B p p p p j.j.j.j.p p p p B B B B <+<+<+<+) ) S.e+h+H <.3 e+X B B p p p B <+S.S.S.S.S.S.S.S.) ) o o o o o o ) ) ) ) ) ) o o o o !+!+!+!+!+e+e+X X ) ) ) S.!+h+h+S.) ) B B B B B B p p p p p p p p p p p p p p p B B ) H  +&+E.E.&+ +H h+h+<. + +<.<.3 S.!+!+3+3+3+h+ . . .o ) ) ) ) ) ) ) ) ) ) ) ) ) ) ) o  .6 ++4.y.R.R.R.y.y.N 3+!+) ) ) ) o h+3+u+u+u+3+3+L 3+9+9+9+9+3+L L L o o o o o o 3+u+y.R.x+:.$+x+a -.6.C.C.6.o+o.R.N u+u+9+9+9+R R R R ^ ^ ^ ^ ^ ^ L R R R R 9+9+9+9+9+9+9+9+9+9+9+9+9+9+9+9+L ^ ^ R R 7+7+7+7+b+b+b+U b+b+:.v+Y.i ;+a < o._.c R.y.4.N N N u+u+u+u+u+N N N N u+u+u+9+3+L ^ ^ ^ ^ ^ ^ o o o o o o o o o o o !+!+!+!+!+S.) ) ) ) ) ) ) ) ) ) ) ) B B B B B B B B B B B ) ) !+h+3+u+u+u+u+u+y.R.y _._._.c ;.4.u+3+3+L L R R 9+9+9+3+3+3+3+3+3+9+9+u+u+u+u+u+u+9+3+3+L L 9+9+9+9+u+N N u+u+3+3+3+h+h+ . .!+!+H ++ +d d 4.4.4.4.4.u+++3+3+3+3+3+3+3+3+3+++++++H H H H H H H H H H H H h+h+h+h+!+!+S.S.S.3 <.<.<.<.<.c.c.c.e+e+e+c.<.w+~ U.w+w+w+<.c.t.<+<+e+e+e+X ) B ) e+3 H <.<.c.e+e+e+X *.*.*.B p p p ",
") ) ) ) ) ) S.S.S.S.S.<+B B B p p p p p j.j.j.j.p p p p B B B *.<+<+<+B B ) ) e+H <.<.H e+S.) B B p p B <+S.S.S.S.S.S.S.) ) ) o o o o o o ) ) ) ) ) ) o o o o !+!+!+!+!+h+e+X X ) ) ) S.!+h+h+S.X ) B B B B B B p p p p p p p p p p p p p p p B B ) H  +&+E.E.&+ +H e+h+<.<.<.<.3 S.S.S.!+!+!+ . . . . .o ) ) ) ) ) ) ) ) ) ) ) ) ) ) ) )  .h+++4.y.R.R.R.R.y.4.++h+o ) ) ) !+h+++u+u+u+3+L L 9+9+u+u+9+9+L L L o o o o o !+3+u+y.R.x+:.:.x+a -.6.C.C.6.o+o.c y.u+u+9+9+9+R R R R ^ ^ ^ ^ ^ ^ ^ ^ L R R R R R R R R R R R R 9+9+9+9+9+R L ^ ^ h R R P P 7+7+b+U U U b+G :.v+y _.;+a a _._.c R.R.R.y.y.y.y.N N N N N u+u+u+u+9+9+R L ^ ^ ^ ^ ^ ^ ^ ^ o o o o o o o o o o o o ) ) ) ) ) ) ) ) ) ) ) ) ) ) ) B B B B B B B B B B B ) ) !+h+3+u+u+u+u+N y.R.y _._.y R.4.N u+3+3+L L 9+9+9+N N N N N N u+u+u+u+u+u+u+u+u+u+9+9+9+9+9+9+9+9+9+u+N u+N u+++++++3+h+ . .!+!+h+H |  + +d d 4.4.4.4.u+++3+3+3+3+3+++++++++| | | | ++<.++++++++++++++<.<.H H H h+!+S.S.S.e+3 <.<.<.<.<.<.c.e+X e+c.<.w+~ ~ ~ ~ w+w+c.t.<+<+X X X X ) ) ) S.3 H <.<.H c.e+e+e+*.*.*.p p p p ",
") ) ) ) ) S.S.S.S.S.S.<+B B p p p p p p j.j.j.j.p p p B B *.*.*.*.B B B B B ) e+3 <.<.H h+e+S.) B B B B <+S.S.S.S.!+!+!+o o o o o o o o o o o o o o o o o !+!+!+!+L h+h+!+!+S.S.) ) ) S.!+h+h+S.S.) ) B B B B B p p p p p p p p p p p p p p p B B ) H  +&+E.E.&+ +H e+S.h+h+h+e+e+S.) ) S.!+!+ . . . . .o ) ) ) ) ) ) ) ) S.S.) ) ) ) ) ) X h+++u+y.R.R.R.R.R.4.++h+o ) ) ) !+h+++u+u+u+3+L L 9+u+N N u+9+L L ^ !+!+!+!+!+3+3+u+y.x+x+:.:.x+a o+6.C.C.6.o+o.c y.$+$+7+7+7+7+R R h h h ^ ^ ^ ^ ^ ^ ^ ^ ^ L L L L L L L L L L R R 9+9+9+R R ^ ^ ^ h h P P P 7+7+b+U b+b+b+:.:.x+y _._._._._.y y y y R.R.y.y.1 1 N N u+u+9+9+9+9+9+R R L ^ ^ ^ ^ ^ ^ W.W.^ ^ ^ ^ o o o ) ) ) ) ) ) ) ) ) ) ) ) ) ) ) ) ) ) ) ) B B B B B B B B B ) ) S.!+3+3+u+u+u+4.y.y.R.c y c R.y.N u+9+3+L L 3+9+9+N N 4.4.4.4.4.N N u+u+u+9+9+9+9+9+9+9+9+9+9+9+9+9+9+9+9+u+u+N u+++++++h+h+ .S.S.S.h+H <. + +d ;.4.4.4.4.u+++++++++++++u+N 4.4.d  + + +| | | | | | | | | | <.<.H H h+S.S.S.S.e+3 c.<.<.w+<.<.e+X X e+c.<.w+~ ~ ~ ~ w+c.t.<+<+X X X X ) ) ) S.h+H H <.<.H c.e+e+*.*.*.p p p p ",
") ) ) ) S.S.S.S.S.S.S.<+B B p p p p p p j.j.j.j.p p p B *.*.*.*.B B B B B B ) e+3 <.<.<.h+h+e+X B B B B <+S.S.S.!+!+!+!+o o o o o o o o o o o o o o o o !+!+!+!+3+3+3+3+!+!+!+S.) ) ) S.!+h+h+!+S.) ) ) B B B B p p p p p p p p p p p p p p p B B ) H  +&+E.E.&+ +<.e+S.S.S.S.X ) ) ) ) ) ) o  . .W.W. .o ) ) ) ) ) ) ) S.S.S.) ) B B B ) ) !+3+u+y.y.R.x+y R.y.N 3+o ) ) ) !+H ++N N u+3+L L 9+u+N N u+9+L L ^ !+!+!+!+L 3+9+u+y.x+x+|.x+y a -.6.C.C.6.o+o.c y.$+$+$+$+7+7+7+R R h h h ^ ^ ^ ^ ^ ^ ^ ^ ^ ^ ^ ^ ^ ^ ^ ^ ^ ^ L R 9+7+7+9+R ^ ^ ^ h R R 7+7+7+7+b+b+b+b+2.2.1 :.x+y y y _._._.y y y y x+R.y.1 1 N 9+9+9+9+9+9+R R R R R R ^ ^ ^ ^ W.W.W.W.^ ^ ^ o o ) ) ) ) ) ) ) ) ) ) ) ) ) ) ) ) ) ) ) ) ) ) ) B B B B B B ) ) S.!+!+3+3+u+u+4.y.y.R.R.R.R.R.y.y.u+9+9+L L L 3+9+N N 4.4.;.R.R.y.y.y.N u+9+9+9+9+9+9+9+9+9+9+9+9+9+9+9+9+9+u+u+N N N ++++h+h+!+S.S.S.S.S.H <. + +d ;.;.4.4.4.N ++++++++N 4.4.4.4.d d d  + + + + + + + + + +| <.<.<.<.H 3 S.S.S.S.S.3 <.<.w+w+<.c.X *.t.e+c.<.w+~ ~ ~ w+c.t.<+B X X X X ) ) ) S.h+H H <.<.<.<.c.e+t.*.*.B p p p ",
") ) ) ) S.S.S.S.S.S.S.<+B p p p p p p p j.j.j.p p p p B *.*.*.*.B B B B B ) X e+3 <.<.<.H h+h+X ) B B B <+S.S.S.!+!+!+!+o o o o o o o o o o o o o o o !+!+!+!+3+3+3+3+3+!+!+!+S.) ) ) S.S.h+h+S.S.) ) ) B B B B p p p p p p p p p p p p p p B B B ) h+ +&+;.E.&+U.<.3 S.S.) ) ) B B B B ) ) ) o  .W.W. .o ) ) ) ) ) ) ) S.S.S.) ) B B B ) ) !+3+u+4.y.R.y y y y.N 3+o o ) ) !+H ++N N u+9+L R 9+u+1 1 N 9+L L ^ !+!+!+!+3+3+u+N y.y.x+x+x+y a -.k.6.6.k.-.o.R.y.$+$+$+$+7+7+7+P R h h h ^ ^ ^ ^ ^ L L L L ^ ^ ^ ^ ^ ^ ^ ^ ^ ^ R R 7+7+9+R R L 9+9+9+$+$+$+1 :.:.:.:.:.:.:.:.:.:.x+y y y y i y y y y x+R.y.1 1 7+7+9+R R R R R R R R R R L ^ ^ W.W.W.W.W.^ ^ ^ o o o ) ) ) ) ) ) ) ) ) ) ) ) ) ) ) ) ) ) ) ) ) S.S.X S.X X e+e+e+!+!+3+3+9+u+u+y.y.y.R.R.R.y.y.y.N 9+9+L L L L 3+3+N N 4.4.;.R.R.y.y.y.N u+9+9+9+9+9+9+9+9+9+9+9+9+9+9+9+9+9+u+u+N 4.4.u+++++h+h+!+!+) S.S.S.H <. +d d d ;.4.4.4.4. + + + +4.4.4.d d d  + + + + + + + + + +| <.<.<.<.<.H 3 3 S.S.S.S.e+H <.w+w+<.c.e+<+t.t.c.c.<.~ ~ ~ w+c.t.B B X X X X ) ) ) S.h+H H <.<.<.<.c.e+X *.*.B p p p ",
") ) S.S.S.S.S.S.S.S.S.<+B p p p p p p p p p p p p p p B *.*.*.*.B B B B ) ) S.e+H <.<.<.H h+h+S.) B B B S.S.S.!+!+!+!+o o o o o o o o o o o o o o o !+L L 3+3+3+3+3+3+3+!+!+!+!+) ) ) S.S.S.S.S.S.S.) ) B B B B p p p p p p p p p p p p p p B B B ) h+ +d ;.;.&+d <.<.e+S.) ) B B B B B B ) ) o  .W.W. .o ) ) ) ) ) ) ) S.S.S.) ) ) ) B ) ) !+3+++N y.R.y y y R.N 3+!+o ) ) !+3+++4.4.u+9+R R 9+$+1 1 1 9+R L ^ o !+!+3+3+u+u+N y.y.:.x+x+Y.a s.n+k.k.o+]._.R.y.$+1 $+$+$+7+7+P R h h h ^ ^ ^ L L R R R R R R ^ ^ ^ ^ ^ ^ ^ ^ R R 7+7+9+9+9+9+u+N y.y.R.x+x+x+Y.Y.Y.Y.x+x+:.:.:.:.x+x+x+y y y y x+x+x+y.1 1 1 7+7+7+R R R R R R R R R R R L L W.W.W.W.^ ^ ^ ^ o o o ) ) ) ) ) o o o o o o o o o o ) ) o  .!+h+h+h+h+h+h+H <.<.H H 3+3+3+u+u+u+y.y.y.R.R.R.y.y.N u+9+9+L L L L 3+3+++u+N 4.4.4.4.4.4.N u+u+u+9+9+9+9+9+9+9+9+9+9+9+9+9+9+9+9+u+u+u+N N u+u+++++3+h+!+o ) ) S.e+H <. +d d d ;.;.;.d d d d  + + + + + + + +| <.<.<.++++++++<.<.<.<.<.<.<.H H 3 3 S.S.) S.h+<.<.<.<.c.e+<+<+t.t.c.c.c.w+c.c.t.*.B B *.X X X ) ) ) S.h+H H <.<.<.<.H e+e+*.*.B p p p ",
"S.S.S.S.S.S.S.S.S.S.S.<+B p p p p p p p p p p p p p p B *.*.X *.*.B B ) ) S.S.h+H <.<.<.H h+h+S.) B B ) S.S.!+!+!+!+o o o o o o  .W.W.W.L L L L L L L L 3+3+3+3+3+3+3+3+!+!+!+!+) ) ) ) S.S.S.S.S.S.S.) ) B B B p p p p p p p p p B B B B B B B B ) h+| d ;.;.&+d  +<.c.e+X B B B B B B B B ) o  .W.W. .o ) ) ) ) ) ) ) ) o o ) ) ) ) ) ) ) !+h+++N y.R.y y y R.y.3+L o ) ) !+3+u+4.4.u+9+R R 7+$+1 1 1 7+R L ^ ^ !+!+3+++u+N 1 $+1 :.x+Y.i ;+&.s.-.-.].o.y y.y.1 y.1 $+$+7+7+P R h h h ^ ^ ^ L 9+9+9+9+9+9+R R ^ ^ ^ ^ ^ ^ ^ R R 7+7+9+9+9+u+4.y.R.y y y w.i i i i i i Y.y v+x+:.:.:.:.:.x+x+x+:.y.y.1 1 $+7+7+7+7+7+7+7+7+7+7+7+7+9+9+9+L L W.W.W.^ ^ ^ ^ ^ ^ o o o o o o o o o !+!+o o o o o o o  . .h+h+h+3+++++++|  + + +| | ++u+u+u+u+$+$+y.y.R.R.R.y.y.4.u+9+L L L L L L 3+3+++++u+N N N N u+u+u+u+u+u+9+9+9+R R R R R 9+9+9+9+9+9+u+u+u+u+u+N N N N u+++3+L !+o ) S.S.e+H <. +d d &+;.;.;.&+&+d d  + +| | <.<.<.H h+h+h+H H H H h+3 3 3 3 3 c.H H H H e+S.) S.e+H <.<.<.3 e+S.<+<+t.t.t.c.c.c.t.t.B B B *.X X X X ) S.S.h+H <.<.<.<.<.<.h+e+*.*.B p p p ",
"S.S.S.S.S.S.S.S.S.S.S.<+B p p p j.j.j.j.p p p p p p p B *.X X X *.B ) ) S.S.!+h+H <.<.<.H h+h+S.) ) B ) S.h+h+!+!+o o o o o o o W.W.W.W.L L L L L L 3+3+++N N u+++3+3+3+!+!+!+!+) ) ) ) S.S.S.S.S.S.S.) ) B B B p p p p p p p p B B B B B B B B ) S.h+| d ;.;.&+d U.w+<.3 X B B B B B B B B ) o !+3+3+!+!+) ) ) ) ) ) ) o o o o ) ) ) ) ) ) !+h+3+N y.R.y y y v+y.u+L o o o !+3+u+N N u+9+R R 7+$+1 1 1 7+9+R L ^ ^ L 3+u+N y.1 $+$+:.x+Y.i ;+m.a < a _.y R.y.1 y.y.y.1 $+7+7+P R h h h ^ ^ L 9+9+N 1 7+7+7+9+R R ^ ^ ^ ^ ^ ^ R R 7+7+7+9+u+N y.R.c y _.;+;+;+0+0+0+;+;+i i Y.v+:.1 1 $+$+1 1 1 $+$+$+$+$+7+7+7+7+7+7+7+7+7+7+7+7+7+7+9+9+3+3+L L ^ ^ ^ ^ ^ ^ ^ o o o o o o o o !+L L L L ^ ^  . . .h+h+3+++++++|  +4.4.d d d 4.4.N N N $+$+$+y.y.y.y.y.R.R.y.4.u+3+L L ^ o o  . .h+3+3+3+3+3+++3+3+++u+u+u+u+9+9+R R R R R R R 3+3+3+3+u+u+u+u+u+u+u+N 4.4.N u+9+3+L !+o ) ) X e+h+<. +d &+E.E.E.s &+&+U. +<.<.h+h+e+e+S.X X X e+e+e+e+X X S.e+e+3 3 3 <.<.H h+e+S.S.S.h+H H H 3 3 e+<+<+<+B *.*.t.t.D.D.p B B *.e+e+X X ) S.e+h+<.<.<.| | <.<.h+e+X *.B p p p ",
"S.S.S.S.S.S.S.S.S.S.S.<+B p p p j.j.j.j.p p p p p p p B <+e+e+S.S.) ) S.S.!+h+H <.<.<.<.H h+h+S.X X X X e+h+h+!+!+o o o o o o  .W.W.W.W.L L L L L 3+3+u+N 4.4.N u+3+3+L !+!+!+!+o ) ) ) S.S.S.S.S.S.S.S.) B B B B B B p p p B B B B B B B B ) X e+3 <. +d d ;.;.&+d U.w+c.e+B B B B B B B B ) S.!+3+3+!+!+o ) ) ) ) ) ) o o o o ) ) ) ) ) ) S.!+3+N 4.R.y y y y y.N 3+!+o o !+3+u+N N u+9+R R 7+$+:.:.1 $+7+R R L L L 9+u+y.y.1 $+$+:.x+Y.i i i i i y y R.y.1 1 y.y.y.1 1 $+7+7+P h h h h R R 9+N 1 1 1 7+7+7+R R h ^ ^ ^ ^ R R 9+7+7+$+u+u+4.R.c c y _.;+;+;+;+;+;+;+;+;+i i y :.:.$+7+7+7+7+7+7+7+7+7+7+7+7+7+7+7+7+7+7+7+7+7+7+7+7+9+9+9+3+3+L L ^ ^ ^ ^ ^ ^ ^ o o o o o !+L L L L L L 3+3+3+3+6 ++++++++ +4.4.4.;.;.;.c ;.;.4.4.N N 1 y.y.y.y.y.y.y.y.y.4.4.u+3+L o o o o o  . . .h+3+L 3+3+3+3+3+3+u+u+u+9+9+R R R R R R R L 3+3+3+u+u+u+u+u+u+u+N y.y.y.N u+9+3+L !+o ) ) X e+<.w+U.&+&+s s s &+d U.<.<.e+e+S.) ) B B B *.X X X X *.B B <+S.e+3 3 H <.H 3 e+S.S.S.!+H H H 3 3 3 e+<+B p p p p p p p p B *.X e+e+S.S.) S.e+h+<.<.| | | | <.h+e+X *.B B p p ",
"S.S.S.S.e+3 3 e+S.S.<+<+B p p p j.j.j.j.p p p p p p p B <+S.S.S.S.S.S.S.h+h+H H <.<.<.H h+h+e+e+e+e+e+e+h+h+h+!+o o o o o o !+L W.W.W.3+3+L 3+3+3+3+u+N 4.4.4.4.N 3+3+L L !+!+o o o ) ) S.S.S.S.S.S.S.S.) ) B B <+<+<+B B B B B B B B B B <+e+3 <.<. + +d d ;.;.&+&+&+U.<.e+B B B B B B B B ) S.!+L L L !+!+) ) ) ) ) ) o o o o ) ) ) ) ) ) ) !+3+++N R.y i i y y.N 9+L o o !+3+++u+N u+9+R R 7+1 :.:.:.1 7+7+R R R 9+9+u+$+y.1 :.:.:.x+( Y.Y.Y.Y.y y v+y.1 1 1 y.y.y.y.1 1 $+7+P P R R R R 9+9+1 1 1 1 7+7+7+P R R h h ^ L R R 7+7+$+$+$+N 4.4.R.c c y y y w.i i i i ;+;+i i Y.x+:.2.b+7+7+7+7+7+7+7+7+7+7+7+7+7+7+7+7+7+7+7+7+7+7+7+7+9+9+9+9+9+R R h h ^ ^ ^ ^ ^ ^ ^ W.W.L 3+L L 3+9+9+u+u+u+u+ + +4.4.4.4.;.;.c c c c (.c c R.y.y.y.y.R.R.R.y.y.y.4.4.4.u+++3+3+!+o o o ) ) o  . . .L L L L L L 3+3+3+3+9+9+9+R R R R R R L L 3+3+3+3+u+u+u+u+u+N N y.y.1 N N u+9+3+!+o ) ) ) X h+<. +U.d &+&+&+U.U.<.<.e+e+X ) ) B B B B B *.*.*.*.B B B B <+S.e+3 3 3 H 3 e+S.S.S.S.!+h+H H 3 3 e+<+B p p p p p p p p B <+S.e+e+S.S.) S.h+h+<.<.| | | | <.H e+X *.B B p p ",
"S.S.S.e+3 3 3 3 e+S.<+<+B p p p j.j.j.j.p p p p p p p B <+S.S.S.S.S.3 h+H H H <.<.++++H h+h+S.e+e+3 3 h+h+h+h+!+o o o o o L L L L 3+3+3+3+9+9+9+9+u+N 4.;.;.;.4.4.++3+L L ^ ^ o o o o o S.!+!+!+!+!+S.S.) ) ) <+<+<+<+<+<+B B B B ) ) ) ) X e+<.w+U.d d d d &+;.M.E.B.U.w+e+B B B B B B B B ) S.!+L L L !+!+S.) ) ) ) ) o o o o ) ) ) ) ) ) ) !+h+++N R.y i i y x+1 9+L L !+!+3+3+u+u+9+9+R R 7+$+:.:.:.G G 7+7+7+9+9+9+$+$+$+:.:.:.:.x+x+x+y y Y.y y v+y.N N N 1 y.v+:.:.:.$+7+7+P P R 9+9+7+1 1 1 1 1 7+7+P P P R R R R R R 9+7+$+1 1 1 4.4.4.4.4.R.R.R.R.R.R.x+y y y i i i Y.( :.2.2.b+b+b+b+b+b+b+7+7+7+7+7+7+7+7+7+7+7+7+7+7+$+$+$+$+/.u+9+9+9+R R h h h ^ ^ ^ ^ W.3+3+3+3+9+9+9+u+u+4.4.4.4.4.4.;.;.;.;.c c c c _._._._.y c R.y.R.R.y y c R.y.4.4. +++++H h+!+o ) ) ) ) ) ) ) o  .!+L L L L L L 3+3+3+3+3+3+L L L L L L L L L 3+3+3+3+u+u+u+N y.y.y.N N N N N u+3+3+!+o ) o o h+h+<.<.w+w+w+w+w+<.c.e+e+X ) B B B B B B B *.*.*.*.B B B B B <+S.S.e+3 3 3 3 e+S.S.S.S.S.h+H H 3 e+X B B p p p p p p B B <+S.e+3 S.S.) S.h+h+<.++| | | | <.H e+e+X B B B B ",
"S.S.S.3 H H H 3 e+S.<+<+B p p p j.j.j.j.p p p p p p p B <+S.S.S.3 H H H H <.<.<.++++++h+h+S.S.e+3 H H H h+h+h+!+o o o o L L L L 3+3+3+3+9+9+9+u+N 4.4.;.c c c ;.4.++3+L ^ ^ ^ ^ o o o !+h+h+h+h+h+!+!+S.) ) ) S.S.e+e+S.S.) ) ) ) ) ) ) X e+c.w+U.&+&+&+&+d ;.M.E.E.E.&+~ c.B B B B B B B B ) ) !+L L L !+!+!+S.) ) ) ) o o o o ) ) ) ) B B ) S.!+3+N R.y y i y x+y.N 9+3+!+!+!+3+3+3+9+R R 9+7+1 :.:.:.G G G 7+7+7+7+7+$+$+$+:.:.|.x+x+:.:.v+v+y Y.y v+y.N N N 1 :.v+v+:.:.:.G 7+7+7+7+7+1 1 1 :.:.:.:.$+7+P P P P P R R R 9+7+1 1 1 1 y.4.4.4.N u+u+u+u+u+u+u+N y.y.x+y i i Y.Y.@.@.2.2.b+b+b+2.2.2.2.7+7+7+7+7+7+7+7+7+7+7+7+$+$+$+$+$+$+$+7+7+7+7+R R h h ^ ^ ^ L L 3+9+u+9+9+9+u+u+4.y.y.R.;.;.;.;.;.;.c c c (._._._._._._.c R.R.R.c y y c R.4.4.++++<.h+h+X S.) ) ) ) ) ) ) ) o !+!+3+3+L !+!+!+L 3+3+3+3+3+L L L L L L L L L L 3+3+3+++u+N y.y.y.4.N N N y.y.N u+3+!+o o o o o !+h+h+H c.c.c.c.e+e+X *.B B B B B B B B B *.*.*.*.B B B B B B <+S.S.S.S.3 3 3 3 S.S.S.S.e+H <.c.3 e+B B p p p p p B B B S.S.h+h+!+S.S.S.h+h+++++| | | | <.H e+e+X *.B B B ",
"S.S.S.3 H <.<.3 e+<+<+B p p p p j.j.j.j.p p p p p p p B <+S.S.S.3 H H H H <.<.<.<.++H h+!+S.S.e+3 H H H h+h+h+ .!+o o L L L L 3+3+3+3+9+9+u+u+4.4.;.c c (.(.(.c ;.N 3+L ^ ^ ^ ^  .h+h+H <.<.<.<.H h+!+!+) ) ) S.e+3 3 3 e+S.S.S.!+!+!+S.h+h+<. +d &+&+&+&+d ;.M.(.k (.s U.c.<+B B B B B B B ) ) !+L L L L !+!+!+S.) ) ) o o o o ) ) ) ) B B ) ) !+3+N y.y y i y y R.y.N 3+L o o !+3+3+L L R 9+7+1 :.:.:.G G G G 7+7+7+7+$+$+$+:.|.|.|.:.:.1 :.v+y Y.y v+y.N 9+N 1 :.v+v+:.:.:.:.G G 7+1 1 1 :.:.:.:.:.:.G 7+7+P P P 7+7+7+7+7+$+1 :.:.y.y.N N ++++3+3+3+L L L L 3+9+N y.y y i Y.Y.( @.@.2.b+b+b+2.2.2.2.7+7+7+7+7+7+7+7+7+7+7+7+$+$+$+$+$+$+$+7+7+7+7+R h h h h ^ ^ W.3+9+u+u+u+u+u+N N 4.y.R.R.;.;.;.;.;.;.;.c c c (._._._._._.y c R.c c c c c ;.4. +++h+e+X X ) ) ) ) B B B ) ) ) o !+!+3+3+L  . . . .3+3+3+3+3+L L L L L L L L L L L 3+3+3+u+u+N y.y.4.4.4.4.y.y.4.N ++3+ . .o o o o o ) S.X X X X X *.B B B B B B B B B B B *.*.*.*.*.B B B B B B <+S.S.S.S.3 3 3 S.S.S.S.e+H <.<.3 e+*.B B p p p p B B ) S.3 H H h+S.S.S.h+h+++++++| | <.H H e+e+X B B B B ",
"S.S.S.3 H H H 3 e+<+<+B p p p p j.j.j.j.p p p p p p p B B <+S.S.S.3 3 3 H H H H H h+h+h+!+S.S.S.3 H H h+h+h+!+!+ .!+L L 3+3+3+3+3+3+u+u+u+N y.R.c c (.o.o.!.o.(.;.4.++L L ^ ^ L 3+3+++ + +d  + +| H !+!+o ) S.S.h+H H H H H h+h+h+h+h+h+H <.|  +d ;.;.;.;.d ;.E.(.k k E.d <.X B B B B B B B ) ) !+L L L 3+h+h+!+S.) ) ) o o o o ) ) ) ) B B ) ) !+h+++4.R.y y y y y c y.N 3+o o o L L L L R R 7+1 :.:.:.G G G b+7+7+7+$+$+$+1 :.:.|.:.:.$+$+1 :.v+Y.y x+y.N 9+N 1 :.v+v+v+:.:.:.:.G :.:.:.v+v+v+v+x+:.:.:.G 7+7+7+7+7+7+$+$+1 1 1 :.y.y.N u+++++3+3+L o o o o ^ ^ L 9+y.R.y y Y.Y.5.@.@.2.b+b+2.2.2.2.2.7+7+7+7+7+$+$+$+7+7+7+7+7+$+$+$+$+7+7+7+7+7+P h h h h h -+L 3+9+9+u+u+u+N 4.4.4.4.4.4.4.4.4.4.4.4.4.4.;.;.;.c c c _._.y y c c c c c c ;.4.| ++H h+X X B ) ) ) B B B B ) ) ) ) o !+h+3+h+ . . . .3+3+3+3+L L L L L L L 3+3+L L L L L 3+3+u+N N 4.4.4.4.y.y.y.4.N u+++3+3+ . .o o ) ) ) ) ) ) *.B B B B B B B B B B B B B B *.*.*.*.*.B B B B B B <+) S.S.S.S.S.S.S.) X e+h+<.<.3 e+*.B B p p p B B B ) S.H H H H !+S.S.h+h+<.++++++H H h+e+S.X *.B B B B ",
"S.S.S.3 H H H 3 S.<+B B p p p p j.j.j.j.p p p p p p p B B B <+S.S.S.S.3 3 3 3 h+h+h+!+!+S.S.S.S.e+3 h+h+!+!+!+ .!+L 3+3+3+9+9+9+u+u+u+u+N y.R.c _._.o.!.q+q+!.o.c 4.N 3+L L L 3+++++ +d &+&+&+d  +++h+!+o ) S.S.h+H ++++++++++++++3+++++++|  +d d ;.;.;.d d ;.(.o.o.o.(.&+<.S.B B B B B B B ) ) !+L L 3+3+3+h+h+!+) ) ) o !+!+o ) ) ) ) B B B ) S.!+++N R.y y i _+_+y c 4.3+!+o o o L ^ ^ L R 7+$+:.:.:.G G b+b+7+7+7+$+$+1 y.y.:.:.:.$+$+$+$+:.x+Y.Y.x+y.N 9+N 1 :.:.v+v+5.5.5.:.:.v+v+v+v+y Y.Y.( ( x+:.:.1 $+$+$+$+$+$+y.y.y.y.y.y.1 u+++3+3+!+!+o o o o o o o ^ 3+u+y.R.x+v+5.5.5.@.G 2.b+2.2.2.2.2.7+7+7+7+$+$+1 $+$+7+7+7+7+7+7+7+7+/./.-+-+-+h h h h h -+R 9+9+9+9+9+u+N 4.y.y.4.4.4.N u+| | | | | | |  + + +4.4.;.R.c c c y c c R.y.4.N | ++h+h+X ) B B B B B B B ) ) ) ) ) o o !+h+h+h+ . . . .3+3+3+3+L L L L 3+3+3+3+3+3+3+L !+!+!+3+3+u+N 4.4.;.;.R.y.4.4.4.N ++++3+3+ . .o ) ) ) ) ) B B B B B B B B B B B B B B B B B B *.*.*.*.*.<+<+<+<+B B <+S.S.S.S.S.) ) ) e+3 <.<.3 e+*.B B p p p B B ) ) S.H H H H !+S.S.h+h+<.<.<.H h+h+S.S.X ) B B B B B ",
"S.S.S.3 H H H e+S.<+B B p p p p j.j.j.j.p p p p p p p B B B B <+<+<+S.S.S.S.S.S.S.S.S.S.S.S.S.S.S.S.S.!+!+!+!+!+L 3+3+3+u+u+u+u+u+u+u+u+4.y.R.c _.o.q+].].].q+!.(.;.4.u+3+3+3+++ +d d &+E.E.E.;.d | 3+!+o ) S.!+h+++++++| N N u+u+u+u+u+u+4.4.4.4.4.4.4.4.4.;.(.o.!.!.(.&+<.S.B B B B B B B ) ) !+L L 3+3+++3+h+h+S.) ) !+!+!+!+) ) ) ) B B B ) S.!+3+N y.v+y _+;+_+_.c 4.++!+o o o o ^ ^ ^ R 9+$+:.:.:.2.b+b+b+7+7+7+$+1 y.y.y.1 $+$+$+b 7+$+:.x+Y.( x+y.$+9+$+1 :.:.v+5.5.5.5.5.5.5.5.5.Y.Y.Y.Y.Y.( x+:.:.:.1 $+$+$+$+y.:.x+y.y.y.y.N u+3+!+!+o o o o o o o o o o L 9+N y.:.v+v+5.5.@.G 2.b+2.e @.:.2.7+P 7+7+$+1 :.1 $+7+7+7+7+7+7+7+7+/.-+-+-+-+R h h h R 9+9+u+u+u+u+u+u+4.y.R.;.4.4.u+++3+H h+h+h+h+h+h+h+H H <.++| 4.4.R.c %+c c y.N | 3+h+!+S.) ) B B B B B B ) ) ) ) S.!+!+!+!+h+h+h+h+ . . .h+3+3+3+3+L L L 3+9+u+u+9+3+3+3+!+!+!+!+!+3+3+u+4.4.;.;.R.;.4.4.4.4.4.u+++6 h+ . .) ) ) ) B B B B B B B B p p p p B B B B B B B *.*.X X X <+<+<+<+B B B <+S.S.S.S.) B <+e+3 <.<.3 e+<+B B p p p B B ) S.h+H <.<.H h+S.S.e+h+<.<.H h+S.S.) ) B B B B B B B ",
"S.S.S.3 H H h+S.S.B B B p p p p p j.j.p p p p p p p p B B B B B <+<+<+<+S.S.S.S.S.) ) ) S.S.S.S.S.S.S.!+!+!+h+h+3+3+++++u+u+u+u+u+u+u+N 4.y.R.c _.o.!.q+].q+q+!.(.c ;.4.4.4.4.4.d ;.M.E.(.k (.E.;. +++h+!+o o !+h+++++++N 4.4.u+u+u+u+u+u+4.4.4.4.4.4.4.4.4.c (.!.].q+o.E.<.S.B B B B B B B ) ) o L L 3+++++++3+h+S.) ) o !+!+!+o ) ) ) B B B ) ) !+3+N 1 v+y _+;+;+_.%+;.++!+o o o o o ^ ^ R 9+$+1 :.2.2.b+b+7+7+7+$+$+1 y.y.1 $+$+$+7+b b $+:.x+( ( x+y.u+9+7+1 :.:.:.5.5.5.5.5.5.5.5.Y.Y.Y.Y.Y.Y.( ( x+:.:.:.1 $+$+:.|.x+x+R.y.y.N u+3+L o o o o o o o ) ) o o o L 3+N y.y.v+v+5.@.:.G b+b+2.e @.:.2.7+P P 7+7+$+2.$+$+7+7+7+7+7+7+7+N.-+-+9+9+9+9+9+9+9+9+u+u+u+u+u+u+N N 4.4.;.;.4.N ++3+!+!+S.) ) ) ) ) ) ) S.S.!+h+3+| 4.c c c c 4.N 3+!+o o ) ) B B B B B B ) S.e+h+H <.<.++++++H h+h+h+ . . .W.3+3+3+3+3+3+3+9+u+u+u+u+3+3+3+!+o ) ) o !+3+++N 4.;.;.;.;.4.4.4.4.4.4.++++h+h+ .S.) ) ) B B B B B B B B p p p p B B B B B B B B *.X X X <+<+<+<+<+B B <+S.S.S.) B B <+e+3 c.c.3 e+<+B B p p B B B ) S.h+H | | H h+S.S.e+h+H H h+e+S.) ) B B B B B B B B ",
"3 3 S.!+!+!+S.S.) B B B p p p p p p p p p p p p p p p B B B B B B <+<+<+S.S.S.) ) ) ) ) ) ) S.S.S.S.S.h+h+h+H ++++++++++u+u+u+u+u+u+u+u+4.4.R.c (._.o.!.!.!.!.k (.c ;.;.R.c c c c E.(.k k k k (.;.d | ++h+!+o !+h+3+++++u+N N u+u+u+u+u+u+N N N u+N N N 4.4.c o.q+].].!.E. +S.B B B B B B B ) ) o !+L 3+++u+++++h+!+) o o !+!+o o ) ) ) B B B ) ) !+3+N 1 v+v+i ;+;+_.y R.u+3+o o o o o ^ ^ L 9+7+$+$+$+7+7+7+7+7+7+$+1 1 1 1 $+$+7+7+7+b b 2.:.( ( ( x+y.u+9+9+1 1 :.:.5.5.5.5.5.5.5.5.5.v+v+x+x+x+x+x+x+x+:.:.:.2.$+:.|.x+x+R.y.N u+3+3+o o o o o o o o o o o o o 3+++4.y.R.v+v+:.:.:.G b+b+2.2.2.2.2.7+7+P 7+7+$+$+$+7+7+7+7+P P 7+N.-+/././.$+$+1 1 1 N N 4.4.4.4.4.4.4.4.4.4.4.4. +++3+!+o ) ) ) ) ) ) ) B B ) ) ) o !+3+N 5+c c y.N ++L o o ) ) B B B B B B B X 3 <. + +d d d d  +| H h+h+h+h+W.3+3+3+3+3+3+3+3+u+u+u+u+u+3+3+!+!+) ) ) ) o !+3+++4.4.4.;.;.4.4.4.4.4.4. +++++H h+h+S.) ) B B B B B B B p p p p p p B B B B B B B B *.X <+<+<+<+<+<+<+<+<+<+<+<+<+<+<+<+e+e+3 3 e+e+<+B B B B B B ) ) S.H <.| | <.h+e+X e+e+3 3 e+S.) ) B B B *.*.*.*.*.*.",
"H H h+!+S.S.S.) ) B B B p p p p p p p p p p p p p B B B B B B B B B B B ) ) ) ) ) S.S.) ) ) ) S.S.S.h+h+H ++++++| | |  +4.4.4.N u+u+u+u+u+4.4.;.;.c c (.(.(.(.(.(.c c c %+_._._.(.k k k P.P.k (.E.;.d ++3+!+o !+h+h+++++++u+u+u+u+u+u+u+u+u+++++++++u+u+4.;.(.!.].7 s+q+E.U.e+B B B B B B B ) ) o !+3+++u+4.4.++3+!+) o o o o o o ) ) ) B B B ) ) !+3+N 1 v+v+i ;+;+;+y R.4.3+W.o o o o ^ ^ L R 7+7+$+7+7+7+7+7+7+$+1 1 1 N u+u+/.9+N.N.7+b 2.:.( ( ( x+1 u+9+9+$+1 :.:.v+5.5.5.5.5.5.5.v+:.:.:.:.:.x+x+x+( x+x+:.2.2.:.|.x+x+y.4.u+3+3+!+o o o o o o o o  .o o o o 3+N 4.c y x+v+:.G G b+b+b+b+2.2.2.2.7+7+7+7+7+7+7+7+7+P P P P R -+-+9+7+$+$+y.y.y.y.y.y.y.R.R.R.R.R.R.R.;.4.4. +| ++H h+!+o ) ) ) ) B B B B B B B ) ) o h+| 4.5+y.4.N 3+L !+o ) ) B B B B B B ) e+<. +d ;.;.E.E.;.&+ +<.h+!+h+3+3+3+3+L 3+3+3+9+u+u+u+N u+++3+h+!+) ) ) ) ) ) !+h+3+++N 4.4.4.;.;.4.4.4.4.4. +| <.H h+S.S.) B B B B B p p p p p p p p p p p p p B B B B *.<+<+<+<+<+<+<+<+<+<+<+<+<+<+<+<+e+e+e+e+e+e+<+<+B B B B B ) S.S.H <.| | <.h+e+X e+e+e+e+e+X ) B B *.*.*.*.*.*.*.*.",
"H H H !+S.S.) ) ) B B B p p p p p p p p p p p p B B B B B B B B B B B ) ) ) ) S.S.S.S.S.S.S.S.S.h+h+H <.++|  + + + + + +4.4.4.N u+u+u+u+u+++++u+N 4.4.4.d &+&+;.E.E.(._._._.o.o.!.!.o.P.P.P.k k E.;.d  +++h+o o !+h+3+++++u+u+u+u+9+9+9+9+3+3+3+3+++++u+4.;.(.q+s+@+7 >.k U.e+B B B B B B B B ) ) o 3+++4.4.4.4.++h+o o o ^ ^ o o ) ) ) B B B ) ) o L N 1 v+v+y i ;+i y R.4.u+3+W.o o o ^ ^ ^ R 9+7+7+7+7+9+7+7+7+1 1 1 N u+u+9+9+-+N.N.7+2.2.:.( ( x+x+1 u+9+9+N 1 1 :.v+5.5.5.5.5.5.v+:.G 1 $+$+$+:.x+x+( ( ( :.:.2.:.|.x+R.y.u+3+L o o o o o o o o o  . . .o o  .3+4.R.c y y x+:.G b+U P 7+b+b+2.2.2.7+7+7+P P P P P P P P P P R -+N.7+$+$+y.R.x+R.R.R.R.R.c c c c c c c ;.4.4.| ++h+h+S.) ) ) ) ) ) B B B B B B B ) ) ) !+3+| N N N N 3+3+!+!+) ) ) B B B B B ) h+<.d ;.E.(.(.(.(.E.d | h+!+!+3+3+3+L L 3+3+9+u+u+u+N 4.N ++H !+) ) ) B B ) ) ) !+h+3+++| 4.4.;.;.;.4.4.4.4. + +| <.H e+S.) ) B B B B p p p p p p p p p p p p p p B B B B <+<+<+<+<+t.t.*.<+<+B B B <+<+<+t.e+e+e+e+t.<+<+<+B B B B ) S.e+H <.| | <.h+e+X X e+e+e+e+X B B B *.*.t.t.t.t.t.t.",
"H H h+!+S.) ) ) ) B B B B p p p p p p p p p p B B B B B B B B B B B B ) ) ) ) S.e+3 3 3 H H H <.<.<.| |  + + + + + + + + + +N u+u+u+++++++++++3+3+3+3+++|  + +d ;.E.(.(._._.!.!.!.!.!.; ; k k E.E.;.;. +++3+!+ . .h+3+3+++u+u+u+9+9+9+9+3+3+3+3+3+3+++N 4.;.(.q+7 o+@+>.k U.e+B B B B B B B B ) ) o 3+++4.R.R.4.++h+o o o ^ ^ o o ) ) B B B B ) ) o L 9+1 y.v+y i i i y R.y.u+++3+ .o o o ^ ^ R R 9+7+9+R R R 9+7+1 1 N u+u+u+9+9+-+N.7+b+2.:.:.( ( x+:.1 u+9+9+u+1 1 :.:.5.5.5.5.5.5.:.G 7+7+7+7+$+1 :.x+Y.Y.( ( :.:.:.:.|.y.y.u+3+o o o o o o o o o o  . . .o o  .3+4.c y y y x+2.b+P P P P 7+b+2.2.b+7+7+7+P P P P P P P P P P N.N.7+$+$+y.R.x+x+y c c c c c c c c c c c c ;. +++h+!+S.) ) ) ) ) ) ) B B B B B B B B ) ) !+h+++N N N u+3+3+3+!+o ) ) ) B B B ) ) h+| d ;.(.(.k o.(.E.d | H !+!+3+3+3+L L 3+3+u+u+u+u+N N | ++h+S.) ) B B B ) ) S.S.!+h+3+++| 4.4.d 4.4.4.4.4. + + +<.H 3 S.S.) B B B p p p p p p p p p p p p p p p p B B B B <+<+<+<+t.t.*.*.B B B B <+<+<+t.e+e+e+e+S.<+<+<+B B B B ) S.3 H <.| | <.h+e+X X e+e+e+X <+B B *.*.t.t.t.t.t.t.t.",
"h+h+h+S.S.) ) ) ) B B B B B B B B B B B B B B B B B B B B B B B B B ) ) ) ) S.h+H <.<.<.<.w+ + + +d d d d d  + + +| <.| | ++++++++3+3+3+3+h+h+!+!+!+!+!+h+H |  +d ;.c c %+_._._.o.o.k k K.E.E.E.M.;.;.4.++3+!+ . . .3+6 6 u+u+u+9+9+9+9+3+3+3+3+3+++N 4.;.c o.].7 o+o+s+k U.e+B B B B B B B B ) ) o 3+u+4.R.R.4.| h+o o ^ ^ ^ ^ o ) ) B B B B ) ) o L 9+N y.v+y Y.i i y x+R.y.u+3+W.o o o ^ ^ ^ R R R R R R R 9+9+N N u+9+9+9+9+-+P P 7+2.2.:.:.:.x+x+y.y.N u+u+u+u+1 1 :.v+5.5.5.5.5.:.G 7+P P 7+7+$+:.x+Y.Y.Y.( @.:.:.:.:.y.$+9+W.^ o o o o o o o o  . . . .o o ^ 3+4.R.y y y x+$+7+P P P P P 7+7+b+7+7+7+7+P P P P P 7+7+7+7+7+7+7+$+1 :.x+x+x+x+R.R.R.c c c c y y y y c c ;. +++h+o ) ) ) ) ) ) ) B B B B B B B B ) ) ) S.h+3+++u+N u+u+9+3+L !+o ) ) ) ) ) ) ) h+| d ;.E.(.(.k (.E.d | H !+!+L 3+L L 3+3+9+u+u+N N N | ++H h+S.) B B B ) X S.S.S.!+!+!+3+++++ +d d 4.4.4.d d  + +| <.H S.S.) ) B B B p p p p p p p p p p p p p p p B B B B B B <+<+<+*.*.*.B B B B <+<+t.t.e+e+S.S.S.S.<+<+B B B B ) S.3 H <.<.<.<.h+e+X X X e+e+X *.B B *.*.t.t.t.t.t.t.t.",
"e+e+e+S.S.) ) ) ) X *.B B B B B *.<+<+<+B B B B B B B B B B ) ) ) ) ) ) S.S.h+H <.|  +U.U.d &+&+&+;.;.;.d d  + +<.<.H H H H h+h+h+h+h+h+h+!+!+!+o o o o !+h+H ++ +d ;.;.c c c (.(.(.(.E.s &+&+&+&+;.;.4.| 3+3+W.W.W.W.6 6 u+u+u+9+9+9+9+3+3+3+3+3+u+N 4.R.c o.].-.o+o+s+k U.e+B B B B B B B B ) ) o 3+4.;.c c ;. +h+o o ^ L L ^ o ) B B B B B ) ) o L 3+N y.x+x+Y.Y.Y.y y R.y.4.++3+o o o o ^ ^ ^ R R R R R R 9+9+9+9+9+9+9+R -+P P 7+b+2.2.@.:.:.:.:.y.y.y.4.u+u+9+9+1 1 :.v+5.5.5.5.:.G 7+P P R 7+$+y.y Y.i Y.( @.@.:.:.:.$+u+9+W.^ ^ ^ ^ ^ ^ ^ L L L ^ ^ ^ ^ ^ ^ 3+4.R.y y x+|.$+P = h h P P P 7+7+7+7+P P P P P P 7+7+G $+$+7+7+$+:.:.x+x+x+x+R.R.R.R.R.R.c y y _._._._.c ;.4.++!+o ) ) ) ) ) B B B B B B B B ) ) ) ) ) S.h+3+++u+u+N N u+9+3+L !+o ) ) ) ) ) o h+++ +d ;.c (.(.(.E.d | !+!+!+!+!+L L 3+3+u+N N N N ++++H h+S.) B B ) X X e+e+e+h+h+!+!+h+3+++++ + +4.4.;.d d  + +| <.H 3 S.S.) B B B p p p p p p p p p p p p p p p B B B B B B B B B B B B B B B B *.*.t.t.S.S.S.S.S.S.S.<+B B B ) ) S.e+H <.<.<.<.e+X X X X e+e+X *.B B *.*.t.t.t.t.e+c.c.",
"X X X X X ) ) ) X X X *.B B B B <+X S.X X ) ) ) ) B B ) ) ) S.S.S.S.e+e+h+h+H <. + +d d &+&+s E.E.E.M.;.&+d  + +<.H 3 S.S.!+!+!+!+!+o o S.S.o o o o o o !+!+h+h+++++ +4.4.;.;.c c c c ;.d  +<. +d d d 4. +++3+3+W.W.3+6 u+u+u+u+9+9+9+9+3+3+3+3+u+N 4.R.c _.o.].-.o+o+s+k U.e+B B B B B B B B ) ) o 3+4.c c c ;. +H !+o L L L L o ) B B B B B ) ) o L 3+N y.y.x+y Y.Y.Y.y y R.y.u+3+o o o o o ^ ^ ^ ^ R R R R 9+9+9+9+9+9+R N.P 7+b+b+2.e @.@.:.2.2.$+y.y.y.y.4.u+9+9+7+1 :.:.5.5.5.5.:.G 7+P P R 7+$+y.y i i Y.Y.( @.:.:.$+$+/.9+W.^ ^ ^ ^ ^ ^ L L L L ^ ^ ^ ^ ^ W.9+y.x+y y x+|.$+N.h h h h P P P P P P P P P P P 7+7+G :.:.2.2.2.:.:.x+Y.y y x+R.R.y.y.R.R.y y _.;+_._._.c ;.4.3+!+o ) ) ) ) ) B B B B B B B ) ) ) ) ) ) S.h+h+++++u+N N N 9+9+L L !+o ) ) ) ) o  .h+++ +d ;.E.(.E.;.d ++!+!+!+!+!+!+3+3+3+u+N N N N ++H h+S.) ) B ) X e+e+c.<.<.<.H h+ . . .h+h+++ +d d d d d  + +| <.H H S.S.) ) B B p p p p p p p p p p p p p p B B B B B B B B B B B B B B B B B *.*.*.t.S.S.S.S.S.S.S.<+B B B B ) S.S.3 H <.<.c.e+X ) *.X e+e+X *.B B *.*.t.t.t.c.c.c.c.",
"X X X X X ) ) X X X X X B B B <+X e+e+e+e+e+e+e+e+e+e+e+3 3 H H <.<.<.<.<.<. + + +d d &+&+&+s E.E.E.;.;.d d  +<.<.3 S.S.) ) ) ) ) ) ) ) ) o o o o  .!+!+!+!+h+h+h+3+++++| 4.4.;.c c c ;. +H h+<. +d d 4. +++++3+3+3+6 6 u+u+u+u+9+9+9+9+3+3+3+9+u+N y.R.c _.< &.-.o+o+].k U.e+B B B B B B B B ) ) o ++4.c c c c d ++!+L L R R L o ) B B B B B ) ) o !+3+u+y.y.x+x+Y.Y.Y.Y.y y R.N 3+!+o o o o ^ ^ ^ ^ R R R R R 9+9+9+9+7+7+7+b+2.2.e @.@.@.@.2.2.7+$+1 y.R.y.4.u+9+R 9+$+:.:.:.5.5.5.:.G G 7+P P 7+$+x+y i i i Y.( @.:.2.$+7+9+-+^ ^ ^ ^ ^ ^ ^ L L L L L ^ ^ ^ ^ L u+, x+y w.x+|.$+7+-+h R R P P P P P P 7+7+7+7+7+G 2.:.:.:.:.2.2.:.( Y.i i i y y x+R.R.x+x+y i ;+;+;+_._.c ;.4.3+o o ) ) ) ) ) B B B B B B B ) ) ) ) ) ) ) !+h+3+++u+N N N N 9+9+L L !+o o o o o o  .h+++ +d ;.;.;.d  +H !+!+!+!+!+!+3+3+3+u+N N N u+++h+S.) ) ) ) X e+3 <.<.w+U. +| <.h+ .o  . .h+++ +d d d  + +| | <.<.H h+S.S.) B B B p p p p p p p p p p B B B <+<+<+<+<+<+B B B B B B B B B B B *.*.*.*.S.S.S.S.S.S.S.S.B B B B ) S.S.3 3 H c.e+e+*.B <+e+e+e+e+X <+B <+<+t.t.e+c.c.c.c.",
"X X X X S.S.S.S.X X X ) ) ) ) ) X e+e+3 H <.<.<.<.<.<.<.w+w+w+U.U.U.U.d d d d d d d d d &+&+&+&+&+&+&+d  + +<.<.3 S.S.) ) ) ) ) ) ) S.S.o o !+!+ .W.3+3+3+h+h+h+h+!+h+3+++++4.;.c c c ;.| h+h+h+|  +d  + +++++++++++u+u+u+u+u+u+u+9+9+9+3+3+9+9+N N y.c _.a < &.-.o+-.].(.U.e+B B B B B B B B ) ) o ++4.c _._.c ;.++3+3+9+9+9+L !+) ) B B B B B ) ) !+3+u+1 y.:.x+x+Y.Y.i i y x+y.9+L o o o o ^ ^ ^ ^ -+-+R R R 9+9+9+7+$+2.2.:.@.@.@.@.@.@.@.2.b+7+7+$+y.R.R.y.N 9+R 9+7+2.:.:.:.v+:.:.:.G 7+7+P 7+$+x+Y.i S S Y.( @.2.2.7+7+-+R ^ ^ ^ ^ ^ ^ ^ L L L R R R R R 9+9+u+R.x+y w.x+x+$+$+7+N.N.N.P P P P P b+b+G 2.2.:.:.:.:.:.:.:.:.@.@.Y.i i ;+;+i y y y y y y i ;+;+;+;+_.y c 4.++3+o o ) ) ) ) ) B B B B B ) ) ) ) ) ) ) ) ) S.h+h+3+++u+N N u+9+9+9+3+L !+!+o o o o o  .h+++ +d d d  +<.H !+!+!+!+!+L 3+3+9+u+u+N u+++3+!+S.) B ) X e+H <. +d &+&+&+d  +H  .o o  .h+++++ + + + +| ++| | | <.<.h+X ) B B B p p p p p p p p B <+<+t.t.e+e+3 3 e+e+t.t.<+B B B B B B B B B *.*.*.<+S.S.S.S.S.S.<+B B B B <+S.e+e+e+e+e+e+*.B B X e+e+e+e+S.S.<+<+t.t.e+c.c.c.<.<.",
"B B ) X S.S.S.S.S.X ) ) ) ) ) ) X e+3 <.<.<. + +U.U.U.d d d &+&+&+s s E.E.E.M.&+&+d d d d  + + + + + + +<.<.3 e+S.S.) ) ) ) ) ) S.S.!+!+!+!+!+3+3+3+3+++++++++3+h+!+!+!+h+++ +4.c c c ;. +h+S.h+<. + + + +| | | ++u+u+u+4.4.N u+u+9+3+3+9+9+9+9+N 1 y.y _.a ].s.-.-.s.q+(. +e+B B B B B B B B ) ) o ++4.c _._.c R.4.++9+9+9+9+3+L o ) B B B B B B ) !+3+u+N 1 :.:.x+x+Y.i ;+i y y.u+L ^ o o o ^ ^ W.-+-+-+-+-+-+9+9+7+$+:.:.@.@.^+^+^+^+^+u @.e b+7+7+$+y.R.R.y.N 9+R P 7+b+2.:.:.:.:.:.:.:.G 7+7+7+2.( Y.S S S 4+( @.2.7+7+-+-+^ ^ ^ ^ ^ h h h h h h R R R 9+9+9+u+y.R.y w.w.Y.x+|.2.$+$+7+7+N.P = P U b+2.:.:.:.:.x+x+( ( ( @.@.@.( Y.i 0+0+;+;+;+;+i i i i i ;+;+;+;+y c R.4.++h+o o ) ) ) ) ) ) ) ) ) ) ) ) ) ) ) ) ) ) ) ) S.!+h+3+u+u+u+u+u+u+9+9+3+3+!+!+o o o o o !+h+<.<.| | <.H !+S.S.!+!+!+L 3+3+9+9+u+u+++3+h+S.) ) ) ) S.h+<. +d ;.E.E.E.&+d <.h+o o o  .h+++++| ++++H ++++|  + +<.h+e+X B B B B B B B B B B B <+<+e+e+3 c.c.c.c.c.c.3 e+e+*.B B B B B B B B B B B B ) ) S.S.S.S.<+B B B B *.X X e+e+e+X <+B B B X e+3 3 3 e+S.S.S.S.e+e+c.c.<.w+~ ",
"B B <+<+S.e+3 S.S.S.) ) ) ) ) ) X e+3 <.<. + +d d &+&+&+&+&+s E.E.E.E.E.E.E.E.E.&+d d  + +<.<.<.<.H h+e+e+e+X X <+B B B ) ) ) ) S.h+h+h+h+3+3+3+3+u+u+u+u+u+++++h+!+!+!+h+H | 4.c c c ;. +H e+e+H <.<.|  + + + +4.4.4.4.4.4.N u+++3+3+3+9+9+9+9+N 1 R.y ;+< &.s.-.-.s+q+(. +e+B B B B B B B B ) ) o ++;.c _._._.R.4.u+u+/.$+/.9+W.o ) B B B B B B ) S.3+9+N 1 :.:.:.x+Y.i ;+;+y R.N R ^ ^ o o ^ W.-+-+-+N.N.N.N.9+9+$+1 :.( ( 4+M M M ^+^+u } f+b+7+7+1 y.R.R.y.1 9+R P 7+b+2.2.:.:.:.:.:.:.:.G b+b+2.( 4+S 0+S 4+( @.2.7+7+-+h ^ ^ ^ ^ h h h h h h h R R 7+7+$+$+y.R.y y ;+;+w.Y.( x+|.:.$+$+7+7+P P b+2.@.@.@.( ( ( ( ( ( ( @.@.@.( Y.i 0+w w w w 0+0+S S S 0+0+w ;+;+y R.4.++3+ .o o ) ) ) ) ) ) ) ) ) ) ) ) ) ) ) ) ) ) ) ) ) S.!+3+3+u+u+u+$+$+u+9+9+3+3+!+!+o o o o o S.h+h+h+h+h+S.S.) S.!+!+!+L 3+9+9+9+9+3+3+3+!+S.) ) ) ) e+H | d ;.E.(.k k E.d | h+o o o  .!+h+H H h+h+h+h+++ + + + +<.e+X X *.B B B B B B B <+<+<+e+3 c.<.<.<.<.<.<.<.<.c.e+X <+B B B B B B B B B B B B B ) S.S.S.<+B B B B *.X X X X *.B B B B <+e+e+c.<.3 3 S.S.S.S.e+c.c.<.w+~ ~ ",
"B B <+<+e+3 3 3 S.S.) ) ) ) ) ) X e+3 <.<. +d d d &+B.B.&+s s E.E.E.E.E.E.E.E.M.&+d  + +<.H h+e+S.S.) ) ) B B B B B B B ) ) ) S.h+h+h+3+++++++u+u+u+u+u+N N | ++h+!+) ) S.h+++d c c c ;. +H e+e+h+<.<.| |  + + +4.4.4.4.4.N N ++++3+3+3+9+9+9+9+N 1 R._.a &.&.s.-.s.].o.E. +S.B B B B B B B B ) ) o ++R.y _.;+_.R.y.u+u+$+$+/.9+3+!+) ) B B B B B ) S.!+9+N 1 1 :.:.( Y.;+0+;+Y.x+1 9+R ^ ^ ^ ^ W.-+-+-+N.N.N.7+$+$+y.:.x+( Y.4+4+4+M ^+^+u } f+b+7+7+1 y.R.R.y.1 7+7+7+b+b+2.2.:.:.:.:.:.:.:.G G b+@.( 4+g =+S 4+4+( :.$+7+h h ^ ^ ^ ^ h h h h h h -+-+N.7+7+$+y.R.y y ;+;+;+;+;+w.Y.( x+|.:.:.$+2.2.2.:.@.( ( Y.Y.Y.Y.( ( ( @.@.@.@.Y.i ;+;+< w w w 0+0+0+0+0+w w ;+;+y y.u+3+W. .o o ) ) ) ) ) ) ) ) ) ) ) ) ) ) ) ) ) ) ) ) ) ) !+3+++u+u+N $+$+$+u+9+3+3+3+L !+o o o o o ) ) ) ) ) ) ) ) ) !+!+!+L 3+9+9+9+3+3+3+!+!+) ) ) ) ) e+H | d ;.E.(.k (.E.d | h+o o o o !+!+!+!+!+!+!+h+++|  + + +<.<.c.c.X *.B B B B B <+<+t.e+3 3 c.<.<.<.<.<.<.<.<.H e+e+<+B B B B B B B B B B B B B ) S.S.S.<+B B p B *.X X X ) B B B B B <+e+3 <.<.<.3 e+S.S.e+e+c.c.<.~ ~ ~ ",
"B B <+e+3 3 c.3 3 S.S.S.) ) ) ) ) S.e+h+<.<. + +d d d d &+&+&+&+&+M.M.M.M.M.&+&+d  +<.<.h+e+X ) ) ) B B B B B B B B B B ) ) ) S.h+h+++++| 4.4.4.u+u+u+u+u+u+++3+h+S.) ) ) h+<.4.;.c c ;. +H h+S.h+h+H ++| |  + +N u+u+u+++++++++3+3+3+3+3+9+9+9+$+y.R._.< &.s.s.s.&.].o.;. +S.B B B B B B B ) ) )  .++R.y ;+;+w.x+y.$+$+$+$+$+9+3+!+) ) ) ) B B B ) S.!+3+u+1 :.:.( Y.i 0+0+;+Y.x+1 7+R R ^ ^ ^ -+-+-+-+N.N.7+$+y.y.x+x+x+( ( ( ( M ^+^+^+u e e b+7+7+$+y.y.y.y.$+7+7+7+b+2.e 2.2.G :.:.:.:.:.:.G G @.'.S g =+=+S 4+Y.( 2.7+h h h ^ ^ ^ h h h h -+-+-+N.N.7+7+1 R.y y ;+a m.m.m.m.m.0+w.w.Y.x+x+x+:.:.@.@.( ( Y.Y.Y.Y.Y.( ( |.:.2.:.:.x+y y i ;+;+0+0+0+0+0+0+w w w ;+;+c 4.u+3+W.o o o ) ) ) ) ) ) ) ) ) ) ) ) ) ) ) ) ) ) ) ) ) ) !+3+++4.4.y.$+$+u+u+u+9+3+3+3+L L !+o o o o ) ) ) ) ) ) ) ) o !+!+3+3+9+9+9+3+3+!+!+o ) ) ) ) ) S.h+++ +d ;.E.E.E.&+ +<.h+o o o o o !+!+!+!+!+!+!+H ++ + +U.U.U.~ <.c.X *.B B B *.t.e+3 3 3 3 H H c.c.c.c.<.<.H 3 e+S.S.<+) <+<+B B B B B B B B B B S.S.S.<+B p p B *.*.X X ) B B B B ) S.3 c.<.<.<.3 3 e+S.e+3 c.<.<.w+~ ~ ",
"B B <+e+3 c.<.<.3 3 S.S.S.) ) ) ) X S.e+h+H <.<. + + + + + + +d d d d d d d  + +<.<.3 e+e+X ) ) B B B B B B B B B B B B ) ) ) !+h+H ++ +4.4.4.4.4.u+u+u+u+++3+3+!+S.) ) ) S.H  +;.c c ;. +<.h+!+!+h+h+++++| N N u+++3+3+3+3+3+3+3+!+L L 3+9+9+9+$+y.c _.].s.s.s.s.].< _.;.| S.B B B B B B ) ) ) )  .++y.y ;+;+i x+y.$+$+$+$+$+9+3+!+!+) ) ) ) ) ) ) ) !+3+9+1 :.v+Y.Y.S S S S Y.x+:.1 7+R R h -+-+9+9+-+N.7+7+1 x+x+y x+x+x+:.:.:.@.@.@.@.@.e e 2.2.$+$+$+$+$+$+$+7+7+b+2.e @.e 2.G G :.:.v+5.@.@.@.@.4+S =+=+=+=+0+H.( :.7+h h h h h h ^ ^ h -+-+N.N.N.N.N.$+y.x+y ;+a w &.&.&.&.m.m.m.;+;+w.Y.Y.Y.Y.Y.( ( Y.Y.i i i Y.( x+:.2.2.$+$+1 y.R.y y i ;+0+0+w w #+w w w ;+_+c 4.3+L o o o o ) ) ) ) ) ) ) ) ) ) ) ) ) ) ) ) ) ) ) ) ) o h+++4.4.y.y.y.u+u+u+u+u+u+9+3+3+L L L !+!+o o o ) ) ) ) ) ) o o !+3+3+9+9+3+3+L !+o ) ) ) ) ) ) S.h+h+++ + +d d d  +| h+!+o o o o o !+!+!+!+!+!+!+h+H <. +U.L.L.L.~ <.e+X ) ) X X e+c.c.c.c.3 3 e+e+3 3 3 3 3 3 3 e+S.S.S.S.X X X <+B B p p p p B B <+S.S.<+B p p B *.*.*.*.) ) ) ) ) S.S.3 <.<.<.<.c.3 e+e+3 H H <.w+w+w+w+",
"B B <+3 c.<.<.<.c.3 3 S.S.) ) ) ) ) ) S.S.e+h+h+h+<.<.<.<.<.<.<.<.++++++++<.<.h+e+e+X X *.B B B B B B B B B B B B B B B ) ) ) !+h+++++4.4.;.;.y.4.u+u+9+9+3+3+!+!+) ) ) ) S.H | 4.;.;.;. +++h+!+!+ .h+3+++N N u+3+3+L L L !+!+!+o o L L 3+9+9+u+1 y.y o.].s+s.s.s.].!.(.;.<.S.B B B B B B ) ) ) ) o ++y.y i ;+Y.x+y.$+$+$+$+$+9+3+!+!+S.) ) ) ) ) ) o !+L 9+1 :.5.Y.S S S S S Y.( :.:.$+7+R h R R 9+9+9+7+7+$+:.x+y y y R.y.y.1 1 :.:.:.e e e e :.:.:.1 $+$+/./.7+7+7+2.@.@.@.e 2.b+G G :.5.5.5.@.@.5.4+S =+' ' #+=+0+Y.x+$+-+h h h h h ^ ^ h -+-+N.N.N.N.7+$+y.y _.a m.&.&.&.] ] A &.m.m.m.m.0+0+0+S i Y.Y.Y.i S S i Y.x+:.$+$+7+7+7+9+u+N y.R.y i ;+0+w A A A w w ;+i c 4.3+L o o o o ) ) ) ) ) ) ) ) ) ) ) ) ) ) ) ) ) ) ) ) ) o h+++4.;.R.y.4.u+9+9+u+u+u+u+9+9+9+L L L L !+o o o o ) ) ) ) o o !+3+3+u+u+3+3+ .o o ) ) B B ) ) ) o !+h+h+H <.<.<.H h+!+o o o ) ) S.!+h+h+!+!+!+!+!+h+<.<.U.&+B.B.L.~ c.e+X X X e+c.c.<.<.<.3 e+S.S.S.<+S.S.S.S.S.S.S.S.S.S.S.e+X <+B B p p p p B B <+S.S.<+B p p B *.*.*.*.) ) ) ) ) S.3 3 <.w+w+<.c.3 e+e+3 H H <.<.w+w+w+",
"B B <+3 c.<.w+<.<.3 3 e+S.) ) ) ) ) ) ) ) ) X X  . . . . . . .h+h+h+h+ . . .o ) ) B B B B B B B B B B B B B B B B B B B B ) S.h+H ++ +4.;.;.;.;.4.u+/.9+9+3+L !+!+) ) ) ) ) h+| d ;.;.4. +<.h+!+o o !+3+++N N u+3+L ^ ^ o o o o o o ^ L 3+9+u+1 y.R._.o.].s+s+s+].< !.%+;.<.S.B B B B B B ) ) ) ) o ++y.y i ;+Y.x+:.$+$+$+$+$+9+3+L !+!+) ) ) ) ) ) o o L 9+$+:.5.Y.S S S S 4+4+Y.( :.:.7+7+R R R 9+9+9+7+7+1 :.x+y y y R.4.u+u+$+1 1 2.2.2.e @.( x+x+y.$+/.9+-+9+7+$+2.@.@.@.e 2.b+b+G :.:.5.@.@.@.4+S S ' ' ' #+#+0+Y.x+$+N.h h h h h ^ ^ -+-+-+b b 7+7+$+y.x+y ;+a m.m.&.&.&.&.&.&.&.w m.w w w w w 0+0+S S S S S i Y.x+1 $+9+-+R h R L 9+u+y.R.y i 0+w w A A w w ;+i R.4.3+L !+o o ) ) ) ) ) ) ) ) ) ) ) ) ) ) ) ) ) ) ) ) ) o o 3+| 4.R.R.R.4.u+9+9+9+u+u+u+9+9+9+L L L L !+o o o o o o o o o o  .3+3+u+9+3+3+ .o ) ) B B B ) ) ) ) o o o o S.S.S.S.o o o o ) ) ) S.!+h+h+h+h+!+!+!+h+h+<.U.&+B.{+L.U.<.c.e+e+e+e+c.<.<.<.c.3 S.) ) B B B ) S.S.S.S.S.S.S.S.e+e+X *.B p p p p p p B <+S.S.<+B p p p B *.*.X ) ) ) S.S.S.3 H <.w+w+<.c.3 e+e+h+H H <.<.w+w+w+",
"B B <+e+c.<.<.<.<.c.3 e+S.) ) ) ) ) ) ) ) ) ) ) X o o o o o o o o o o o ) ) ) ) B B B B B B B B B B B B B B B B B B B B B ) S.h+<.|  +d ;.;.;.4.4.u+u+9+9+3+3+L !+) ) ) ) ) h+<. +d d d  +<.H h+!+o !+3+++N N u+3+L ^ o o o o o o o L L 9+u+1 y.R.y _.!.].].].].].< !.%+;.<.S.B B B B B B ) ) ) )  .++y.y ;+;+Y.x+:.$+7+7+$+7+9+9+3+!+!+S.) ) ) ) ) o o ^ 3+u+:.5.i S S S 4+4+4+4+Y.( :.:.7+R R R R 9+9+7+$+:.:.x+x+R.R.4.u+9+9+9+9+7+7+b+2.2.( Y.Y.y x+y./.-+-+9+7+$+2.@.u u e e b+b+G G :.@.@.5.'.4+S =+' ' ' #+#+0+w.x+:.b -+h h h h h h -+-+-+b $+$+1 :.x+y w.;+;+a m.m.m.m.m.m.m.w &.&.&.&.] ] ] A w 0+S S S i Y.x+:.$+9+-+-+h ^ ^ ^ L 3+N y.R.y ;+m.w A A w w ;+i R.N 3+L !+o o ) ) ) ) ) ) ) ) ) ) ) ) ) ) ) ) ) ) ) ) ) o !+3+N ;.R.c R.4.u+9+9+9+u+u+9+3+3+L L L L L !+o o o o o o o o o o W.W.3+3+3+3+W.o o ) ) B B B B ) ) ) ) ) ) ) ) ) ) ) ) ) o o o ) S.S.S.!+!+h+h+h+h+h+!+h+<. +U.L.L.L.U.w+<.<.<.c.c.c.<.<.<.3 e+S.) B B B B B B ) S.S.S.S.S.e+e+X X *.B p p p p p p B <+S.S.<+B p p p B *.*.X X X S.S.S.3 3 <.<.w+w+<.c.3 e+3 H H H <.<.<.<.<.",
"B B <+e+c.<.<.<.<.<.H 3 S.) ) ) ) ) ) ) ) X X X ) ) ) ) ) ) ) ) ) ) ) ) ) ) ) B B B p p p p p B B B B B B B B B B B B B B B X h+<. +d d d d 4.4.4.u+u+u+u+9+3+3+!+o ) ) ) ) S.H  + +d  + +<.H h+!+ .!+3+++N N u+3+L o o o o o o o L L L 9+N y.R._._.o.!.q+q+q+].< < _.%+;.<.S.B B B B B B B ) ) )  .++R.y ;+;+i x+:.b 7+7+7+7+9+9+3+L !+!+) ) ) ) ) ) o ^ L 9+:.5.Y.S S 4+4+4+4+4+4+4+( :.$+7+R R R 9+9+$+1 y.y.y.y.y.N u+9+3+R R R R N.7+b+:.x+i ;+;+y R.u+-+-+9+7+$+2.@.u u u e f+b+b+G G :.@.5.4+S =+' ' A A #+0+0+w.( |.$+b N.-+h h h -+-+-+-+7+$+:.x+x+Y.Y.i i i w.w.w.w.w.;+;+a a &.&.s.=.=.=.=.] A ' =+S S Y.( :.$+9+9+-+^ ^ ^ ^ ^ L L 9+N y.R._.a w &.w w 0+i Y.v+N ++3+!+o ) ) ) ) ) ) ) ) ) ) ) ) ) ) ) ) ) ) ) ) ) o o L 3+N R.R.c R.4.u+3+3+3+3+3+3+3+L L L ^ ^ o o !+!+!+!+!+!+!+!+W.W.W.W.3+3+3+3+!+o ) ) B B B B B B ) ) ) ) ) ) ) ) ) ) ) ) ) o o S.S.S.S.S.!+h+h+H 3+h+!+!+h+<.w+~ U.U.U.U.U.w+<.<.<.H 3 3 3 e+S.) B B B B B B B B ) ) X X X X X X *.*.B p p p p p p B <+S.S.<+B p p p B B *.X X S.!+!+h+H H <.w+w+w+<.c.3 e+3 H H H H <.<.<.<.",
"B B <+e+3 <.<.<.<.<.<.3 e+S.) ) B B B ) X X X X ) ) ) ) ) ) ) ) ) ) ) ) ) B B B B p p p p p p B B B B B B B B B B B B B B B X h+<. +d d d d d 4.u+u+u+u+u+u+3+3+!+o ) ) ) ) S.H |  + + +| <.<.h+h+!+!+3+++N N ++3+!+o o o o o o L L L 9+9+1 y.y _.o.!.!.o.o.o.!.!.< _.%+;.<.S.B B B B B B B ) ) )  .++R.y ;+;+w.x+$+b N.7+7+7+9+9+3+3+!+!+) ) ) ) ) ) o o L 9+1 5.Y.S 4+4+'.4+4+4+S S Y.x+$+7+R h R 9+u+$+y.:.y.y.N u+9+3+L L R R R R N.N.b :.y ;+a a _.R.u+9+-+9+7+$+2.@.u u u e f+f+b+b+b+G @.'.4+g =+#+A A #+#+0+0+i Y.x+|.$+b -+h h -+-+-+-+7+7+$+:.Y.Y.i i i Y.Y.Y.x+x+x+x+x+y _.a ].&.-.=.n+n+Z p.d+' ' S 4+( :.1 7+9+L ^ ^ ^ ^ ^ L L L L 3+N y.y a w w w w 0+i Y.v+y.N 3+!+!+) ) ) ) ) o o o o o o ) ) ) ) ) ) ) ) ) ) o o L 3+4.R.R.c R.4.u+3+3+3+3+3+3+L !+o o o o o o !+!+!+!+!+L L L W.W.W.W.3+3+3+3+!+o ) ) B B B B B B B ) ) ) ) ) ) ) ) ) ) ) ) o !+!+!+S.S.S.S.h+h+3+3+3+h+ .!+h+H <.<.w+U.U.U.U.w+<.<.H e+e+S.S.) B B B B B B B B B B ) X X X X X *.*.*.B p p p p p p B <+S.S.<+B B p p B B B ) X h+h+h+h+H H <.w+w+w+<.c.3 e+3 H H H H H 3 3 3 ",
"B B <+X e+c.<.<.<.<.<.H e+S.) ) B B B B X X X X ) ) ) ) ) ) ) ) ) ) ) ) B B B B B p p p p p p B B B B B B B B B B B B B B B X h+<. +d d d  + +4.u+u+u+u+u+u+3+3+h+!+) ) ) ) S.h+<.|  + + +<.<.H h+!+!+3+++N N ++3+!+o o o o !+L 3+3+9+9+N 1 R.y o.< ].!.o.(.(._.o.< _.(.;.<.S.B B B B B B B ) ) )  .++R.y ;+;+w.x+$+b N.N.7+7+9+9+3+3+h+!+) ) ) ) ) ) o o ^ 9+1 ( Y.4+4+'.^+M 4+g =+S 4+( :.7+R h R 9+u+y.y.x+y.N u+9+L L R R R R 7+7+P N.b :.y ;+a a _.c u+9+-+9+$+$+2.e u u u e f+f+b+U b+G @.4+S g =+' #+#+#+0+0+0+i w.Y.x+|.$+7+h h h -+N.N.7+$+:.( Y.S S S i Y.( x+:.$+$+$+1 y.c _.a ].s.-.n+n+Z p.d+W ' g 4+5.:.$+9+R ^ ^ ^ ^ ^ L L L L L L 3+4.c ;+< w w w 0+S i y R.4.N 3+!+o ) ) o !+!+3+3+3+3+h+!+o ) ) ) ) ) ) ) o o !+L 9+4.R.R.c R.4.u+3+3+3+3+3+L !+o o o o o o !+!+!+!+!+L L L L W.W.W.3+3+3+3+!+!+) ) ) B B B B B B B ) ) ) ) ) ) ) ) ) ) ) ) S.!+!+!+!+S.) S.h+h+3+3+3+h+ . . .e+e+c.<.w+U.U. + +<.H h+e+S.) ) B B B B B B B B B B B B X X X X *.*.*.*.B p p p p p p B <+S.S.<+B B p p B B B ) S.h+h+h+H H H <.<.w+<.<.c.3 e+e+3 H H H 3 3 3 3 ",
"B B B X e+e+3 <.<.<.<.H e+S.) ) ) B B B ) X X ) ) ) ) ) ) ) ) ) ) ) ) B B B B B B p p p p p B B B B B B B B B B B B B B B ) X h+<. + +d d d d 4.4.u+u+u+9+3+3+3+h+!+!+o ) ) S.h+H <.<.<.<.<.<.<.h+!+!+h+++| | ++3+!+o o  . .3+3+u+u+N $+1 1 R._.< ].].!._.(.c (._.a _.(.;.<.S.B B B B B B B ) ) o o u+y.y i ;+Y.x+$+b N.N.7+7+7+9+9+3+3+!+S.) ) ) ) o o o ^ 9+1 ( Y.4+4+^+^+^+4+g =+0+4+( :.7+R -+-+9+$+y.x+x+y.$+9+9+9+9+9+7+7+7+G G b+b+$+|.y ;+a a _.c u+9+-+9+$+$+2.e u u u e f+f+U U U b+@.4+g =+=+=+#+#+=+0+0+0+;+;+;+w.x+|.7+= h h N.N.b 2.2.@.( 4+S S S 4+Y.( :.2.7+7+7+7+1 y.c _.a ].&.s.=.=.d+d+W ' g 4+:.1 7+R ^ ^ ^ ^ L L L L L L L ^ L N c _.< w w w 0+0+i i y c 4.N 3+o o o o L ++u+4.4.N ++3+!+o o o ) ) ) ) o o L L u+y.R.y y R.y.u+3+3+3+L L !+o o o o o !+!+!+!+!+L L L L L L L W.3+3+3+3+3+!+!+) ) B B B B B B B ) ) ) ) ) ) ) ) ) ) ) S.S.!+!+!+!+!+S.S.S.h+h+h+3+h+h+ . .o ) S.e+<.<. + + +<.<.h+e+S.) ) ) B B B B B B B B B B B B B *.*.*.*.*.*.B p p p p p p p B <+S.S.<+B B B B B B B ) S.S.h+h+H H H <.<.<.<.c.3 3 e+e+3 3 3 3 3 3 3 e+",
"B B B B X e+e+3 <.<.<.H 3 S.S.) ) ) ) ) B B B ) ) ) ) ) S.S.S.X ) B B B B B B B B B B B B B B B B ) ) ) ) X X ) ) ) ) ) ) ) S.h+<.|  +d d d d 4.4.u+u+9+3+3+3+L L !+!+!+o ) S.S.h+H <.<.w+w+<.<.h+h+!+h+++| | ++3+!+o  .h+3+3+u+u+y.y.1 1 y.R._.< ].].!._.c ;.c _._._.c ;.<.S.B B B B B B ) ) ) o ^ 9+y.y i i Y.x+$+N.N.P 7+7+7+9+u+++3+!+S.) ) ) o o o o ^ 9+1 ( Y.4+4+^+^+^+4+g =+0+H.( :.7+-+-+-+9+$+y.x+x+y.$+u+9+9+9+$+1 G :.@.@.G 2.2.:.y ;+a a _.R.u+9+-+9+$+2.2.e u u u e f+f+U U U b+@.4+g =+=+=+=+=+0+S S H.0+m.m.m.w.x+$+N.= = N.>+2.2.@.( M 4+4+4+4+4+( @.:.2.7+N.7+9+u+y.R.c _.;+< w &.A A W W ' g Y.:.7+R h ^ ^ ^ L L L 3+3+L L L ^ L N R._.< w w w w 0+0+;+;+y c 4.3+^ o ^ L 3+N y.R.R.R.4.++3+!+o o o o o o o o L 3+u+y.R.y y R.y.u+9+3+L L !+o o o o o !+L L L L L L L L L L L L 3+3+3+3+3+3+!+!+) ) ) B B B B B ) ) ) ) S.S.!+!+!+!+!+!+!+!+!+!+!+!+!+S.S.S.!+h+h+h+h+ . . .o ) ) S.h+H <.<.<.H h+e+S.) ) ) ) B B B B B B B B B B B B B B B *.*.B B B p p p p p p p B <+S.S.S.B B B B B B B ) S.S.S.h+H H H H H c.c.3 3 e+S.S.S.S.S.e+e+e+t.t.",
"B B B B B *.X e+c.<.<.H 3 S.S.S.) ) ) ) B B B ) ) ) ) S.X X X X ) B B B B B B B B B B B B B B B ) ) ) ) X X X X ) ) ) ) ) ) S.h+H ++ + +d d 4.4.4.u+u+3+3+W. .!+L 3+3+!+!+) ) S.h+h+<.<. + +w+<.H e+!+h+H | | ++h+!+ . .3+++++u+y.y.y.y.1 y.x+_.< ].].!.(.;.4.c _._._.c ;.<.S.B B B B B B ) ) o o ^ 9+y.x+y Y.y :.$+N.N.P P 7+7+N N u+3+!+!+) ) ) o o o o ^ 9+1 x+Y.4+'.^+@.^+4+S =+0+H.( :.$+7+-+-+/.$+y.|.x+y.$+u+/.$+$+1 :.:.@.@.@.@.@.2.|.y w.;+;+_.R.$+-+-+9+$+$+2.e u u u e f+f+Y U U 2.@.4+g =+=+=+g g S 4+Y.Y.0+m.m.m.;+Y.:.7+N.>+>+2.e @.^+M M 4+T.T.4+M ( @.:.2.7+N.N.9+9+u+$+y.R.x+y ;+;+w A A W ' =+Y.:.7+R h ^ ^ L L 3+3+3+9+9+9+L L L u+R._.< w w w w w w w ;+;+y y.u+L ^ ^ R u+y.R.y y R.y.u+3+L ^ o o o o o o L L 9+u+y.R.y y R.y.u+9+L L ^ o o o o o !+L 3+3+L L L L L ^ ^ ^ L L 3+3+3+3+3+3+h+!+!+S.S.S.S.S.S.S.) ) ) S.!+!+!+!+!+!+!+!+!+!+!+!+!+!+!+S.S.S.S.h+h+h+h+ . . . .) ) ) S.!+h+h+h+!+S.S.) ) ) ) ) B B B B B B B B B B B B B B B B B B B B p p p p p p p B <+S.S.S.B B B B B B B ) S.S.S.3 H H H H 3 3 3 e+e+S.S.S.S.S.S.S.e+t.t.t.",
"B B B B B B <+e+e+c.<.H H 3 e+S.S.) ) ) ) ) ) ) ) ) ) S.X X X X <+B B B B B B B B B B B B B B B ) ) ) ) X X X X X ) ) ) ) ) S.h+h+++++ +d d 4.4.4.u+++3+W.!+o !+3+3+3+3+!+!+o S.!+h+H <. +U.U.<.<.e+S.h+H | | ++h+!+!+h+3+++u+4.y.y.y.y.y.y.y _.< ].].!.(.;.4.R.y _._.c ;.<.S.B B B B B ) ) ) o o ^ 9+y.x+y Y.x+:.$+N.N.P P P 7+7+N N 3+h+!+o ) o o o o ^ ^ 9+1 :.( 4+'.^+^+^+4+S =+0+H.Y.:.2.7+7+9+/.$+$+:.:.y.$+$+$+$+1 :.:.@.@.@.@.@.@.2.|.( w.;+;+y R.$+-+-+9+7+$+2.e e u u e f+f+Y j U e @.4+g =+=+g g 4+4+M ( Y.0+m.A A m.w.x+2.2.2.e e @.^+M M ! T.T.T.4+M ^+@.:.2.7+N.N.9+9+9+$+$+1 :.x+y i i 0+' A ' =+Y.:.7+R h ^ L L L 3+9+9+9+9+9+9+R 9+N R.i ;+w w w w w w w w ;+_+R.N L ^ h R $+y.x+y y x+y.u+9+L L ^ o o o o ^ L L 9+u+y.R.y y R.y.u+9+L L o o o o o o !+3+3+3+3+L L L L ^ ^ ^ L L 3+3+3+3+3+3+3+3+H <.<. + +w+<.H h+S.o !+!+!+!+!+!+!+!+!+!+!+!+!+!+!+!+S.S.S.e+h+h+h+h+h+ . . .o ) ) o o o o o o ) ) ) ) ) ) ) ) B B B B B B B B B B B B B B B B B B B B p p p p p p B <+S.S.S.) B B B B B B B S.S.S.3 H H H H e+e+e+e+S.S.S.S.S.S.S.S.t.t.t.t.",
"B B B B B B B X e+3 H H H H H 3 S.S.S.) ) ) ) ) ) ) ) S.S.X X *.B B B B B B B B B B B B B B ) ) ) ) ) S.X e+e+S.S.S.S.S.S.S.!+h+H ++++ + +d 4.4.4.++++3+!+o o !+3+3+3+3+3+!+!+!+!+h+H <. +U.U.<.<.e+S.h+H | | H h+!+ .3+++u+4.y.y.y.y.y.y.y.c _.< ].].!.c 4.4.R.y _._.c ;.<.S.B B B B B ) ) ) o o ^ 9+1 R.x+x+x+:.$+N.N.N.P P 7+7+N N ++3+!+o o o o o o o ^ 9+$+:.5.'.'.'.'.'.4+S 0+0+S 4+( :.:.$+7+7+$+$+1 :.$+$+$+$+$+1 :.:.:.@.@.@.@.2.2.|.( w.;+;+y x+$+7+-+-+7+$+2.e e u u e e f+V.{ U e ( 4+=+=+=+g 4+M ^+@.@.( H.m.A A m.0+Y.( ( ( M M M M M ! ! T.T.T.T.4+4+( @.2.7+N.-+-+9+7+$+$+1 :.:.x+( Y.0+' A A =+i :.7+R R R L L R 9+9+u+$+$+$+/.9+9+1 x+i ;+w w 0+;+;+0+w w ;+i R.N R h R R $+1 x+x+x+R.y.u+9+L L L ^ o o ^ L L L 9+u+y.R.y y R.y.u+9+L ^ o o o o !+!+L 3+3+3+3+L L L ^ ^ ^ ^ L L L 3+3+3+3+++++|  +d &+E.E.E.&+ +<.h+!+!+!+!+!+!+!+!+!+!+!+!+!+!+!+!+!+S.S.S.e+h+H H h+h+ . . .o o o o o o o o o o ) ) ) ) ) ) ) ) B B B B B B B B B B B B B B B B B B B p p p p p p B <+S.S.S.) B B B B B B B <+S.S.3 H H H 3 e+X <+<+S.S.S.S.S.S.S.<+<+t.t.t.",
"B B B B B B B X X e+h+<.<.<.<.H h+S.S.S.S.S.S.S.S.S.S.) ) <+<+B B B B B B B B B B B B B B ) ) ) ) ) ) S.S.e+h+h+!+!+!+!+!+!+h+h+H <.++|  + + + +++++3+h+!+o o  .3+3+3+3+3+3+!+!+!+!+H <. + + + +<.e+S.h+H | | 3+h+!+h+3+u+4.4.y.y.y.y.y.y.y.c _.< ].].o.c 4.4.R.y _._.c ;.<.S.B B B B B ) ) ) o o ^ 9+$+y.x+x+x+$+b N.N.= P P 7+7+1 N 9+3+!+o o o ^ ^ o o ^ 3+1 :.5.5.'.'.'.'.'.S S S S 4+4+( @.:.7+7+7+7+$+$+$+$+$+$+$+1 y.:.:.:.G G G 2.2.:.( i ;+;+Y.x+$+7+-+-+7+7+2.2.e e e n.e f+f+V.>+e ( 4+=+=+=+4+M ^+@.e e ( Y.0+#+#+#+0+0+H.H.H.7.7.T.T.! ! ! T.T.T.T.T.4+4+( :.7+N.-+R 7+7+1 y.y.:.:.:.:.Y.S ' A A ' i :.1 R R R R R R 9+7+$+$+y.y.$+7+7+1 x+i ;+w 0+i i i ;+0+w ;+i x+N 9+R R 7+7+$+1 y.y.y.$+u+9+9+L L L L L L L L L 9+u+y.R.y y R.y.u+9+L ^ o o o !+L 3+3+3+3+3+3+L L o o o o ^ ^ L L 3+3+3+u+u+4.4.;.c (.o.!.!.(.;. +3+!+!+3+3+3+L L L L L L L !+!+!+!+S.S.S.S.h+H <.<.<.h+ . . .o o o o o o !+!+!+!+S.) ) ) ) ) ) ) ) ) ) ) ) ) ) ) ) ) ) ) ) B B B B B B B B p p p p B <+S.S.S.) B B B B B B B <+S.e+3 H H H 3 S.<+<+<+<+<+<+<+<+<+<+<+<+<+<+<+",
"B B B B B B B *.X X e+<.<.<.<.<.H e+S.S.S.h+h+h+S.S.S.S.) B B B B B B B B B B B B B B B ) ) ) ) ) ) ) S.h+h+H h+!+!+!+!+!+h+h+h+<.<.<.++| ++++++++H H !+!+S.o h+3+++u+u+3+3+3+!+!+!+H <. + + + +<.e+S.h+H | | 3+h+!+W.++u+4.y.y.4.4.u+N 1 y.R._.!.< < o.c ;.4.R.y _._.c 4.<.S.B B B B B ) ) ) o o ^ 9+u+y.x+x+:.$+b -+N.= = P 7+7+1 N 9+3+!+o o o ^ ^ ^ o ^ L N :.5.5.'.'.'.'.'.4+4+4+4+4+4+4+( :.b+7+P 7+7+7+$+2.2.2.$+1 y.y.1 1 G b+b+2.2.:.( Y.i i Y.x+$+7+P -+N.7+b 2.e e e n.n.n.f+V.V.e ( H.=+=+0+4+^+e f+f+b+@.( H.=+#+#+#+=+=+=+=+=+=+7.T.! ! ! T.T.T.g g g S Y.:.$+N.-+R 7+$+1 y.x+x+x+:.:.( S ' A A ' i v+1 7+9+R R R R 7+7+$+y.:.:.y.$+$+y.y i 0+w ;+i Y.Y.i ;+0+;+i y y.9+9+9+7+7+7+7+7+7+9+9+9+9+9+L L L L L L L L 9+9+u+y.R.y y R.y.u+9+L L o o !+L 3+3+3+3+3+3+L L o o o o o o ^ L L L 3+9+u+4.y.R.c _.!.].].].!.(.d ++L L 3+3+L L L L L L L L L !+!+!+!+S.S.S.h+<.| | ++<.h+ . .o o o o !+!+!+!+!+!+!+S.) ) ) ) ) ) ) ) ) ) ) ) ) ) ) ) ) ) ) ) B B B B B B B B p p p B <+S.S.S.) B B B p p B B <+e+e+3 H H H S.S.B B B <+<+<+<+<+<+<+<+<+<+<+<+",
"B B B B B B B B *.X e+h+<.<.<.<.H 3 S.S.h+h+h+h+h+h+e+S.S.B B B B B B B B B B B B B B ) ) ) ) ) ) ) S.h+H H H H H !+!+!+h+h+H <.<.<.<.<.++++++++H H h+!+S.S.!+h+3+u+u+u+u+++3+h+h+h+h+<. + + + +<.h+S.h+H ++++3+h+!+3+++4.4.y.4.4.u+u+u+N y.R._.o.!.!.o.c ;.4.R.y _._.c d <.S.B B B B B ) ) ) o o ^ 9+u+y.:.:.y.$+/.-+-+= = P 7+7+1 1 9+3+L o o o ^ ^ o o o L N 1 v+5.'.'.X.X.X.4+4+4+4+g g S 4+@.2.P P P P 7+b+2.2.2.:.:.y.1 1 $+$+b+b+b+2.:.( Y.S S Y.( :.7+P N.N.N.b b+e e e n.n.n.f+V.f+e ( H.=+=+H.M @.f+Y j >+e ( 4+H.=+=+=+=+=+=+9 9 =+7.T.! ! ! ! T.T.g =+=+0+Y.x+$+7+R R 7+$+1 y.x+x+x+:.:.( S ' A A ' 0+Y.v+1 7+9+R R P 7+$+$+:.:.:.y.1 1 :.y ;+0+0+;+Y.v+v+Y.i ;+;+i y y.N u+7+7+7+9+-+R R R R 9+9+R L L L L L L L R 9+9+u+y.R.y y R.y.1 u+9+L L o L L 3+3+3+3+3+3+L !+o o o o o o L L L 3+9+9+u+y.R.y _.o.].].s+].q+(.d ++L L 3+3+L L L L L L L L L !+!+!+!+!+h+h+<.|  + +| ++h+ . .o o o o !+!+!+!+!+!+!+!+S.) ) ) ) ) ) ) ) ) ) ) ) ) ) ) ) ) ) ) B B B B B B B B p p p B <+S.S.S.<+B B B p p p B <+e+e+3 H H 3 S.<+B p B B <+<+<+<+<+<+<+<+<+<+<+",
"B B B B B B B B B X X h+<.<.<.<.H 3 S.!+h+h+H <.<.<.<.3 e+<+B B B B B B B B <+<+<+) ) ) ) ) ) ) ) ) !+h+<.| | ++H h+!+h+H H <.<.<.<.<.<.<.++H H H h+!+S.S.o  .3+3+u+u+N u+u+++3+h+h+h+<. + + +| H h+S.h+H ++++3+3+L 3+++u+4.4.4.u+++3+3+u+N R.c _.o.o._.c ;.;.R.c _._.c d H ) B B B B B ) ) ) o o ^ R u+$+:.:.y.$+/.-+-+h = P 7+$+1 1 u+9+L o o o ^ ^ o o o L 9+1 :.5.'.'.X.g 4+'.M 4+4+g g g 4+@.2.b+U P P b+b+2.2.2.:.:.$+1 1 $+2.2.2.b+2.:.( Y.4+4+Y.( :.b+7+7+7+N.b b+f+e n.n.n.n.c+f+f+e ( 4+=+=+S M @.f+V.{ V.f+@.( 4+H.H.H.H.H.7.=+=+g T.T.! ! ! ! T.T.=+=+#+m.0+y y.$+9+R 7+7+1 y.x+x+:.2.2.:.Y.0+A A A 0+i y x+1 7+R R P 7+$+1 y.y.x+y.y.y.x+i ;+w m.;+Y.:.:.v+y i i y y R.y.y.u+9+9+-+h h h h R R R L L L L L 3+3+9+9+9+9+$+y.R.y y x+R.y.N u+3+L ^ L L 3+3+3+3+3+L L !+ . .o o o ^ L L L 9+9+u+1 y.x+y ;+< ].&.s+].!.(.4.3+!+!+!+!+!+!+!+!+!+L L L L L !+h+h+H <.<. + + + + +++h+ .o o o o o !+!+!+!+!+!+!+!+!+S.) ) ) ) ) ) ) ) ) ) ) ) ) ) ) ) ) ) B B B B B B B B p p p B <+S.S.S.<+*.B p p p p B <+t.e+3 3 3 3 S.<+B p p B <+<+<+<+<+<+<+<+<+<+<+",
"p p B B B B B B B B X e+<.<.<.<.H 3 S.h+h+H ++++|  +<.<.e+X B B B B B B <+X X X S.S.) ) ) ) ) ) ) o !+H |  + +| ++h+!+h+H <.<.<.<.<.<.<.<.H H H h+S.S.S.X  . .3+u+N N N N N ++++H h+h+++ + + +| H h+S.h+H ++++3+3+L L 3+u+4.4.4.++3+3+3+3+u+4.c _.o.o._.(.;.;.c c c c ;. +H ) B B B B B ) ) ) o o ^ R 9+$+:.:.$+$+/.-+-+h h P 7+$+1 1 N 9+L o o o o o o o o L 9+1 G 5.'.4+g g 4+M ^+^+4+S =+=+4+( e b+U U b+b+2.2.2.|.2.2.2.2.2.:.:.:.2.2.2.2.@.( 4+4+Y.( @.2.b+7+7+7+b b+f+f+n.n.n.n.n.f+f+e M 4+=+=+4+M @.f+V.V.V.f+e @.@.( ( M M M 4+4+T.T.T.T.! / / / ! T.=+#+#+w m.w.R.y.u+9+9+7+$+1 :.:.:.2.G :.Y.0+#+A A w 0+;+y :.7+R h P 7+$+$+y.y.y.y.R.x+y i 0+w w 0+Y.:.:.:.x+y y y y c R.R.4.u+9+-+^ ^ ^ ^ ^ L L L L L L L 3+9+9+9+9+7+$+y.x+y y y x+R.y.N u+3+^ L L 3+9+3+L L L L  . .!+!+!+L L L L 9+9+9+$+1 x+y i ;+< w &.].< _.c  +3+!+o !+S.o o o !+!+!+!+!+L L 3+3+++++|  + +d d d  +++H !+o o ^ ^ o !+!+!+!+!+!+!+!+!+!+S.S.) ) ) ) ) ) ) ) ) ) ) ) ) S.S.) ) B B B B B B B p p p B <+S.S.S.<+*.D.p p p p B <+<+S.e+3 3 3 S.<+B p p B B B B B B <+<+<+<+<+<+",
"p p p p B B B B B B X e+c.<.<.H 3 3 S.h+H ++++ + + + +<.3 X B B B B B *.X e+e+e+S.S.S.S.) ) ) ) ) o h+++ +d d  +++h+h+h+++| | | <.<.<.<.H H H h+S.S.S.X  . .3+3+u+N 1 1 4.N N ++6 h+h+++++4. +++H !+S.h+h+++++3+L L L 3+u+4.4.| ++h+!+!+3+++4.;.(.o.o.(.(.;.;.;.c c c ;.| h+) ) B B B B ) ) ) o o ^ R 9+$+:.:.$+$+/.-+-+h h R 7+$+1 1 $+9+L o o o o o o o o L R 7+G @.5.4+g g 4+M ^+^+4+H.=+=+S M @.e b+b+b+b+2.2.|.|.:.2.2.2.:.@.@.@.:.2.b+2.@.( 4+4+4+( @.@.2.2.7+7+b+b+f+f+n.n.l.n.n.c+e @.^+4+g g 4+M @.f+V.V.V.V.f+f+e e e @.@.^+^+M M M ! / / / / ^+M 4+=+#+A A m.;+y R.y.u+u+$+1 1 :.:.:.$+b+:.( S =+#+A A w 0+i x+1 9+R 7+7+7+$+1 y.y.R.x+y i ;+m.w w 0+Y.x+y.1 y.R.R.y y y c R.4.u+3+W.^ ^ ^ ^ ^ ^ ^ ^ ^ ^ L 3+9+u+u+9+9+7+$+y.R.y y y y y R.y.u+3+L L L 9+9+9+L L ^ W. .h+h+!+L L L L L 9+9+7+$+1 x+y i ;+< w < a ;+y ;.| h+S.) ) ) ) ) ) o o !+!+!+!+L 3+3+++ + +d d d d d  +| H !+!+^ ^ ^ ^ !+!+!+!+!+!+!+!+!+!+!+S.) ) ) ) ) ) ) ) ) ) ) ) S.S.S.) ) B B B B B B B p p p B <+S.S.<+t.*.D.D.p p p B <+<+<+e+3 3 3 S.<+B p p B B B B B B B <+<+<+<+<+",
"p p p p B B B B B B B X e+c.H H 3 3 h+h+H ++++ + + + +<.c.e+B B B B ) X e+e+e+e+e+e+S.S.S.) ) ) ) o h+++ +d d  +++h+h+h+++|  +| <.<.<.H H H h+S.S.) )  .h+h+6 ++N N 1 1 4.N N ++6 h+h+++++4.4.++H !+!+!+h+3+3+3+L W.L 3+u+4.4.++H !+S.o !+3+ +;.(._.o.(.(.c ;.;.c c ;.4.| h+) ) B B B B ) ) ) o o ^ R 9+$+1 :.$+7+N.-+h h h R 7+$+:.1 $+9+L o o o o o o o o L R 7+1 :.Y.S g g 4+M ^+^+M H.=+=+H.4+^+@.e b+b+2.2.:.|.|.|.@.@.@.@.( ( ( @.e b+f+@.@.4+4+4+( ( @.:.2.b+b+b+b+e e n.n.l.l.n.n.n.^+M 4+g g 4+^+e f+V.V.V.V.f+f+f+e e e @.@.^+^+M M ! / / / / ^+^+4+H.#+#+&.m.a _.y R.R.y.y.y.:.:.:.:.G G :.( H.0+#+#+A A w 0+Y.R.y.$+7+7+7+$+1 y.R.y y ;+;+m.w w m.;+Y.x+1 $+1 y.R.c y _.y c 4.u+W.^ ^ ^ ^ ^ ^ ^ ^ ^ ^ ^ L 9+u+u+u+u+7+7+$+1 y.R.y y y y y R.N 9+L L L 9+9+L L ^ ^ L L h+3+3+3+3+3+3+9+9+9+$+$+:.x+Y.i ;+;+;+;+_.y R.4.++!+) ) ) ) ) ) ) ) S.!+!+!+!+L 3+3+++ + +d d d d d  +| 3+!+!+^ ^ ^ L !+!+!+!+!+!+!+!+!+!+!+!+) ) ) ) ) ) ) ) ) ) ) S.S.S.S.S.) B B B B B B B p p B B <+S.S.<+*.D.D.D.p p p p B <+<+t.3 3 3 t.<+B p p B B B B B B B B <+<+<+<+",
"p p p p p B B B B B B <+e+e+3 3 3 3 H H H ++++|  + + +<.H e+X ) ) X X e+e+3 3 3 3 3 3 S.S.) ) ) ) o h+++ +d d  +++h+h+h+<.|  +<.<.H 3 3 e+e+S.S.) ) S.h+H ++++4.N N N N N N ++++3+h+h+++++4.N ++3+!+o !+h+3+3+3+L L L ++u+4. +| H S.) ) o h+++;.(.(.o._.(.c c ;.;.;.;.4.++h+) ) ) B B ) ) ) ) o o ^ R 9+7+1 G $+7+N.-+h h h R 7+1 :.:.1 9+L ^ o o o o o o o ^ L 9+$+:.Y.S =+=+S 4+^+^+M 4+H.0+H.4+M ^+@.e 2.2.2.:.@.( @.^+^+^+^+M M M ^+e f+f+e @.4+4+4+4+( ( @.2.2.b+b+e e n.n.l.l.l.l.n.u ^+M 4+S 4+4+^+n.f+V.V.V.f+f+e e e @.^+^+^+M M T.T.T.! / / / ^+^+M 4+0+m.m.m.m.a ;+_._.y y y x+x+:.:.:.2.:.( Y.0+#+#+A A A m.;+y c R.y.$+7+7+$+y.x+y ;+a w w w w 0+i y R.y.u+u+N y.R.y _._.c y.u+W.^ ^ ^ ^ ^ ^ ^ ^ ^ ^ h R 9+N 1 1 N 9+9+9+u+4.y.R.c y y y R.y.9+R L L R L L ^ ^ ^ L 3+3+3+3+3+3+9+9+9+9+9+7+1 1 :.y i i ;+i y y R.4.++H !+) ) ) B ) ) ) ) ) !+!+!+!+!+3+3+++++++ +4.4.4.4.| ++3+L L L L L L L L !+!+!+!+!+!+!+!+!+o ) ) ) ) ) ) ) ) ) ) ) S.S.S.S.S.) B B B B B B B p p B B B <+<+<+*.*.D.p p p p p B <+<+t.e+3 3 t.<+B p p B B B B B B B B B <+<+<+",
"p p p p p p p p p p B B <+X e+e+3 H H H H H ++++|  + +<.H e+e+X X S.e+e+h+H H <.<.H H e+S.) ) ) ) ) h+<. + + +| H h+!+h+<.| | <.<.e+e+S.S.S.S.) ) ) S.H ++ +4.4.4.4.4.N N u+++3+3+h+h+++| 4.N ++3+!+o !+!+3+3+L L ^ 3+++ + + +| H S.) ) o h+++;.(.(.o._.(.c c ;.;.;.4. +++!+) ) ) ) ) ) ) ) ) o o ^ R 9+7+G G G 7+P = h h h R $+1 :.:.1 u+L ^ o o o o o o o ^ L 9+$+:.Y.H.=+=+g 4+^+^+M 4+S S S S 4+4+( @.2.2.2.@.@.^+^+M '.T.T.T.T.! ^+n.f+f+e @.M 4+4+4+4+( ( :.2.b+e @.^+^+l.l.l.l.l.l.^+M M 4+4+4+M ^+n.c+)+)+c+c+n.u ^+^+M 4+4+4+T.g g T.T.T.! ! ^+^+^+^+M H.H.0+m.m.m.m.a a a ;+;+i Y.( :.:.:.:.( Y.0+=+#+A A A A w a _.c R.y.$+7+$+:.y ;+w &.] &.w m.;+i y y.4.u+u+u+N R.y _._.y R.u+9+^ ^ ^ ^ ^ ^ ^ ^ ^ h R R 7+1 1 1 1 u+9+3+3+u+4.4.R.y y y y y.u+R L L L L ^ ^ ^ L L 3+++++++u+u+9+9+9+9+9+7+1 1 :.v+y y y y R.y.4.++3+!+S.) ) ) ) ) ) ) ) )  . . . . . .L 3+3+++++++++++++++3+3+3+3+L 3+3+3+3+3+L !+!+!+o o o o o o ) ) ) ) ) ) ) ) ) S.S.S.S.S.S.S.) B B B B p p p B B B B B B B B B B B B p p p p p B <+t.e+3 3 t.<+B p p B B B B B B B B B B B B ",
"p p p p p p p p p p p B B B X e+3 H <.<.H H H ++| | | <.H e+e+e+e+h+h+h+H <.<.<.<.<.H h+e+S.) ) ) ) S.H |  + +<.H h+!+h+<.| | <.3 e+<+B B B ) ) ) ) e+<. +d d 4.4.4.4.N u+++3+3+h+!+h+++| N N ++3+!+o !+L L L L ^ ^ 3+++ + + +<.H X ) ) ) h+++d c (.o._.(.c c R.;.4.4.++H !+) ) ) ) ) ) ) ) ) o o ^ R R 7+G G b+7+P = = h h -+$+y.:.:.y.u+3+^ ^ o o o o o o ^ L 9+$+:.Y.H.0+=+g 4+M ^+^+4+4+4+S g g S 4+( @.2.e @.@.^+M T.T.T.1+1+T.! / u f+f+e ^+4+4+4+H.H.4+( @.2.b+e ^+M ! / l.l.l.l.l.! ! ! 4+4+4+M ^+n.)+)+c+c+n.u ^+M T.T.T.g g g =+=+Q g T.! ! ^+^+@.@.^+M 4+H.0+m.&.&.&.&.w a ;+;+Y.( x+:.:.x+Y.i 0+0+#+A W A A w < a _.y R.y.1 :.x+y a &.] ] ] &.m.i y R.y.4.u+9+9+u+y.y y y y y.N 9+R ^ ^ ^ ^ ^ ^ L L R R 7+1 1 :.y.1 N 3+L !+3+++4.R.y y y y y.N R R ^ ^ ^ ^ ^ o !+L 3+++N N N N N u+9+9+9+7+1 1 1 y.y.R.R.y.N u+3+h+!+S.) ) ) ) ) ) ) ) ) )  . . . . .o o W.W.L 3+3+3+3+3+3+3+3+3+3+3+3+3+3+3+3+3+L !+o o o o o o o ) ) ) ) ) ) ) ) S.S.S.S.!+!+S.S.) B B B p p p p B B B B B B B B B B B B p p p p p p B t.t.3 e+t.t.B p p B B B B B B B B B p p p ",
"p p p p p p p p p p p p B B <+e+e+c.<.<.H H H <.++| | <.H 3 e+e+e+h+h+h+H H <.<.<.<.H h+e+S.) ) ) ) S.h+<.| | <.h+S.S.h+<. + +<.3 X B B B B B B B ) e+<. +d d ;.4.4.4.u+++3+3+L !+!+h+3+++N N ++3+!+o o L L L L ^ ^ L ++ + + +<.H X ) ) ) h+++d c (._._.(.c c R.;.4.N ++h+!+) ) ) ) ) ) ) ) ) o o ^ R R 7+G G b+P P = = h h -+$+y.:.:.y.u+9+^ ^ o o o o o ^ L 9+u+$+x+Y.H.0+0+H.4+M ^+^+M 4+4+g =+=+=+S 4+@.@.@.@.@.^+'.T.T.1+1+1+1+! / u n.e @.^+4+4+4+H.H.4+( @.e e @.^+! ! / l.l.l.l./ ! ! ! 4+4+M ^+u n.c+c+c+c+n.l./ ! T.T.g g =+=+8+8+8+g T.! M ^+n.e @.^+M M H.0+#+#+&.&.w w m.;+i Y.( ( x+x+( Y.0+0+#+#+A W A A w < < o._.y x+x+x+Y.;+m.&.] ] ] w ;+i y R.y.N u+3+3+u+y.x+y y y R.1 9+9+R L 3+3+3+3+3+9+9+7+7+1 :.v+v+y.N 3+!+o !+h+++4.y y y y y.N R R ^ ^ ^ ^ o o !+L 3+u+N N N N N N u+9+9+u+1 1 1 1 y.y.N u+3+3+!+o o ) ) ) ) ) ) ) ) ) ) )  . . . .o o o ^ ^ ^ L L L L L 3+3+3+3+3+3+3+3+3+3+3+3+!+!+o o o o o o o ) ) ) ) ) ) ) ) S.S.S.S.!+!+!+S.) B B B B p p B B B B B B B B B B B B B p p p p p p B *.t.e+e+t.*.B p p B B B B B B B B p p p p ",
"p p p p p p p p p p p p p B B X e+c.<.<.<.<.<.<.<.| H H H h+e+e+e+h+h+e+e+3 3 3 H H H e+S.) ) ) ) ) X e+H <.<.H e+S.S.3 <.w+<.<.3 X B B B B B B B ) e+<. +d d ;.4.4.4.u+++3+L L !+!+!+3+++++++++3+ .o o L L L L ^ ^ L 3+++ + +<.3 X ) ) ) h+++d ;.(.(._._.c c R.4.4.++++h+S.) ) ) ) ) ) ) ) o o o ^ R R 7+b+b+b+P = = = h h N.$+y.x+x+y.u+9+^ ^ ^ ^ ^ ^ ^ L R 9+$+y.x+Y.Y.H.H.H.4+4+M ^+^+^+4+g =+' ' =+4+( @.@.@.@.^+^+/ T.T.T.T.T.! / ^+n.u ^+^+4+4+4+4+H.4+M @.@.} u ^+T.T./ / l.l.l./ ! ! ! ! M ^+^+n.c+c+c+c+n.l./ / / T.T.T.g g =+8+8+8+=+T.! ^+n.e e e ^+M 4+4+0+0+m.m.m.m.;+;+i Y.( x+x+( 5.Y.S 0+A A A A ' #+#+w w < a a ;+;+;+;+;+m.m.&.&.&.&.m.;+Y.x+y.y.u+3+L L 9+N R.y y x+R.y.$+u+9+9+u+u+ + +4.N N $+1 :.v+v+v+y.N 3+o o o h+++4.y y i y y.$+9+L ^ ^ ^ o o o !+L 3+3+N N N N N N u+u+u+u+$+1 1 1 1 N u+3+3+o o o ) ) ) ) ) ) ) ) ) ) ) ) )  . . .o o ^ ^ ^ ^ ^ L L L L L L L L L !+!+!+!+!+!+!+!+!+ .o o o o o ) ) ) ) ) ) ) ) ) S.S.S.!+!+!+S.S.) ) B B B B B B B B B B B B B B B B B p p p p p p p p *.t.t.t.t.*.p p p B B B B B B B B p p p p ",
"p p p p p B B p p p p p p p B <+e+e+H <.<.<.| | <.H H H h+h+h+h+S.S.S.S.S.e+e+e+e+3 3 e+S.) ) ) ) ) ) e+h+H H h+S.X e+c.<.w+w+<.c.*.B B B p B B B B S.H |  +d 4.4.4.4.u+++3+L ^ o !+!+3+++++++++3+ .o !+L L L L L ^ L 3+++| | <.3 X ) ) ) h+++d ;.c (._.y y c R.4.N ++3+!+S.) ) ) o o o o o o o o ^ h R 7+b+b+b+P = = = h h N.$+y.x+x+y.u+9+^ ^ ^ ^ ^ ^ ^ R 9+$+y.R.x+y Y.Y.Y.4+4+4+M ^+^+^+M g =+' ' ' S 4+@.@.e e @.u ^+/ T.T.! ! ! ^+^+^+^+^+M 4+T.T.g g 4+4+^+u u ^+/ T.T.! / l.l.l.! ! T.! ! ^+^+u n.c+c+n.n.l.l./ / / / T.T.T.g =+=+d.d.=+T.^+n.e e e @.^+4+4+g S S H.H.Y.Y.Y.Y.x+:.:.:.:.5.Y.S 0+A A A A A ' =+=+0+m.< < < w w w w w m.m.m.m.m.0+;+i Y.x+y.N u+3+L L 9+u+y.R.x+x+x+y.y.1 $+N 4.4.;.;.;.;.y.1 1 :.v+v+v+y.N 3+o o o !+++4.x+y y y y.N 9+L ^ ^ o o o o o L L 3+3+u+N N N N u+u+u+u+$+$+$+$+u+9+9+3+L o o o o o !+o o o o ) ) ) ) ) ) ) o o !+!+L L L L L L L !+!+!+!+!+!+!+!+!+!+!+!+!+!+!+!+!+!+o o o ) ) ) ) ) ) ) ) ) ) S.S.!+!+!+S.S.S.) ) ) B B B B B B B B B B B B B B B p p p p p p p p p *.t.t.t.t.*.p p p B B B B B B B B p p p p ",
"p p p p B B B B p p p p p p B *.X e+3 <.<.| | | <.<.H H H h+h+h+S.S.) ) ) ) X S.S.S.S.S.S.) ) ) B B ) X e+h+h+e+X ) X c.<.w+w+c.c.*.B B p p p p B B X 3 <. + +4.4.4.4.u+3+L ^ ^ o o !+h+3+++++3+h+ .o !+L 3+3+L L ^ L 3+++| | H e+X ) ) X h+++ +;.c c c y y c R.4.u+3+h+!+) ) ) ) o o o o o o o ^ ^ h R P b+b+U P = = = h h -+$+y.:.y.y.u+9+^ ^ ^ ^ ^ h R R 7+1 y.x+x+y y Y.Y.Y.Y.4+M ^+^+^+'.g ' W W A =+S 4+( @.e e e u ^+^+^+^+^+^+^+^+M M M ! T.T.T.g g T.4+^+^+^+/ ! T.1+! / l.l.l./ J T.! / ^+u u n.c+c+n.l.l./ / / {./ / / M T.g =+d.#+=+g M ^+@.e e @.M 4+g g 4+4+^+@.@.@.@.:.2.2.2.2.:.5.Y.S w A ] r A A =+=+0+S ;+;+w w &.&.&.&.&.w m.;+i Y.Y.Y.Y.Y.x+y.N 9+9+L L 3+u+N y.R.R.x+x+x+y.y.y.y.R.;.c c ;.y.y.y.v+y y y R.N 3+o o o !+3+4.R.y y y y.N 9+L ^ o o o o o o !+L L 3+9+N N N N u+u+u+u+$+$+$+u+9+9+3+L L o o o !+!+!+!+o o o o ) ) ) ) ) ) o o !+L L L L L L L !+h+h+!+!+o o o o o ) ) ) ) o !+!+h+!+!+S.) ) ) ) ) ) ) B B ) ) S.!+!+!+S.S.S.S.) ) ) B B B B B B B B B B B B B B p p p p p p p p p p D.*.t.t.*.D.p p p B B B B B B B B p p p p ",
"p p p p B B B B B p p p p p p B <+e+e+H <.| | | | <.<.<.H H h+h+S.S.) ) ) ) ) S.S.S.S.S.) ) ) ) B B B X S.e+e+S.X *.t.c.c.<.<.c.e+<+B B p p p p B B X e+<.|  + + +4.u+++3+L ^ ^ o o  .h+3+3+++3+3+!+!+!+L 3+3+L L ^ L 3+++| ++H e+S.) ) S.h+++ +4.;.c c y y y R.4.u+3+!+!+) ) ) o o o o o o o o ^ ^ h R P b+b+U P = = = h h -+$+$+:.y.$+u+9+L ^ ^ L L R R 7+$+1 x+x+y x+x+x+x+( Y.4+4+M M 4+T.=+' W d+A A #+0+4+( @.f+f+e u ^+^+^+^+^+^+^+M M M ! T.T.T.T.T.T.T.'.^+/ / T.1+1+! / l.l./ / ! ! ! / ^+u u n.c+c+u l./ / / / / / / ^+^+M T.=+#+#+#+=+0+H.Y.( ^+^+4+4+g g 4+M ^+e e e e b+b+b+b+b+:.@.4+S #+A ] r A A =+=+S S S i m.w &.] ] &.&.w m.i ( x+x+( ( x+x+1 u+9+R L L L 9+u+y.y.y.x+x+x+x+:.y.y.R.c c c c R.y.y.v+y i y c 4.3+o o o o 3+4.R.y y v+y.N 9+L ^ o o o o o o ^ L L 3+9+9+N N N u+u+u+u+$+$+$+9+9+L L L ^ ^ o !+!+!+!+!+o o o o o ) ) ) ) ) o o !+L L L L L L L !+h+h+!+o o o o ) ) ) ) ) ) ) S.S.!+!+!+S.) ) ) ) ) ) ) B B ) ) S.!+!+!+S.S.S.S.) ) ) ) B B B B B B B B B B B B p p p p p p p p p p p D.*.t.t.*.D.p p p B B B B B B B B p p p p ",
"p p p p B B B B B p p p p p p B B X e+3 <.<.|  +| | <.<.<.<.H H e+S.S.) ) S.S.S.S.S.S.) ) ) ) ) B B B <+X e+e+X X *.t.e+c.c.c.c.t.*.B p p p p p B B <+e+H <.| | ++++++3+3+^ ^ ^ o o o !+3+3+3+3+3+L L L 3+3+3+3+W.W.W.3+++++++H e+) ) X e+h+++ +4.;.c c y y y R.y.u+3+!+o ) ) ) o o o o o o o ^ ^ ^ h N.P b+b+b+P P = = h h R 7+$+$+$+$+9+9+L L L 3+9+9+7+7+1 :.x+x+x+x+x+x+x+x+( Y.4+4+S g =+#+A d+r r ] ] A m.Y.@.f+f+f+e u u ^+^+^+^+^+M ! ! ! T.T.T.T.4+4+4+T.T.T.T.T.1+T.! / l.l.l./ / / / / / ^+u u n.c+u l./ / / / / l.l.u u ^+4+S =+#+A A &.&.m.0+4+M 4+g =+g T.M ^+u u e e e f+b+b+b+2.@.Y.S 0+#+A A A A =+=+S 4+4+4+S 0+w w w w m.m.w.( :.:.:.:.x+x+:.1 7+9+R L W.W.3+9+u+1 y.x+x+( x+:.y.y.R.R.c c ;.R.y.R.y _.;+_.y ;.++o o o o 3+N R.y y x+y.u+3+L o o o o o o o ^ L R 9+9+9+9+u+u+u+u+u+u+u+$+u+9+9+L L ^ ^ ^ L L L L L L ^ o o o o o ) ) ) ) o o !+L L L L L L L !+!+!+S.) ) ) ) ) ) ) ) ) ) ) ) S.S.S.S.S.S.) ) ) ) ) ) ) ) ) ) S.S.S.S.S.S.S.S.) ) ) ) B B B B B B B B B B B B p p p p p p p p p p p B *.*.*.*.B p p p p B B B B B B B p p p p ",
"p p p p B <+<+B B B B p p p p B B <+e+e+<.<.<. + + + + +w+<.<.H 3 S.S.S.S.S.S.S.S.S.) ) ) ) ) B B B B *.<+e+e+X *.*.*.t.e+c.c.t.t.B p p p p p p B B ) X h+H <.++++3+3+3+L ^ ^ ^ o o o !+3+3+3+3+L L L L 3+3+3+3+W.W.W.3+3+++++H e+) ) X h+h+++| 4.4.R.c y y y y y.u+3+!+o ) ) ) o o o o o o o ^ ^ h h P P b+b+b+P P P = h h R 7+7+$+$+7+9+9+9+9+9+9+9+7+$+1 :.:.:.R.R.R.R.y.x+x+( Y.S 0+=+#+A A ] ] r p.p.$.=.] 0+( e Y f+e e u u u ^+^+^+/ ! ! ! ! ! ! ^+^+^+M T.T.T.T.T.T.T.! / / / / / / / / T.T.'.^+u n.n.u l./ / / / l.l.u n.u @.^+4+S m.A =.=.=.] #+S 4+T.g =+=+g T.M ^+^+^+^+^+@.e f+f+e @.@.4+S 0+#+#+#+#+#+=+g 4+4+^+4+4+S 0+0+;+w.Y.( :.2.b+2.:.:.:.:.$+9+R R W.W.W.W.3+9+N y.x+Y.Y.( :.1 1 y.y.;.;.;.R.R.R.y _.a _._.;.++ .o o o 3+N R.y y R.y.u+3+L o o o ) o o o L R R 9+9+9+9+9+9+9+9+u+u+u+u+u+9+9+L L ^ L L L L L L L L ^ ^ ^ o o o o o o o o !+L L L 3+L L L !+!+!+S.) ) ) ) ) ) B B B B B ) ) ) S.S.S.S.S.S.S.) ) ) ) ) ) ) ) S.S.S.S.S.S.S.S.) ) ) ) B B B B B B B B B B B B p p p p p p p p p p p B *.*.*.*.B p p p p p B B B B B B p p p p ",
"p p p B <+<+<+<+B B B B p p p p B B <+e+3 <.<. + + + + + +w+<.<.3 3 S.S.3 h+h+S.S.S.) ) ) ) ) B B B B B *.t.t.t.*.*.*.t.t.t.t.<+<+B p p p p p p B B B X e+h+h+h+h+h+!+L ^ ^ ^ ^ o o o !+3+3+3+3+L L L L 3+3+3+3+W.W.W.3+6 ++++h+S.) ) X h+++++| 4.4.R.c y _.y y y.u+3+!+o ) ) ) o o o o o o o ^ ^ h h P P b+b+b+P P P P h h h R 7+7+7+7+9+9+9+9+9+u+u+$+$+1 :.:.y.y.y.y.y.y.R.x+x+Y.i m.A ] r r ] ] ] =.l+l+l+] m.Y.@.f+f+f+e e u u u u l.l.l./ ! ! ! ^+^+^+^+M T.g g g g T.T.T./ / / / / / / T.T.T.T.T.^+u n.u l./ / / l.l.n.n.n.e e @.( Y.m.&.n+l+l+p.] =+T.T.g g g g T.! ! ! ! M M ^+@.e e e e e @.M H.H.0+#+#+#+#+=+4+^+^+u ^+^+( ( ( ( @.2.2.b+b+b+:.:.:.1 $+9+R R W.W.W.W.W.3+u+y.v+Y.Y.5.:.:.$+1 y.4.;.R.R.R.c _.o.< o._.;.++!+o o o 3+N y.x+x+R.y.u+L !+o o ) ) o o ^ L R 9+9+7+9+9+9+9+9+9+9+u+u+u+u+9+3+L ^ L L R R R R R R L L ^ ^ ^ o o o o o o o !+L 3+3+3+L L L !+o o ) ) ) ) B B B B B B B B B ) ) ) ) S.!+!+!+S.) ) ) ) ) ) ) ) S.S.S.S.S.S.S.S.) ) ) ) B B B B B B B B B B B B p p p p p p p p p p p B *.*.*.*.B p p p p p p B B B B B p p p p ",
"p p p B <+<+<+<+<+B B B B p p p B B B X e+c.<. + +d d d U.w+w+<.<.3 3 3 H H H !+S.) ) ) ) ) ) B B p p B *.*.t.*.*.*.*.*.<+<+<+<+B p p p p p p p B B B ) S.h+h+!+!+o o ^ ^ ^ ^ ^ ^ o o  .3+3+3+3+L L L L 3+3+3+3+W.W.W.3+3+++3+h+S.) X e+H ++++ +4.4.4.c y _.y y y.u+L !+o o ) ) o o o o o o o ^ ^ h h P P b+b+b+P P P P h h h R 7+7+7+7+7+9+9+9+u+u+u+u+$+1 1 1 1 y.y.y.y.y.y.x+x+Y.;+w ] =.p.=.] ] ] =.n+l+n+=.&.H.( e e f+f+f+e u u u l.l.l.l.! ! ! ^+^+u ^+M T.g 8+g g T.T.T.T.T.T.T./ ! ! T.g g g T.M u n.u l./ / l.l.n.n.n.f+f+e e @.( 0+&.n+r.r.l+r #+g T.T.g S 4+4+M M ! T.T.T.M ^+@.e e f+e e @.( 4+H.0+#+#+#+=+T.^+u c+c+e e e e 2.b+b+U U U b+2.:.:.1 7+9+R R W.W.W.W.^ L 9+1 v+Y.Y.5.@.:.1 $+1 y.y.R.c y _.o.< < !._.;.|  .o o o 3+N y.R.R.y.N 9+L o o ) ) ) o o ^ L R 9+7+7+9+R R R 9+9+9+9+u+u+u+9+9+L L R R R R R R R R R L ^ ^ ^ o o o o o o o !+3+3+3+3+L L L !+o ) ) ) B B B B B B B B B B B B ) ) ) ) !+!+!+!+) ) ) ) ) ) ) S.S.S.S.S.S.S.S.S.) ) ) ) B B B B B B B B B B B B B p p p p p p p p p p p *.*.*.*.p p p p p p p p B B B B p p p p ",
"p p p B <+<+<+<+<+<+B B B B p p p B B <+e+3 <.<. +d d d d U.w+w+<.H H H H H H !+S.) ) ) ) ) ) B B p p p D.D.*.*.*.*.*.*.<+B B B p p p p p p p p B B B ) X S.!+o o o o ^ W.W.W.W.W.W. .W.3+3+3+3+L L L L 3+3+3+3+3+W.3+3+3+3+3+h+S.) X h+<. + + +4.4.4.R.y _._.y y.u+L o o o o o o o o o o o o ^ ^ h h N.P 7+7+7+7+P P h h h R 9+7+$+$+$+$+N u+u+++3+3+9+u+u+N N N 1 1 y.y.y.R.x+x+y ;+&.=.n+n+=.] &.&.&.-.n+=.] &.m.4+( @.e f+f+f+} c+n.n.n.l.l.l./ / ^+^+^+^+T.g =+=+g T.T.! T.T.g g g T.T.T.g =+=+=+g T.^+u u l.l.l.l.u n.n.c+f+f+f+f+e ( w.&.=.l+l+p.r =+g T.4+4+4+M ^+^+^+M T.T.T.4+M ^+@.e f+f+e e @.( 4+0+#+#+#+=+g / l.c+c+c+f+f+f+b+b+U U U U b+2.:.:.1 7+9+R -+-+W.W.W.^ ^ 9+1 x+Y.Y.Y.( :.:.1 1 y.y.c _._.a < ].].q+o.;. + .o o o 3+N y.R.R.y.N 3+L o o ) ) ) o o ^ L R 9+9+9+9+R R 9+9+9+9+9+9+9+9+9+9+9+9+9+9+9+9+9+9+R R R L L ^ ^ o o o o o !+L L 3+3+3+3+L !+!+o ) ) ) B B B B B B B B B B B B B B ) ) ) S.!+!+!+) ) ) ) ) S.S.S.S.S.S.S.S.S.S.) ) ) ) ) B B B B B B B B B B B B B B p p p p p p p p p p B B B B p p p p p p p p B B B B p p p p ",
"p p p B *.*.*.t.X X X <+B B B B p p B <+<+e+c.<. +d d d d d U. +<.<.H H H H H !+S.) ) ) ) ) ) B B p p p p p B B B B B B B B p p p p p p p p p p B B B ) ) ) ) o o o o W.W.3+3+3+W.W.W.W.3+3+3+3+L L L L 3+3+3+3+3+h+h+3+3+3+3+h+S.) X H |  +d 4.4.4.4.R.c _._.c y.u+L ^ o o o o o o o o o o o ^ ^ ^ h R P 7+7+7+7+N.N.-+h h R 9+u+1 y.y.y.1 N u+3+3+3+3+3+3+3+9+u+u+$+y.y.y.x+x+x+y ;+&.-.k.k.n+&.a ;+a ].&.&.&.&.m.0+H.( e f+Y Y f+c+c+c+c+c+l.l.l.l./ ^+M M T.g =+=+g 4+M M T.g =+8+8+=+=+=+#+#+#+#+=+g M ^+u l.l.l.l.n.n.c+c+f+f+f+f+b+@.Y.m.] p.p.r W =+T.M ^+( ( @.e e @.^+4+g g T.M ^+^+e e f+f+e e @.( H.=+#+#+8+g / l.,+c+c+Y Y f+f+Y Y Y Y Y f+e @.:.2.$+9+-+-+-+-+-+W.^ ^ 9+$+:.( Y.Y.( ( @.:.:.y.R.y ;+< &.&.].].q+o.;. + .o o o 3+N y.R.v+y.N 3+!+o ) ) ) ) o o o L R 9+9+9+9+9+9+9+9+9+9+9+9+3+9+9+9+9+/./.7+7+7+9+9+9+R R L L L ^ o o o o !+L 3+3+3+3+3+3+!+!+o ) ) ) B B B B B B B B B B B B B B B B ) ) S.!+!+!+) ) ) ) S.S.!+!+!+!+S.S.S.) ) ) ) ) ) ) B B B B B B B B B B B B B B B p p p p p p p p p p p p p p p p p p p p p B B B B p p p p ",
"p p p B *.*.*.t.X X X X B B B B p p p B <+t.3 <. + +d d d d  + +<.<.<.H H H H !+S.) ) ) ) ) ) B B p p p p p p p p p p p p p p p p p p p p p p p B B B B ) ) ) o o o  .W.3+9+u+9+3+W.W.W.3+3+3+3+L L L L 3+3+3+3+L !+!+3+3+3+3+!+S.) e+<. +d d 4. + +4.;.c _.y c 4.u+L ^ o o o o o o o o o o o o ^ ^ ^ R R 7+7+7+7+N.N.-+h h R u+N y.y.y.y.y.N u+3+h+!+!+!+!+L 3+9+9+u+1 y.x+x+x+R.y _.].o+k.k.o+]._.R.y _.a < &.&.&.m.0+Y.@.b+Y Y Y Y V V c+c+n.l.l.l./ ! ! T.T.g g g 4+M ^+^+4+g =+d.d.d.d.d.d.W W A #+g M ^+u l.l.l.l.n.c+c+c+f+V.V.V.b+2.( 0+A ] r r #+=+T.^+@.2.2.b+b+b+2.( 4+g g T.4+^+^+u e e f+f+e e ( S =+#+W 8+Q 1+/ l.,+c+c+f+f+f+f+f+Y Y f+f+e @.@.2.$+7+-+-+-+-+-+W.^ ^ 9+$+:.( ( Y.4+4+( ( :.:.y _.< &.&.&.&.].!.(.;.|  .o o o L N y.y.y.y.N 3+o o ) ) ) ) o o o L L 9+9+9+9+9+9+9+9+9+9+9+3+3+9+9+/./.$+$+$+$+$+7+9+9+9+R L L L L o o o !+L 3+3+3+3+3+3+!+!+o ) ) ) B B B B B B B B B B B p p p B B B ) ) S.!+!+!+S.) ) ) S.!+h+!+!+!+!+S.S.) ) ) ) ) ) ) B B B B B B B B B B B B B B B B p p p p p p p p p p p p p p p p p p p p B B B B p p p p ",
"p p p B *.*.*.t.e+e+e+X <+B B B p p p p B <+e+c.<. + +d d d  + +<.<.<.H H H h+S.S.S.) ) ) ) ) B B p p p p p p p p p p p p p p p p p p p p p p p B B B B ) ) ) ) o o  .3+++u+u+u+6 3+3+3+3+3+3+3+3+L L L 3+3+3+3+L !+!+h+3+3+h+!+) ) e+<. +d ;.4. +| 4.;.c c y c 4.u+L ^ o o o o o o o o o o o o ^ ^ ^ R R 7+7+7+N.N.N.-+h ^ 3+u+4.y.R.R.y.y.N u+3+3+!+!+!+!+L L 3+9+/.$+y.x+x+|.y.R._.].o+k.g.o+].c y.y.R.y _.a &.&.&.m.w.( e f+Y Y Y Y Y V c+c+l.l.l./ ! ! T.T.g g 4+4+@.@.@.4+S =+#+d.d.d.d.W W W W #+g M ^+u l.l.l.l.,+c+c+c+f+V.V.V.b+2.( H.#+A W d.=+g M ^+e 2.N.N.= N.2.@.4+S g T.4+^+^+u e e f+f+b+2.( 4+=+#+W d.Q 1+{.l.l.n.n.c+e f+f+f+Y Y f+e e @.@.2.$+7+-+-+-+-+-+-+^ ^ -+7+$+:.( Y.4+4+4+Y.( v+y ;+w &.] s.&.].!.(.;.++!+o o o L N 1 y.y.1 N L o ) ) ) ) ) o o ^ W.3+9+9+9+9+9+9+9+9+9+9+9+9+9+9+/./.$+$+$+$+$+$+$+$+9+9+9+L L L ^ o o o !+3+3+3+3+3+3+3+!+!+) ) ) B B B B B B B B B B B B p p p p B B B ) S.!+!+!+S.) ) S.S.!+h+!+!+!+!+S.S.) ) ) ) ) ) ) ) B B B B B B B B B B B B B B B p p p p p p p p p p p p p p p p p p p p B B B B p p p p ",
"p p p p B *.*.t.e+e+e+e+<+B B B p p p p B <+t.3 <. + + + + + + +<.<.H 3 3 e+S.S.S.S.) ) ) ) ) B B p p p p p p p p p p p p p p p p p p p p p p p B B B B ) ) ) ) o o L 3+u+u+4.u+u+6 6 6 3+3+3+3+3+L L L L 3+3+3+3+!+!+3+3+3+h+ .) ) e+<. +;.;.4. +++| 4.c c c c 4.u+L L o o o o o o o o o o o o ^ ^ L R 9+7+7+7+N.N.-+h h ^ 3+u+y.y.R.y.y.y.N u+u+9+3+3+3+3+3+9+9+9+7+$+y.|.|.|.y.R._.].o+k.g.o+q+c u+9+N R.y a w &.&.m.H.( @.e f+Y Y Y Y Y c+n.l.l./ / ! M M M 4+4+M @.e e e @.4+S =+#+d.d.W W W W d.=+g M ^+u l.l.,+,+,+c+c+c+c+f+V.V.b+f+@.4+=+#+#+=+=+T.M @.2.b+N.= = = 7+:.Y.4+g T.T.M ^+u e e e 2.2.@.( S #+A W d.8+1+/ / l.l.n.n.n.e f+f+Y Y f+e e @.@.2.2.7+N.-+-+-+-+-+h h -+9+$+:.x+Y.4+S S S Y.Y.i 0+w ] ] &.&.< a (.;.++ .o o o L u+y.y.y.y.u+!+o ) ) ) ) o o o W.L 3+9+9+9+9+9+9+9+9+9+9+9+9+9+9+/.$+$+$+y.y.y.y.$+$+$+9+9+R L L ^ o o o  .3+3+3+3+3+h+!+!+) ) ) B B B B B B B B B B B B B p p p p B B B ) S.S.!+!+S.S.S.S.S.!+!+!+!+!+!+S.S.) ) ) ) ) ) ) ) ) B B B B B B B B B B B B B p p p p p p p p p p p p p p p p p p p p p B B B B p p p p ",
"p p p p B B *.t.e+e+e+e+*.B B B p p p p B B <+e+H <.<. + + +<.<.<.H 3 e+S.S.S.S.S.S.S.) ) ) ) B B p p p p p p p p p p p p p p p p p p p p p p p B B B B ) ) ) o o !+3+u+u+4.4.4.u+u+u+6 ++++3+3+3+L L L L L L 3+3+3+3+3+3+h+ .o ) ) e+<.d ;.;.4. +++++4.R.c c R.4.u+L L o o o o o ^ ^ o o o o o ^ L L R 9+7+7+7+N.N.h h ^ ^ 9+u+y.y.R.y.y.$+u+u+u+u+N N N u+u+9+9+7+7+$+|.|.|.|.$+y.y ].-.g.g.7 !.;.9+h 9+y.R._.a &.&.m.0+Y.( @.e f+{ { { V.c+n.l.l.! ! ^+^+^+^+@.@.@.e b+b+b+2.@.4+S =+#+d.W W W d.8+g T.M u n.n.,+,+,+,+,+c+c+c+f+f+f+f+f+e M 4+7.=+7.T.T.M @.2.>+= = . = 7+:.( 4+4+T.! ^+^+u @.@.:.2.:.@.( 0+m.A A #+=+g T./ / l.l.u u u } f+Y Y f+} e @.@.@.2.7+7+-+-+-+-+-+h h h R 7+$+:.( S S S S S S 0+m.A A A &.w a ;+c 4.++ .o o o 3+u+4.y.y.4.++h+o ) ) ) ) o o  .W.W.9+9+9+9+R L L R 9+9+9+9+9+9+9+$+$+1 y.y.y.:.:.y.$+$+/.9+9+L ^ ^ o o o  .3+3+3+3+h+!+!+) ) ) B B B B B B B B B B B B B B p p p p B B B ) S.S.S.S.!+!+!+S.S.S.S.S.S.S.S.S.S.S.S.) ) ) ) ) ) ) ) ) ) ) ) B B B B B B p p p p p p p p p p p p p p p p p p p p p p p B B B B p p p p ",
"p p p p B B *.t.e+c.c.e+t.*.B B p p p p B B <+S.h+h+<.<.<.<.<.<.H 3 S.S.S.) ) ) S.S.S.S.) ) ) B B p p p p p p p p p p p p p p p p p p p p p p p B B B B ) ) S.!+h+3+++u+4.y.y.y.4.u+u+u+++++++3+3+L L L L L L L 3+3+3+3+h+ . .X ) ) e+<.d ;.;.4.| ++++4.R.c c R.4.u+L L o o o o ^ ^ ^ ^ o o o o L L L R 9+7+7+7+N.h h h ^ ^ 9+u+y.y.R.y.$+$+/.7+$+1 1 1 1 1 1 $+7+7+b $+2.|.|.2.$+$+y < s.o+o+s+o.;.9+^ -+u+R.y a w &.m.m.H.Y.( e b+U { { V.f+n.^+! ! ^+^+u e e e e b+b+U U U b+2.@.( S =+d.W W d.8+Q T.! ^+n.n.5 }.}.,+,+,+,+c+c+f+f+f+f+f+e ^+M T.T.T.T.M M @.2.>+= = h h 7+:.( 4+4+M ! l.u u @.@.:.:.:.( Y.0+m.A A #+=+g T.T.! ! ! ^+^+u u u } f+f+e u ^+@.@.2.7+7+7+-+-+-+-+h h h R R 7+1 v+S S =+=+=+=+=+#+A A A w w ;+i c 4.3+o o o o 3+++4.y.y.4.++h+) ) ) ) ) o  .W.W.W.9+9+9+9+R L L R 9+9+9+9+9+7+7+$+1 y.y.y.R.x+:.:.y.$+$+9+9+L ^ ^ o o !+h+3+3+3+h+h+!+) ) ) B B B B B B B B B B B B B B B p p p p B B B ) S.S.S.S.!+!+!+!+S.) ) S.S.S.S.S.S.S.S.S.) ) ) ) ) ) ) ) ) ) ) ) B B B B B p p p p p p p p p p p p p p p p p p p p p p p B B B B p p p p ",
"p p p B B B *.e+e+c.c.e+e+<+B B B p p B B B ) X S.h+h+H <.<.<.H H h+S.S.) ) ) ) S.S.S.S.) ) ) B B B p p p p p p p p p p p p p p p p p p p p p B B B B X e+e+h+<.++++N 4.4.y.y.y.4.u+u+u+++++++3+3+3+L L L L L L 3+3+3+3+h+ . .X ) ) e+| d ;.;.4.| 3+3+N y.R.R.R.4.9+L L o o o o ^ ^ ^ ^ o o o o L L L R 9+7+7+P R h h ^ ^ ^ 9+u+y.R.x+y.$+7+7+7+$+:.:.:.:.:.:.2.7+7+b $+2.|.|.2.b $+x+a &.-.-.].o.;.9+^ h /.y.y _.a m.m.m.H.H.( @.e b+V.V.V.f+n.n.^+^+^+u e e f+f+b+U U U U U b+b+2.@.4+=+=+b.b.8+Q Q T./ u n.n.}.}.,+l.l.l.l.l.u n.e f+f+e e ^+M ! ! ! ! M ^+@.2.>+= = h = 7+2.@.( M M / l.u u @.:.:.:.( ( Y.0+m.A A A #+=+g g T.T.T.T.! M ^+^+u u u u u ^+^+@.2.2.7+7+N.-+-+-+-+R R R R 9+1 v+i S ' ' =+=+=+#+#+A A w 0+;+i R.4.3+o o o o W.++4.4.4.4.++h+) ) ) ) ) o  .W.W.3+9+9+9+9+9+9+9+9+9+9+9+7+7+7+$+$+1 y.y.y.R.x+:.:.y.$+$+/.9+L ^ L L 3+3+3+++++3+h+h+S.) ) B B B B B B B B B B B B B B B B p p p p B B B ) ) S.S.S.!+!+!+!+o ) ) ) S.S.S.S.S.S.S.S.) ) ) ) ) ) ) ) ) ) ) ) ) B B B B p p p p p p p p p p p p p p p p p p p p p p p B B B B p p p p ",
"p p B B B B ) e+3 c.c.c.e+X ) B B B B B B B ) ) S.h+h+h+H H H H H h+h+S.) ) ) ) S.S.S.S.) ) ) B B B p p p p p p p p p p p p p p p p p p p p B B B B X e+<.<. + +4.4.4.y.y.y.y.4.u+u+u+u+++6 6 3+3+3+3+3+L L L L 3+3+3+W.h+ . .) ) ) e+++4.;.;.4.++3+3+u+y.R.R.y.N 9+L L o o o o ^ ^ ^ ^ o o o o L L L R 9+9+R R R h h ^ ^ ^ 9+u+y.x+x+y.$+$+7+7+$+2.:.:.:.:.2.2.b+b+b 2.2.2.2.b b $+x+;+&.s.s.]._.R.9+-+-+7+1 R.y _.;+;+m.0+H.Y.( e f+f+f+f+c+n.n.l.^+n.n.e f+f+V.>+>+b+b+b+b+b+b+b+@.M g =+8+8+Q Q 1+/ / n.n.c+}.,+l./ / T.T.! ^+u n.e e e u ^+! ! ! ! M M ( @.2.>+= = = = 7+2.@.@.^+^+^+^+u u @.:.:.|.( ( w.0+m.w w A #+' =+8+8+8+8+g g g T.4+^+^+u ^+^+^+^+@.e 2.7+7+7+7+7+7+7+7+7+R R R 1 v+i S =+' ' ' ' #+#+#+#+m.0+;+y R.4.3+o o o o L ++4.4.4.4.++h+) ) ) ) ) o  .W.3+9+9+9+9+9+9+9+9+9+u+$+$+$+$+$+1 1 y.y.y.y.y.:.:.:.:.:.$+$+9+L L 3+++++++++++++H h+!+) ) ) B B B B B B B B B B B B B B B B B B B B B B B B ) S.S.S.!+!+!+!+!+o ) ) S.S.S.S.S.S.S.S.) ) ) ) ) ) ) ) ) ) ) ) ) B B B B B p p p p p p p p p p p p p p p p p p p p p p p B B p p p p p ",
"B B B B B ) ) e+3 c.<.c.3 e+X ) B B B B B ) ) ) S.h+h+h+H H H H H H h+h+S.) ) ) S.S.S.S.) ) ) ) B B B p p p p p p p p p p p p p p p p p p B B B B ) e+<.<.U.d ;.;.c c R.y.y.N u+u+u+u+++6 6 6 3+3+3+9+9+9+R R L L W.W.W.h+!+!+S.) ) h+++4.;.R.4.++3+3+u+y.R.R.y.N 9+L L o o o o ^ L L L o o o !+L L L R R R R R h h ^ ^ ^ ^ 9+N y.x+x+R.1 $+7+7+b+2.2.2.2.e e 2.b+b+b+2.2.2.2.b b b x+_.< &.&.< _.R.u+9+7+$+1 y.R.x+y w.;+0+H.H.( @.e f+f+f+c+n.n.n.n.n.c+f+f+V.f+f+f+f+e e e e f+e e ^+4+T.g Q Q 1+1+/ l.n.c+c+,+l.l.! g g g g ! ^+u n.u u ^+^+! ! ! ! M M ( @.2.7+= = = = P 2.:.@.^+^+^+u u e @.:.:.|.( Y.H.H.0+m.w w A ' W W b.d.d.8+8+=+=+g T.M ^+^+/ / ^+^+@.2.2.7+7+7+7+7+7+$+7+7+R R 7+:.Y.S 0+=+' ' ' ' #+#+#+m.0+;+i R.4.3+o o o o h+++u+4.4.| ++!+) ) ) ) ) o  .3+3+9+9+u+$+$+u+u+N $+1 1 1 1 1 :.:.y.y.y.y.y.y.y.:.:.:.:.y.$+9+9+3+++N 4.4. +| ++h+h+S.) ) ) B B B B B B B B B B B B B B B B B B B B B B B B ) ) S.S.!+!+!+!+!+o o ) S.S.S.S.S.!+S.S.S.) ) ) ) ) ) ) ) ) ) ) ) ) ) B B B B p p p p p p p p p p p p p p p p p p p p p p p p p p p p p ",
"B B B B B ) X e+3 <.<.H h+h+e+S.) B B B B ) ) S.!+h+h+h+H H H H ++++H h+!+S.) ) S.S.S.S.) ) ) ) B B B B p p p p p p p p p p p p p p p p B B B B B ) e+<.U.d ;.M.c c c R.y.N u+u+u+u+u+6 6 6 6 6 6 u+u+9+9+R R R L W.W.W.!+!+!+S.) ) h+++4.4.y.4.++3+3+u+y.R.R.y.N 9+L L o o !+L 3+3+3+3+L o o !+L 3+3+9+R R R R R ^ ^ ^ ^ L 9+N y.x+x+x+y.$+7+7+b+b+2.2.e e e 2.b+b+b+2.2.2.2.b b b |.y a &.&.a y , u+7+$+1 :.1 1 y.y.x+w.;+0+H.Y.( @.e e c+c+c+c+n.c+c+f+Y V.f+f+f+e e @.@.@.@.e e @.^+^+T.T.1+1+1+1+/ l.n.c+c+,+l./ T.g 8+8+g T./ l.u u ^+^+! ! T.T.T.M ( ( :.2.P = = = = P b+2.@.@.^+u u u e 2.2.:.|.( w.H.H.;+;+0+w A W W W W W W W d.d.=+=+g T.T./ / / ^+^+@.2.2.$+7+7+7+$+$+1 $+7+9+R 9+1 5.S S =+' ' ' ' #+#+#+m.0+;+i c 4.++o o o o !+3+++4.4.++H !+) ) ) ) ) !+!+3+3+9+/.$+$+$+$+1 y.1 1 :.:.:.:.:.:.:.y.R.y.y.y.$+$+1 :.:.y.$+/.9+3+u+4.;.;.4. +++h+!+S.) ) ) B B B B B B B B B B B B B B B B B B B B B B B B ) ) S.S.!+h+h+!+!+o o o S.S.S.S.S.h+h+S.S.) ) ) ) ) ) ) ) ) ) ) ) ) ) ) B B B B p p p p p p p p p p p p p p p p p p p p p p p p p p p p ",
"B B B B ) ) S.e+h+H <.<.H h+h+S.) ) ) ) ) ) ) ) !+h+h+h+H H H H ++++3+h+!+S.) S.S.S.S.S.) ) ) ) B B B B p p p p p p p p p p p p p p p p B B B ) ) e+<.<.U.d M.M.c c c R.y.u+9+9+u+u+u+6 3+ . .3+6 u+u+9+9+R R R L W.W.W.!+!+!+S.) ) h+++4.4.y.4.++3+3+u+y.y.R.y.N 9+L L L 3+3+++++u+u+++3+3+L 3+3+3+3+9+9+R R R R L L L L 9+u+1 y.x+x+x+y.$+7+7+7+b+b+b+2.e e b+b+b+b+b+2.2.2.b+b b :.y ;+a a ;+y y.$+$+$+:.:.$+7+7+$+x+y w.;+H.Y.( ^+^+u n.c+c+c+c+c+f+Y Y Y f+f+e @.^+M M M M ^+@.u ^+^+/ / {.1+1+1+/ l.n.c+c+,+l./ T.=+8+=+g T./ l.l.^+^+M T.T.1+T.T.M ( @.2.2.P = = = = P b+2.@.@.@.u u } e 2.2.:.x+Y.H.H.H.i i ;+w A d+d+d+W W W d.d.#+=+=+=+g T.T.T./ / ^+@.e 2.2.7+7+7+$+2.:.:.$+9+R 9+1 v+Y.S S =+' ' ' #+#+#+m.m.;+_.c 4.++o o o o !+3+++N N ++H !+) ) ) ) ) !+!+3+3+9+9+$+$+$+y.y.y.y.y.:.:.:.:.:.:.:.R.R.R.y.1 $+$+$+y.:.y.$+/.9+9+N 4.;.;.4. +<.h+S.) ) ) ) B B B B B B B B B B B B B B B B B B B B B B B B ) ) ) S.!+h+h+!+!+!+o o S.S.S.S.S.h+h+!+S.S.) ) ) ) ) ) ) ) ) ) ) ) ) ) B B B B p p p p p p p p p p p p p p p p p p p p p p p p p p p p ",
") ) ) ) ) ) X e+h+H H H H h+h+!+S.) ) ) ) ) ) ) o !+h+h+H H H 3+++3+3+3+!+!+S.S.S.S.S.S.) ) ) ) B B B B B B p p p p p p p p p p p p p p B B B X e+c.<. +U.d &+;.c c R.R.4.u+9+9+9+u+9+3+W. . .3+3+u+u+9+9+9+R R L L W.L !+!+S.) ) ) !+++u+4.y.N 3+3+3+u+y.y.y.y.u+9+3+3+++++ +4.4.y.y.4.N 9+3+3+u+u+u+u+9+R R R 9+9+9+9+u+u+$+y.y.x+x+:.1 $+7+7+7+7+7+b+b+2.b+b+b+b+b+b+2.2.2.b+>+b 2.x+w.;+;+_.x+y.$+$+:.:.:.2.7+P 7+$+x+Y.Y.w.H.4+4+M ^+n.c+c+c+c+f+Y Y Y Y f+e u ^+4+4+H.H.H.M ^+^+^+l./ / {.1+1+1+{.l.n.c+c+,+l./ T.g g g g T./ / / ! T.T.T.g 1+T.T.M @.:.2.b+>+= = = = U b+2.e @.@.e e e e 2.2.:.x+Y.H.H.H.Y.Y.i 0+A d+d+d+W W d.=+=+=+=+=+g g g g T.T./ ^+@.e 2.2.7+7+7+2.:.:.:.$+9+R 9+$+:.5.Y.S S =+=+=+=+#+#+0+0+;+_.c 4.++o o o o !+3+++++++++h+!+) ) ) ) ) o !+L 3+9+9+/.$+$+y.y.y.y.y.:.:.:.:.:.:.:.R.R.R.y.1 $+7+$+$+y.1 $+9+9+9+N y.R.;.;. +H h+) ) ) ) B B B B B B B B B B B B B B B B B B B B B B B B B B ) ) S.S.!+!+!+!+!+o o S.S.S.S.S.S.!+!+S.S.S.S.) ) ) ) ) ) ) ) ) ) ) ) B B B B p p p p p p p p p p p p p p p p p p p p p p p p p p p p ",
"S.S.S.S.X X X e+h+h+h+H H H h+!+!+o ) ) ) ) ) ) o o !+h+h+3+++3+3+3+3+L !+!+!+!+o o o ) ) ) ) ) B B B B B B B B B B B p p p p p p p p p B B <+e+c.<.<. +U.U.d d d 4.4.4.u+9+9+9+9+9+9+3+W. . .3+3+u+u+u+9+9+R R L L L !+!+o ) ) ) ) !+3+u+N N u+3+L 3+u+4.y.y.y.u+9+3+++N 4.;.R.c c c R.y.N N N N 4.4.u+9+9+L 9+9+u+u+N 1 y.y.y.:.:.:.:.$+$+7+7+7+7+b 7+7+b+b+b+b+b+b+b+2.2.2.b+>+>+2.|.y w.y y R.$+$+$+2.:.:.2.7+P N.$+:.x+Y.Y.H.H.H.4+^+n.c+V c+f+f+Y Y Y Y f+u ^+M T.=+#+#+=+H.M M l.l.l./ {.1+1+1+{./ l.c+c+,+l.l.! T.T.T.T.! / / ! T.T.g g Q Q g T.M @.2.b+>+>+j j j j U b+b+e e e e e e b+b+$+:.( w.H.H.H.Y.( Y.m.A =.p.r W #+=+g 4+4+4+S S g g g g T.! ^+^+e e b+b+7+7+2.2.:.:.$+7+R 9+$+1 v+Y.4+S S =+=+=+=+=+0+0+;+_.c 4.++o o o o  .3+++++++++h+!+o ) ) ) ) o o !+L W.-+/./.$+y.y.R.R.y.y.y.y.1 1 :.y.x+x+R.R.y.$+7+7+$+$+$+/.9+R 9+N R.R.;.d  +H S.) ) ) B B B B B B B B B B B B B B B B B B B B B B B B B B B B ) S.S.!+!+!+!+!+!+S.) ) ) ) ) S.S.S.!+!+S.S.S.) ) ) ) ) ) ) ) ) ) ) B B B B p p p p p p p p p B B p p p p p p B B p p p p p p p p p ",
"S.S.S.S.X X X e+h+h+h+H H H H h+!+o o ) ) ) ) ) o o !+h+3+++++3+3+3+L L !+!+!+!+o o o o ) ) ) ) B B B B B B B B B B B B p p p p p p p p B B *.e+<.<.w+w+w+ + + + +| u+u+9+9+-+9+9+9+9+3+W. .!+3+++N N N 9+R R R L L L !+o o ) ) ) ) !+3+u+N N u+3+L 3+++4.y.y.4.u+9+3+N 4.;.c c y y y y R.y.1 y.y.y.y.N u+9+9+9+u+1 y.y.y.y.:.:.:.:.2.2.$+7+7+7+7+7+b b 7+7+7+b+>+>+>+b+2.2.2.b+>+>+2.:.x+x+x+x+y.$+$+2.:.@.@.2.b+P P 7+$+:.x+Y.H.0+=+T.M n.c+)+c+f+f+f+U U f+f+u ^+T.g #+#+#+#+=+T.! l.l.l./ {.1+1+1+1+/ l.c+c+,+l.l.l./ ^+^+l.l.l./ ! T.g =+=+8+8+g T.( 2.b+>+>+j j j j j j b+f+e e e e e f+b+b+2.:.( H.0+0+H.( x+y a &.=.p.r A =+S 4+( @.5.Y.S S =+g g T.T.M ^+e e b+b+b 7+2.2.:.:.2.7+R R 9+1 :.v+Y.S S S =+=+=+=+0+0+;+i c 4.++o o o o  .h+3+++++3+h+!+o ) ) ) ) ) o o ^ W.W.-+/.$+y.y.R.R.y.y.y.y.$+$+1 y.x+x+R.R.y.u+9+9+9+9+9+9+R R 9+N y.R.;.4.| h+S.) B B B B B B B B B B B B B B B B B B B B B B B B B B B B B B ) ) S.!+!+!+!+!+!+S.) ) B ) ) ) S.S.!+h+h+!+S.) ) ) ) ) ) ) ) ) ) ) B B B B p p p p p p p p B B B B p p p p B B B B p p p p p p p p ",
"S.S.S.S.X X X e+h+h+H H H H H H !+!+o o ) ) ) ) o o !+h+3+++++3+3+3+L L !+!+!+!+o o o o ) ) ) ) B B B B B B B B B B B B B p p p p p p p B B *.e+<.<.w+w+<.<.<.<.++3+3+3+9+-+-+-+9+9+9+L W. .!+3+++N N N 9+9+R R L L L !+o ) ) ) ) ) !+3+u+N N 9+3+L 3+++4.y.y.4.u+9+u+N 4.c c y y y y y x+y.y.y.y.y.y.4.u+9+9+u+y.y.R.x+x+x+x+|.:.2.2.2.2.$+$+$+$+$+$+$+7+7+7+7+>+>+>+b+b+2.2.b+b+b+2.2.:.x+x+:.:.$+2.2.:.@.@.e b+b+U P 7+7+:.( Y.H.=+7.M ^+n.n.c+f+f+f+U U f+f+u / T.g #+#+#+#+=+T.! l.l.l./ {.1+1+1+1+/ l.c+c+n.l.l.l.n.n.n.n.l.l./ ! T.g =+=+8+8+g 4+@.2.>+>+j j j j j j j V.f+f+e e e f+f+b+b+7+:.( H.0+0+H.( :.y a &.=.n+=.A 0+4+( :.G :.5.i S =+g g g T.M ^+@.e b+b+7+7+b+2.:.2.2.7+R R 9+7+1 :.5.Y.S S g =+=+=+0+0+;+i y 4.++o o o o o h+3+3+3+3+h+!+o o ) ) ) ) o o o ^ W.-+/.u+y.y.y.y.y.y.y.1 $+$+$+y.R.R.R.y.y.u+9+9+9+9+9+R R R 9+N 4.;.4.4.++h+) ) B B B B B B B B B B B B B B B B B B B B B B B B B B B B B B B ) S.!+!+!+!+!+!+S.) B B B B ) ) S.h+H H h+S.S.) ) ) ) ) ) ) ) ) ) B B B B p p p p p p p p B B B B p p p p B B B B p p p p p p p p ",
"S.S.S.S.X X X h+h+<.<.<.<.<.<.H h+!+!+o ) ) ) ) ) o !+h+3+++++3+3+L L !+!+!+!+!+o o o ) ) ) ) ) B B B B B B B B B B B B B B p p p p p p B B *.e+c.<.<.<.<.H h+h+h+!+L W.W.W.-+-+9+9+3+L W. .h+3+++N N N 9+9+R R L L L !+o ) ) ) ) S.!+3+u+N N 9+3+!+h+++4.y.y.4.u+9+u+N y.c y y y y y y x+:.:.y.y.y.y.1 u+9+9+1 y.R.x+y x+x+x+:.:.2.2.2.2.2.2.:.:.y.$+$+$+7+7+N.N.>+>+>+b+b+2.b+b+b+2.2.2.:.:.:.:.:.:.:.@.@.@.@.e b+b+b+U b+2.@.Y.H.H.H.M M M n.n.e f+Y U U f+f+u / ! g =+#+#+=+T.! l.l.n.n.l./ 1+1+1+1+/ l.,+c+n.n.n.n.n.n.n.n.n.l.l.! T.=+=+=+=+=+g 4+@.2.>+j j j j j { { { Y f+f+f+e e e f+b+b+7+:.( 0+0+0+H.( :.x+a -.n+n+=.] m.i x+:.7+$+:.5.i S S g g T.4+^+@.e 2.b+7+7+b+2.2.2.b+7+R R R 9+$+1 v+Y.S S S g g g =+0+;+i y 4.++o o o o o !+h+h+3+h+!+!+o o ) ) ) ) o o o ^ ^ W.-+/.u+y.y.y.y.y.y.1 $+$+$+1 y.y.y.y.N u+9+9+9+R R R R R 9+u+N 4.4.| H !+) ) B B B B B B B B B B B B B B B B B B B B B B B B B B B B B B B ) S.!+!+!+!+!+!+S.) B B B B B ) S.3 H H H h+S.S.S.) ) ) ) ) ) ) ) B B B B p p p p p p p p p B B p p p p p p B B p p p p p p p p p ",
") ) ) ) ) X X h+H <.| | | | | <.H h+!+o ) ) ) ) ) S.!+h+3+++++3+3+!+!+!+!+!+!+!+o o ) ) ) ) ) ) B B B B B B B B B B B B B B B p p p p p B B *.t.e+c.c.c.3 e+e+!+!+!+^ ^ ^ ^ W.L 3+3+3+3+W. .h+3+++N N N 9+9+R R L L L !+!+) ) ) ) !+h+3+u+N N 3+3+!+h+++u+4.y.N u+9+u+N R.c y y y y x+x+:.:.:.:.:.:.y.1 $+7+$+y.x+y y y y x+x+:.:.$+2.2.2.2.:.:.:.x+x+:.$+7+N.N.N.N.N.>+b+b+b+b+b+f+e 2.2.2.:.:.:.:.:.@.@.@.@.@.@.e e b+b+U b+:.( 4+4+4+4+7.! M ^+n.f+Y U U Y f+n.l./ T.T.g g T.! ^+n.n.n.n.u / 1+1+1+1+/ l.,+,+c+n.n.n.n.n.n.n.n.n.^+! 7.7.9 =+=+g T.M ^+e >+j j { { { { { { Y Y c+c+c+n.} } b+U 7+1 x+0+m.m.;+x+:.y a -.n+n+n+] m.;+x+:.7+7+1 :.Y.i S S g g 4+M @.@.2.b+7+7+b+b+2.b+b+7+P R R R 9+1 :.5.S S S g g g g 0+0+i y y.++o o ) ) o o  . .!+!+!+!+!+o ) ) ) ) o o o ^ ^ ^ -+9+u+u+4.y.y.y.y.1 $+9+9+u+N N N N u+9+9+9+R L L R R R 9+9+u+++++H h+S.) ) B B B B B B B B B B B B B B B B B B B B B B B B B B B B B B B ) S.!+!+!+!+!+!+S.) B B p B B B S.3 H H H H h+!+S.S.) ) ) ) ) ) ) B B B B p p p p p p p p p p p p p p p p p p p p p p p p p p p p ",
") ) ) ) ) ) S.h+<.|  + + + +| ++H h+h+!+) ) ) ) S.S.!+h+H ++++3+3+!+!+!+!+!+!+!+S.) ) ) ) ) ) ) B B B B B B B B B B B B B B B B p p p p B B B *.*.t.e+e+X X S.o o o o ^ ^ ^ ^ L 3+3+3+3+ . .h+++++N N N u+9+R R 3+3+3+!+!+) ) ) S.h+h+3+++N N 3+!+!+!+3+u+4.y.N u+9+u+1 R.y y y x+x+:.:.:.:.:.:.:.:.:.1 $+$+$+y.y y i y y x+x+:.$+$+$+2.2.@.@.( ( ( x+:.2.$+b N.N.N.N.b+b+b+b+b+e e e e 2.2.2.:.|.( ( @.@.@.@.@.@.@.@.e f+b+b+2.@.( M 4+H.7.7.! M n.c+Y Y U Y f+n.l.l./ ! ! ! ! l.n.n.c+c+c+u / T.1+1+1+/ l.,+,+c+c+n.n.n.n.n.n.n.n.^+! 7.7.9 9 g T.T.M u e V.V.{ { { { { n n n V V c+c+u u } f+U 7+1 x+0+m.m.;+x+y.y a -.n+k.n+-.&.;+y y.$+7+7+1 :.x+Y.S g g 4+4+@.@.2.b+7+P 7+b+b+b+b+P P P R R R 7+:.5.Y.S S T.T.g g 0+0+i y y.++!+o ) ) ) o o o o !+!+!+!+!+) ) ) ) o o o o ^ ^ W.-+/./.u+y.y.y.y.1 $+9+9+9+u+u+u+u+9+9+9+9+L L L L R 9+9+9+3+3+h+!+!+) ) ) B B B B B B B B B B B B B B B B B B B B B B B B B B B B B B B ) S.!+!+!+!+!+!+S.) B p p p p B X e+H <.H H H h+S.S.) ) ) ) ) ) ) B B B B p p p p p p p p p p p p p p p p p p p p p p p p p p p p ",
") ) ) ) ) ) S.h+<.<.|  + + +| ++<.h+h+!+S.) ) S.S.S.!+h+H ++++3+h+!+!+!+!+!+!+!+S.S.) ) ) ) ) ) ) B B B B B B B B B B B B B B B p p p p B B B B *.*.*.*.) ) ) ) o o o o ^ ^ ^ L L 3+3+3+ . .h+++++4.4.N u+9+R R 3+3+3+!+!+) ) S.!+h+3+++++u+++3+!+!+!+3+u+N y.N u+9+9+1 y.x+x+x+x+:.:.:.:.:.:.:.:.:.:.2.$+$+1 :.y i i Y.Y.x+x+:.:.$+$+2.2.@.@.( ( Y.( ( :.2.b b b b 7+b+2.2.2.e e e e e 2.2.2.:.@.( ( ( @.@.@.^+^+^+^+u e f+U b+e @.( 4+H.9 9 7.! ^+n.c+Y Y f+f+c+n.l.l.l.l.l.n.n.c+c+f+f+f+u ^+T.Q Q 1+{.l.,+,+,+,+n.n.n.n.l.l.l.^+! T.7.9 9 9 7.T.! ^+n.e V.V.V.n n n n n n n V V c+c+u u } f+U 7+$+x+0+0+0+0+( :.y a -.n+n+n+-.&.a y R.$+9+9+u+1 x+Y.S 0+g S 4+( @.2.b+b+P U b+b+b+b+U P P h h R 9+1 v+Y.4+4+T.T.T.g =+0+0+Y.y.u+!+o ) ) ) ) o o o o !+!+!+!+S.) ) ) o o o o ^ ^ ^ W.-+/.u+y.y.y.y.y.1 N u+9+9+u+u+u+9+9+9+9+L ^ ^ L L 9+9+3+L !+o o ) ) ) ) B B B B B B B B B B B B B B B B B B B B B B B B B B B B B B ) ) S.!+!+!+!+!+S.S.B B p p p p B t.e+3 H H H H h+S.S.) ) ) ) ) ) ) B B B B p p p p p p p p p p p p p p p p p p p p p p p p p p p p ",
") ) ) ) ) ) S.e+h+<.<.| | | | ++H h+!+!+!+S.S.S.S.S.h+h+H H 3+3+3+h+!+!+!+!+!+!+!+S.S.S.) ) ) ) ) B B B B B B B B B B B B B B B p p p p p B B B B B B B B ) ) ) ) o o o ^ ^ ^ L L 3+3+3+W. .h+++++4.4.N u+9+R L 3+3+3+!+!+) S.!+h+3+3+++++++++3+!+!+!+3+++N N N 9+9+9+1 y.R.x+x+:.:.:.2.:.:.:.:.:.:.2.2.2.2.:.:.x+Y.Y.Y.Y.x+x+:.:.:.2.G G @.@.@.4+4+4+( @.2.2.2.2.2.2.2.:.@.@.@.e e e e 2.2.2.@.@.( ( ( @.@.@.^+^+! '.^+e f+Y U f+e @.4+=+=+=+=+T.^+u c+c+f+f+f+c+n.n.n.n.c+c+c+c+c+f+f+f+f+u '.T.Q Q 1+{.6+l.,+,+,+l.l.l.l./ / ! ! T.7.=+9 9 =+T.! ^+n.n.c+)+)+)+)+n > > > > > V V c+c+u u } f+U P 2.( S =+=+S ( :.x+a &.-.n+n+-.&.a _.R.$+9+-+9+u+y.x+4+0+=+g 4+4+@.@.2.b+U U U U b+U U P P h h h 9+1 :.5.Y.4+4+4+T.g =+=+0+i R.u+L o ) ) ) ) o o o o !+!+!+!+o ) ) ) o o o o ^ ^ ^ W.-+/.u+y.R.x+x+R.R.y.1 N N u+u+u+u+u+9+3+L ^ ^ L L 3+3+L !+o o ) ) ) ) ) ) ) B B B B B B B B B B B B B B B B B B B B B B B B B B B B ) ) S.!+!+!+!+!+S.S.B B p p p p B *.e+e+3 3 H H h+S.S.) ) ) ) ) ) ) B B B B p p p p p p p p p p p p p p p p p p p p p p p p p p p p ",
") ) ) ) ) ) ) S.e+h+H <.++++++++h+h+!+!+!+!+!+!+!+!+h+h+h+h+h+3+3+3+L !+!+!+!+!+!+!+S.S.S.) ) ) ) ) ) B B B B B B B B B B B B B p p p p p p p p p p B B B B ) ) ) o o o ^ ^ ^ L L 3+3+L W. .h+++++4.4.N u+9+L L 3+3+3+!+!+o S.!+3+3+++++++++3+3+!+!+!+h+++N N N 9+9+9+N y.y.R.:.:.2.2.2.2.2.2.2.2.2.2.2.2.2.2.:.( ( Y.Y.( ( x+x+:.:.:.G G } @.^+M 4+4+M @.@.2.2.2.2.:.@.@.@.@.@.@.e e f+b+b+2.@.( ( ( ( @.@.@.^+'.T.T.^+u f+Y Y f+e @.4+=+#+#+=+T./ l.u n.n.c+c+f+f+f+c+c+c+c+V Y Y f+f+f+e ^+M T.Q Q 1+J 6+6+l.,+l.l.l./ / ! T.T.T.g =+d.d.d.=+T.! n.n.n.n.)+}.}.}.}.}.}.}.}.}.)+)+c+c+n.u u f+U P 2.( S =+=+S ( :.x+;+].-.-.-.s.&.< _.y y.9+-+-+9+1 x+Y.S =+g 4+4+( @.2.b+U U U U U U U U P P h h R $+:.v+5.'.'.'.T.g =+=+=+i x+N 3+o ) ) ) ) o o o o  . . . .o ) ) ) o o o o ^ ^ ^ W.-+/.u+, x+y y y y R.R.y.y.N N N N N u+3+L L ^ L L 3+3+L !+o ) ) ) ) ) ) ) ) ) ) ) ) ) B B B B B B B B B B B B B B B B B B B B B B ) ) ) S.!+!+!+!+S.S.) B B p p p p p B <+X e+e+e+3 e+S.S.) ) ) ) ) ) ) B B B B p p p p p p p p p B B p p p p p p p p p p p p p p B B B ",
") ) ) ) ) ) ) ) S.S.h+h+H ++++3+h+!+!+!+!+!+!+!+!+h+h+h+h+h+h+h+3+3+3+L !+!+!+!+!+h+h+!+S.) ) ) ) ) ) ) B B B B B B B B B B B B p p p p p p p p p p p B B B ) ) ) o o o ^ ^ ^ L R 9+9+L L  .h+3+++N 4.N u+3+L L 3+3+3+!+!+o !+h+3+++N N ++3+3+!+!+o !+h+++N N N 9+9+9+N 1 y.y.:.:.2.b+b+b+b+b+2.e e e 2.2.2.2.:.@.@.( ( ( ( ( x+:.:.:.:.} @.@.^+M 4+4+M ^+@.@.@.@.@.@.@.( ( ^+^+@.e e f+b+b+2.@.( ( M ^+@.e u ^+T.T.T./ u } Y Y Y e ^+4+=+#+d.8+g T./ l.l.l.n.n.e e f+f+c+c+c+V Y f+f+f+e @.^+T.Q Q z 1+1+{.6+6+6+6+6+{.{.J 1+1+Q Q 8+8+d.d.d.=+T.! n.n.5 5 5 }.}.}.2+2+2+2+}.}.}.)+c+c+n.u u f+U U 2.@.4+g g T.^+@.x+w.a &.s.s.s.s.].< y y.9+h ^ 9+$+x+Y.S =+g S 4+4+@.@.b+U U U U U U U U P P h h R 9+1 :.@.5.'.'.4+g =+#+#+0+y 4.3+!+o ) ) ) o o o o W.W.W. .o ) ) ) o o o o ^ ^ ^ W.-+/.$+R.y y y y y y x+R.y.y.y.N N N u+3+L L o L L 3+3+L !+o ) ) ) ) ) ) ) ) ) ) ) ) ) ) B B B B B B B B B B B B B B B B B B B B ) ) ) ) !+!+!+!+!+S.S.<+B p p p p p p B B B <+X e+e+e+S.S.) ) ) ) ) ) ) B B B B p p p p p p p p B B B B p p p p p p p p p p p p B B B B ",
") ) ) ) ) ) ) ) ) ) S.h+h+3+3+3+h+ .!+!+!+!+!+!+h+h+h+h+h+h+h+h+3+3+3+L !+!+!+!+h+h+h+!+S.) ) ) ) ) ) ) B B B B B B B B B B B B p p p p p p p p p p p p B B B ) ) o o o ^ ^ ^ L 9+9+9+L L o  .3+++N N u+++3+L L 3+3+3+!+o o !+H ++N N N u+3+3+!+!+o !+!+3+u+N u+9+9+9+u+1 y.1 1 $+b+b+b+b+b+b+b+2.e e 2.2.2.2.2.@.@.@.@.( ( ( :.:.:.:.:.@.@.@.^+4+T.T.4+M ^+@.@.@.@.@.@.^+M M ^+@.e e e e e e @.( M M ^+@.e u ^+/ T.T./ ^+u f+Y Y f+^+4+=+8+d.8+Q T.! / / l.l.n.n.e e e n.c+c+f+f+b+b+e @.^+M T.Q Q z z 1+{.6+6+6+6+6+{.J 1+1+1+Q 8+8+8+d.d.d.=+g ! ! l.l.5 5 5 2+2+2+2+2+2+2+}.}.)+)+c+n.u u f+b+U b+@.4+T.g T.^+@.@.Y.;+w &.&.s.s.&.< _.y.9+^ ^ L u+:.Y.S =+=+g 4+4+@.@.b+U U U U U U U U U P R R R 9+$+1 :.@.5.'.4+g =+' =+0+y y.++h+!+) ) ) o o o ^ W.W.W. .o o ) ) o o o o ^ ^ ^ W.-+/.$+R.y y _.y y y x+R.y.y.y.y.N N u+3+L L o !+L 3+3+!+!+) ) ) ) ) ) ) ) ) ) ) ) ) ) ) B B B B B B B B B B B B B B B B B B B B ) ) ) S.!+!+!+!+S.S.S.<+B p p p p p p p B B B *.X e+e+S.X ) ) ) ) ) ) ) B B B B p p p p p p p p B B B B p p p p p p p p p p p p B B B B ",
") ) ) ) ) ) ) ) ) ) o !+h+h+3+3+3+h+h+!+!+!+!+h+h+h+h+h+h+h+h+3+3+3+L L L h+h+h+h+H h+!+!+o ) ) ) ) ) ) ) B B B B B B B B B B B p p p p p p p p p p p p B B B ) ) o o o ^ ^ L L 9+9+9+L L o !+3+++u+u+u+++3+3+L 3+3+3+ .o o !+3+N 4.4.N u+3+h+!+o ) !+!+3+9+u+u+9+9+9+u+$+1 1 $+$+b+b+b+b+b+b+b+b+b+2.2.2.2.2.2.2.@.@.@.@.@.:.:.:.:.:.:.@.5.'.4+T.T.T.4+4+^+^+@.@.@.@.^+^+M ^+^+@.e e e @.@.@.( ( ( ^+^+@.@.u ^+/ T.T./ / u c+Y Y f+u M g 8+8+8+8+Q 1+1+{./ l.l./ ^+^+^+u n.n.f+f+b+2.@.@.M T.g Q z z z Z.{.{.6+6+6+6+{.J 1+1+1+Q Q 8+8+8+8+=+=+g g T.! / l.O O 2+2+2+2+2+2+2+}.}.)+)+c+n.u u e f+U b+@.^+T.T./ ^+e @.( Y.;+a &.s.s.s.]._.y.9+^ ^ ^ 9+:.Y.S =+=+g S 4+^+@.b+U U U U U U U U U P P R R 9+7+$+G :.@.5.4+S =+=+=+0+y y.u+3+h+S.) ) o o o ^ ^ W.W. .o o o o o o o o ^ ^ ^ W.-+9+u+y.x+y y y y x+R.y.y.y.y.N N N u+3+L L ^ ^ L L !+!+o ) ) ) ) ) ) ) ) ) ) ) ) ) ) ) ) B B B B B B B B B B B B B B B B B B ) ) ) S.!+!+!+!+!+S.S.S.B B p p p p p p p B B B *.X X X X X ) ) ) ) ) ) ) B B B B p p p p p p p p B B B B p p p p p p p p p p p p B B B B ",
"B B ) ) ) S.S.) ) o o !+!+h+h+3+3+3+3+h+h+h+h+h+h+3+3+3+3+3+3+3+3+!+!+L 3+3+3+h+h+h+h+!+!+o o ) ) ) ) ) ) ) ) B B B B B B B B B p p p p p B B p p p p p B B B ) ) o o o ^ L L L 9+9+9+L L o !+3+++u+u+u+3+3+W.W.W.W.W. .o o h+++4.y.y.4.N 3+!+!+) ) o !+3+9+9+9+7+7+7+$+u+u+$+$+7+7+7+7+7+7+7+b+b+b+b+b+b+b+2.2.2.2.2.:.:.:.:.:.1 1 1 :.( Y.4+S T.T.T.T.4+4+M ^+^+^+^+^+^+^+@.@.@.e e @.@.( ( ( ( ( ^+@.@.u ^+^+/ / / / / u n.c+f+f+u / g 8+:+:+8+8+Q 1+J {.6+{.! T.T.T.! ^+^+e e 2.2.@.M T.g Q Q z z z Z.]+]+6+6+6+6+{.J J 1+1+1+Q Q Q Q =+=+=+#+#+=+=+T.{.O O 2+`.`.2+2+2+2+}.}.)+)+c+n.n.n.c+f+U b+e u / / l.u n.e @.( Y.;+&.s.-.s.]._.R.9+. ^ ^ 9+y.Y.S 0+=+g g 4+'.@.f+b+U U b+f+b+U U U P P 7+R 9+7+7+7+G @.5.'.S S =+0+i y R.4.++h+!+) o o o ^ ^ ^ ^ ^ ^ o o o o o o o o ^ ^ ^ ^ R 9+u+y.R.y y x+x+y.y.y.y.1 N N u+u+9+9+L ^ ^ ^ ^ !+!+o o ) ) ) ) ) ) ) ) ) ) ) ) ) ) ) ) ) ) ) ) ) ) ) ) ) ) B B B B B B B B ) ) S.!+!+!+!+!+!+S.) ) B B p p p p p p p B B B B X X X X ) ) ) ) ) ) ) ) B B B B p p p p p p p B B *.*.B B p p p p p p p p p p p B B B B ",
"B B B ) S.S.S.S.o o o !+!+!+h+H 3+3+++3+h+h+h+h+3+3+3+3+3+++3+3+h+!+!+h+3+3+3+3+H h+h+!+!+o o o ) ) ) ) ) ) ) ) B B B B B B B B p p p p B B B B p p p p B B B ) ) o o o L L L L 9+9+9+L L o  .3+3+u+u+u+6 W.W.W.W.W.W. .o o h+| 4.R.R.y.N 3+!+!+) ) o !+L 9+9+9+$+$+$+$+u+9+9+7+7+7+7+7+7+7+7+7+7+7+7+b+b+b+b+2.2.2.2.:.:.:.:.1 $+$+1 x+Y.i S 0+g g g g 4+4+4+M ^+^+^+^+@.@.@.@.@.e @.@.( 4+4+4+( ( @.@.^+^+^+^+/ / / / l.l.l.c+c+c+u / 1+Q :+:+:+:+8+G.1+J {.J 1+Q Q 1+T.M M @.@.@.@.( 4+g Q Q z z z Z.Z.]+]+]+6+6+6+6+/ ! ! T.1+1+1+1+g g =+A r r r W 8+1+6+O p+`.`.`.2+2+2+}.}.)+)+c+n.l.n.n.f+Y Y f+n.l.l.l.c+c+c+e @.( i < s.-.-.].o.R.9+. ^ ^ u+y.Y.S 0+=+g g 4+'.@.} b+U U f+f+f+U U U U P 7+7+7+R P 7+1 :.5.5.4+S S S i y R.y.u+3+!+o o o ^ ^ ^ ^ ^ ^ ^ o o o o o o o o ^ ^ ^ ^ R R 9+N y.R.R.R.y.1 $+$+$+u+u+u+u+9+9+9+L ^ ^ ^ o o o o o ) ) ) B B B ) ) ) ) ) ) ) ) ) ) ) ) ) ) ) ) ) ) ) ) ) B B B B B B B ) S.!+!+!+!+!+!+!+S.) ) B B p p p p p p p B B B *.X X X X ) ) ) ) ) ) ) ) B B B B p p p p p p p B *.*.*.*.B p p p p p p p p p p p B B B B ",
"B B B ) S.S.S.S.!+!+!+!+!+!+h+3+++++++++++H H 3+3+3+3+3+++++3+3+h+!+!+h+3+++++++H h+h+!+o o o o ) ) ) ) ) ) ) ) B B B B B B B B p p p p B B B B p p p p B B B ) ) o o o L L L L 9+9+9+L L o  .W.3+u+u+u+3+W.W.W.W.W.W. .o !+H | y.R.R.R.4.++!+!+) ) o !+L 9+9+9+$+$+$+$+9+9+9+9+9+7+7+7+7+7+7+7+7+7+7+7+b+b+b+b+2.2.2.2.:.:.:.1 7+7+1 x+Y.;+0+0+=+=+=+=+g 4+4+4+M ^+^+^+@.@.@.@.@.@.@.( 4+4+4+4+( @.@.^+^+M M M / / / / l.l.l.n.c+c+c+l.{.1+z :+:+:+8+G.1+J J 1+Z.z Q Q g T.4+4+( ( ( 4+T.g Q Q z z z Z.Z.]+]+]+6+6+6+6+/ ! ! ! J 1+1+Q =+#+A p.l+r.l+p.W 8+J 6+O C `.`.2+2+2+}.}.)+)+c+,+l.n.c+f+Y { Y c+,+,+,+c+c+c+f+f+@.Y.w s.=.-.s.a R.9+. . -+u+y.Y.i 0+=+g g T.'.@.G b+U b+f+f+f+U U U U 7+7+7+N.R R P 7+:.v+5.5.Y.S Y.Y.y x+y.u+++h+o o o ^ ^ ^ ^ ^ ^ ^ ^ o o o o o o ^ ^ ^ ^ ^ R R 9+u+y.y.y.y.$+$+7+7+u+u+u+u+9+9+9+L L ^ ^ ^ o o o o ) ) ) ) B B B ) ) ) ) ) ) ) ) ) ) ) ) ) ) ) ) ) ) ) ) ) B B B B B B B ) S.!+!+!+!+!+!+!+) ) ) B B B p p p p p B B B B *.X X X X ) ) ) ) ) ) ) ) B B B B p p p p p p p B *.*.*.*.B p p p p p p p p p p p B B B B ",
"B B B ) S.S.S.S.!+!+!+!+h+h+H 3+++++++++++++++++++++3+3+3+3+3+h+!+!+!+h+3+++++++H h+!+!+o o o o ) ) ) ) ) ) ) ) ) ) B B B B B B B B p B B B B p p p p p B B B ) ) o o o L L L 3+3+3+3+L L o  .W.3+/./.9+3+W.W.W.W.W. . .!+!+H 4.R.c c R.4.++!+!+) ) o !+L L 9+9+$+$+$+7+9+9+R R R R 7+7+7+7+7+7+7+7+7+7+7+b+b+2.2.2.2.2.:.:.1 $+7+9+1 x+i m.w w A A A #+=+=+S 4+4+M ^+@.@.@.@.@.@.@.( Y.4+S S 4+( @.@.^+M 4+4+M ! / l.l.6+6+6+l.,+c+c+l./ {.1+Q Q 8+8+Q 1+1+1+1+Z.z z Q Q =+=+=+H.H.H.H.g g 1+1+z Z.Z.Z.]+]+]+]+]+{.6+6+6+l.l./ {.1+Q 8+W r l+r.*+F F f [+W Q J 6+O `.2+2+2+2+}.}.}.}.c+c+n.n.c+f+{ { Y V }.}.,+c+c+c+Y f+e ( m.&.=.=.&.a x+7+h h -+u+y.Y.i 0+=+g g T.'.@.G U U b+b+f+b+U U U U b+7+7+P N.h R 7+1 :.v+5.5.Y.Y.Y.( x+y.N ++!+o o o ^ ^ ^ ^ ^ ^ ^ ^ ^ o o o o o ^ ^ ^ ^ ^ R R 9+u+u+$+$+$+$+7+9+9+9+9+9+9+9+9+L L L ^ ^ o o o o o ) ) ) ) ) ) ) ) ) ) ) ) ) ) ) ) ) ) ) ) ) ) ) ) ) ) ) ) B B B B B B B ) S.!+!+!+!+!+!+o ) ) ) B B B p p p p B B <+<+<+X X X X ) ) ) ) ) ) ) ) ) B B B B p p p p p p p B *.*.*.*.B p p p p p p p p p p p B B B B ",
"B B B ) S.S.S.S.!+!+h+H H 3+++++++++++++++| ++++++++++3+3+H h+!+!+!+!+h+3+++++++H h+!+!+o o o o ) ) ) ) ) ) ) ) ) ) ) B B B B B B B B B B p p p p p p p B B B ) ) o o o L L L 3+3+3+3+L L o  .W.3+/./.9+W.W.^ ^ ^ o o !+!+h+++4.R.c c R.4.++h+!+o ) o o L L 9+9+$+$+$+9+9+R R h R R -+-+-+-+-+-+-+-+7+7+7+$+$+$+$+$+$+$+1 1 1 7+9+9+1 x+;+m.&.&.] ] ] A #+=+g 4+4+4+M @.@.e e @.@.( ( Y.4+S S 4+( @.@.M 4+H.g T.M l.l.l.6+6+6+6+l.,+,+,+l.6+{.1+1+Q Q Q Q Q 1+1+Z.Z.z z 8+8+d.#+#+#+#+=+g T.1+1+1+Z.Z.Z.]+]+]+]+]+: J 6+6+l.l.l.6+1+Q d.r l+r.|+v 8 v |+T ` :+Z.{.6+p+2+2+2+2+}.}.}.}.}.c+c+c+c+Y { { Y V }.}.}.c+c+c+Y Y e ( 0+A =.=.&.;+x+$+N.-+9+$+y.Y.i 0+=+g g T.'.@.G U U U b+b+b+U U U U b+b+7+P N.h R 7+$+:.:.:.v+5.( ( ( x+:.1 9+L o o o ^ ^ ^ ^ h ^ ^ ^ ^ ^ ^ ^ ^ ^ ^ ^ ^ ^ ^ -+-+9+9+/.u+u+/././.9+9+9+9+3+3+L L L L L L !+o o o o o ) ) ) ) ) ) ) ) ) ) o o o o o o o o o ) ) ) ) ) ) ) ) ) B B B B B B B ) S.!+!+!+!+o o o ) ) ) ) B B B B B B B <+<+S.S.S.X *.) ) ) S.S.) ) ) ) ) B B B B p p p p p p p B *.*.*.*.B p p p p p p p p p p p B B B B ",
"B B B B S.S.S.S.!+h+H H H ++++++++++++++| N N | ++++++3+3+h+!+!+!+!+!+h+3+++++3+H h+!+!+o o o o ) ) ) ) ) ) ) ) ) ) ) ) B B B B B B B B p p p p p p p p B B B ) ) o o o L L L 3+3+3+3+L !+o o W.W././.-+W.W.^ ^ ^ o o !+!+H | 4.R.c R.R.4.u+3+!+!+o o o !+L 3+9+N 1 1 7+9+R L h h h -+-+-+-+-+-+-+-+-+7+7+$+$+$+7+7+7+$+1 1 1 7+R 9+$+x+;+w &.] =.=.=.] A #+=+g 4+4+4+^+@.@.:.@.( ( Y.Y.S S 4+4+@.@.@.M H.=+=+T.M ^+l.l.6+J J 6+O ,+}.,+,+l./ / T.T.g Q Q Q Q Q Z.Z.Z.z :+q W W W W #+#+g T./ {.{.]+]+]+]+]+]+]+: : : 6+6+,+,+,+6+{.8+W p.r.*+v a.u.a.v k+` q z {.6+p+2+2+2+2+2+}.Q.Q.}.c+c+c+f+Y { { { V }.}.}.c+c+c+V Y f+^+0+A ] ] A 0+Y.:.7+9+/.$+x+Y.i 0+=+=+g 4+4+@.G b+U U b+b+b+U U U U b+b+b+P P h R 9+7+$+1 :.:.:.:.@.@.@.:.$+9+L o o ^ ^ ^ ^ h h h h ^ ^ ^ ^ ^ ^ ^ ^ ^ ^ ^ ^ -+-+-+-+/./././.-+-+-+-+9+L L L L L ^ L L !+!+!+o o o o ) ) ) ) ) ) ) ) o o o o o o o o o o o o ) ) ) ) ) ) ) ) B B B B B B B ) S.!+!+!+!+o o o ) ) ) ) B B B B B B B <+S.S.S.S.<+<+B ) S.S.S.S.) ) ) ) B B B B p p p p p p p B *.*.*.*.B p p p p p p p p p p p B B B B ",
"B B B B ) S.S.S.3 h+H H H ++++++++++++++++N N ++++++++3+H h+!+!+!+!+h+3+3+++++3+h+!+!+!+o o o o ) ) ) ) ) ) ) ) ) ) ) ) B B B B B B B B B p p p p p p p B B B ) ) o o o L L L 3+3+3+3+L !+o o W.W././.-+W.^ ^ ^ ^ o o !+h+H | 4.R.R.R.R.y.u+++3+!+!+o o !+L 3+9+N 1 1 $+9+9+R R R R R -+-+-+-+-+-+-+-+/.b $+$+7+7+7+7+7+$+1 1 7+P 7+$+x+;+a &.] =.=.=.] A #+=+g g 4+4+4+( @.@.@.( Y.Y.Y.Y.4+4+( @.@.@.M H.=+=+g M ^+l.l.6+J J 6+O 5 }.,+,+l.l./ / T.T.g Q 8+8+Q Z.Z.Z.z :+q E W W W W #+g ! / 6+6+]+]+]+]+]+]+]+: : : 6+6+6+p+p+6+{.8+W p.f *+v a.u.a.9.k+` E z {.6+p+2+2+2+2+2+Q.Q.Q.Q.c+c+c+Y Y { { { )+)+}.}.c+c+c+V V c+^+S #+A A A m.i x+y.$+/.$+x+Y.i 0+0+=+g S 4+@.G 7+P U b+b+b+U U U U b+b+b+P N.h h -+9+7+$+$+:.:.:.:.@.@.:.$+9+L ^ o ^ ^ ^ ^ h h h h h ^ ^ ^ ^ ^ ^ ^ ^ ^ ^ ^ -+-+-+-+-+-+-+-+-+-+-+R L L L L L L L L L L !+!+!+o o o o ) ) ) ) ) ) ) o o o o o o o o o o o o o ) ) ) ) ) ) ) ) ) B B B B ) ) S.!+!+!+!+o o o ) ) ) ) B B B B B B <+<+S.S.S.S.<+B B ) S.S.S.S.S.) ) ) ) B B B p p p p p p p B *.*.*.*.B p p p p p p p p p p p B B B B ",
"B B B B B ) S.S.S.!+h+H H 3+3+3+3+3+++++++++++++++++3+3+H H h+h+h+H 3+3+3+++3+3+h+h+!+!+!+!+o ) ) ) ) ) ) ) ) ) ) ) ) B B B B B B B B B B B p p p p p B B B B ) ) o o o L L L 3+3+3+3+L !+o o W.W.-+-+-+W.^ ^ ^ ^ ^ !+!+3+++| 4.y.R.R.R.y.4.u+++3+!+o o !+L L 9+N 1 1 1 $+7+9+9+9+9+9+9+/././.-+-+-+-+-+/./.7+7+7+7+7+7+7+7+7+7+7+7+$+x+Y.;+w ] =.=.$.] A =+g g g g g 4+4+M ( ( Y.Y.Y.Y.Y.Y.( @.@.@.@.M g =+=+g ! u n.l.6+6+6+6+O 5 5 ,+l.l.l./ / ! T.g 8+8+8+Q Z.Z.Z.z :+:+q W W d.d.=+T.! l.6+6+6+]+]+]+]+]+: : : : ]+6+6+6+6+{.Z.:+E ` T *+v 9.9.9.v #.` q Z.]+6+O 2+2+2+2+2+K Q.Q.Q.}.c+c+V Y { { { )+)+}.}.}.c+c+V V c+^+4+=+#+A w m.;+y x+y.$+$+x+Y.i 0+0+=+g S 4+@.2.b+P 7+b+b+b+U U U U b+b+7+P R h h -+-+9+7+$+$+:.:.:.@.@.2.$+9+L ^ ^ ^ ^ ^ ^ h R R R R h h R R R R R R L L L -+-+-+-+-+-+-+-+-+-+R L L L L L L L L L L L L L L o o o o ) ) ) ) ) ) ) o o o o o o o o o o o o o o ) ) ) ) ) ) ) ) ) ) ) ) ) S.!+!+!+!+!+o o o ) ) ) ) ) ) B B ) <+<+S.S.S.S.S.<+B B <+S.S.S.S.S.S.) ) <+<+B B p p p p p p p B *.*.*.*.B p p p p p p p p p p p B B B B ",
"p p B B B B ) ) S.S.S.!+h+h+h+H H h+H 3+3+3+3+3+3+H H H 3+3+3+3+3+3+3+3+3+3+3+3+h+h+h+!+!+S.S.S.) ) ) ) ) ) ) ) ) B B B B B B B B B B B B B B B B B B B B B B ) ) o o o L L L 3+3+3+3+L !+o o W.W.-+-+-+W.^ ^ ^ ^ ^ L 3+++| 4.4.y.R.R.R.y.y.y.u+3+!+!+o !+!+3+9+1 1 1 1 1 $+$+$+$+$+$+$+$+7+/./.-+-+-+-+-+-+/.-+-+R P P 7+7+b+b+7+7+2.:.( i m.A ] $.$.r #+=+T.T.g =+=+=+g 4+4+4+Y.Y.Y.( ( @.@.@.e e ^+M g =+=+g ! u c+,+6+6+6+6+O 5 5 l.l./ / / / / ! T.8+8+8+8+z Z.Z.z z :+8+8+8+8+=+g ! / l.l.6+6+6+]+]+]+1.: : ]+]+]+]+{.{.]+]+i+z E +.[+T k+f.f.f.k+[+4 :+Z.]+6+C C `.`.2+2+K Q.Q.Q.}.}.c+V Y { { { )+)+)+}.}.}.}.}.c+c+u M S 0+m.m.m.a ;+y R.y.1 x+Y.i 0+0+0+0+S 4+@.2.b+7+7+7+7+b+U U U U b+7+7+P R h h ^ -+-+9+7+$+2.2.2.2.2.2.7+9+L ^ ^ ^ ^ ^ L R R R R R R R R R R R R R R R R L L L L L L L L L L L L L L L L L L R L L L L L L L !+o o ) ) ) ) ) ) ) o  . . .!+!+!+!+!+L L o o o o o o !+S.S.S.S.S.S.S.S.S.!+!+!+!+!+!+!+!+o ) ) ) ) ) ) ) ) X X X S.S.S.S.) ) B B <+S.S.S.S.S.S.S.S.<+<+*.*.B p p p p p p B *.*.*.*.B p p p p p p p p p p p B B B B ",
"p p p B B B B ) ) ) S.!+!+!+!+!+!+!+!+!+!+!+!+!+!+!+h+H 3+++++++++++++++3+3+3+3+h+h+h+!+S.S.S.S.) ) ) ) ) ) ) ) ) B B B B B B B B B B B B B B B B B B B B B B ) ) o o ^ L L L L 3+3+3+L !+o o ^ W.-+-+-+^ ^ ^ ^ ^ ^ L 3+++N 4.4.y.y.y.y.R.R.y.y.u+3+h+!+!+!+3+9+1 1 :.:.:.:.:.1 1 y.1 $+$+$+$+b /././././.-+-+-+-+-+N.7+7+b+b+b+b+b+2.2.@.( H.#+] r r r #+T.4+T.g =+=+=+=+=+S S 4+Y.Y.( @.2.2.e e e ^+M T.g g T./ u c+,+,+6+6+6+O 5 l.l./ ! ! / / / ! T.G.8+8+8+z Z.Z.z Q Q Q Q g T.T.! / l.l.l.6+6+6+]+]+: 1.1.]+]+]+]+]+]+Z.]+]+i+z 0 E +.` T T T T [+4 q z : e.e.C C `.`.`.2+K Q.Q.}.}.}.}.)+n { { { )+)+)+}.}.}.}.}.,+,+l.^+M 4+H.0+m.w a _.y y.y.x+Y.i 0+0+0+0+S Y.( :.b+b+7+7+7+7+U U U U b+7+7+9+R h ^ ^ ^ ^ -+9+7+2.2.2.2.2.2.7+-+L ^ ^ ^ ^ ^ L R R 9+R R P P P 7+7+7+R R R R R L L L L L L L L L L L L L L L L R 9+9+R R R R L L L L !+o ) ) ) ) ) ) )  . . . .!+!+!+!+L L L L o o o o !+!+!+!+!+!+!+!+!+!+!+!+!+!+!+!+!+!+!+!+) ) ) ) ) ) ) ) X X S.S.S.) ) ) B B B <+S.e+3 3 S.S.S.S.t.t.*.*.B p p p p p p B *.X X *.B p p p p p p p p p p p B B B B ",
"p p p p B B B B ) ) ) S.!+!+!+!+!+!+!+!+!+o o !+!+!+h+H 3+++++++++++++++3+3+3+3+3+h+h+h+S.S.S.S.) ) ) ) ) ) ) ) B B B B B B B B B B B B B B B B B B B B B B ) ) o o o ^ L L L L 3+3+3+L !+o o ^ W.-+-+-+^ ^ ^ ^ ^ ^ L 3+u+4.4.y.y.y.y.y.x+x+R.y.4.4.| <.H h+3+9+1 1 :.:.:.:.:.:.:.y.y.y.$+$+$+$+y.y.y.$+$+/./././.$+$+$+2.2.2.2.b+b+b+2.e @.4+#+A r r W #+T.M T.g =+=+=+=+=+S S Y.Y.( :.2.2.b+2.e @.^+4+T.g g T./ u c+,+,+l.6+6+l.l.l.! ! ! T.! / / ! 1+G.8+8+8+z z Z.1+1+1+T.T./ / / / l.l.l.6+6+6+6+]+]+1.1.1.]+]+]+]+]+Z.Z.Z.Z.I.).0 0 +.+.` ` ` ` 4 q :+Z.]+e.C C `.`.`.`.2+K Q.Q.}.}.}.}.c+)+{ { V.)+)+)+}.}.}.}.}.,+,+,+l.^+M Y.0+m.w w ;+y y.1 :.y i 0+0+0+0+S Y.( :.b+7+7+7+7+7+b+U b+b+b+7+7+9+R ^ ^ ^ ^ ^ L -+7+$+2.2.2.2.2.7+R R ^ ^ ^ ^ ^ L L 9+9+R R P P P P 7+7+9+9+9+R R L L L L L L L L L L 3+3+3+L 3+3+9+9+9+9+R R R R L L L !+!+o ) ) ) ) ) o  . . .h+!+!+!+!+L L L L !+o o !+!+!+!+!+!+!+!+!+!+!+!+!+!+!+!+!+!+!+!+!+S.) ) ) ) ) ) S.X X X X ) ) ) ) B B B <+e+3 3 3 3 e+e+e+e+t.t.*.B p p p p p p B <+X X <+B p p p p p p p p p p p B B B B ",
"p p p p B B B B ) ) ) ) !+!+!+!+!+!+!+o o o o !+!+!+h+H H 3+++++++++++3+3+3+3+3+3+h+h+h+S.S.S.S.) ) ) ) ) ) ) ) B B B B B B B B B B B B B B B B B B B B B B ) ) o o o ^ ^ L L L 3+3+3+L !+o o ^ W.-+-+-+^ ^ ^ ^ ^ ^ L 9+u+y.y.y.y.y.y.y.:.x+x+R.c ;.;.d | H 3+9+N 1 :.:.:.x+x+x+x+x+x+:.:.$+:.|.x+y y x+, $+$+$+y.y.R.:.:.:.:.2.2.b+b+b+e @.4+=+A r r W =+T.M T.g =+=+=+=+=+S 4+Y.( x+:.2.b+b+2.@.( 4+4+4+T.T.M ^+n.c+c+,+l.l.l./ ! ! ! ! T.T.! / J J 1+1+G.G.Q z z z 1+1+T./ ^+^+u u u l.l.6+6+6+6+6+]+]+3.1.3.]+]+]+]+]+Z.Z.Z.z z ).0 0 E E E E W W q :+Z.]+e.e.C C `.`.`.`.2+K Q.}.}.,+l.l.n.c+Y { V.)+c+c+}.}.}.}.,+,+,+,+,+n.^+M S 0+w w ;+y y.1 :.x+Y.i i 0+;+i Y.@.2.b+7+7+7+7+7+b+b+b+b+G $+7+7+R L ^ ^ ^ ^ ^ R 9+7+7+b+b+b+7+7+R R ^ ^ ^ ^ ^ ^ L L R R R R R R R R 9+9+9+9+9+9+R L L L L L L L 3+3+3+3+3+3+9+9+9+9+9+9+R R R R R L L L !+o ) ) ) ) ) o  . .h+h+h+!+!+!+L L L L L !+!+!+!+!+!+!+!+!+!+!+!+!+!+!+!+!+!+!+!+!+!+!+o S.) ) ) ) S.S.S.X X X ) ) ) B B B B S.e+3 3 3 3 3 3 3 e+e+t.*.B p p p p p p B <+e+e+<+B p p p p p p p p p p p B B B B ",
"p p p p B B B B ) ) ) ) !+!+!+!+!+o o o o  . .!+!+h+H H H H H 3+3+3+3+3+3+3+3+3+3+3+h+!+!+S.) ) S. .o ) ) ) B B ) ) ) B B B B B B B B B B B B B B B B B B ) ) o o !+L L ^ ^ L L L 3+3+L !+o o ^ W.-+-+-+^ ^ ^ ^ ^ ^ L u+y.y.y.y.y.1 1 1 :.:.x+y _.(.(.;.d ++3+3+9+1 :.:.x+( ( ( ( x+x+x+:.:.|.x+w.;+;+w.y :.y.R.x+y y y x+( ( :.2.2.b+b+e @.4+0+#+W W d.=+4+4+4+T.g g g S S 4+Y.( :.:.$+7+7+b :.( Y.4+4+4+M ^+^+u e c+c+n.l.l./ ! T.1+T.T.T.T.T.1+1+1+1+1+1+1+1+Q z Q 1+T.^+u } } } u u l./ 6+6+6+6+t ]+3.3.3.3.3.]+]+]+]+]+Z.Z.z :+:+0 0 0 0 E b.d.8+Q Z.]+e.e.C C `.`.`.^.`.2+2+}.}.,+l.l.l.n.c+Y Y V c+c+,+,+,+,+p+p+p+p+,+,+n.u ^+4+0+w w i y :.$+1 x+Y.Y.i i i i Y.:.G 7+P 7+7+7+7+b+G G G G G $+7+9+L ^ ^ ^ ^ ^ L R 7+7+7+7+7+7+7+R R L ^ ^ ^ ^ ^ ^ L L R R h h R R R R 9+9+7+9+9+9+L L L L L L 3+3+9+9+u+u+u+9+9+9+9+R R R 9+9+9+9+9+L L !+!+!+) ) ) ) o  .h+3+3+3+3+3+L !+!+!+!+L L L L L L L L 3+3+3+!+!+!+!+!+!+o o o o o o o !+!+S.S.S.S.S.S.S.<+) ) B B B B B B B S.e+c.<.<.<.H H 3 3 e+t.<+B p p p p p p B <+e+e+<+B p p p p B B p p p p p B B B B ",
"p p p p B B B B ) ) ) ) !+!+!+!+!+o o o  . . .h+h+H H H H h+h+3+3+3+3+3+3+3+3+3+3+3+3+!+!+S.) )  . . .X ) ) B B ) ) ) ) B B B B B B B B B B B B B B B B ) ) ) o !+L L L L L L L 3+3+3+L !+o o ^ W.-+-+-+^ ^ ^ ^ ^ ^ 9+u+y.y.x+:.1 $+$+$+:.:.x+y _.o.o.(.;.++3+L 9+1 1 :.x+( Y.Y.Y.Y.( x+:.:.x+w.m.m.m.a w.x+x+x+y w.;+w.w.Y.( @.2.2.b+b+e @.4+S #+W W #+=+S 4+4+4+4+4+4+4+Y.Y.( :.:.$+7+N.N.$+|.Y.w.H.H.4+^+u e e e e n.n.n.l.! T.Q Q g T.T.T.1+1+1+1+1+1+! J 1+Q Q Q 1+! u } f+f+f+} u l./ {.{.t t t ]+3.3.3.3.3.e.e.e.]+]+Z.z :+:+q q 0 0 0 b.8+Q 1+J {.e.^.`.`.`.`.`.^.^.^.p+p+}.,+l.l.! l.n.n.f+Y c+c+l.l.l.p+p+p+p+p+p+p+,+,+n.^+4+g =+0+S 5.:.$+1 :.x+Y.Y.i i i Y.:.G 7+P 7+7+7+7+G G G G G :.1 $+9+L ^ ^ o o ^ L R R R P P P P P R R R L ^ ^ o ^ ^ ^ ^ ^ ^ ^ ^ ^ ^ ^ R 9+9+N N 9+9+L L L L L L 3+9+u+u+u+u+N N 9+9+9+R R 9+9+9+9+9+9+9+3+L !+!+S.) ) ) !+!+3+3+3+3+3+3+3+!+!+!+!+L 3+3+L L L L L L 3+3+L !+!+!+!+!+o o o o o o o !+!+!+S.S.S.S.S.) B B B B B B B B B <+e+e+c.<.<.<.<.<.c.3 e+e+<+B p p p p p p *.t.e+e+t.*.p p p B B B B p p p p B B B B ",
"p p p p B B B B B ) ) ) !+!+!+!+!+!+!+ . . .h+h+h+H H H h+h+h+3+3+3+3+3+3+3+3+3+3+3+3+h+!+o ) o  . . .X ) ) B B ) ) ) ) B B B B B B B B B B B B B B ) ) ) ) o o !+L L L L 3+9+3+3+3+3+L !+o o ^ W.-+-+-+^ ^ ^ ^ ^ ^ 9+u+y.x+x+:.1 $+7+$+G :.x+;+a ].q+o.;. +3+L 9+1 1 :.x+( Y.Y.Y.Y.( x+:.:.( w.m.m.w m.i x+x+y w.;+a ;+;+i Y.( :.2.b+b+e @.( S =+#+#+=+=+S 4+4+4+4+4+Y.Y.( x+:.1 $+7+R h -+$+x+w.0+0+H.4+@.e e e @.@.^+^+^+! T.g 8+8+8+7.T.T.1+Q z z 1+1+{.! 1+Q Q Q T.^+e b+U b+f+} u / {.{.]+]+]+]+]+]+3.3.3.e.e.e.e.t ]+Z.z q E E E E 0 0 Q Q 1+{.6+O `.`.`.`.`.`.`.^.^.^.p+p+,+l.l.! ! ! ^+n.f+Y c+n.l.l.l.6+p+p+p+6+6+6+,+,+l.^+'.g g S S 5.:.2.:.:.x+y Y.i i i v+:.$+P P P 7+7+7+7+G G G G 1 $+7+9+L ^ o o o o ^ L R R R P P P P P R R L ^ o o o ^ ^ ^ ^ ^ ^ ^ ^ ^ ^ L R 9+N N 9+9+3+L L L L L 3+9+u+u+u+u+N N 9+9+9+9+9+9+9+9+9+9+9+9+3+3+!+!+!+!+S.!+!+!+3+3+3+3+3+3+3+!+!+!+!+L 3+3+L L L L L L 3+3+L !+!+!+!+o o o o o o o !+!+!+!+!+S.S.S.) B B B B B B B B B B <+e+e+H <.<.<.<.H 3 e+e+X *.B B p p p p B *.t.e+e+t.*.B p p B B B B p p p p B B B B ",
"p p p p p B B B B ) ) ) S.!+!+!+!+!+!+h+h+h+h+h+h+H H H h+h+h+3+3+3+3+3+3+++++++++3+3+h+ . . . . . . . .) ) ) ) ) ) ) ) B B B B B B B B B B B ) ) ) ) ) ) ) o o ^ L L 9+9+u+u+u+9+9+3+L L o o ^ W.W.-+W.^ ^ ^ ^ ^ L 9+$+y.x+x+:.:.$+7+7+G :.Y.;+< &.].o.(. +3+L 9+N 1 :.x+x+( ( ( ( ( :.:.2.( Y.0+m.m.m.Y.x+x+Y.;+m.m.m.;+i Y.( :.2.b+b+b+@.^+4+g =+=+=+=+S 4+Y.Y.Y.Y.( x+x+y.1 $+9+R h h R $+x+;+m.m.0+4+^+@.@.^+^+M M M M ! 7.=+d.d.d.9 7.7.G.8+:+:+Q 1+J J 1+Q Q Q T.^+e b+b+b+e @.^+/ 1+Z.Z.Z.]+]+]+]+]+3.3.e.e.e.^.e.]+Z.:+E 4 4 4 E E 0 Q 1+{.6+p+2+`.`.`.`.`.`.`.`.^.p+6+6+6+/ / ! ! M ^+e f+Y c+u l./ 6+6+6+6+6+6+{.{.6+l.l./ T.T.g g 4+5.:.2.:.x+y y i i i i y :.7+R R R R R 7+7+7+7+1 1 $+7+9+R L ^ o o o o ^ ^ L R R P P P P P R R R L o o o o ^ ^ ^ ^ ^ ^ ^ ^ ^ L L 9+9+9+9+9+9+3+3+L L L 3+3+9+9+u+u+u+9+9+9+9+9+9+9+9+u+u+u+u+u+++3+3+H h+!+!+!+!+L 3+3+3+3+3+3+3+3+L L L L L L L L L L L L L L !+!+!+!+!+o o o o o o !+!+!+!+!+!+S.S.) B B B B B B B B B B *.X e+e+e+h+h+h+h+3 e+e+e+X *.B B p p p p B <+t.e+e+t.*.B p p B B B B p p p p B B B B ",
"p p p p p p B B B B ) ) S.!+h+h+h+h+h+h+h+3+3+h+h+h+h+h+h+3+3+3+3+3+++++++++++++++++3+3+h+ . . . . . . .) ) ) ) ) ) ) ) B B B B B B B B B ) ) ) S.S.S.) ) o o o L L 9+u+$+$+$+$+u+9+3+L L o o ^ L L L L ^ ^ ^ ^ ^ R 9+1 :.x+x+:.:.$+7+b+2.:.Y.a &.s.&.q+(.d 3+L 3+u+1 y.:.x+x+x+x+x+:.:.2.2.:.Y.0+m.m.;+Y.:.:.Y.;+m.w m.m.;+i x+:.2.>+>+b+e @.4+g g =+=+S S i Y.Y.Y.( x+y.1 u+9+9+R R h h R $+y ;+m.m.m.H.M ^+M M 4+4+4+T.! 7.9 d.W W d.9 7.7.8+8+:+:+:+Q 1+1+1+Q Q g 4+^+f+b+b+e @.^+T.1+Z.z z Z.Z.Z.Z.]+]+]+e.e.e.e.^.^.t Z.q 4 D [+` 4 E q z 1+{.p+2+2+`.`.`.`.`.`.`.`.O 6+6+{.{.{.! ! ! M ^+e f+f+n.l./ {.{.6+6+6+{.{.]+{.{.{./ / / T.g T.4+@.@.:.:.x+Y.i i ;+i i y :.7+R h h R R R R 7+7+7+7+9+9+R L ^ o o o o o ^ ^ ^ R R R P P P P 7+R R L ^ o o o o o o o o o o o o ^ L L 3+3+3+9+9+9+3+3+L L L 3+3+3+9+9+9+9+9+9+9+9+9+9+N N N N N N N ++++++H H h+!+L L L 3+3+3+3+3+3+3+3+3+L L L L L ^ ^ o !+!+!+!+!+!+o o o !+!+!+!+!+!+!+!+!+!+!+S.S.) B B B B B B B B B B *.X X e+e+e+e+e+e+e+e+S.X X <+B B B B B B B B *.e+e+e+t.*.B p p B B B B p p p p B B B B ",
"p p p p p p p B B B ) ) S.h+h+h+h+H H H ++++++3+h+h+h+h+3+3+3+3+++++++++++| | ++++++++3+h+ . . . . . . .) ) ) ) ) ) ) ) B B B B B B B B ) ) ) ) S.h+h+h+ . .!+L 3+9+u+1 y.y.y.y.$+9+9+L L o o ^ L L L L ^ ^ ^ ^ L R 9+1 x+x+x+x+:.$+7+b+G @.Y.m.&.-.s.].(.d 3+L 3+u+u+1 :.:.:.:.:.:.:.:.2.b+:.( i 0+0+i x+:.:.Y.;+m.w w m.;+i x+:.b+>+>+b+e @.M 4+g g g S i i Y.Y.x+x+y.N u+3+L L L ^ ^ h R $+y a &.A #+0+4+M 4+4+g g g 7.7.7.9 #+W W #+9 9 7.8+8+q q :+8+1+1+1+g g T.'.@.f+b+e @.^+4+T.1+z z z z z z Z.Z.: : 3.e.e.t+^.^.t 1+W r [+[+[+` E q :+1+6+O 2+`.`.`.`.`.`.`.`.C O 6+{.1+1+1+T.T.M ^+@.e f+f+n.l.! J J {.6+{.{.Z.Z.1+1+{./ / / T.T.T.M ^+@.@.( Y.i ;+;+0+0+i y y.u+R ^ ^ ^ L R R R R R R R L ^ ^ o o o o o o o ^ ^ ^ R R P P P 7+7+9+R L ^ o o o o o o o o o o o o o !+!+L 3+3+3+u+u+9+3+L L L L L 3+9+R R 9+9+9+9+9+9+u+N N N N N N N | | | ++3+3+3+L L L L 3+3+3+3+3+3+3+3+L L L ^ ^ ^ o o o o o o o o o o o !+!+!+!+!+!+!+!+!+!+!+S.) ) B B B p p p B B B <+X X e+e+S.S.S.S.S.S.S.) ) B B B B B B B B B B t.e+c.3 t.*.B p p B B B B p p p p B B B B ",
"p p p p p p p p B B B ) X h+h+h+h+H H H ++++++3+h+h+h+h+3+++++++++++++| | | | | ++++++3+h+ . . . . . . .) ) ) ) ) ) ) ) B B B B B B B B ) ) ) S.h+h+h+H ++++++++N 4.y.y.y.x+:.y.$+u+9+L L o o o L L L L ^ ^ ^ L R 9+$+y.x+x+( x+:.$+7+b+G @.Y.m.] =.-.]._.d 3+^ 3+u+u+1 1 :.:.:.:.:.:.2.b+b+2.@.Y.i i Y.:.:.:.Y.0+m.w m.0+;+Y.x+:.7+P U b+e @.^+4+T.g S S i Y.y x+x+y.$+u+3+o o ^ ^ ^ ^ . -+y.y m.&.A #+=+H.4+T.g =+=+=+9 7.9 9 #+A #+#+9 7.7.9 8+d.d.d.8+8+Q Q g g T.^+@.f+f+e @.M T.1+Q z z z z z z z Z.Z.: ]+3.e.t+^.^.t 1+d.r l+[+[+` E q z J 6+O `.`.`.`.`.`.`.`.C O O 6+J Q Q Q g T.M ^+e e f+e u / ! 1+J {.{.{.1+1+Q Q 1+T./ / / T.T.T.! ^+^+@.( Y.;+;+0+0+0+i Y.y.9+^ ^ ^ ^ ^ L L R R L L ^ ^ ^ o o o o o o o o ^ ^ ^ h R P P P 7+7+9+R L ^ o o o o o o o o o o o o o o !+!+!+3+3+u+u+9+3+L L L L L L R R R R R R 9+9+9+u+N N N N N N | | | | ++3+3+3+3+L L L 3+3+3+3+3+3+3+3+3+L ^ ^ ^ o o o o o o o o o o !+!+!+!+!+!+!+!+!+!+!+!+!+S.) B B B p p p p B B B <+X e+e+e+e+e+e+e+S.S.S.) ) B B B B B B B B B <+t.e+c.3 t.t.B p p B B B B p p p p B B B B ",
"p p p p p p p p B B B ) X e+h+h+h+h+H H 3+++3+3+h+h+h+H ++++++ + + + + +| | | | ++++6 h+h+h+ . . . . .) ) ) ) ) ) ) ) B B B B B B B B B ) ) ) !+h+h+++|  +d ;.;.R.c R.x+x+x+:.y.$+u+9+3+W.o o o ^ L L ^ ^ ^ L 3+9+u+1 y.x+x+x+x+:.$+7+b+2.@.i w ] =.-.&.o.;.3+^ L 3+u+$+1 :.:.:.:.:.:.2.b+b+G :.5.Y.Y.( :.G :.( S 0+0+0+0+i y x+:.7+P b+b+e @.^+M T.T.4+4+Y.y x+x+y.$+u+3+ .o o o ^ ^ ^ . -+y.w.m.A A A #+=+g g =+=+#+=+=+9 9 9 #+#+=+H.H.4+4+T.=+8+d.d.8+8+8+=+g T.'.^+u f+f+e ^+M T.1+Q z z z z z z z z Z.1.1.3.3.t+^.^.^.1+d.r p.l+p.4 E :+Z.J 6+p+`.`.`.^.^.^.^.`.C O O {.1+8+b.b.=+T.M ^+e e e e ^+! ! J J J {.J 1+1+Q Q 1+T./ / ! ! T.T.! ^+^+^+4+S 0+m.m.0+0+i y y.9+^ ^ ^ ^ ^ ^ ^ L L ^ ^ o o o o o o o o o o o ^ ^ ^ h h R P P P P R R ^ ^ o o o o o o o o o o o o o o o !+!+3+3+u+u+9+3+3+L L L L L R R R R R R R 9+9+9+9+9+9+++++++++++++++++3+3+3+3+L L L 3+3+3+3+3+++3+3+3+L ^ ^ ^ o o o o o o o o !+!+!+!+!+!+!+!+!+!+!+!+!+!+S.) ) B B B B B B B B B B <+X e+e+3 <.<.<.<.H e+e+S.) B B B X X e+X X X <+e+e+3 3 t.<+B B B B B B B p p p p B B B B ",
"p p p p p p p p B B B ) X X e+h+h+!+!+H 3+3+3+3+h+h+h+++++ + + + + + + + +| | | ++H h+h+h+h+h+ . .X ) ) ) ) ) ) ) B B B B B B B B B B B ) ) ) !+h+++++d ;.;.c (._._.y y y x+:.y.$+u+9+3+W.o o o ^ ^ ^ ^ ^ ^ L 9+u+N y.R.x+x+x+:.:.$+7+7+G :.i w =.n+n+s.o.;.3+^ L 3+u+N 1 :.:.:.:.:.:.2.b+b+G :.5.5.5.5.:.G :.5.Y.S 0+S i Y.x+:.$+7+P b+b+e @.^+M T.T.4+4+( x+:.y.$+u+3+ .o o o o ^ ^ ^ . -+y.w.m.A ] A #+=+=+=+=+#+#+#+#+#+=+=+H.H.4+( ( ( ( M 4+g =+d.d.d.d.=+g T.^+u u f+c+u ^+/ T.1+1+r+z z z z z z z z 1.1.3.3.e.t+^.^.]+8+W r r r W 8+Q Z.]+e.^.^.^.^.e.e.e.e.^.^.O 6+J Q d.W W #+S ^+e e e @.^+^+! ! ! ! ! ! T.1+1+Q g T.T.^+^+/ ! T.T.! / l.M 4+0+m.w w m.0+i y y.9+^ ^ o o o o o o o o o o o o ) ) ) ) ) ) o o o ^ ^ h h h h R R R R h ^ ^ ^ o o o o o o o o o o o o o o o !+h+3+u+u+9+3+3+L L L R R R R R R R R L L L 3+3+3+3+3+3+3+3+3+++++3+3+3+3+3+L L L 3+3+9+u+++++++3+3+L ^ ^ ^ o o o o o o o !+!+!+!+H H H !+!+!+S.S.) ) ) ) ) ) B B B B B B B B B B ) S.S.3 <.<.w+ +<.<.H 3 e+X B B X e+e+e+e+e+e+e+e+e+3 3 e+<+B B B B B B B p p p p B B B B ",
"p p p p p p p p B B B ) X X X e+h+!+h+h+3+3+3+3+h+h+H ++ + +d d d d d  + +| | ++H H h+h+h+h+h+h+ .) ) ) ) ) ) ) ) B B B B B B B B B B B ) ) ) !+h+++ +d ;.(.(._._._._._+y x+:.1 $+u+u+3+W.o o o ^ ^ ^ ^ ^ ^ L u+N y.R.R.x+x+x+:.$+$+7+7+$+:.i w =.n+n+s.!.;.++L L 3+u+N 1 :.:.:.@.@.@.2.b+b+G :.:.5.5.@.G G G @.Y.S S i Y.( :.2.7+7+7+b+2.@.@.^+M ! M M ( @.:.1 $+9+L W.o o o o o ^ ^ ^ . -+y.w.m.A r A #+=+=+=+#+W W W #+#+=+H.4+( @.2.2.2.2.@.( 4+=+#+A W W #+=+4+^+u c+c+c+n.l./ / / r+r+r+z z z z z ).).).1.1.3.3.e.^.e.]+Z.8+d.d.d.8+G.1+J 6+^.^.^.^.e.e.e.e.e.e.e.6+{.1+8+W W W #+S ^+e e n.^+M M ! ! ! ! T.T.T.T.g g g T.4+^+^+M ! T.1+! / / ! T.=+#+#+#+m.0+i Y.y.9+^ ^ o o o o o o o o ) ) ) ) ) ) ) ) ) ) o o o ^ ^ ^ h h h h h h h h ^ ^ ^ ^ o o o o o o o o o o o o ) ) !+h+3+u+u+9+3+3+L L R R R R R R R R L L L L L L L L L !+!+L 3+3+3+3+3+3+3+3+L L L 3+9+u+u+u+++++3+3+W.^ ^ ^ o o o o o o o !+!+H H H H H h+!+S.S.) ) ) ) ) ) B B B B B B B B B B B B ) S.3 <.w+U.U.U.w+<.H e+X *.<+X e+c.c.c.e+e+e+e+3 3 3 e+<+B B B B B B B p p p p B B B B ",
"p p p p p p p p B B B B X X X e+h+H H 3+3+3+3+3+h+h+H ++ +d d d d d d  + +| | ++H h+h+h+h+h+h+h+S.) ) ) ) ) ) ) B B B B B B B B B B B B ) ) ) !+h+++ +d c (._.o.o._.;+_+y x+:.1 $+u+u+3+W.o o o ^ ^ ^ ^ ^ ^ 3+u+4.R.R.R.R.x+y.y.$+7+7+7+7+:.y w =.n+n+s.!.c ++L L 3+u+N y.:.x+@.@.@.@.2.b+7+7+G :.5.5.:.G b+G @.5.4+4+Y.( :.2.b+7+7+b+G :.@.@.^+M M M ^+@.:.:.$+9+L ^ o o o o o o ^ ^ ^ . -+y.w.m.] r r #+=+=+#+W W W W A #+0+4+( 2.>+j = P b+2.@.4+S #+A r r A =+4+u c+c+c+c+l.l./ / / {.r+r+r+Z.z z z z ).).1.1.3.3.e.e.e.]+Z.G.8+8+8+G.J J 6+e.^.^.^.e.e.e.e.e.e.e.: : 1+G.d.W r A #+S ^+e e ^+M M T.T.T.T.T.T.T.T.T.g g g S 4+^+^+M ! 1+J {./ / ! T.=+#+A #+#+0+i Y.y.9+^ ^ ^ o o o o ) ) ) ) ) ) ) ) ) ) ) ) ) o o o ^ ^ ^ h h h h h h h h h ^ ^ ^ ^ o o o o o o o o o o ) ) ) o h+3+3+9+9+3+L L L R R R R R R R R L ^ ^ ^ L L L L o o o !+!+3+3+3+3+3+3+3+L L L 3+9+u+u+u+++++3+3+W.^ ^ ^ ^ o o o  .!+!+h+h+H H H H H h+S.S.) ) ) ) ) ) ) B B B B B B B B B B B B ) S.3 <.w+U.U.U. +<.<.3 e+X X e+3 <.<.H 3 e+e+e+3 3 3 S.<+B B B B B B B B p p p B B B B ",
"p p p p p p B B B B B B ) X X h+H <.++++++++++++3+3+++|  +d d d d d  + + +| | ++H h+h+h+h+h+h+h+S.) ) ) ) ) ) ) B B B B B B B B B B B B B ) ) o !+3+++d ;.c (._._._._.y x+:.1 $+$+u+9+3+W.o o o o ^ ^ ^ ^ ^ 3+N R.R.c R.R.y.y.$+u+9+9+R 7+1 y < s.=.=.s.!.R.u+L L 3+u+y.x+x+( ( ( @.@.2.b+7+7+G :.:.:.:.G b+b+:.( Y.Y.( @.2.b+b+b+b+2.:.@.@.^+^+^+^+^+^+@.:.:.$+9+L ^ o o o o o o ^ ^ . . N.:.;+w ] r r #+=+=+#+W r r r A #+H.Y.@.b+j = = = P b+:.( S m.] r r ] #+4+u c+c+}.,+,+l.l.l./ {.{.{.{.1+Z.Z.Z.Z.Z.1.1.1.1.]+]+]+]+]+Z.Z.z G.1+J J 6+6+^.^.^.e.e.e.e.e.e.e.: : x.8+d.W r r A #+S ^+e n.M T.7.7.7.7.T.T.T.! T.T.g =+=+S 4+4+M ! / 1+J {./ / / T.=+' ' #+=+0+i ( :.7+h ^ ^ ^ o o o ) ) ) ) ) ) ) o o o o o ) o o o ^ ^ ^ h h h h h h h h h ^ ^ ^ ^ ^ o o o o o o o o ) ) ) ) )  .W.3+3+3+3+3+R R R R R R R R R R L ^ ^ ^ L L L o o o o o !+!+!+3+3+3+3+3+L L L 3+3+9+9+++6 6 3+W.W.^ ^ ^ ^ ^ !+h+h+h+H H H H H H h+!+S.S.S.) ) ) ) ) ) ) B B B B B B B B B B B B B S.e+c.<.w+U. +w+<.<.3 e+X X e+c.<.<.<.c.e+e+3 3 3 3 S.S.B B B B B B B B B p p B B B B ",
"B B B B B B B B B B B B ) ) e+h+<.|  + + +| | ++++++++ + +d d d d  + + +| | | ++H h+h+h+h+H h+h+!+) ) ) ) ) ) ) B B B B B B B B B B B B B B ) ) o h+++++d ;.;.c c y y y x+1 $+$+7+9+9+3+L o o o o o o ^ ^ ^ 3+4.R.c c c R.y.u+u+9+3+L R R u+R.;+&.=.=.&.o.R.u+3+3+3+u+y.x+Y.Y.Y.( @.@.2.b+7+7+G :.:.:.G b+b+b+:.( Y.Y.( @.2.b+b+b+G :.:.@.@.^+^+^+^+^+@.@.:.1 $+9+L o o o o o o o ^ ^ . . N.|.;+&.] r r A =+=+A r p.p.r A 0+H.( 2.b+= = = = P U 2.( i w =.l+l+r #+4+n.V Q.}.}.,+,+,+l.l.6+6+{.{.{.{.]+]+]+]+Z.Z.Z.Z.Z.]+]+]+: Z.Z.Z.1+J {.6+O p+^.^.t+t+e.e.e.e.e.e.: x.q q W r r r A #+4+@.e ^+! 7.=+9 =+=+7.T.! M M T.=+=+=+=+g 4+T.! / {.{./ / l./ T.=+' ' ' =+S 4+( :.7+h h ^ ^ o o o o o ) ) o o o o !+!+o o o o o ^ ^ ^ ^ h -+-+h h h h h h -+W.^ ^ ^ ^ ^ ^ ^ o o o o ) ) ) ) ) o  .W.3+3+3+9+R R R R R R R R R R L L L L ^ ^ o o o o o o o !+!+!+3+3+3+3+L L L L 3+3+3+3+3+3+W.W.^ ^ ^ ^ ^ L 3+3+++++++<.H H h+h+!+S.S.S.) ) ) ) ) ) ) ) B B B B B B B B B B B B B ) S.3 c.<.<.<.<.<.<.c.e+X X e+c.<.<.<.c.e+e+3 3 3 3 S.S.B B B B <+<+B B B B B p p p p ",
"B B B B B B B B B B B B ) ) e+H <. + + + + + +| ++++++ + +d d d  + +++| | | | ++H h+h+h+3+++3+h+h+) ) ) ) ) ) ) B B B B B B B B B B B B B B ) ) o o h+++++ +4.;.R.R.R.R.y.$+7+7+9+9+9+3+L o o o o o o o ^ ^ 9+4.R.c c c R.4.u+3+L L ^ ^ ^ 9+y._.&.s.s.&._.R.u+3+3+3+N y.y i i 4+Y.( @.2.2.7+7+$+:.:.:.G b+P b+:.x+( Y.( :.2.b+b+G :.:.@.( ^+M ^+^+@.@.@.@.:.1 $+9+L o o o o o o ^ ^ ^ . . N.x+;+&.] =.] #+=+=+A r p.p.r A 0+Y.:.2.>+= = = = P 7+2.x+;+&.=.l+l+p.A T.n.Q.Q.}.2+}.}.,+,+,+6+6+6+6+6+6+6+]+]+]+]+]+]+Z.Z.Z.Z.Z.Z.Z.Z.Z.]+{.6+p+p+p+^.^.t+t+e.e.e.e.e.e.: :+q 4 r r r A A 0+4+@.n.^+T.=+9 9 #+=+=+7.! M M T.=+#+#+=+=+T.T./ {.{.{./ l.l./ T.g ' ' =+g S 4+( 2.7+N.h h ^ ^ ^ o o o o o o o o L L L !+o o o o ^ ^ ^ ^ -+-+-+-+h h h h -+-+-+-+^ ^ ^ ^ ^ ^ ^ o o o ) ) ) ) ) o o o W.L 3+9+9+R R h h R R R R R L L L L ^ o o o ) ) ) ) ) ) o !+h+3+3+3+L L L L L L 3+3+3+W.W.W.W.W.L L 3+3+3+++++| | <.<.H h+!+S.S.) ) ) ) ) ) ) ) ) ) B B B B B B B B B B B B B B <+X e+3 c.<.<.<.<.c.e+e+e+e+c.<.<.<.3 e+e+3 H H H S.S.B B B <+<+<+<+B B B B p p p p ",
"B B B B B B B B B B B B ) ) e+H |  + + + + + +| | ++++ + +d d  + +++++++| | | H H h+h+h+3+++++h+h+S.) ) ) ) ) ) ) B B B B B B B B B B B B B ) ) ) o !+h+3+++++4.4.y.y.y.$+$+7+9+9+9+3+L L o o o o o o o ^ ^ 9+4.c c c c ;.u+3+L o o o o o L 4._.< &.&.< _.R.u+9+3+9+N R.Y.i S S Y.( @.2.2.7+7+$+$+1 2.$+7+P 7+2.x+( ( ( :.b+b+b+2.:.:.@.( ^+M ^+^+@.@.@.:.:.1 $+9+L o o o o o ^ ^ ^ ^ . h 7+|.;+&.] ] A #+H.0+A r p.p.=.w w.( 2.b+N.= = = = 7+2.:.Y.m.-.n+r.r.l+A T.l.> > 2+2+2+2+,+,+O O O O O O O 6+6+t t ]+]+]+Z.Z.Z.Z.Z.]+]+]+]+{.6+p+,+Q.p+^.^.t+t+e.e.e.e.e.]+Z.:+q 4 r r ] A 0+S ( @.n.^+T.=+9 9 #+=+=+T.! M M T.=+#+#+=+=+T.T./ {.{.{.l.l.u / T.g b.b.=+g 4+M @.:.2.7+7+N.9+R L W.W.^ L L L L L L L L L L o o ^ ^ ^ ^ -+-+-+-+-+-+h h h -+-+-+-+R R R R R L L L !+o o ) ) ) ) ) o o o L L 9+9+R R h h R R R R R L L L L !+o o ) ) ) ) ) ) ) ) !+!+3+3+3+L L L L L L L 3+W.W.3+6 ++++++++++++++++| | | <.H h+h+!+S.S.) ) ) ) ) ) ) ) ) ) B B B B B B B B B B B B B B B *.X e+e+3 c.<.<.c.e+e+e+e+h+<.<.H 3 e+e+3 H H h+S.S.) B B <+<+<+<+B B B B p p p p ",
"B B B B B B B B B B B B ) ) S.H ++ + + + + + +| | |  + + + + + +| ++++++++++H H H h+h+h+++++++h+h+S.) ) ) ) ) ) ) B B B B B B B B B B B ) ) ) ) ) o o !+h+3+++u+u+4.$+$+$+7+9+9+9+L L L ^ o o o o o o ^ ^ L u+4.c c c c 4.++3+o o o o o o W.4.c a w &.a _.R.N 9+9+9+N R.Y.i S S 4+( @.2.7+7+7+7+7+$+$+7+7+N.7+2.:.( ( @.:.b+b+b+G :.@.@.^+^+^+^+@.@.@.@.:.:.$+7+9+L ^ o ^ ^ ^ ^ ^ ^ h h = 7+:.Y.m.w &.m.H.4+H.#+] p.=.] m.Y.|.$+N.N.N.= = = 7+:.Y.;+&.n+r.f f l+] g l.> K 2+2+O O O 6+6+6+6+6+O O O e.e.t t t ]+]+]+]+]+]+]+]+]+6+6+6+p+,+Q.Q.K p+^.e.e.e.e.e.e.]+: Z.:+q r r ] #+0+S 4+@.e e ^+! 7.=+=+=+=+7.T.! ! ! T.=+d.d.=+g T./ / / / / l.l.u ^+T.Q b.b.Q g 4+^+@.@.:.2.2.$+$+$+/.9+9+3+3+9+9+9+9+9+9+9+3+L L ^ ^ ^ ^ h -+9+7+7+7+-+-+-+-+-+-+-+R R R R 9+9+9+9+9+3+W. .!+) ) ) ) ) o o ^ L L R R R R R R R R R L 3+3+3+L !+o o ) ) ) ) ) ) ) ) !+!+3+3+3+L L L L L L L L W.3+++ +4.;.;.;.4. +| | | <.<.H h+h+!+S.S.S.) ) ) ) ) ) ) ) ) B B B B B B B B B B B B B B B B *.*.X X e+3 c.c.3 e+e+e+e+h+H H H 3 e+e+e+h+h+h+S.S.) ) B <+<+<+<+B B B B p p p p ",
"p p B B B B B B B *.*.B ) ) S.h+<.|  + + +| | | |  + + + + + + +++++H H H H H H h+h+h+H ++++++h+h+S.) ) ) ) ) ) ) ) ) B B B B B B B B ) ) X X ) ) ) o !+h+3+3+u+u+u+/./././.-+-+W.L L ^ o o o o  .W.W.^ ^ W.u+4.c c c c 4.++!+o o o ) o o  .u+c _.a a ;+y R.1 9+9+9+1 :.Y.i S 4+4+@.@.2.7+9+R 9+9+7+7+7+N.N.7+$+|.( ( @.2.b+b+b+G @.@.@.^+^+^+^+@.@.@.@.:.2.2.7+9+L ^ ^ L L L L ^ h h h P 7+2.( Y.;+H.H.( ( 4+0+A ] ] &.;+x+$+b N.N.N.= = N.2.( ;+w =.l+f *+*+r.r =+l.> K 2+C O O 6+6+6+J : : e.e.e.e.e.e.t ]+]+]+]+]+]+]+{.6+6+6+p+p+,+Q.Q.Q.2+p+^.e.e.e.e.e.]+]+Z.z :+d.W A #+0+4+( @.e f+e u M T.T.7.7.7.1+T.! / ! T.8+8+8+8+1+/ / l.l.l.l.l.n.u / T.Q b.b.Q T.M ^+@.@.@.@.@.:.:.:.$+$+/.9+9+u+$+$+$+$+9+9+9+L L L ^ ^ h R 9+7+$+$+$+7+-+-+-+-+N.P P 7+7+7+7+7+$+$+u+9+3+3+h+!+) ) ) ) o o ^ ^ L L R R R R R R L L 3+3+3+3+h+!+o ) ) ) ) B B ) ) ) !+!+3+3+3+L L L L L L 3+3+3+6 ++d ;.(.(.E.;.d  +| <.<.H h+e+S.S.S.S.S.S.S.) ) ) ) ) B B B B B B B B B B B B B B B B *.X *.*.) X e+e+e+3 e+e+e+e+e+h+h+h+h+e+e+e+e+h+h+h+!+S.) ) ) ) ) ) ) B B B B p p p p ",
"p p p B B B B B *.*.*.*.) ) S.h+H ++++++++++++++ + + + + + + +| <.H h+h+h+h+h+h+h+h+h+H ++++++h+h+) ) ) ) ) ) ) ) ) ) ) B B B B B B B ) S.e+h+S.S.) o !+h+3+3+3+9+/././.-+-+-+-+W.^ o o o o o o W.W.W.^ ^ L u+4.c c c c 4.++!+o ) ) ) ) o  .++R._.a a ;+y R.1 9+9+9+1 :.Y.Y.S 4+Y.@.@.2.7+R -+-+-+-+-+-+-+-+b $+:.( ( @.2.b+b+b+e @.@.@.^+^+^+^+@.@.@.@.:.2.2.7+9+R ^ L L 9+9+R R h h = P b+2.2.|.( ( @.@.@.( S m.&.&.a _., $+-+-+-+-+h = 7+:.Y.0+A p.r.*+C.*+f r 9 l.> K `.C O 6+6+J J J : : : e.e.e.e.3.3.3.3.]+t t t t 6+p+p+p+,+}.Q.Q.V Q.}.p+e.e.e.e.e.e.]+Z.Z.z 8+d.#+#+0+4+( e f+f+V.f+e ^+^+! ! ! J J ! / / / 1+Q 8+8+Q 1+/ l.l.l.l.l.l.n.n./ T.Q Q 8+Q T.^+@.@.@.^+( ( ( ( :.:.$+$+$+$+$+1 1 1 $+$+/.9+9+L L L ^ h R 7+$+$+$+$+7+-+-+-+N.P P 7+7+G G G G 1 1 $+u+u+6 3+h+o ) ) o o o ^ ^ ^ ^ L R R R R L L L 3+3+3+3+h+!+o ) ) ) B B B ) ) ) !+!+3+3+3+L L L L L 3+3+3+++++d ;.(.k k (.E.d  +| <.H 3 S.S.S.S.S.!+h+!+S.S.) ) ) ) B B B B B B B B B B B B B B B *.X X X *.*.<+X e+e+e+e+e+e+e+e+h+h+h+h+e+e+e+e+h+h+h+!+S.) ) ) ) ) ) ) B B B B p p p p ",
"p p p p B B B B *.*.*.*.) ) ) h+h+++++++++++++|  + + + + + + +| <.H h+h+h+h+h+h+h+h+h+h+3+++3+h+!+) ) ) ) ) ) ) ) ) ) ) B B B B B B ) S.e+h+h+h+S.S.S.!+!+3+3+3+9+-+-+-+-+-+-+W.^ o o o o o o o W.W.W.W.^ L u+4.c c c c 4.++o ) ) ) ) ) ) o ++;.c _.;+_.y R.1 $+9+9+1 :.5.Y.S 4+Y.@.:.$+7+R ^ ^ W.-+-+-+-+-+/.$+:.|.|.:.2.b+b+b+@.@.@.^+^+^+^+^+^+@.@.@.@.:.:.$+9+R R 9+9+u+$+7+9+-+h P P b+b+b+b+b+b+b+f+e @.Y.;+a a _.y y./.-+-+-+-+N.P $+x+i #+r p.T *+C.*+r.r =+l.K K `.C O 6+J J J : : : : e.e.e.e.3.3.3.3.3.t t t t p+p+p+,+Q.Q.Q.> V Q.}.O e.e.e.e.e.]+]+Z.Z.Q 8+=+=+H.4+( e b+j j { Y f+e ^+^+! ! ! ! / / / / 1+1+Q Q 1+{.l.l.,+l.l.l.l.n.u / T.Q Q Q Q T.^+@.@.^+M 4+M ( ( ( :.:.$+$+1 :.:.:.:.$+$+$+/.9+9+R R R R R 7+$+1 1 $+7+7+-+N.N.P 7+7+G G G G :.:.1 1 $+u+u+3+3+ .o o o o o ^ ^ ^ ^ ^ L R R L L L L 3+3+3+3+h+!+o ) ) ) ) ) ) ) ) o !+!+3+3+3+L ^ L L 3+++++|  +d ;.E.(.k k (.E.d  +<.H 3 S.S.) ) ) S.!+!+!+S.S.) ) ) ) B B B B B B B B B B B B B B B *.X X X *.*.<+*.X e+e+e+e+e+e+e+h+h+h+h+e+e+e+e+h+h+h+S.S.) ) ) ) ) ) ) B B B B p p p p ",
"p p p p p B B B *.*.*.*.) ) ) S.h+h+3+3+3+++++|  + + + + +| | <.H h+h+h+h+!+h+h+h+h+h+3+3+3+h+h+S.) ) ) ) ) ) ) ) ) ) ) B B B B B B ) S.h+H H H h+h+h+h+!+L L L W.-+-+-+-+-+W.^ ^ o o o o o o  .W.W.W.W.^ L u+4.c c c ;.d H o ) ) ) ) ) ) o ++4.c y _.y y x+y.$+7+9+1 :.5.Y.S 4+5.@.:.$+9+L ^ ^ ^ W.W.W.W.-+-+$+$+:.:.2.2.b+b+2.@.@.^+^+^+^+^+^+^+^+( ( ( ( :.:.7+R -+/.$+y.:.$+$+N.N.P P b+b+U >+j j >+f+e @.( Y.;+_.y R.u+-+h h -+-+7+$+:.Y.S #+r p.T f *+f l+r 7.l.K K `.^.O 6+6+J J : : : : ]+e.e.3.3.3.3.3.3.t t t t ^.p+p+}.Q.Q.> > > }.,+6+e.e.e.e.e.]+]+Z.1+1+g T.4+4+( @.b+j j j { { f+e e n.u l.l.l.l.l.l./ {.1+1+1+J / l.l.,+l.l.l.l.^+/ / T.Q Q Q g '.^+e @.^+M M M ( ( ( :.:.:.:.:.:.@.:.:.2.$+$+/.9+9+9+9+R R 7+7+$+$+$+$+7+7+7+7+7+7+b+G G G G G G G :.1 1 1 $+u+3+3+h+ .W.L L ^ ^ ^ ^ ^ ^ L L L L L 3+3+3+3+h+h+!+o ) ) ) ) ) ) ) ) o !+!+3+3+L W.W.W.3+++++4.d ;.;.E.(.(.(.(.E.&+ + +<.h+S.S.) ) S.S.S.!+!+S.S.) ) ) ) ) B B B B B B B B B B B B B B B *.X X X X t.t.t.X X X S.S.e+e+e+e+e+e+e+e+e+e+e+e+e+e+X X ) ) ) ) ) ) ) B B B B p p p p ",
"p p p p p p B B <+<+S.<+) ) ) S.h+h+h+h+h+H ++|  + + + + +| <.H H h+h+h+!+!+ .h+h+3+3+3+3+h+ .!+) ) ) ) ) ) ) ) ) ) ) ) B B B B B ) ) S.H H <.<.H H h+h+h+L L ^ ^ ^ ^ ^ ^ ^ ^ ^ ^ o o o o o o  .W.3+3+L L L ++4.c c c ;. +H o ) ) ) ) ) ) o H 4.R.y y y y x+y.1 $+7+1 :.5.Y.S Y.5.:.1 7+9+L ^ o ^ ^ ^ ^ ^ W.-+/.$+$+2.2.7+P b+2.@.( M '.'.'.'.'.'.4+4+4+4+Y.( :.$+9+9+$+|.|.x+|.$+b N.N.b+b+b+U j j j U f+e @.@.( x+R.y.$+9+-+h h -+7+$+:.5.4+=+#+W 4 [+T T T l+W 7.l.K K `.^.^.O 6+6+6+e.e.e.]+: : ]+]+3.3.3.3.3.3.3.t e.e.p+p+2+}.}.Q.}.}.}.p+6+t ]+]+]+]+]+]+{.{.T.T.M M ( @.2.>+j j j j { V.f+f+e n.n.n.n.l.l.l.l./ {.J J / l.l.n.n.n.n.n.^+/ T.T.g g Q g T.^+u e e ^+^+^+^+( @.@.@.:.:.:.:.@.@.@.:.2.$+/./././.9+9+7+7+7+7+7+$+$+$+7+7+7+7+7+b+2.2.:.:.:.G G G $+$+1 1 1 $+u+3+3+3+3+L L L ^ ^ o ^ ^ ^ L L L L 3+3+3+h+ . .o o o o ) S.S.) o o o !+L 3+3+3+W.W.W.6 ++4.;.;.(.(.(.(.(.E.E.&+ +<.<.h+S.S.) ) S.S.!+S.S.S.S.) ) ) ) ) ) ) ) B B B B B B B p p p p B B <+<+t.t.e+e+e+t.*.*.<+X S.S.S.S.S.S.e+e+3 3 3 e+e+e+e+X ) ) ) ) ) ) ) ) B B B B p p p p ",
"p p p p p p B B <+S.S.S.) B ) X e+h+h+h+h+h+H ++ + + + +| <.H H H h+h+h+!+ . .h+3+3+3+3+h+ .o o ) ) B B ) ) ) ) ) ) ) ) B B B B B ) S.!+H H | <.<.<.<.H 3+L ^ ^ ^ ^ ^ ^ ^ ^ ^ ^ o o o o o o o !+L 3+3+L L 3+++4.;.c E.;. +H S.) ) ) ) ) ) ) h+ +R.c y y y x+x+y.$+u+1 :.5.Y.S Y.5.:.1 9+3+L o o o o ^ ^ ^ ^ -+9+$+$+$+$+7+7+G :.@.( 4+4+'.'.'.'.'.4+4+4+4+4+Y.v+:.7+7+$+|.( ( ( |.b N.N.b+b+b+U P = U b+f+} } @.:.1 $+/.9+-+h h h h 7+1 v+Y.S =+8+d.E ` [+[+[+r d.T.l.,.,.^.^.^.O O O 6+e.e.e.e.: : : ]+3.3.3.3.3.3.3.3.e.e.e.O p+}.}.}.}.}.,+O 6+]+]+]+]+]+]+{.{.{./ ^+^+@.e 2.>+>+j j j j j V.V.f+f+f+f+c+c+c+c+,+,+l.l.l.l.l.l.n.n.n.n.n.u ^+! T.g g g g g T.^+u e e u ^+^+^+@.@.@.@.:.:.:.@.@.@.@.@.2.7+/././.$+$+7+7+7+7+7+7+7+7+7+7+7+7+7+2.2.2.2.:.:.:.G $+7+7+$+1 1 1 1 u+u+u+9+9+9+9+L L ^ o o o o ^ L L 3+3+3+L !+o o o o o o !+!+!+!+o o o !+L 3+3+3+W.3+6 ++4.d ;.(.(.k k (.E.&+d  +<.H e+S.) ) ) S.S.!+!+S.S.) ) ) ) ) ) ) ) ) ) ) B B B B p p p p p p p B <+<+t.t.e+3 e+e+t.<+<+<+S.S.S.S.S.S.S.e+3 c.c.e+e+e+X X ) ) ) ) ) ) ) ) B B B B p p p p ",
"p p p p p p B B <+S.S.S.) B ) ) S.h+h+!+!+!+H <. + + + +| H H h+h+h+h+h+!+h+h+h+3+++3+3+h+o o ) ) ) B B ) ) ) ) ) ) ) ) B B B B B ) S.!+H H | | | | | ++3+3+L L L L L L L ^ ^ ^ o o o o o o o !+L 3+3+L L 3+++4.;.c ;.&+ +h+) ) ) ) ) ) ) ) h+++4.R.y y y x+x+y.$+$+1 :.5.Y.S Y.v+:.1 9+3+L o o o o o ^ ^ ^ L 9+/.$+$+1 :.:.:.( ( 4+4+4+'.'.'.'.'.4+4+4+S S 4+Y.:.$+$+|.( Y.( ( |.b b N.b+b+b+U P = P b+f+} } f+b+7+-+h h h h h h R 7+:.5.4+g g 8+8+q 4 4 ` ` r d.T.l.p+p+^.^.^.O O O e.e.e.e.e.: : : : 3.3.3.3.3.3.3.3.e.e.e.O O O ,+}.}.,+O 6+6+]+]+]+]+]+]+J 1+T.T.M @.e b+>+>+j j j j j j j V.V.V.V.Y Y Y V c+}.}.,+l.l.l.l.n.n.n.n.n.n.^+M T.T.g g g g T.4+^+e e e u ^+^+^+@.@.@.@.:.:.:.@.@.^+@.@.2.7+-+/.7+$+$+$+7+7+7+7+7+7+7+7+7+7+$+$+2.2.2.:.:.:.:.1 7+7+7+7+1 :.:.1 1 $+u+u+u+9+9+9+L L o o o o o !+L 3+3+L !+o o o o !+!+!+!+!+!+!+!+o !+L L 3+3+3+3+++++4.4.;.;.(.(.k k E.&+d  +<.h+e+S.) ) ) ) S.S.S.S.S.) ) ) ) ) ) ) ) ) ) ) ) B B B B p p p p p p p p B <+<+e+3 c.c.3 e+t.<+S.S.S.S.S.S.S.S.e+3 c.c.c.e+X X X ) ) ) ) ) ) ) ) B B B B p p p p ",
"p p p p p p B B B <+) ) ) ) ) ) S.S.S.S.S.!+h+H |  + +| ++H h+!+!+!+h+h+h+h+H 3+++++3+h+ .o o ) ) ) ) ) ) ) ) ) ) ) ) ) B B B B B ) ) S.h+H ++|  + + +N u+9+9+9+9+u+9+9+L ^ ^ ^ o o o o o o o o L L L L L 3+++4.;.;.;.d  +h+) ) ) ) ) ) ) o h+++4.R.R.y y y y R.y.$+1 :.5.Y.S Y.v+:.1 9+3+L o o o o o ^ ^ ^ L 9+7+$+:.:.x+( Y.Y.4+4+4+4+'.'.'.^+^+( 4+4+S S S Y.( :.:.|.( ( ( |.|.b b b b+b+b+b+P = P U b+} f+b+P = h h h h h h h R 7+:.5.S g Q Q Q :+q E 4 4 W 8+T./ 6+6+6+^.^.^.O O e.e.e.e.e.: : : : 3.3.3.3.3.3.3.3.e.e.e.e.O 6+6+6+6+6+6+6+6+]+]+]+{.{.{.1+Q g g 4+^+e b+>+j j j j j j j j j V.V.{ { { Y Y V c+}.,+,+l.n.n.n.n.n.n.n.^+^+M T.T.g g g g T.M ^+e e e e u u @.@.@.@.@.@.@.@.@.@.^+@.@.2.7+9+9+7+7+$+$+$+7+7+7+7+7+7+7+7+$+$+:.:.:.:.:.:.:.1 $+7+P P 7+$+1 1 1 1 1 1 $+$+u+9+9+3+L L  . . .!+!+!+!+!+!+!+o o !+L L L L !+!+!+!+L L L L L 3+3+++u+4.4.4.;.;.E.E.E.E.E.&+d  +<.h+h+S.S.) ) ) ) S.S.S.S.) ) ) ) ) ) ) ) ) ) ) ) B B B B B p p p p p p p p B <+<+e+3 c.c.c.c.3 e+S.S.S.) ) ) S.S.e+3 c.c.3 e+X X ) ) ) ) ) ) ) ) B B B B p p p p p ",
"B B B B B B B B B B ) ) ) ) S.S.S.S.S.) ) S.!+H ++| ++++3+h+!+!+o !+!+h+H ++++++++H h+h+!+o ) ) ) ) ) ) ) ) ) ) ) ) ) ) B B B B B B ) ) !+h+++| 4.4.4.4.N u+/.u+u+u+u+u+9+L ^ o o o o o o o o o ^ L L L L 3+++4.;.;.;.d | h+) ) ) ) ) ) ) o !+++N 4.R.y y y y x+y.1 1 :.5.Y.S Y.v+:.1 9+3+L o o o  .W.^ ^ ^ L 9+7+1 :.x+Y.i 0+S S 4+4+4+'.^+@.@.@.@.@.4+4+S S S Y.( x+x+( ( ( |.2.b b b b+2.b+7+N.= P P b+b+b+b+P = h h h h h h h 7+$+@.'.g g 1+1+1+Q :+E E E d.8+T./ 6+6+6+6+6+e.e.e.e.e.e.e.e.: : : : 3.3.3.3.3.3.3.3.e.e.e.e.e.6+6+6+6+6+6+6+6+6+6+6+6+6+J 1+8+d.#+=+4+@.f+>+j j j j j j j j j j j j j j { Y V c+c+c+n.n.n.n.n.n.n.n.^+^+M M T.T.T.T.T.T.T.M ^+e e e e e e e e e e e @.@.@.@.^+^+@.@.2.7+9+9+7+7+7+$+$+$+7+7+7+N.7+7+7+$+:.:.:.:.:.:.:.$+$+7+7+P P 7+7+$+1 1 1 1 1 1 1 1 N 9+9+3+L L  . .!+!+!+!+!+!+!+L L L 3+3+3+3+3+3+L L L L L L L L 3+u+4.4.;.;.;.E.E.s &+&+d U.<.<.h+h+!+!+S.S.S.S.S.S.) ) ) ) ) B B B B B B B B B B B B B B B p p p p p p p p B B <+e+3 c.<.<.<.c.c.3 S.S.) ) ) ) S.e+3 c.c.3 e+X ) ) ) ) ) ) ) B B B B B p p p p p p ",
"B B B B B B B B B B B ) S.S.S.S.S.) ) ) ) ) S.h+H ++++++h+!+!+o o  .h+h+++| | ++<.H h+h+o ) ) ) ) ) ) ) ) ) ) ) ) ) ) ) B B B B B B ) ) o !+3+| 4.;.;.R.y.$+$+y.y.y.4.u+u+L ^ o o o ) ) o o o o ^ ^ ^ L L 3+++4.4.;.d  +<.h+) ) ) ) ) ) ) o !+3+++4.R.c y _.y y y.1 1 :.5.Y.i Y.v+:.1 9+3+L o o  .W.W.^ ^ ^ L 9+$+:.x+Y.0+0+m.0+0+4+4+4+^+@.@.@.e @.@.( 4+S S S 4+Y.( ( x+|.|.|.$+b b b b+2.2.7+N.N.= P b+b+b+b+P h h h h h h h N.7+2.@.'.T.Q 1+{.{.1+z :+0 0 8+Q T.T./ 6+6+6+6+e.e.e.e.e.e.e.e.: : : : 3.3.3.3.3.3.3.3.e.e.e.e.]+: : : ]+]+]+{.6+6+6+6+6+{.! g d.W #+#+H.( e b+>+j j j j j j j j j j j j j { Y Y c+c+c+n.n.n.n.n.e e @.^+M M M T.T.T.T.T.T.T.M ^+e e e e e e e e e e e @.@.@.@.^+^+@.@.2.7+R 9+7+7+7+$+$+$+$+7+7+-+R 7+$+1 :.:.:.x+|.:.:.$+$+7+7+R R 7+7+$+$+1 :.:.:.1 1 1 1 N 9+9+9+3+3+h+h+h+h+!+!+L L 3+3+3+9+N N u+++3+3+3+3+9+9+L L 3+++N 4.;.;.c E.E.s &+U. +<.H h+e+S.S.!+h+h+S.S.S.S.S.) ) B B B B B B B B B B B B B B B B B B p p p p p p p p B B <+e+3 <.<.<.w+w+<.<.3 e+S.) ) ) S.e+H <.<.3 e+X B B ) ) ) ) ) B B B B p p p p p p p ",
"<+<+<+<+B B B B B B B ) S.S.S.S.S.S.S.) ) ) S.h+h+3+3+h+h+!+o o !+!+h+++++| | ++<.h+h+!+) ) ) ) ) ) ) ) ) ) ) ) ) ) ) ) B B B B B B B ) ) !+h+++4.;.R.R.R.y.y.R.R.R.y.4.u+3+^ o o ) ) ) o o o o ^ ^ ^ L L 3+++ +4.d d  +<.h+) ) ) ) ) ) o o  .3+++4.y.c y _._.y R.1 1 :.5.Y.Y.Y.v+:.1 9+L L o o W.W.W.^ ^ ^ L 9+$+:.( i 0+A A #+=+4+4+^+@.@.@.e 2.2.@.( 4+g g S S 4+Y.Y.( |.|.2.b b b b b 2.2.7+N.-+h P P b+b+P P h h h h h h P 7+$+:.^+T.T.1+1+{.6+{.Z.z z :+8+Q T.T./ / l.6+6+6+e.e.e.e.e.e.e.: : : : ]+]+3.3.3.3.3.3.3.]+]+]+]+: : : ]+]+]+{.{.6+6+6+/ ! T.=+d.W A #+H.( e f+>+j j j j j j j j j j j j j { Y Y c+c+c+c+n.n.n.e @.@.^+M M 4+T.T.T.T.T.T.T.T.M ^+e e e e e e e f+f+e e @.@.@.@.^+^+@.e 2.7+R R 7+7+7+$+$+$+$+7+9+-+R 7+7+1 :.:.:.:.:.:.$+$+$+7+7+7+7+7+$+$+$+1 :.:.:.:.1 1 1 1 7+9+9+9+3+3+3+3+3+3+++++++u+N N N N N N N N u+u+u+9+9+9+9+9+u+4.4.;.;.;.;.&+&+U.<.H S.) ) ) S.S.!+h+h+S.S.S.S.) B B B B B B B B B B B B B B B B B B B B B p p p p p p p B B <+S.e+c.<.<.w+w+w+w+<.<.H h+e+S.e+h+H <.<.3 e+<+B B ) ) ) ) B B B B p p p p p p p p ",
"3 3 3 e+X *.B B B B B ) S.S.S.e+e+e+e+S.S.S.S.h+h+h+h+h+!+!+!+!+3+3+++++++| | ++H h+!+o ) ) ) ) ) ) ) ) ) ) ) ) ) ) ) ) B B B B B B B ) ) S.h+++ +4.R.R.R.x+x+x+R.R.R.4.u+3+W.o o ) ) ) o o o o ^ ^ ^ L 3+3+++ +d d d  +<.h+) ) ) ) ) ) o o  .3+++u+4.c y _._.y R.N 1 y.v+Y.Y.Y.v+1 $+9+L L o o ^ W.W.^ ^ ^ L 9+$+:.Y.0+#+A A A =+4+M ^+@.@.e e b+b+e @.M T.g g 0+H.H.Y.( |.2.b b b N.b b $+$+7+N.-+h R P 7+7+P P h h h h h R 7+$+:.@.^+T.1+1+{.6+6+6+{.Z.z z Q Q T.T.! l.l.,+,+p+p+O ^.^.e.e.e.]+]+: ]+]+]+]+]+]+3.3.3.]+]+]+]+: : J J {.{.{.{.{.{.{.J J T.7.9 d.A A #+H.( e f+f+j j j j j j j j j j j j j { V.Y V c+c+c+c+e e @.@.( M 4+4+T.T.g g g g T.T.T.M ^+e e f+f+f+f+f+f+f+e e @.@.@.@.@.@.@.e b+7+7+7+7+7+$+$+$+$+$+$+7+-+R 7+7+$+$+:.:.y.1 $+$+$+$+7+7+7+7+$+$+y.:.:.:.:.:.1 1 1 1 $+$+u+u+9+u+u+u+u+N N 4.4.4.y.y.y.y.y.y.R.R.R.y.y.N u+9+9+u+u+N 4.;.;.;.;.&+d U.w+c.S.) ) ) ) S.S.S.!+S.S.S.S.) ) B B B B B B B B B B B B B B B B B B B B B B p p p p B B B B B X e+3 <.w+w+U.U.U.U.U.U. +<.H H H <.<.<.3 e+S.) B ) ) ) B B B B B p p p p p p p p ",
"c.c.c.c.e+X X B B B B ) S.S.h+h+h+h+h+h+h+h+!+!+h+h+h+h+!+!+h+3+++++++++++++++++h+h+o ) ) ) ) ) ) ) ) ) ) ) ) ) ) ) ) ) B B B B B B B ) ) S.!+H ++4.4.R.y y y y y R.R.4.u+3+W.o o ) ) ) o o o o ^ ^ ^ L 3+3+++ +d d d  +<.e+) ) ) ) ) ) o  . .h+3+++4.R._._._.y R.N N y.x+Y.Y.( :.1 7+9+L ^ o o ^ ^ ^ ^ ^ ^ L 9+$+:.Y.0+A W W W =+4+^+^+@.e e e b+b+e @.M T.T.g =+0+H.H.( |.2.b N.N.N.b b $+$+7+-+-+h R P 7+7+P R h h h h h N.$+:.@.^+'.T.{.{.{.6+p+6+t ]+Z.Z.1+1+T.T.M ^+n.c+c+,+p+p+p+p+p+6+6+6+6+{.]+]+]+]+]+]+]+Z.Z.Z.Z.Z.Z.1+J {.{.{.{.{.{.{.J 1+1+1+G.8+d.#+#+#+=+H.( @.f+f+Y { { { { { { { { { { { V.V.V.Y V V V V f+e e ^+M M 4+H.g g g g g g g T.T.T.M @.e f+b+b+b+b+f+f+f+e e @.@.@.@.@.@.e 2.b+7+7+7+7+7+2.2.:.:.:.$+7+-+-+N.7+7+$+$+$+$+$+$+$+7+7+$+$+$+$+1 :.:.:.:.:.1 1 $+$+$+$+$+$+1 1 1 $+1 1 y.y.y.R.R.c y y y y R.R.y y y R.R.y.u+u+u+u+4.4.4.4.;.;.d  + +<.c.e+) ) ) ) S.S.S.S.S.S.) ) ) B B B B B B B p p B B B B B B B B B B B B B B B B B B B B B B B B ) S.3 <.w+U.L.&+s s &+&+d  +| <.<.<.<.<.3 e+S.) ) ) B B B B B B B p p p p p p p p ",
"w+w+<.c.3 e+X *.B B B ) S.e+h+h+H H H H h+h+h+h+h+h+h+h+h+h+h+++++| N  +++++++3+h+!+o ) ) ) ) ) ) o o o ) ) ) ) ) ) ) ) B B B B B B B ) ) S.!+h+3+++4.R.y _._._.y R.R.4.u+6 W.o o ) ) ) o o o o ^ ^ ^ L 3+++++ +d d  + +<.e+) ) ) ) ) ) o  . . .3+++4.R.y _._.y R.N u+1 x+( Y.( :.$+7+R L ^ o o ^ ^ ^ ^ o ^ L 9+7+:.Y.0+A r d+W =+4+^+u e e e f+b+b+e e ^+! T.g =+=+0+H.( 2.b+>+N.N.N.b b $+$+7+9+R h R R 7+7+R R h ^ ^ h h 7+2.:.( M T./ {.{.{.6+p+6+6+]+]+Z.1+1+T.! ^+u e f+V c+,+,+p+p+p+p+6+6+6+6+6+{.{.{.{.]+Z.Z.Z.Z.Z.Z.1+1+{./ / l.l./ {.J 1+1+Q 8+8+d.d.#+#+#+0+4+( @.e f+Y { { { { { { { { { { V.V.V.V.V V V V V f+e ^+M 4+H.H.0+=+=+=+=+=+=+g g T.T.^+@.e b+b+b+b+b+b+f+e e e @.@.@.@.@.e e 2.b+7+7+$+2.2.2.:.:.|.:.$+$+R h -+N.N.N.N.N.7+7+7+7+7+7+$+$+1 :.:.:.x+:.:.:.$+$+$+$+$+$+$+1 1 1 1 1 1 y.:.R.R.y y y y y y y y y y y y y x+y.N u+u+4.y.y.y.4.4.4. +| H h+e+X ) ) ) S.S.h+!+S.) ) ) ) B B B B B B B B p p B B B B B B B B B B B B B B B B B B B B B B B B ) S.e+H w+U.&+s s E.E.E.&+d  +| <.<.<.<.H 3 S.S.) ) B B B B B B B p p p p p p p p ",
"w+w+<.c.3 e+X B B B B ) S.e+h+h+H <.<.<.H h+h+h+H H H H H <.++++| 4.4. +++++3+3+ .o o ) ) ) ) ) ) o o o ) ) ) ) ) ) ) ) B B B B B B B B ) S.S.!+h+++4.R.c _._.y y R.y.4.u+6 W. .o ) ) ) ) o o o ^ ^ L L 3+++++ + + + +| H e+) ) ) ) ) )  . . . .W.3+u+R.y _._.y R.N u+1 x+x+( x+:.$+7+R L ^ o o ^ ^ ^ ^ o o L L 9+1 Y.0+A r d+W =+4+^+u e e e f+b+b+e e ^+! T.g =+=+H.4+( 2.>+N.N.N.N.b $+$+$+7+9+R R R R 9+9+R R ^ ^ ^ h h 7+2.@.M 4+T./ {.{.6+6+p+6+6+]+Z.Z.1+1+T.T.^+@.f+f+Y c+c+,+,+,+p+p+p+6+6+6+6+6+6+{.{.{.J 1+1+1+1+1+1+/ / / l.l.l.l./ J 1+1+8+8+d.d.d.#+#+=+H.4+^+@.e f+Y Y { Y Y Y Y Y Y Y V.V.V.V.c+c+c+c+c+c+u ^+M H.H.0+0+=+=+=+=+=+=+=+g g T.T.^+@.2.b+U U U b+b+e e e @.@.@.@.@.@.e e 2.2.2.2.2.:.:.|.x+x+x+:.1 $+R h h N.N.N.N.N.-+-+N.7+7+7+$+$+:.:.:.:.x+:.:.:.$+$+$+$+$+$+1 1 1 1 :.:.:.x+x+x+y y y y y y y y y y y y y y y R.y.N 4.4.y.y.4.4.4.| ++H !+S.) ) ) X X S.h+h+S.S.) ) ) ) B B B B B B B B p p p B B B B B B B B B B B B B B B B B B B B B B B ) S.S.H <.U.&+&+E.E.E.E.E.&+ +| <.<.<.<.<.H 3 e+S.) B B B B B B B p p p p p p B B ",
"c.c.c.3 e+X *.B B B B ) ) S.e+h+H H <.<.H H H <.<.<.| | |  + + + +4. +| ++++3+h+ .o o ) ) ) ) ) o o o o ) ) ) ) ) ) ) ) B B B B B B B B ) S.S.!+3+3+u+y.R.y y y R., y.u+u+6 W. .o ) ) ) ) o o o ^ ^ L 3+3+++++ + + + +<.H S.) ) ) ) ) ) o  . . .W.3+u+y.R.y y R.y.u+u+1 :.x+( x+:.$+9+R L ^ o o o ^ ^ o o o ^ L 9+1 x+0+A r r W =+4+u u e e e f+f+f+e ^+M T.T.g g H.H.Y.@.2.>+N.N.N.7+b $+$+$+7+9+R R R R R R R ^ ^ ^ ^ h h 7+2.@.M T.! / / 6+6+p+p+6+{.: Z.Z.1+Q 1+T.^+@.e f+f+f+c+c+,+,+,+,+,+,+,+,+,+l.l.l.l./ / / / / / / / ^+u u u u l.l.l.J 1+1+8+d.W W #+#+=+H.4+M ^+u e c+V V V V c+c+c+c+c+c+c+f+f+c+c+c+c+u u u ^+4+S =+#+#+#+0+0+0+=+=+=+=+=+g g T.^+@.2.b+U U U b+b+e e @.@.@.@.@.@.@.e 2.2.2.2.:.|.( ( Y.( x+x+y.y.u+R h h h -+N.N.h h N.N.7+7+7+7+$+$+:.:.:.:.:.:.1 1 $+$+$+$+$+1 y.y.:.:.x+v+x+v+x+x+y y y y y y y y y y y y y R.R.y.4.4.4.4.4.4.4.++++h+!+) ) ) S.S.e+e+e+e+S.S.S.) ) ) ) B B B B B B B B B p p B B B B B B B B B B B B B B B B B B B B B B ) ) ) S.H <.w+U.&+s E.E.E.;.d  +| <.<.<.<.<.<.H H e+S.) B B B B B B B p p B *.*.*.t.",
"3 3 3 t.t.*.B B B B B B ) ) S.e+h+H H H H ++++|  + + +d d d d d d  + +| ++3+h+ .o o ) ) ) S.S.!+ . . .o ) ) ) ) ) ) B B ) ) ) B B B B B ) ) S.!+3+3+u+4., R.R., , y.u+u+/.W.W. .o ) ) ) ) ) o o ^ L L 3+3+u+u+u+ + +| <.h+S.) ) ) ) ) ) o o o o ^ L 9+N y.R.R.y.N u+u+1 x+x+( x+:.$+9+R L o o o o o o o o o ^ ^ R 1 x+;+A r r W =+4+u n.f+f+f+f+f+e e ^+T.T.g g T.4+4+( 2.b+N.= N.7+7+7+$+$+$+7+9+R R R R R R ^ ^ ^ ^ ^ h = 7+2.@.M T.! / l.l.,+,+p+6+J 1+z :+:+Q Q T.! ^+e f+f+f+c+c+c+c+,+,+,+c+c+c+c+c+c+c+u u u u u u u u u } } } e n.n.l.l.! J G.8+W W W A =+4+M ^+^+u n.n.c+c+c+c+,+,+,+,+,+c+c+c+c+c+n.n.u u l./ / T.g =+#+A A A 0+0+S S =+=+=+=+g g T.'.@.G b+P P P b+b+e @.^+^+^+^+^+@.@.e 2.2.:.:.( ( Y.H.H.Y.Y.x+y.$+9+R h h h h h h N.N.N.N.7+7+7+7+7+7+$+$+$+$+$+1 :.:.1 1 1 1 y.y.y.:.x+x+x+Y.Y.Y.x+x+x+x+x+R.R.R.R.R.R.R.R.R.R.R.R.R.R.4.4.4.4.++++3+h+!+S.) ) S.e+e+3 3 e+e+S.S.) ) ) ) ) ) ) ) ) ) B B B B B B p p p p p p p B B B B B B B B B B B B B B ) ) ) S.S.!+H <.|  +&+;.M.;.&+d | H H ++++++++<.<.<.H e+) ) B B B B B B B B *.t.t.t.t.",
"<+<+<+<+B B B B B B B B B B ) S.e+H H H ++++++ +d d d d d d d d d  + +++3+h+ .o o ) ) ) S.!+!+!+ . . . .) ) ) ) B B B B ) ) ) ) B B B B ) ) S.h+3+++u+u+u+u+$+$+u+u+/./.6 W.W. .o ) ) ) ) ) o o !+L L 3+9+u+u+u+| | | H h+S.) ) ) ) ) ) o o o o ^ ^ 3+u+1 y.y.1 N 9+$+1 x+( ( x+:.$+9+L L o o o o o o o o o o ^ L 9+R.;+A ] r A =+4+u u f+f+f+f+e e @.M T.g g g 4+M @.@.2.b+P P P 7+7+$+2.2.2.$+7+R R R R ^ ^ ^ ^ ^ ^ h h = b+e ^+M ! / l.l.,+,+,+,+l.J 1+:+:+:+8+Q 1+T.^+u e f+f+f+c+c+c+c+c+c+V V V Y Y Y Y f+f+f+f+f+f+f+f+f+b+b+b+f+e n.n.l./ J 1+8+W r r A 0+4+^+u n.n.n.n.n.,+,+,+l.l.l.l.l.l.l.n.n.n.n.u l./ / T.T.g 8+W W r ] A w 0+S S 0+=+=+=+g g 4+'.@.G P P P P b+b+e @.^+^+^+^+^+@.@.2.2.2.:.( ( Y.H.0+0+w.Y.x+y.u+9+R ^ h h h h h N.N.N.N.7+7+7+7+7+7+7+7+7+$+$+1 :.:.:.:.y.y.y.y.x+x+x+y y Y.Y.Y.v+x+:.y.y.y.y.y.y.y.y.y.y.y.y.y.R.R.;.;.4. +++++h+h+!+S.) ) S.e+e+H H H 3 S.S.S.) ) ) ) ) ) ) ) ) ) ) ) B B B B p p p p p p p B B B B B B B B B B B B B ) ) ) ) S.!+!+!+H H |  +d ;.;.d  +++H H 3+++++| | | <.<.h+S.) ) ) B B B B B *.t.t.e+c.c.",
"B B B B p p p p B B B B B B ) S.S.h+H H ++++++ +4.4.d ;.;.;.d d  + +| ++h+!+o o ) ) ) S.!+!+!+h+ . . . .) ) ) ) B B B B ) ) ) ) ) B B B ) ) S.h+3+++u+/././././././././.W.W.W. .o ) ) ) ) ) o o !+L 3+3+u+u+u+u+| | ++H !+S.) ) ) ) ) o o o o o ^ ^ L 9+N 1 1 1 $+$+$+:.x+( ( x+y.$+9+L ^ o o o o o o o o o o ^ ^ 9+y.;+w ] ] A =+4+^+u f+f+e e e @.^+M T.g g T.4+@.@.2.b+b+7+7+7+7+2.2.2.2.2.2.7+9+R R h ^ L L 3+9+9+9+7+7+b+@.^+M ! / l.,+}.}.}.,+l.! 1+8+8+8+8+Q Q T./ u n.e c+c+c+c+c+c+c+c+V V V Y Y Y Y Y U U U U U U U U U U U b+f+e n.l.l.! 1+8+W W A #+S M u n.n.n.n.l.l.l.l.6+6+6+{.{./ / / / l.^+^+! / ! T.T.Q 8+d.W r r r ] A m.0+0+0+0+g g g g 4+'.@.G P P P P U b+e @.^+^+^+^+^+@.@.2.2.2.:.( ( Y.H.0+0+i y R.y.u+9+L ^ ^ h h h -+N.N.N.N.7+7+7+7+7+P 7+7+7+$+$+:.:.x+x+x+x+x+x+x+y y y Y.i i i y y x+:.y.1 N N N y.y.y.1 $+u+N 4.4.;.;.4. +++++h+!+S.) ) ) ) S.e+h+H H H 3 S.S.S.) ) ) ) ) ) ) ) ) ) ) ) ) B B B B p p p p p p B B B B B B B B B B B ) ) ) ) S.S.!+!+!+!+!+h+H |  +d d  +| H h+H ++++++ + + + +| <.H 3 3 3 e+e+e+e+X X e+e+c.c.c.",
"B B p p p p p p p p B B B B B ) S.!+h+3+++++++4.4.4.4.4.4.4.d  + +| <.H h+!+o ) ) ) ) !+!+h+h+h+h+ . .o ) ) ) B B B B ) ) ) S.) ) ) ) B B ) ) !+3+3+9+9+9+-+-+-+-+-+-+-+W.W.W.o o ) ) ) ) ) o o !+L 3+3+u+u+u+u+++++H H !+S.) ) ) ) o o o o o o ^ ^ L 9+u+1 1 1 1 1 y.:.x+Y.( x+1 7+9+L ^ o o o o o o o o o o ^ ^ 9+y._.w ] ] A =+4+^+u e f+e e ^+M M T.g g g T.M @.e 2.2.2.2.2.2.2.2.2.@.@.:.:.$+7+R R h ^ L 9+u+4.y.1 $+2.e @.^+! ! / l.,+}.c+c+c+n.! T.1+Q 8+Q Q Q 1+/ l.n.n.n.n.c+c+,+,+,+}.c+)+)+V V Y Y Y { j j j j j j j j P U U f+f+n.n.l.! ! g =+#+#+=+T.^+u n.l.l.l.l.6+6+6+{.{.{.{.1+1+1+T.T.T.T.T.T.T.T.Q Q 8+d.W r p.p.p.p.] A #+m.0+S 4+4+S S 4+( @.G 7+P P P P b+e e @.@.^+^+@.@.e 2.2.2.2.@.( ( 4+4+Y.Y.x+y.N 9+9+L ^ ^ h h -+-+N.N.N.N.7+7+7+7+7+P 7+7+$+$+:.x+x+Y.Y.Y.i i i i i i i i i i i y y x+y.y.1 N N N 1 1 1 $+$+u+u+4.4.4.4. +| H h+!+S.) ) ) ) ) S.h+h+H H h+e+S.S.) ) ) ) ) ) ) ) ) ) ) ) ) ) ) B B B B p p p p p B B B B B B B B ) ) S.S.S.S.S.S.S.!+!+!+!+!+!+H <.|  + +| ++H h+H ++++ + + + + + + + +w+w+w+w+<.<.<.c.3 3 c.c.c.c.",
"p p p p p p p p p p p B B B B ) S.!+!+3+3+++u+u+u+4.4.4.4. + + +++++H h+!+o ) ) ) ) ) !+h+h+3+h+h+ .o o ) ) B B B B B ) S.S.S.S.S.S.) ) B ) ) !+h+3+3+9+-+-+-+-+-+-+-+-+W.W.^ o o ) ) ) ) o o o W.W.3+++u+u+u+| ++3+H !+S.) ) ) ) o  .o o o o o ^ ^ L 9+u+1 y.y.y.y.:.x+( Y.( x+1 7+R ^ ^ o o o o ) ) o o o o o ^ 3+y.y m.A ] A =+4+^+u e e e ^+M M 7.7.7.g T.M ^+e 2.2.2.2.:.:.2.:.:.@.@.( @.:.2.7+7+R h h 9+u+4.R.R.x+:.@.@.^+M ! ! / l.c+c+V V c+n.^+M T.T.Q Q Q Q 1+{./ l.l.l.l.l.,+,+,+,+,+}.}.}.}.c+c+V Y Y { { j { { j j j j j U U V.f+c+n.l.! T.g g g g T./ l.l.l.l.6+{.{.{.{.J Z.Z.Z.1+1+1+Q G.G.7.7.g Q Q 8+8+8+W W r p.p.l+p.p.r ] A 0+4+4+4+4+4+4+( :.2.7+P P P P U b+f+e e e e e e e b+b+2.2.2.@.@.( ( ( x+:.1 9+9+L ^ ^ ^ h -+-+-+N.N.N.N.7+7+7+7+7+b+b+2.2.:.x+x+Y.i ;+;+0+0+0+0+0+;+;+;+;+;+_.y y c R.y.N N u+9+$+$+$+$+$+$+4.4.4. +++++H h+S.) ) ) ) ) ) S.!+h+h+h+h+h+S.S.) ) ) o o o o o o o o o ) ) ) ) ) B B B B B B B B B B B B B B ) ) ) S.S.S.S.!+!+!+!+!+S.S.S.S.3 H H <.++++++H h+h+H ++|  + + +d d d d d &+&+&+U.U.U.w+<.<.<.c.c.3 3 ",
"p p p p p p p p p p p B B B B ) ) o !+3+3+++u+u+++++++++++++++++++H h+h+S.) ) ) ) ) ) !+h+3+3+3+h+ .o ) ) ) B B B B B ) S.!+h+h+S.S.S.S.) ) ) S.h+3+3+9+-+-+-+-+-+-+-+-+W.^ ^ o o ) ) ) o o o o W.W.3+++u+4.4.| ++H !+!+S.) ) )  . . . .o o o o ^ ^ L 9+u+1 y.y.y.x+x+x+Y.Y.( x+1 7+R ^ ^ o o o ) ) ) ) o o o o ^ L 4.y a &.A A =+4+M ^+e e e ^+M 7.7.7.7.T.T.M @.e 2.2.2.@.@.@.@.@.@.@.( ( ( @.:.$+7+R h -+9+y.R.c y y ( @.^+^+! ! ! l.l.c+V Y V.f+f+e u ^+/ T.1+Q z 1+{.6+6+l.l.6+6+O p+p+p+p+O O ,+,+,+,+c+c+V Y Y Y Y Y Y Y U j j j j >+V.f+n.n.l.! ! T.T.T./ {.{.{.{.{.{.{.J Z.Z.Z.Z.Z.z Q Q Q 8+8+8+8+8+8+8+8+8+8+d.W W r p.p.l+l+l+p.r A m.Y.( ( M 4+4+( :.2.7+P P = P U U b+b+f+f+e e f+b+b+b+b+b+2.2.:.:.:.:.:.1 7+9+R L ^ ^ ^ -+-+-+-+N.N.N.N.7+7+7+7+7+b+b+2.:.|.x+y w.;+0+m.m.w w w w w ;+;+;+_._.y c c R.y.4.u+9+9+7+7+$+$+$+, 4.u+u+++h+h+e+X ) ) ) ) ) ) !+!+!+!+h+h+h+h+S.S.) ) o o o o o o o o o o o ) ) ) ) ) B B B B B B B B B B B B ) ) ) S.S.h+H H H H h+!+S.S.S.S.3 3 3 H H H H H h+!+H H ++|  + + +d d d &+&+&+s s &+&+d U. +<.<.H 3 e+e+",
"p p p p p p p B B B B B B B B ) ) o o W.3+3+++++3+3+3+3+6 6 6 6 h+h+h+S.S.) ) ) ) ) ) !+h+h+3+3+h+ .o ) ) B B B B B ) ) S.h+h+h+h+3 e+S.S.) ) o !+3+3+3+-+-+-+-+-+-+-+W.^ ^ ^ o o ) ) ) o o o  .W.W.6 ++4.4.4.N ++H !+!+) ) ) )  . . . .o o o o ^ ^ L 9+u+N y.y.y.x+x+x+( Y.x+:.$+7+R ^ ^ o o o ) ) ) ) ) o o o ^ L 4.y a w A #+=+H.M ^+@.e @.M H.7.7.7.7.T.M ^+e e 2.2.@.( ( ( ( ( ( 4+4+4+( @.:.2.7+7+P 7+$+y.y y i Y.Y.^+^+^+! ! ! l.n.c+Y Y V.>+b+f+e u ^+/ 1+1+Z.Z.{.6+6+6+6+6+6+6+p+p+p+p+O O O O p+,+,+,+c+c+c+c+f+f+f+Y Y Y { j j j V.f+c+n.n.l.l./ / {.{.{.{.{.1+1+1+1+Z.Z.z z z z Q Q Q Q g =+=+=+=+=+g g =+=+=+#+A A ] =.$.l+l+[+p.r #+H.( ( ^+M ( @.:.$+7+P P P P P U U U b+b+f+f+b+b+U U U b+b+b+b+G G G 7+7+R R L ^ ^ ^ ^ -+-+-+-+N.N.N.7+7+7+7+7+7+7+b+2.:.:.x+y w.;+m.m.m.m.m.m.w ;+;+;+_._.y c c c R.4.N u+9+9+9+7+7+$+$+, u+u+6 h+ .X ) ) B B ) ) ) o !+!+!+h+h+h+h+!+S.) ) ) o o o o o o o o o o o o ) ) ) ) B B B B B B B B B B B ) ) ) S.S.!+h+H H H H 3 S.S.S.S.S.S.e+3 3 3 h+h+h+h+h+h+H <.<.|  + + +d d &+&+s s s s &+&+d  +| <.H e+e+e+",
"p p p p p B B B B B B B B B B ) ) ) o  .h+3+3+3+3+3+3+3+3+6 h+h+h+h+S.S.) ) ) ) ) ) ) S.h+h+h+h+ . .o ) ) B B B B B ) ) S.!+h+H H <.H 3 e+) ) o o L L W.W.-+-+-+W.W.W.^ ^ ^ o o ) ) ) ) o o  . . .W.6 ++4.4.4.4.++h+!+o ) ) ) )  . . . . .o o o o ^ L 3+u+u+N y.y.R.x+x+x+x+x+:.$+9+R ^ ^ o o o ) ) ) ) ) o o o o L u+R.;+m.w m.0+H.4+M ^+e @.M H.7.=+7.T.M ^+^+e e e 2.@.@.( Y.4+4+4+4+4+M ( @.@.2.2.b+7+7+2.x+Y.;+;+i 4+^+^+^+! ! ! l.n.c+Y { j >+>+b+f+} u / {.Z.Z.]+{.6+6+O O O O p+p+p+p+p+p+p+6+6+6+6+l.l.l.l.l.u u u c+c+f+Y Y { { { V.V.c+n.l.l./ {.{.{.{.1+1+1+Q Q z z z z z z z Q Q Q g g T.T.4+H.H.4+4+4+4+4+S 0+0+w &.] ] p.l+l+p.r A 0+4+M M ^+( @.2.$+7+7+P P P P P U U U U U U U U U U U U U b+b+b+b+P P R R R ^ ^ ^ ^ ^ -+-+-+-+N.N.N.7+7+7+7+7+7+7+7+7+$+y.y.x+y w.;+;+;+;+;+;+;+i y y y c c R.;.;.4.4.N u+9+9+R 9+9+/.u+u+u+6 6  .X ) ) B B B ) ) ) !+!+3+3+3+h+!+!+o ) ) ) ) o o o o o o o o o o o o ) ) ) ) ) ) B B B B B B B B ) ) S.S.S.S.!+!+!+S.S.S.S.S.S.<+<+<+<+<+e+e+e+3 h+h+h+h+H H H <.<.<.<.<. +U.d &+&+&+&+&+&+d  +| <.H h+e+S.S.",
"p p p B B B B ) ) X X ) ) B B B ) ) ) o !+ .h+h+h+h+h+h+h+h+h+h+ .S.) ) ) ) B B B B ) ) S.!+h+ . . . .) ) B B B B ) ) ) S.!+h+H <.| <.<.e+S.) o o ^ ^ L ^ ^ ^ ^ ^ ^ ^ ^ o o o ) ) ) ) ) o  . . . . .6 ++4.;.;.4.++h+!+o ) ) ) )  . . . . .o o o o o ^ 3+3+u+u+4.y.y.R.x+x+x+x+:.$+9+R ^ ^ o o o ) ) ) ) ) ) o o o W.u+R._.;+m.m.0+=+4+M ^+@.@.M 4+=+=+g 4+M ^+e e e e e @.@.( 4+S 0+0+S 4+M @.@.@.@.2.2.b+2.:.( w.0+0+H.4+^+u ^+! ! ! l.n.f+Y j = = = U U f+u l.{.{.]+]+6+6+O ,+,+,+p+p+p+p+^.^.^.t t 6+6+6+6+{.{.{./ / / l.u u c+c+V Y V.V.V.f+c+n.l./ {.{.1+1+Z.Z.z z :+:+:+:+:+:+:+z Q Q Q T.T.M M ( ( ( ( ( ( ( ( ( ( Y.Y.i ;+m.&.] p.l+l+r A #+7.4+M ^+@.@.2.7+7+7+7+P P P P P P U U U U U >+P P P P P P P P P P P R R ^ ^ ^ ^ ^ ^ R R R R P P P 7+7+7+7+7+7+R R 9+9+u+$+R.x+y y y y y y y x+R.R.R.y.4.4.4.4.4.N N u+9+9+9+R R R 9+9+6 6 6  . .) ) B B B B ) ) ) !+3+3+3+3+3+ .o o ) ) ) ) o !+!+o o o o o o o o o ) ) ) ) ) ) ) ) ) ) ) ) ) ) ) S.S.S.!+!+!+S.S.S.S.S.<+<+<+B B B <+<+<+t.e+3 c.c.c.3 3 3 3 3 3 3 3 c.<.<. + +U.U.U.U. + +| ++h+h+!+S.S.) ",
"p p p B B ) ) S.S.e+S.S.) B B B B B ) ) ) o !+!+h+h+h+h+h+h+h+h+!+) ) ) ) B B B B B B ) ) ) S. . . . .X ) B B B B ) ) ) S.!+H <. + + +<.H e+o o o ^ ^ ^ ^ ^ ^ ^ ^ ^ o o o o ) ) ) ) ) )  . . . . . .6  +4.;.;.4.| 3+o o ) ) ) )  . . . .o o o o o o o L 3+3+u+u+y.y.y.x+x+x+x+y.$+9+R L ^ o o o ) ) ) ) ) ) ) o o ^ u+y.y ;+0+0+0+=+g 4+^+@.@.M 4+g g T.4+^+@.e e e e e @.@.( S 0+0+0+0+4+( @.@.@.@.@.e e e @.Y.H.0+0+H.4+^+u n.l.! ! l.n.f+j = = = = P U Y c+l.{.{.]+{.6+,+}.}.}.}.}.p+p+^.^.^.t t t {.{.{.{.{.1+1+1+1+/ / / l.l.,+c+c+c+V.f+c+n.l./ {.1+1+z z z z z :+:+q q 0 0 0 :+8+Q g g 4+^+@.@.2.2.2.$+$+$+$+$+$+$+1 :.x+x+w.a &.] p.$.r r #+=+T.M ^+e 2.b+7+7+7+7+7+7+7+P P P P P = = = N.N.N.P P P P P P P P R R h ^ ^ ^ ^ ^ ^ R R R R P P P 7+7+7+7+7+R R h L L 9+u+N y.R.R.R.R.y.y.y.N N u+u+u+u+u+++++++++u+9+9+9+R R L ^ W.W.W. . .o ) ) ) B B B B ) ) o h+3+3+3+3+3+ .o o ) ) ) ) !+!+!+!+o o o o o o o o ) ) ) ) ) ) ) ) ) ) ) ) ) ) ) S.S.h+h+!+S.S.) ) B B B B B B p p p B <+t.e+c.c.c.c.c.c.e+e+X X X X e+e+3 H <.<.<.<.<.<.<.H h+!+!+o ) ) ) ",
"p p B B X S.e+h+h+h+h+S.) B B B B B B B ) ) ) S.!+h+h+h+h+h+h+h+!+S.) ) ) B B B B B B ) ) ) S. . . . .X ) B B B B ) ) ) S.!+H ++ +d  + +<.h+h+ .W.W.W.W.W.^ ^ ^ ^ o o o ) ) ) ) ) ) ) o  . . . . . .6  +4.;.;.4.| h+o ) ) ) ) )  . . . .o o o o o o o !+L 3+3+u+N y.y.y.x+x+x+y.$+9+R L ^ o o o ) ) ) ) ) ) ) o o ^ u+y.y i ;+0+0+=+g 4+M @.^+M 4+=+=+T.M @.e e e e e @.@.( 4+S 0+#+=+0+4+@.e e e @.@.e e e @.4+H.=+=+H.M @.n.n.l.! ! l.n.f+j = = = = = U Y c+,+6+{.{.6+6+,+}.}.}.}.}.p+p+^.e.t ]+]+Z.Z.1+1+1+1+z z z Q 1+{./ / l.,+,+,+c+c+n.n.l./ / 1+1+z z z :+:+:+:+q E E E 0 0 b.Q g g 4+^+@.2.b+7+P N.-+h h h h h R R 9+$+1 x+w.m.] =.p.r r d.9 T.M @.e b+b+7+7+7+7+7+7+7+P P P P = = = = N.N.N.N.P P P P P P P R h ^ ^ ^ ^ ^ ^ L L R R R P P 7+7+7+7+7+9+R L ^ ^ ^ ^ 3+u+4.y.y.y.y.$+u+u+9+9+9+L L L L 3+3+3+3+3+3+9+9+L L ^ ^ ^ o o o o ) ) ) ) B B B B ) ) !+h+3+++++3+3+ .o o ) ) ) S.!+!+!+!+!+o o o o o o o ) ) ) ) ) ) ) ) ) ) ) ) ) ) S.S.h+h+h+S.S.) ) B B p p p p p p p p p B t.e+c.c.c.c.c.c.e+t.*.B B B B ) S.e+H H H H H H H !+!+o o ) ) ) ) ",
"p p B X e+h+H H H h+h+X ) B B B B B B B B ) ) ) o !+h+h+h+h+h+h+h+S.) ) ) ) B B B B ) ) S.S.S.!+ . . .) ) B B B B ) ) ) S.!+H |  +d d  + +++3+3+3+6 9+9+W.W.^ ^ o o o o ) ) ) ) ) ) o o  . . . . . .6  +4.;.;.4.| h+o ) ) ) ) ) o  . . .o o o o o o o !+L 3+3+u+u+1 y.y.:.:.:.1 $+9+R L ^ o o o o ) ) ) ) ) o o o ^ 9+y.y i 0+0+=+=+=+4+M ^+^+4+g =+=+g M @.e e e @.@.^+M 4+4+0+0+=+0+S 4+@.e e e e e e e e @.4+H.=+=+S M @.e n.l.! ! ^+e b+j = h h h = = U f+c+l.{.{.6+6+,+}.}.}.}.}.}.O 6+]+]+Z.z z z z z z z :+z z z Q 1+{.{.{.6+6+,+,+l.l.l./ J 1+1+1+z :+:+:+q q E E E E E b.b.Q g X.4+( @.2.b+P = h h h h h h ^ ^ ^ h h -+9+y.x+;+&.] ] r W #+=+4+M @.2.b+7+7+9+9+9+7+7+7+P P P P = = = = N.N.N.N.P P P P P P h h h ^ ^ ^ ^ ^ L L L R R R R 7+7+7+$+$+$+7+9+L ^ ^ ^ ^ W.3+u+u+4.4.$+$+$+u+9+9+R R L L L L 3+3+3+3+3+L L L L ^ ^ o o o o o ) ) ) ) B B B ) ) S.!+h+3+++++3+W. .o ) ) ) S.S.!+!+!+!+!+!+o o o o o o o ) ) ) ) ) ) ) ) ) ) ) S.S.S.S.h+h+e+S.S.) B B B p p p p p p p p p B t.e+c.c.c.c.c.c.e+t.B B B B B ) ) S.S.!+h+H H H h+!+!+o ) ) ) ) ) ",
"B B *.e+<.<.| <.<.h+h+S.) B B p p p B B B ) ) ) o o  .h+h+3+H h+h+h+S.) ) ) ) ) ) ) ) S.S.S.!+!+!+ .o ) ) B B B B B ) ) S.h+H | d d d d  +| ++u+u+u+u+/.6 W.W.W. . . .o ) ) ) ) ) o o o  . . . . . .3+++4.;.;.d | h+) ) ) ) ) ) o o o o o o o o o o o !+L 3+3+u+u+$+1 y.:.:.:.1 $+9+R L ^ o o o o o o o o o o o o ^ 9+y.y i 0+0+=+=+=+4+4+^+^+4+g =+=+g M ^+e e e @.^+M 4+H.0+0+0+0+S 4+( @.e e e e e e e e @.M S =+=+4+M @.e n.l.! ! ^+e b+= = h -+-+N.= U Y c+l.{.{.6+l.,+c+)+)+)+}.5 6+6+: Z.z :+:+:+:+:+:+:+0 0 :+z z Q 1+{.{.{.6+6+6+6+{.{.1+1+Q Q G.G.8+8+d.W W W W W W b.b.g g '.'.@.:.2.7+P P h h h h h ^ ^ ^ ^ ^ ^ ^ ^ -+u+R.;+w A ] A #+=+T.M ^+@.2.7+7+R R R 9+9+7+7+P P P P = = h h h h h h h h h h h h h h h ^ ^ ^ ^ L L L L L R R R 9+7+$+$+y.1 $+9+L ^ ^ o o ^ L 3+u+u+N y.y.y.$+$+u+9+9+9+9+3+3+3+3+h+L L L L L L !+o o o  . . .) ) ) ) ) ) ) ) ) S.h+h+++++++3+h+o ) ) ) S.S.S.!+!+!+!+!+!+!+o o o o o o o o ) ) ) ) ) ) ) ) S.S.S.h+h+e+e+e+X X ) B B B p p p p B B B B B B t.e+c.c.c.c.c.c.e+t.B B B B B ) ) ) S.S.h+H H H H h+S.S.) ) ) ) ) ",
"B B X 3 <. + + +<.H h+S.) B p p p p B B B ) ) ) o o  .h+3+3+++H h+h+h+S.S.) ) ) ) ) ) S.S.h+h+!+!+o o ) ) B B B B B ) ) S.h+H |  +d ;.d 4.4.4.4.4., 4.u+/.6 W.W. . . . .) ) ) ) o o o o  . . . .o  .h+++4.d d  +++h+) ) ) ) ) ) o o o o o o o o o o o !+L 3+3+u+u+$+$+:.:.:.:.1 $+9+R L ^ o o o o o o o o o o o o ^ 9+y.y i 0+0+=+=+g 4+4+( ^+4+g =+=+7.M ^+e e @.^+M 4+H.=+=+=+0+S 4+4+^+@.e e e e e e e e @.M 4+g g 4+M @.e n.^+! ! ^+e >+= = -+-+-+-+= = U } l./ {.6+l.,+c+c+)+)+5 5 l.J J Q :+:+q q q q q 0 0 0 0 :+z z z Z.]+t t t t {.{.Z.Z.z :+8+G.G.8+d.d.W W W W W W b.g g '.5.:.G 7+P N.h h h h h h h ^ ^ ^ ^ ^ ^ ^ ^ ^ 9+y.y ;+w A #+=+H.M ^+@.2.2.7+N.-+R R R 9+9+7+7+U U P = h h h h h h h h h h h h h h h ^ ^ ^ ^ L L L L L ^ L R R 9+7+$+y.:.y.$+u+R ^ ^ o o o L 3+3+u+N y.y.y.y.1 1 1 N u+u+u+6 3+h+h+!+!+ .o !+!+!+!+!+ . . . . .e+X X X X S.S.S.h+h+h+++++++h+h+o ) ) ) S.S.S.h+H H H !+!+!+!+o o o o o o o o ) ) ) ) ) ) ) S.!+h+h+h+e+e+X X ) B B B p p p p B <+<+<+B B <+e+3 <.<.<.c.c.c.e+t.B B B ) ) ) ) ) ) S.e+H <.<.H 3 S.S.S.) ) ) ) ",
"B <+e+H <. + + +<.h+e+X B B p p p p p B B ) ) ) o o o !+h+3+3+H H h+h+h+S.S.S.) ) ) S.S.!+h+h+h+!+!+o ) ) B B B B B B ) S.h+H |  +d ;.;.;.;.;.R., , , u+u+6 W.W. . . . .o ) ) o o o o  . . . . .o  .h+++ +d d  +<.h+) ) ) ) ) o o o o o o o o o o o o !+L 3+3+u+u+$+$+:.:.:.:.1 7+9+R L ^ o o o o o o o o o o o ^ ^ 9+y.y i 0+0+=+=+g 4+4+^+^+4+g =+7.T.M ^+e e @.^+M 4+g =+=+=+S 4+4+4+M ^+^+@.@.@.e e e e @.M 4+g g 4+^+e e n.^+! M ^+e >+= = h -+-+-+h = U f+u / / l.l.c+c+c+c+c+n.l.l.! J 1+8+8+d.d.d.d.d.b.b.:+:+:+z z z Z.]+]+t t t ]+]+Z.Z.z :+:+G.G.8+d.W W r W W W #+=+g '.5.:.G 7+R h h h h h h h h h h ^ ^ ^ ^ ^ ^ ^ ^ L N y ;+m.#+#+0+4+M @.@.2.2.7+-+-+^ L L 9+9+7+7+b+U P P h h h h h h h h h h h h h h h ^ ^ ^ ^ L L L L ^ ^ ^ L R 9+u+1 y.x+R.y.u+9+^ ^ ^ o !+L 3+++u+N y.y.x+y.y.1 1 1 N u+u+++3+h+h+!+o o  .!+h+h+h+h+h+ . .h+<.<.<.<.H h+h+h+h+h+h+H ++++3+h+!+) ) ) S.S.S.3 H H H H !+!+!+!+o o o o o o o o ) ) ) ) ) ) ) S.!+h+h+h+e+e+X X B B B B p p p B <+<+<+<+<+B <+e+3 <.<.<.<.c.c.e+t.*.B B ) ) ) ) ) ) S.e+H <.<.H 3 e+S.S.S.) ) ) ",
"e+e+e+<.<. + +<.H h+S.) B p p p p p p B B ) ) ) ) o o !+h+h+h+H H H h+h+h+e+e+S.S.S.S.!+h+h+H h+!+!+o ) ) B B B B B B ) S.h+H |  +d d ;.;.R.c R.R.R., y.u+/.W.W.W. . .o o o o o o o  . . . . . .!+!+h+++ + + + +<.h+o ) ) ) o o o o o o o o o o o o o !+L 3+3+u+$+$+:.:.:.:.:.1 7+R L ^ ^ o o o o o o o o o o o ^ ^ 9+y.y i 0+0+=+=+S 4+4+( ( M 4+4+4+M ^+@.e @.^+^+4+4+H.=+=+S 4+4+4+4+4+4+4+4+M ^+@.@.e e @.^+4+4+4+4+^+e e n.^+! ^+^+e >+= = h -+-+h h = U f+u l./ l.l.c+c+c+c+c+n.n.l.l.! T.T.g =+=+=+=+=+=+8+8+8+:+:+z z z Z.]+t t t ]+]+Z.Z.z z z z G.8+d.W W W W W #+=+S 4+5.:.G 7+R ^ ^ h h h h h h h h h ^ ^ ^ ^ ^ ^ ^ ^ L u+R.i 0+0+0+4+M @.@.e 2.2.7+-+^ ^ ^ L R 9+7+b+b+b+b+P h h h h h h h h h h h h R R h h ^ ^ ^ ^ L L L ^ ^ L L R 9+u+y.y.x+x+y.$+9+L ^ ^ L 3+3+++N 4.y.y.R.R.y.y.y.y.y.4.4.u+++++h+!+ .o  . .h+H ++++H h+h+h+++ +d d d  + +| ++++H H H H H h+h+S.) ) ) S.S.S.h+H H H H H !+!+!+!+o o o o o o o ) ) ) ) ) ) ) S.!+h+h+h+e+e+X *.B B B p p p p B <+<+<+<+<+<+S.e+<.<.<.<.<.c.c.e+t.*.B B ) ) ) ) ) ) S.e+H <.<.H 3 e+S.S.S.S.) ) ",
"3 3 H <.<.<.<.H h+S.) B B p p p p p p B B ) ) ) ) ) o o !+!+h+h+H H <.<.H H h+h+!+!+!+!+h+h+h+h+!+!+!+) ) B B B B B B <+S.3 H <.|  +4.;.c c c y x+x+R.y.$+9+3+W.W. .o o o o o o o  .W.W.W.W.3+!+!+!+h+++++ + +++h+!+o o o o o o o  . .o o o o o o o o !+L 3+++u+y.y.:.:.:.:.:.1 7+R L ^ ^ o o o o o o o o o o o ^ ^ 9+y.y i 0+0+0+S S 4+4+( @.@.( M M ^+@.e e @.^+M 4+4+S S S 4+4+M 4+4+g =+=+g 4+4+^+@.e e e ^+M 4+4+M @.e e n.^+! ^+^+e >+= = = h h h h h P b+e ^+l.l.u n.c+c+c+n.n.n.n.u ^+^+^+4+4+4+4+4+4+S g g Q Q 8+:+z z Z.]+t t t t ]+]+Z.Z.Z.Z.z z :+q E E W W #+=+4+Y.@.:.$+7+R W.^ ^ ^ h h h h h h h h h ^ ^ ^ ^ ^ ^ o ^ u+R.i 0+0+S 4+^+e e e 2.2.7+-+^ ^ ^ ^ L R 7+b+2.2.b+P h h h h h h h h h h h R R R R h ^ ^ ^ ^ ^ ^ L L L L L R 9+u+y.R.x+x+y.1 9+9+L L 3+3+++4.4.4.R.R.y.y.y.y.y.y.y.4.4.4. +++h+ .o o  .h+H ++| | ++h+h+6  +d ;.M.;.;.d 4. +| ++++H H h+h+S.S.) ) ) S.S.S.h+H H H H H !+!+!+!+!+!+o o o o o ) ) ) ) ) ) ) S.!+h+h+h+e+e+X *.B B p p p p p B <+t.S.S.S.S.S.3 <.<.<.<.<.<.c.e+X *.B B ) S.X X ) ) S.e+H <.<.H 3 e+X X S.S.S.S.",
"<.<.<.<.H H h+h+S.) B B B p p p p p p B B ) ) ) ) ) ) ) ) S.S.h+h+H <.<.<.<.H H h+!+!+!+h+h+h+h+!+!+!+S.) B B B B B B <+S.3 H H ++| 4.;.c c y y y x+R.y.$+u+9+L W.o o o o o o o  .W.W.W.3+3+3+3+!+!+h+3+++++++++h+ .o o o o o o  . . . .o o o o o o o !+L 3+u+u+y.y.x+x+:.:.:.$+9+R ^ ^ o o o o o o o o o o o o ^ ^ 9+y.Y.i 0+0+0+S S 4+5.@.@.@.@.@.@.e e e e @.^+4+4+4+4+4+4+4+M M 4+g =+=+=+=+g 4+M ^+@.e e ^+^+M M ^+u e e n.^+! ! ^+e b+j = = h h h h h P b+e ^+^+u n.c+c+n.n.l.n.n.n.e e e 2.2.:.:.:.:.( ( 4+4+g g Q 8+z z Z.]+t t 6+6+6+6+]+]+Z.Z.Z.z z :+q E W d.=+4+( @.G 7+7+R W.W.W.^ ^ h h = = P P = h h h h ^ ^ ^ ^ o ^ u+y.y i 0+S 4+@.e e 2.2.2.7+-+^ o o ^ ^ R 7+2.2.2.2.7+P h h h h h h h h h R P 7+7+R R ^ ^ ^ o o o o L L L L R 9+u+y.R.x+x+R.y.u+9+3+3+3+++N 4.;.R.R.R.y.y.y.y.y.y.R.R.;.;. +++h+S.o o  .h+++ + + +++H h+++d ;.(.(.(.c ;.;.4. +++++H h+h+S.S.) ) B ) S.S.S.h+H ++++3+h+!+!+!+!+!+!+!+o o o o ) ) ) ) ) ) ) S.!+h+h+h+e+e+e+*.*.B p p p p p B <+t.e+S.S.S.e+H <.|  + +<.<.<.3 e+<+B <+X X X S.) ) S.e+H <.<.<.e+e+X X S.S.S.S.",
"<.<.<.H h+h+h+S.) B B B p p p p p p B B B ) ) ) ) ) ) ) ) ) S.e+h+H <.<.<.<.H H h+!+!+!+!+h+h+!+!+!+!+S.) ) B B B B B <+S.e+3 H H ++ +4.c c y y y x+y.y.$+9+9+L ^ o o o o o o  .W.W.W.3+3+3+3+3+!+!+h+H 3+++++3+h+o o o o o o o  . . . .o o o o o o o !+3+3+u+1 y.x+x+x+:.:.1 $+9+R ^ ^ o o o o o o o o o o o o ^ L u+y.Y.i 0+0+S S 4+4+( @.@.e 2.2.2.b+e e e @.^+4+4+4+4+4+4+4+M ^+4+g =+b.b.=+=+4+4+^+^+^+^+^+M M M ^+u u u ^+! ! ! ^+e f+U j = P P P = N.P b+e u ^+u n.c+c+c+n.l.n.n.e b+b+U P P P 7+7+$+$+:.( ( 4+T.g Q Q 1+1+{.{.6+6+6+6+6+6+]+]+Z.Z.z Q :+8+d.8+=+4+( :.2.7+R h ^ W.W.W.W.h h P P 7+b+b+b+7+7+P R h ^ ^ ^ o ^ u+y.y i S 4+M @.e e 2.2.b 7+-+^ o o o ^ R 7+2.:.:.2.7+7+R R R R R R R R -+R 7+7+7+R R ^ ^ ^ o o o o !+L L L R 9+u+y.R.x+y R.y.N 9+9+3+3+++N 4.;.R.R.R.R.y.y.y.y.R.R.c c ;.d  +H !+o o  .h+++ + + +++H h+++d ;.(.(.(.c c ;.4.4.++++H h+S.S.) B B B ) S.S.S.h+H 3+3+3+h+!+!+!+!+!+!+!+o o o o o ) ) ) ) ) ) S.!+h+h+h+h+3 e+e+<+B p p p p p B <+X S.S.S.S.3 H <.|  + + +<.<.H e+X B <+<+X X X X ) X e+3 <.<.c.e+e+X X S.S.S.S.",
"H H H h+h+h+S.S.) B B B p p p p p p B B ) ) ) ) ) ) ) ) ) ) ) X e+3 c.H H H H h+h+!+!+!+!+!+!+!+!+!+S.) ) ) B B B B B <+S.e+3 H H ++| 4.;.c c c R.R.y.$+u+9+L L ^ o o o o o o W.W.3+3+3+3+3+3+3+3+3+h+h+3+3+h+h+ .o o o o o o  . . . . .o o o o o o o L 3+9+u+y.x+x+x+x+:.:.$+7+9+L ^ ^ o o o o o o o o o o o o ^ L u+R.Y.0+0+0+S 4+4+( @.@.e e b+b+b+b+f+e e @.M 4+4+S S 4+4+4+^+^+M T.=+8+b.=+g 4+4+M M M M M M M M M ^+^+^+! ! T.T.M u f+U U U U U P P 7+b+2.e u u u n.c+c+c+n.l.u e f+b+P = = h h h -+9+7+$+:.:.( M 4+T.T.T.1+{.{.{.6+6+6+6+6+{.{.{.1+1+1+Q 8+=+=+S ( :.$+7+R h ^ ^ ^ W.W.-+-+N.7+G :.@.@.@.:.G G 7+R h ^ ^ ^ ^ 9+y.Y.S S S 4+^+e e 2.2.7+9+W.o o o o ^ L 7+$+:.:.:.2.7+7+7+7+7+9+9+9+9+7+7+7+7+9+9+R L ^ ^ o o o o o L L L L 9+u+y.R.y y R.y.N u+3+3+3+3+++N 4.;.R.R.R.R.y.y.y.R.c _._.(.c d ++h+o o  .h+H ++| | ++H h+++ +;.c c c c ;.4.4.N ++++h+!+S.S.) B B B ) S.S.!+h+h+h+3+h+!+!+!+!+!+!+!+!+o o o o o o ) ) ) ) S.S.!+h+h+h+H H 3 e+<+B p p p p p B B <+<+S.S.S.3 H <.|  + + + + +<.3 S.<+B <+<+<+<+<+X e+e+c.c.c.c.e+e+X X S.S.S.S.",
"H H h+h+!+S.S.S.) B B B p p p p p B <+<+) ) ) ) ) ) ) ) ) B ) X X e+e+3 3 3 3 e+S.S.S.S.S.S.S.S.S.S.) ) ) ) ) B B B B *.X e+e+h+H ++++4.4.R.R.R.y.y.$+u+9+9+L ^ ^ o o o o o o W.3+6 3+3+3+3+3+3+3+3+3+3+h+h+h+h+!+o o o o o o  . . . . .o o o o o o o W.9+u+$+y.x+x+x+x+:.:.$+7+R L ^ o o o o o o o o o o o o o ^ L u+x+Y.0+0+0+4+4+@.@.@.e e f+b+b+b+b+f+e e @.4+4+S S S g T.4+^+^+M T.g 8+8+=+g 4+4+4+T.T.7.T.T.T.T.! ! / ! T.T.g T.! ^+e f+f+f+f+f+b+b+b+b+e e u u u c+c+c+c+u u u e b+P P h h h h h h -+9+9+7+$+2.@.@.^+^+'./ T./ ! ! ! / 6+6+6+{.{.{./ T.T.T.4+4+( :.$+7+R ^ ^ ^ ^ ^ ^ h -+N.7+2.:.5.Y.4+4+5.@.:.G 7+R h ^ ^ ^ 9+y.Y.S S S 4+M @.e 2.b N.-+W.o o o o o L 9+$+:.:.:.:.1 $+$+$+7+7+7+7+7+7+7+7+9+9+9+R L L o o o o o o o L L L R u+y.R.y y R.y.4.u+3+3+L L 3+++N 4.y.R.R.R.R.y.y.R.y _.!.!._.;. +h+o o  . .h+H ++<.H h+h+h+++4.4.;.;.4.4.4.N ++++3+h+!+S.) ) B B B ) S.S.h+h+h+h+h+!+!+!+!+!+!+!+!+!+o o o o o !+S.S.S.S.S.S.!+!+h+H <.<.<.3 e+B B p p p p p B B <+<+S.S.S.H <.++ + +d d  +| <.e+S.B B B *.*.<+t.t.e+c.c.c.c.e+e+e+X X ) ) ) ",
"h+h+h+h+!+S.S.S.) B B B p p p B <+<+<+<+) ) ) ) ) ) ) ) ) B B X X e+e+e+e+e+S.S.S.) ) ) ) ) ) ) ) ) ) ) ) ) ) ) B B B ) X X e+h+H ++++u+u+4.4.4.4.u+u+u+9+L ^ ^ o o o o o o  .W.3+9+u+9+3+3+L L 3+3+3+3+h+h+h+h+S.) ) ) o o o o  . . . .o ) ) ) o o ^ W.9+u+$+:.x+( ( x+:.$+7+9+R ^ ^ o o ) ) ) o o o o o o o o ^ L u+x+Y.0+0+H.4+( @.e e e f+f+b+b+b+b+f+f+e @.4+4+S S g g T.4+^+^+^+T.g 8+8+g T.M M T.g =+=+=+g T.T.T.! T.1+1+Q Q g T.M e e f+e } e e e e e e u u u u c+c+c+c+u u u f+b+P h h h ^ ^ ^ ^ ^ R -+R 7+7+7+b+2.@.@.^+M ! ! ! ! ! / l.l.l.l./ / M ^+^+( ( :.$+9+R ^ ^ ^ ^ ^ ^ h h N.P b+2.5.4+S S S S '.@.:.G P h ^ ^ L u+:.Y.S g g 4+M @.@.2.b -+W.^ o o ) o o L 9+$+1 :.:.:.:.1 1 1 1 1 $+$+$+7+7+9+9+9+9+L L L !+o o ) o o o ^ ^ L R u+y.R.y y c R.y.4.N u+3+3+3+++u+N y.R.R.x+R.R.R.c _.< < < o.c 4.3+!+o o  .!+h+h+H h+h+h+h+6 ++++++++++++++++++3+3+h+!+S.) ) B B ) ) S.h+h+h+!+ .o o o o o !+!+!+!+!+o o o o !+!+!+S.S.S.S.S.!+!+h+H <.| <.<.e+X B B p p p p p B B <+<+S.S.h+H ++++ +d d d  +<.3 S.<+B B B *.*.t.t.e+c.c.c.c.e+e+e+X <+B B B ",
"H H H H H H 3 e+S.B B B B B B <+<+<+<+S.S.) ) ) ) ) ) ) ) B ) X X e+e+e+e+S.S.S.) ) ) ) ) ) ) ) ) ) ) ) ) ) ) ) ) ) ) X X X e+h+h+6 ++++u+u+u+u+u+u+u+9+3+L ^ ^ o o o o o o  .3+3+u+u+9+9+L L L 3+3+3+3+h+h+h+S.S.) ) ) o o o o  . . . .) ) ) ) o o  .L 9+$+$+:.x+( ( x+:.$+7+R R ^ ^ o o ) ) ) o o o o o o o o ^ L u+x+Y.0+0+H.4+@.e f+f+f+f+f+b+b+b+b+f+f+e @.'.4+S S S T.T.'.^+^+^+! T.g g g T.M M T.g =+8+=+g T.T.T.T.1+1+Q 8+8+8+g 4+^+u u u u u u e e e e u u u u c+c+c+c+u u } f+b+P h h ^ ^ ^ ^ ^ ^ ^ h h h h P P P b+:.@.( M M M M ^+l.l.l.n.u ^+^+@.@.@.:.:.$+9+R L ^ ^ ^ ^ ^ ^ h h P P b+:.5.S S S S S '.'.@.G 7+R h R 9+$+x+Y.S g T.4+M @.@.2.b -+W.o o ) ) ) o L 9+9+1 1 :.:.:.1 1 1 1 1 $+$+$+/./.9+9+9+R L L L !+o ) ) ) o o o ^ L R u+y.R.y y y y c c ;.4.4.4.N 4.4.4.y.R.R.y R.R.R.y _.< ].].!.c 4.3+L o o !+!+!+!+!+!+h+h+h+h+W.W.W.3+3+3+3+3+3+3+3+h+!+!+S.) ) ) ) X S.h+h+h+!+o o o o o o o !+!+!+!+!+o o o !+!+!+!+S.S.S.S.!+!+H <.|  + +<.H e+<+B B B p p p B B <+S.S.S.h+H ++++ +d d d  +<.<.3 e+<+<+<+<+t.t.t.e+c.c.c.c.e+e+X X B B B B ",
"H H H <.<.<.<.3 e+S.B B B B <+<+t.e+e+e+S.S.) ) ) ) ) ) ) ) X e+e+h+h+h+e+S.S.) ) ) ) ) ) ) ) ) ) ) ) ) ) ) S.S.S.S.S.S.X X X  .h+6 6 ++u+u+u+u+u+u+9+3+L ^ ^ o o o o o o o W.3+6 u+u+9+9+R L L L 3+3+3+h+!+S.S.) ) ) ) o o o o  . . .o ) ) ) ) o o  .W.9+u+$+:.x+x+x+:.:.7+R R ^ ^ o o ) ) ) ) ) o o o o o o o ^ L u+x+Y.0+0+H.4+@.e f+f+f+f+f+b+b+b+b+f+f+e @.^+4+4+4+4+4+'.^+^+u ^+M T.g g T.M ^+^+M T.=+=+g T.T.! ! / 1+1+Q 8+8+8+=+T.M ^+^+u u u u u u u u u u u u u n.u u u } } b+P h h ^ ^ ^ ^ ^ ^ ^ ^ h h . . h h h P 7+:.:.@.@.@.^+^+n.n.n.e e e @.@.:.:.$+$+9+9+L L ^ ^ o ^ ^ h h P P P b+:.5.4+S S S S S '.@.G 7+P 7+7+$+:.( 4+4+4+4+M ^+@.2.b N.-+W.o o o ) ) o o L 9+9+$+$+1 1 1 1 1 N N u+u+9+9+9+9+9+9+L L L L o o ) ) ) ) o o ^ L R u+y.x+y _._._._._._.(.c c c c c c c c c R.R.R.R.y _.< ].< o.c 4.++L L !+!+!+!+!+!+!+!+!+ . . . . . . .!+h+3+3+3+3+3+h+h+!+S.S.X S.S.h+h+h+!+!+o o o o o o o !+!+!+!+!+!+!+!+!+!+!+!+!+S.S.S.S.!+h+<. +d d  +<.3 e+<+<+*.B B B B <+<+S.S.!+h+h+h+++++ + + + +w+<.<.c.3 e+t.t.e+e+e+3 3 c.e+e+e+X X <+B B B B ",
"| | |  + + +w+<.3 S.) B B <+<+S.3 3 3 3 e+S.S.X X X X X ) S.S.3 H <.<.H h+S.) ) ) ) ) ) ) X X ) ) ) ) ) ) S.S.S.h+H H h+S.X X  . .3+6 6 u+u+u+u+u+9+9+3+L ^ o o o o o o o  .W.3+9+u+u+9+9+R R L L 3+3+h+!+!+S.) ) ) ) ) o o o o o o o o ) ) ) ) o o  .W.9+u+$+y.x+x+x+:.$+7+R h ^ o o ) ) ) ) ) ) ) ) ) ) ) o o ^ R $+x+Y.0+0+4+( @.b+b+b+b+b+b+f+f+f+f+b+b+f+@.@.^+'.'.^+^+^+u u u u ^+4+T.T.4+^+^+^+M T.g g T.T.! / / / / 1+Q 8+d.d.8+g T.'.^+/ l.l.u u u u u u u u u u u u u e e b+b+P h ^ ^ ^ ^ ^ ^ ^ ^ h h h . . . h h R 7+7+$+2.2.e e e e f+f+f+b+2.2.2.2.$+7+7+9+9+R L L ^ ^ ^ ^ h R P P P 7+G @.Y.S S S S S 4+5.:.7+7+7+:.:.( ( M M M ^+^+@.2.2.b N.-+W.^ o o ) ) o o !+L 3+9+9+7+7+7+7+u+u+9+9+9+3+3+3+3+L L L L L ^ o o ) ) ) ) o o ^ L 9+N y.y y ;+a < < < < a o._._._._._.c c R.R.R.R.y y _.a < a _.c 4.++L L L L L L L L !+!+!+o o o o o o o o !+h+3+3+3+3+3+h+h+h+h+e+e+h+h+h+h+!+!+o o o o o o o !+!+h+h+h+!+!+!+!+!+!+!+!+!+!+S.S.S.H <.U.&+&+d w+<.3 e+e+X <+*.*.<+S.S.e+3 h+h+h+h+h+H <.<. +w+w+~ w+w+c.c.3 3 3 3 3 3 3 3 e+e+X X *.B B B p p ",
" + + + +d d U.w+<.e+) ) ) S.S.3 3 H c.3 e+S.<+<+X X X X S.S.e+H <.<.<.<.h+S.) ) ) ) ) ) X X X X ) B B ) ) S.S.H H H H H h+S. . . .W.3+6 u+u+u+u+9+9+9+3+L ^ o o ) ) o o  .W.W.3+u+u+u+9+9+R R R L 3+3+h+!+S.) ) ) ) ) ) o o o o o o o o ) ) ) ) o o  .W.3+u+u+y.R.x+x+:.$+9+h ^ ^ o ) ) ) ) ) ) ) ) ) ) ) ) o o L R $+x+Y.S S Y.( @.b+b+U U b+b+f+e f+f+b+b+b+} @.^+^+^+^+@.e e e e e ^+M 4+4+M ^+@.^+^+M T.T.T.! ^+^+^+/ / T.Q 8+q q b.8+g T.T./ l.l.u u u u u ^+^+^+^+^+^+u @.e f+b+7+R h ^ ^ ^ ^ ^ ^ h h h h h h R h h h R R 7+7+7+b+b+b+b+b+b+b+b+b+2.2.$+$+7+7+9+9+9+9+9+R L ^ ^ h R P P P P P G :.( Y.Y.S S S 4+5.:.G b+2.@.( ( ^+^+^+^+^+@.e 2.b+b -+-+W.^ o o o ) ) o o o L L L R 9+9+9+9+3+3+3+L L L L L L L L L ^ ^ o o ) ) ) o o o L L 9+N y.y y ;+< &.&.&.&.].< !.!.!._._._.c R.R.R.R.y y _.;+a a _.R.4.3+3+3+3+3+3+3+3+3+L !+o o o o ) ) ) ) ) !+h+h+++++++++++++H h+h+h+h+h+H h+!+!+o o o o o o o !+h+h+h+h+h+h+!+!+o o !+!+!+!+S.S.S.H w+d &+&+&+U.<.<.3 e+e+e+e+e+e+e+e+3 H h+!+S.S.S.e+e+H <.w+~ ~ ~ ~ w+<.<.H H H H 3 3 e+e+X *.B B B B p p p ",
" + + +d d d d  +<.h+S.S.S.S.3 H H <.c.3 e+<+<+<+X X X X S.S.e+H <.<.<.<.h+S.) ) ) ) ) X X X X X B B B ) S.S.!+H H | | ++H h+h+h+W.3+6 6 u+u+u+9+9+9+9+L L o o o ) ) ) o  .W.W.6 /.u+u+9+9+R R R L 3+3+!+!+) ) ) ) ) ) ) o o o o o o o o ) ) ) ) o o  .W.3+u+u+y.y.x+:.1 $+R h ^ o o ) ) ) ) ) ) ) ) ) ) ) ) o !+L 9+1 x+Y.i i Y.( 2.b+b+U U b+b+f+f+f+f+b+b+b+e @.^+^+@.e e f+f+f+f+e @.^+M M ^+@.@.@.^+M M ! M ^+^+u u / / T.Q 8+q q b.8+=+g T./ / l.u u u u ^+^+M M M ^+^+^+@.e b+b+P R h ^ ^ ^ ^ ^ h h h R 7+7+7+$+7+7+7+P R R R P 7+b+2.2.2.b+b+b+2.2.:.:.$+$+7+7+7+7+7+7+9+9+R R R P P P P P P 7+2.:.x+Y.Y.Y.4+Y.5.:.:.:.@.@.M M M ^+^+u u e e 2.7+7+-+-+W.W.^ o o o ) ) o o o o ^ L L L L 3+3+3+!+!+o o o L L L L ^ ^ ^ o o o o o o o !+L 3+9+N y.x+y ;+a w &.&.&.].< < !.!._._.%+c R.4.y.R.R.y y _._._.c R.u+3+3+3+3+3+3+3+3+3+3+!+o o o ) ) ) ) ) ) S.h+h+++++++++++++++++H h+h+H h+h+!+!+o o o o o o o !+h+h+h+h+h+h+h+ .o o o !+!+!+!+S.S.H w+d &+&+&+U.w+<.c.3 e+e+e+e+e+e+e+h+h+h+S.S.) ) ) X e+c.c.w+~ ~ ~ w+<.<.H H H H H 3 e+e+<+<+B B B p p p p ",
"d d d d d &+d  +| H h+h+H H H H H <.c.3 e+<+<+<+X X X X S.S.S.H <.<.<.<.h+!+S.S.S.S.S.S.X X X X B B B ) S.S.!+H | | | | ++3+3+3+++++++++u+9+9+9+9+9+L L ^ o o o ) ) ) o  .W.W.6 /././.9+9+R R R L 3+3+ .o ) ) ) ) ) ) ) o o o o o o o o ) ) ) ) o o  .W.3+u+u+y.y.y.y.$+7+-+^ ^ o ) ) ) ) ) ) ) ) ) ) ) ) ) o L 9+u+y.x+Y.Y.Y.Y.@.2.b+b+U b+b+b+b+f+f+b+b+U b+e e @.@.@.e f+b+b+b+f+e e @.@.( @.@.e e @.^+M M ^+^+u u u u / T.Q 8+8+8+d.8+=+g T.! / l.u u u ^+^+M 4+4+M M ^+^+@.2.b+7+R R ^ ^ ^ ^ ^ h h h P 7+$+:.x+x+:.:.1 7+7+P P 7+$+:.@.@.@.@.2.2.:.@.@.@.:.2.b+7+7+b+b+b+b+7+7+7+7+7+P P P P P 7+$+$+:.x+( Y.Y.Y.Y.( @.@.@.^+M M '.^+u u u e e 2.$+b -+-+-+W.W.^ o o o ) ) ) o o o ^ L L L L !+!+!+o o o o o !+L ^ ^ ^ ^ ^ o o o o !+!+L 3+9+u+1 y.R.y y ;+a < < < a o.o._._._.c c R.4.4.y.y.R.R.y y y c R.4.u+3+3+L 3+3+3+3+3+3+3+!+!+o ) ) ) ) B B ) ) e+h+<.++ + +4.4.4.++++3+h+h+h+!+!+!+o o o o o o o !+!+h+h+h+h+h+h+ .o o o !+!+!+!+!+!+H <.U.&+&+d U.w+<.<.c.c.3 e+e+e+e+h+h+!+S.S.) ) ) B B <+t.c.c.w+w+w+<.<.<.H H H H h+e+e+S.<+B B B p p p p p ",
"d d d d d d d  + +<.H H H H H H H H 3 e+S.<+<+B ) ) ) ) ) S.S.h+H <.<.H h+!+!+!+!+!+S.S.S.S.S.) B B B ) S.S.!+H ++| N | | ++++++++u+u+u+u+3+3+3+L L L ^ ^ o o o ) ) ) o  .W.W.6 /./././.9+9+R R 3+W.W. .o ) ) ) ) ) ) ) o  . . .o o o o ) ) ) ) o o  .W.3+u+u+$+$+$+$+$+9+-+^ ^ o ) ) ) ) ) ) ) ) ) ) ) ) o !+3+u+y.:.x+( Y.Y.( @.2.b+b+b+b+b+b+b+b+b+b+b+U b+f+e @.@.e b+b+b+U b+b+b+e @.@.@.@.e e e @.^+^+^+^+@.u u u u / / 1+Q 8+8+8+8+=+=+g T.^+u u u u ^+M 4+H.4+4+4+^+^+@.2.7+7+R R ^ ^ ^ ^ h h h = P b+:.x+y i y v+:.:.1 7+7+7+:.( Y.4+M ( @.@.( ( 4+( ( @.2.2.b+2.e } e e 2.2.2.b+b+P P P P R 7+7+$+:.x+( Y.Y.Y.( ( ( ^+M M / / / / u ^+@.@.2.2.b /.-+-+-+L L L o o o ) ) ) ) o o o o o !+!+o o o ) ) o o o ^ ^ ^ ^ ^ ^ ^ !+!+!+!+L 3+3+u+N y.y.y.y.R.y y _._._._.c c c c R.R.y.4.4.N N y.y.y.y.R.R.;.4.4.++3+3+L L L L 3+3+3+3+h+!+!+) ) ) B B B B ) e+h+<.|  +4.4.4.4.4.++++3+h+!+S.S.) ) ) ) ) ) o o !+!+h+h+H 3+3+h+ .o o o !+!+!+!+!+h+H <. +d d d  +<.<.<.c.c.c.3 3 h+!+!+S.S.S.S.) ) B B B B *.t.t.c.c.c.<.<.H H H H h+e+e+S.<+<+B B p p p p p p ",
";.;.;.;.d d d  + +| | | | | <.<.H 3 3 e+<+<+B B ) ) ) ) ) ) S.S.h+H H H h+!+!+!+!+h+h+e+S.S.S.) B B B ) S.!+!+3+++N N N N N 4.4.4.4.N u+++3+L L L ^ ^ ^ ^ o o o ) ) ) o  .W.W.6 /./././.9+9+9+9+3+W.W. .o ) ) ) ) ) ) )  . . . .o o o o ) ) ) ) o o  .3+3+u+u+$+$+$+$+7+9+L ^ o o ) ) ) ) ) ) ) ) ) ) ) o o 3+u+$+y.x+x+( ( ( ( :.2.b+b+b+b+b+b+b+b+b+b+U U b+b+e @.@.e b+b+U U b+b+b+2.2.2.2.e e e e @.@.@.@.@.@.e u u ^+/ / 1+Q Q 8+8+=+=+=+g 4+^+u u @.^+M 4+0+=+=+=+4+M ^+@.2.7+9+R L ^ ^ ^ h h h = = P G x+i i ;+i i 5.v+:.1 $+:.:.Y.4+S 4+4+M M M 4+4+4+M @.@.e e e } } @.@.@.@.e e b+b+P P P P N.7+$+$+:.|.( ( ( ( M M M './ / / / / / M M ( ( :.$+b -+-+9+9+9+L L o o o ) ) ) ) ) o o o o ) ) ) ) ) ) o o o o ^ ^ ^ ^ ^ L L L L L 3+3+u+N N y.1 1 1 1 y.y.y.R.R.R.R.4.4.4.N u+u+u+u+u+u+u+u+u+N 4.4.4.u+++3+3+L !+!+!+!+3+3+3+3+h+h+h+S.) ) B B B B ) e+3 <.|  +d ;.;.4.4.u+++3+h+!+S.) ) ) ) ) ) ) ) o !+!+!+h+3+++3+3+h+o o o !+!+!+!+!+H H <. + + + + +<.<.<.c.c.c.3 h+!+!+!+S.S.) ) ) B B B B B B D.<+t.t.e+3 H H H H h+h+e+S.<+<+<+B p p p p p p p ",
";.;.d d d d d  + +| | | | | | <.H 3 e+S.<+B B B ) ) ) ) ) ) ) S.h+H H H !+!+!+!+!+h+h+S.S.S.S.) B B B ) ) !+!+3+3+N N N N 4.4.4.4.4.4.N ++3+L L ^ ^ ^ ^ o o o o ) ) o o  .W.W.W././././.9+9+9+9+W.W.W. .o ) ) ) ) ) ) o  . . . .o o o ) ) ) ) ) o o !+3+3+u+u+u+$+$+$+9+9+L ^ o o ) ) ) ) ) ) ) ) ) ) o o !+3+u+y.x+x+x+( ( ( @.2.b+b+b+b+b+b+b+b+b+b+b+U U b+b+e @.@.2.b+P P P U b+b+b+2.2.2.2.e e e e @.@.@.@.e e e u / / / 1+1+Q Q =+=+=+=+4+M ^+^+^+^+4+S 0+#+A A #+=+H.4+( :.$+9+R L ^ ^ ^ h h h = = P :.( i ;+0+0+i 5.5.:.:.:.:.( Y.4+S 4+4+M M M T.T.4+4+^+@.e e e } u u ^+^+^+@.@.e b+b+b+7+7+7+7+7+$+2.:.( ( ( M M M M / / / / T.T.T.T.S 4+Y.x+:.$+7+9+9+9+9+3+L o o ) ) ) ) ) ) ) ) ) ) ) ) ) ) ) ) o o o o o ^ ^ ^ L L L 3+3+3+3+9+u+N N 1 N u+9+9+9+9+9+u+u+u+u+u+u+9+3+3+3+u+u+u+u+9+9+9+9+++++++++++3+3+L !+o o !+L 3+3+3+3+h+h+h+S.) ) ) B ) X e+e+H <. +d ;.;.4.4.u+++3+h+!+S.S.) ) ) ) ) ) ) S.!+!+!+H 3+++++3+h+ .o o !+!+!+!+H H H <.<.| <.<.<.<.c.c.c.c.3 e+e+!+!+S.) ) ) ) ) B B B B B B p p B B <+S.h+h+h+h+h+e+S.S.<+<+B B p p p p p p p ",
"4.d d d 4. + + + + +| | | | <.<.3 e+S.<+B B B B B ) ) ) ) ) ) S.h+H H H h+!+!+!+!+!+S.S.S.S.) B B B B ) ) !+!+3+3+++u+N N 4.4.4.4.4.4.N 3+3+L ^ ^ ^ ^ o o o o o o o o o o  .W.W././././.u+9+9+9+3+W. . .o ) ) ) ) ) o o o  . .o o o o ) ) ) ) o o o L 3+9+9+u+$+$+7+/.9+L ^ ^ o o ) ) ) ) ) ) ) ) ) o !+3+3+u+y.y.x+x+( ( @.:.2.2.b+b+b+b+b+b+b+b+b+b+b+b+b+b+b+2.2.2.2.b+P P P P U b+b+b+b+2.2.2.e e e e e e e e e u ^+/ / 1+1+1+1+g g g S 4+4+( @.@.4+4+0+#+A ] ] ] ] A #+H.Y.x+$+9+-+h h h h h h h = = P 2.x+Y.;+0+S S 5.5.5.:.:.:.( Y.4+4+4+M M M M T.T.4+4+^+@.e e e } } @.^+^+^+^+^+@.@.@.@.:.:.:.2.$+2.2.@.@.@.^+^+^+^+^+^+/ / T.g 8+8+=+#+0+0+Y.x+:.$+7+7+$+9+9+L o o ) ) ) ) ) ) ) ) ) ) ) ) ) ) ) ) o o o o o ^ ^ ^ L R 9+9+9+9+u+u+N N N N u+9+R R L L L L R 9+9+3+3+3+3+3+3+3+6 3+3+3+3+3+3+3+3+3+3+3+3+3+L !+o o o !+L 3+3+3+3+3+h+h+!+S.) ) X X e+e+h+<.|  +4.4.4.N ++++3+H h+!+S.S.S.) ) ) S.S.!+!+!+!+H ++++++3+h+!+o o !+!+!+!+H H H H H <.<.H c.3 3 e+e+e+e+e+S.S.S.) ) ) ) ) ) <+<+<+<+B B B p p B B S.S.S.!+S.S.S.S.<+<+<+B p p p p p p p p ",
"4.4. + + +| | |  + + +| | | <.H 3 S.<+B B B B B B B B ) ) ) ) e+h+H H H h+!+!+o o S.S.) ) ) B B B B B ) ) o !+L 3+3+++u+u+N 4.4.4.y.4.N 3+L ^ o o o o o o o o o o o o o o o W.W.6 /.u+u+u+u+9+3+6 W. . .o ) ) ) ) o o o o o o o o o ) ) ) ) ) o o !+L L 9+9+7+7+7+9+9+9+L ^ o o ) ) ) ) ) ) ) ) ) o o 3+3+u+N y.x+x+( ( @.:.2.2.b+U U U b+b+b+b+b+b+b+b+b+b+b+b+2.2.2.2.b+P P P P P P 7+7+7+b+b+b+b+b+b+b+b+b+e e e u ^+/ 1+1+1+1+T.T.T.4+M ( @.@.@.( 4+0+A ] =.p.l+l+$.] A m.w.x+$+7+-+h h h h h h h h = P $+:.Y.i i S S '.'.5.5.( ( ( ( ( ( ^+^+^+^+M 4+4+4+4+^+@.@.e e b+e @.@.^+^+^+^+^+^+^+^+^+( @.@.:.2.e e e u u u ^+u u u ^+/ g 8+W W W W A #+0+Y.( :.2.$+1 $+9+3+!+o ) ) ) ) ) ) ) ) ) ) ) ) ) ) o o o o o o o ^ ^ L R 9+9+N N N N N N N u+9+9+R L ^ ^ ^ ^ ^ ^ ^ W.L 3+3+++++++6 6 3+3+3+L L 3+3+3+3+3+3+3+3+L !+o o o o !+L 3+3+++++3+3+h+!+!+!+S.S.S.e+e+h+H ++++++++++++++++H H H h+S.S.S.S.S.S.!+!+!+!+!+H ++++++3+h+!+o o !+S.!+!+H H H H H 3 e+e+e+t.t.t.t.t.X X S.) ) ) ) ) ) ) S.S.S.S.<+<+<+B B B B B ) S.S.S.S.) ) B B B B B B B B B B B B B ",
"++++++++++++++++|  + + +| <.<.3 e+X B B B B B B B B B B ) ) S.e+h+H H H h+!+o o o ) ) ) ) B B B B B B ) ) o !+L 3+3+3+u+u+u+u+4.y.y.4.u+3+L o o o o o o o o o o o o o o o o  .W.3+u+u+u+u+u+u+6 3+ . . .) ) ) ) ) o o o o o o o o ) ) ) ) ) ) o !+L L R 9+7+7+7+9+9+9+3+L ^ o o ) ) ) ) ) ) ) ) o o !+3+u+N y.:.x+x+( @.:.2.b+b+U P P U b+b+b+b+b+b+b+b+b+b+b+2.2.2.2.b+7+P = P P P P 7+7+7+7+b+b+b+b+b+b+b+b+b+f+e u / T.1+Q Q 1+T.T.M ^+@.@.2.2.@.( S w A r p.l+l+l+l+=.] w ;+Y.:.b h h h h h h h h h h h 7+:.x+Y.Y.Y.4+'.'.5.5.( ( ( @.@.@.e e n.u ^+M 4+4+4+^+@.@.2.b+b+b+e @.^+M M ^+^+/ '.4+4+4+4+( @.@.e e n.n.n.n.n.u u u ^+T.=+W W d+p.p.r ] A 0+Y.@.:.:.:.1 u+3+!+) ) ) ) ) ) ) ) ) ) ) ) ) ) o o o o o o o o ^ ^ L R 9+N 1 1 1 1 1 N 9+9+9+R R L ^ ^ ^ ^ ^ ^ ^ L L 3+u+u+u+++++3+h+h+!+!+!+3+3+3+3+3+3+3+3+L !+o o o o o !+3+3+++u+++3+3+3+h+h+h+h+S.S.S.S.!+h+h+3+3+H H H H ++| <.H H S.S.S.S.!+!+!+!+!+!+H ++| | ++h+!+o o S.S.S.S.H H H h+S.S.<+<+B B B B B *.B B B ) ) ) ) ) ) S.S.e+e+S.S.S.S.<+B B B B ) ) ) ) ) ) B B B p p p B B B B B B B B ",
"++++++++++++++++| |  +| <.<.<.3 e+X B B B B B B B B B B ) ) S.e+3 H H h+h+!+o ) ) ) ) ) B B B B B B ) ) S.!+!+3+3+3+3+9+u+u+u+u+N 4.N u+3+L o o o o o o o o o o o o o o o o  .3+3+9+u+u+u+u+u+++6  . . .) ) ) ) o o o o o o o o ) ) ) ) ) ) ) o !+L L 9+9+7+7+7+9+9+9+L L o o o ) ) ) ) ) ) ) ) o o L 9+N y.y.x+x+( ( :.2.b+b+P P = = P U b+b+b+b+b+b+b+b+2.2.2.2.2.2.b+P = = = P P P P 7+7+7+7+7+b+b+b+U U U b+f+e u / 1+Q Q Q 1+T.M ^+@.e b+b+2.@.Y.0+#+A r p.l+l+l+l+=.] &.m.Y.:.b h h h h h h h h h h h 9+$+:.x+( Y.5.'.'.5.Y.( ( x+:.2.b+f+f+c+n.^+^+M M M ^+@.@.G b+b+b+2.@.^+^+^+^+/ / / T.T.4+4+^+@.@.e e c+c+c+c+c+n.u u ^+T.=+W r ` ` p.p.p.] w S Y.@.:.:.1 u+3+!+) ) ) ) ) ) ) ) ) ) ) ) ) ) o o o o o o o o ^ ^ L R 9+1 1 1 1 1 1 7+9+9+R R L ^ ^ ^ ^ ^ ^ ^ ^ L 3+9+u+N u+++6 W. . .!+!+!+L 3+3+3+3+3+3+3+L !+o o o o o !+3+3+u+u+++3+3+3+h+h+h+h+S.S.S.S.S.!+!+h+h+H H H <.| | | H H !+!+!+!+!+!+!+!+!+!+H ++| | ++H !+!+o S.S.S.S.3 h+h+S.S.) B B p p p B B B B B B B B ) ) ) S.S.e+3 3 3 3 S.S.S.) B B ) ) ) ) ) ) B B B B p p B B B B B B B B B ",
"h+h+H ++++++| | | | | <.<.<.<.3 e+X B B B B B B B B B B B ) ) S.e+3 H h+!+o o ) ) ) ) B B B B B B B ) S.h+h+3+3+3+3+3+u+u+u+u+u+N N N u+3+!+o o o o o o o o o o o o o o o !+L L 3+3+9+u+u+u+u+u+3+ . .o ) ) ) ) o o o o o o o ) ) ) ) ) ) ) ) o !+L L 9+9+7+7+7+9+9+3+W. .o o ) ) ) ) ) ) ) ) o o L 3+u+1 y.x+x+x+|.:.2.2.b+P P = = N.P U b+b+b+b+b+b+b+2.2.2.2.2.2.b+b+N.= = = = P P R R R 7+7+7+7+U U U U U U b+e u / 1+Q Q Q T.! ^+@.f+b+b+2.:.( Y.0+#+A ] ] =.=.=.=.] ] A m.Y.:.N.h h h h ^ ^ ^ ^ ^ ^ h R 7+$+:.:.@.@.5.5.5.5.( x+:.2.b+b+U f+f+n.u ^+^+^+^+^+@.@.} b+b+b+2.e ^+^+^+^+^+^+^+'.'.'.^+^+@.e e f+c+c+c+c+c+u u ^+4+g #+W r ` [+[+r.Z p.A m.S Y.( :.1 u+3+!+) ) ) ) ) ) ) ) ) ) ) ) ) ) o o o o o o o o ^ ^ L R 9+7+1 1 1 1 $+7+9+R R R R L ^ ^ ^ ^ ^ ^ W.L 3+u+u+u+u+++6 W. . .!+!+!+L 3+3+3+3+3+L L !+o o o o o o  .3+3+3+9+3+3+3+3+h+h+!+S.S.S.S.S.S.h+h+h+H H H <.| | | ++++H h+!+!+!+!+!+!+!+!+H H ++| | ++H !+!+!+S.S.S.S.S.S.S.S.) B B p p p p B B <+<+<+<+) ) ) ) ) S.S.3 3 3 3 3 e+S.S.S.) ) ) ) ) ) ) B B B B B p p B B B B B B B B B ",
"!+h+h+<.<. + + +| <.<.<.<.<.<.c.e+X *.B B B B B B B B B B B ) S.S.e+e+e+S.) ) ) ) ) B B B B B B B ) S.e+H <.++++++u+u+u+u+9+9+u+u+u+u+3+3+!+!+o o o ) ) ) ) ) o o o o o !+L L L L 3+9+u+u+N N u+3+ .o o ) ) ) ) o !+!+o o o ) ) ) ) ) ) ) ) ) o !+L L 9+9+$+7+9+9+3+W. .o o ) ) ) ) ) ) ) ) ) o o L 9+$+y.|.x+x+|.:.2.2.7+7+N.N.N.N.N.N.b+b+b+b+b+b+b+2.2.:.@.:.2.2.b+7+P = h h h h h h R R R R P P P P P P U U b+} u '.T.Q Q 1+T.^+u e f+b+b+:.( Y.S 0+0+#+#+A w &.&.&.A A A 0+Y.:.N.h h h ^ ^ ^ ^ ^ ^ ^ ^ h 9+7+$+1 :.:.@.@.@.v+:.:.1 $+7+P U b+f+e n.u ^+^+^+^+u @.} b+b+b+f+e n.^+u u u u u ^+^+^+^+@.e e f+f+f+c+c+c+u u ^+M T.=+#+W r p.[+r.r.r.Z =.A 0+i Y.x+1 u+3+!+) ) ) ) ) ) ) ) ) ) ) ) ) ) o o o o o o o o ^ ^ ^ R 9+7+7+$+$+$+7+7+9+R R R R R R ^ ^ ^ ^ L W.9+9+u+u+u+u+u+3+W.W.^ L L L L 3+3+3+3+L !+!+o o o o o o  . .W.3+3+3+3+3+3+!+!+!+S.S.S.S.S.e+h+h+<.<.<.| | | | ++++++3+3+h+h+!+!+!+!+!+!+!+!+H ++| | | H H !+!+S.S.S.S.S.S.S.) ) B B p p p p B <+<+S.S.S.S.S.S.S.S.S.e+3 H H 3 3 e+e+S.S.S.S.S.S.S.) ) B B B B B B B B B B B B B ) ) ) ",
") S.h+H <. + + +<.<.H <.<.<.<.H e+e+X X B B B B B B B B B B ) ) S.S.S.S.S.) ) ) ) B B B B B B ) S.S.e+H <.| | ++++u+u+u+9+9+9+9+9+3+3+3+3+!+!+!+) ) ) ) ) ) ) ) o o o !+L 3+3+L L L 3+9+u+N N u+3+W.o o ) ) ) ) !+!+!+!+o ) ) ) ) ) ) ) ) ) ) o !+L L 9+N 1 1 u+9+3+ . .o ) ) ) ) ) ) ) ) ) o !+L 9+u+$+:.x+( ( :.2.2.$+7+N.N.N.N.N.N.N.b+b+b+b+U b+b+2.@.@.@.@.2.2.b+P P h h h h h h h h h h R P P P P P = P U b+} ^+'.T.Q Q T.! ^+e f+b+b+2.@.Y.i S 0+0+0+S S i i i 0+m.A w 0+Y.2.N.h h h ^ ^ ^ ^ ^ ^ ^ ^ ^ h R 7+7+$+:.:.:.:.:.:.1 $+7+P P U b+e e n.n.u u u u u u } f+b+b+f+e n.n.n.n.e e e e e e e e e f+f+f+Y f+f+c+u ^+M 4+g =+#+W r p.l+r.f r.r.p.] w 0+Y.x+:.u+3+!+) ) ) ) ) ) ) ) ) ) ) ) ) ) o o o o o o o o ^ ^ ^ R 9+7+7+7+7+7+7+7+9+R R R R R R R ^ ^ ^ W.9+9+u+u+u+u+u+9+3+W.^ L L L L 3+3+3+3+3+L !+o o o o o o  . . .W.W.L L L L !+!+!+!+S.S.S.S.e+e+H <.| | | | | | ++++3+3+3+3+3+3+!+!+!+!+!+!+!+!+H ++| | | H H h+!+S.S.) ) ) ) ) ) ) B B B p p B <+<+S.e+S.S.S.S.S.S.S.S.3 H <.<.H 3 e+e+S.S.S.S.S.S.S.S.) ) B B B B B B B B B B B ) ) ) ) ",
") ) e+H <.w+ +<.<.H h+H H <.<.H h+e+X X X ) ) ) X X X ) ) ) ) ) S.S.S.S.) ) ) ) ) ) B B B ) X S.S.3 H <.<.| | ++u+u+u+9+9+9+9+9+3+3+3+3+!+!+!+S.) ) ) ) ) ) ) ) o o o !+L 3+3+L L ^ L 9+u+N N u+3+L o o ) ) ) o !+!+!+!+o ) ) ) ) ) ) ) ) ) o o !+L 3+9+N N N u+3+W. . .) ) ) ) ) ) ) ) ) o !+3+9+u+1 :.:.( ( @.:.2.2.7+N.-+h h N.N.N.7+b+b+b+b+b+b+b+2.@.( ( @.2.2.b+P P h h h h h h h ^ ^ ^ R R P P P = = P U b+} ^+'.T.g g T.M e f+b+b+b+:.( Y.i S S S 4+4+( @.@.( Y.0+m.0+S ( 2.N.h h h ^ ^ ^ ^ ^ ^ ^ ^ ^ h h R 7+$+:.:.:.:.:.1 1 7+7+N.P >+b+e e n.^+^+^+^+u u u } f+b+b+f+f+e n.n.e e e f+f+f+f+f+f+f+f+f+Y Y f+f+} u ^+^+4+g =+#+A r p.l+r.r.r.r.p.] A 0+i ( :.1 3+!+) ) ) ) ) ) ) ) ) ) ) ) ) ) o o o o o o o o ^ ^ ^ R 9+7+7+7+7+7+7+7+R R R R R R R R L ^ L 3+9+u+u+u+u+u+9+9+3+L L L L L 3+3+3+3+3+3+3+L  .o o o o  . . . . .W.^ ^ ^ !+!+!+!+!+o S.S.e+h+H <. + + + + +| | ++3+3+3+3+3+3+3+3+!+!+!+!+!+!+!+H H | | | H H H h+S.) ) ) ) ) ) ) ) B B B B p B <+S.3 3 3 S.S.S.S.S.S.S.3 H H <.H 3 e+e+S.S.S.S.S.S.S.S.S.) B B B B B B B B B B ) ) ) ) ) ",
") ) S.h+<.<.<.<.H h+h+h+H H H H h+h+h+ . .X X e+e+e+e+e+X X ) ) ) ) ) ) ) ) ) ) ) ) ) ) X S.e+3 H H <.++| | ++++++9+9+9+9+9+3+3+3+3+L !+!+!+S.S.) ) ) ) ) ) ) ) o o o !+3+3+3+L L ^ L 9+u+N N u+3+!+o o ) ) ) o !+!+!+!+o ) ) ) ) ) ) ) ) ) o o L L 9+9+u+N u+u+3+ . .) ) ) ) ) ) ) ) o o h+3+u+N y.:.:.:.@.@.:.2.2.7+7+-+h h h -+N.7+b+b+b+b+b+b+b+G @.@.( ( @.:.2.7+P h h h h h h h h ^ ^ ^ ^ h R h h = = P U b+} ^+4+g g g T.^+e b+b+b+2.@.( ( Y.Y.Y.Y.4+( @.e 2.2.( i 0+0+Y.x+2.= h h h h ^ ^ ^ ^ ^ ^ ^ h h h N.7+2.:.( ( x+:.1 7+7+7+7+7+b+f+e n.^+! ! ! / ^+u } f+f+b+b+f+f+f+e e e e e e f+f+f+f+f+f+f+f+f+f+f+f+f+} @.^+4+4+0+=+#+A ] =.n+k.k.=.=.] A =+S Y.:.1 9+!+o ) ) ) ) ) ) ) ) ) ) ) ) ) ) o o o o o o o ^ ^ L R R 7+7+7+7+7+7+7+R R R R R R R R R L L 9+9+u+u+u+u+9+9+3+L L L R 9+9+9+9+u+u+u+++3+3+W. . . . . . . . .W.^ ^ ^ o o !+!+!+!+!+!+!+h+H ++| 4.4.4.4.4.N ++3+3+3+3+3+3+3+3+L L !+!+!+!+!+!+!+H H H <.H H H h+S.) ) ) ) ) ) ) ) ) B B B B B <+S.3 3 3 3 S.S.S.S.S.e+h+H H H H 3 e+e+S.S.S.S.S.S.S.S.S.S.) ) B B B B B B ) ) ) ) ) ) ) ",
") ) S.e+H <.<.H h+h+!+h+h+3+3+3+3+h+h+h+h+h+h+h+H <.<.H h+e+S.S.) ) ) ) ) ) ) ) ) ) ) S.e+e+H <.<.| | | ++++++++3+3+3+3+L L L L L L !+!+!+S.) ) ) ) ) ) ) ) ) ) o o o !+3+3+3+L L ^ L 9+u+N N u+3+!+o o ) ) ) o !+!+!+!+o ) ) ) ) ) ) ) ) o o !+L L 9+9+u+u+u+++3+ .) ) ) ) ) ) ) o o  .h+3+u+N y.v+v+( @.@.@.2.2.7+7+R R h h h -+N.7+b+b+b+2.b+b+G G @.( ( ( @.:.$+7+R h h h h h h h h ^ ^ ^ ^ ^ h h h h h P b+e @.^+4+T.g g 4+@.2.b+b+2.:.@.( ( ( ( ( ( ( ( @.2.b+2.@.Y.Y.Y.( :.b+= = h -+-+h h ^ ^ ^ ^ h h h = P 2.:.( Y.Y.( :.$+7+7+7+7+b+b+e e n.! ! 1+1+! / u f+f+f+b+b+b+b+f+f+e e e e e f+f+U U U U b+b+b+b+b+f+f+e e @.^+4+4+0+m.A A &.&.&.&.&.A A A =+S Y.v+1 9+L o ) ) ) ) ) ) ) ) ) ) ) ) ) ) ) ) o o o o o ^ L L R 9+7+7+7+7+7+7+7+R R R R R R R R R R R 9+9+u+u+u+9+3+3+L L R 9+9+9+9+u+u+u+N N u+u+3+3+3+h+h+h+h+h+3+W.W. .o o o o o o !+!+!+h+3+3+++| 4.4.R.R.y.4.u+9+3+3+3+L L L L L L L L L !+!+!+!+!+!+H H H <.H H h+e+S.) ) ) ) ) ) ) ) ) B B B B <+S.3 3 3 3 S.S.S.S.h+h+h+h+h+h+h+e+S.S.S.S.!+!+!+!+!+S.S.S.S.) ) ) ) ) ) ) ) ) ) ) ) ) ) ",
") ) ) S.h+h+h+h+h+ .!+!+3+3+3+3+3+3+3+3+3+6 6 ++++| <.<.H h+h+S.S.S.S.S.o o o o o o !+h+h+<.<.| |  +| | ++++3+3+3+L L L L L L L L !+!+!+S.) ) ) ) ) ) ) ) ) ) ) o o o !+L 3+3+L L ^ L 3+u+N N ++3+!+o o ) ) ) o !+L L !+o ) ) ) B B ) ) ) o o L L 9+9+9+u+u+u+3+3+!+) ) ) ) ) ) o o  .W.3+u+N y.x+y Y.5.5.@.} G 7+7+R R h ^ h R R 7+7+b+2.e e e G G G @.( 4+( ( :.7+R R h ^ ^ h h h h h ^ ^ ^ ^ ^ ^ ^ h h h P b+e @.^+4+T.g T.4+@.b+b+2.2.@.( ( @.@.@.( ( ( ( @.2.2.2.@.( ( ( ( 2.7+N.= N.N.N.-+h h h h h h h = P b+2.( 4+S S 4+@.2.7+P 7+b+2.e e n.^+! 1+1+1+T./ u f+f+b+b+b+b+b+b+f+e e u @.@.e b+b+U U U U U b+b+b+b+b+b+2.e @.@.4+S 0+w w w ;+;+;+m.#+A #+=+S Y.v+1 9+L o ) ) ) ) ) ) ) ) ) ) ) ) ) ) ) ) ) o o o o L L L R 9+7+7+7+7+7+7+7+R R R R R R R R R R R 9+9+u+u+9+3+L L L 9+9+9+9+/.$+$+$+1 y.y.N u+u+u+3+3+h+h+h+3+3+3+L !+o o o o o o !+!+3+3+3+++N N 4.R.R.R.R.y.N 9+9+3+3+L L L L L L L L L L !+o o !+!+!+H H H <.<.h+e+S.) ) ) ) ) ) S.S.S.<+B B B S.S.3 H H 3 S.S.S.!+h+h+h+h+!+!+!+S.S.S.S.!+!+!+!+!+!+!+S.S.S.S.S.) ) ) ) ) S.S.S.) ) ) ) ",
") ) ) S.!+h+h+h+h+h+h+3+3+3+3+3+3+3+3+3+6 6 6 ++++| | | ++<.H H H h+h+h+h+h+3+3+3+3+3+H <.<.| |  +4.N u+++3+3+3+L W.W.L L L L L !+!+!+S.) ) ) ) ) ) ) ) ) ) ) o o o o L L 3+3+L L L L 3+u+N N ++3+!+o o ) ) o o !+L L !+o ) ) ) B B B ) ) o o L L 9+9+9+u+u+u+3+h+o ) ) ) ) ) o o  .W.3+9+u+y.R.y i i Y.5.@.G b+7+R R L ^ ^ L R 9+7+$+2.2.e e e } } @.@.( 4+( ( :.7+R R ^ ^ ^ h h h h h h ^ ^ ^ ^ ^ ^ ^ ^ h P b+e @.^+4+4+4+4+^+@.b+b+2.2.@.@.@.@.@.@.@.( ( ( @.@.e e @.@.( ( :.2.b+P N.N.N.N.N.N.h h h h h = P P b+@.( 4+g g 4+( 2.b+b+b+2.2.e e n.u ! 1+1+1+T./ u f+Y U b+b+b+>+>+b+e @.@.@.@.@.2.b+b+b+U U U U b+b+b+b+b+b+b+e @.( i 0+m.m.;+y x+x+Y.0+=+=+=+S Y.v+1 N L o ) ) ) ) ) ) ) ) ) ) ) ) ) ) ) ) ) o o o o !+L L R 9+7+7+7+7+7+9+9+R R R R R R R R R R R 9+9+u+u+9+3+3+3+9+9+9+u+$+$+$+$+y.y.y.y.y.y.u+u+++3+3+h+h+3+3+3+L !+o o o o o o !+L 3+3+++u+N 4.y.R.c c R.y.N u+u+3+3+3+3+L L L L L L L L !+o o !+!+!+!+H H <.<.H e+S.) ) ) ) ) S.S.S.S.S.B B ) S.S.H H H !+S.S.S.h+h+h+h+!+!+!+!+S.S.S.S.!+!+!+!+!+!+!+!+S.S.S.S.) ) ) ) S.S.S.S.) ) ) ) ",
") ) ) S.!+!+h+h+3+3+3+++++++++++3+3+3+3+6 6 6 6 ++++| | |  + +| | | | | | | | | | | | | |  + + + +N u+++++3+3+W.W.W.W.W.L L L !+!+!+S.) ) ) ) ) ) ) ) ) ) ) o o o !+!+L L 3+3+L L L 3+3+u+N N ++3+!+o o ) ) o o !+L L !+!+) ) ) B B ) ) o o L L L 9+9+9+9+u+9+3+ .o ) ) ) ) !+!+W.3+9+u+u+y.y.x+Y.i i Y.5.:.G P P R R ^ ^ ^ L 9+7+$+2.2.2.e e e e @.@.@.4+4+( ( :.7+R h ^ ^ h h h R R R R R ^ ^ ^ ^ ^ ^ ^ h R 2.@.^+M M 4+4+M @.:.b+b+2.2.:.@.@.@.@.@.@.( ( @.@.@.@.@.@.@.@.@.@.2.2.b+b+b+N.N.N.= = = = = = P P b+2.@.4+g =+=+S 4+@.2.b+b+2.2.e e e n./ T.1+1+! ^+n.f+U U b+b+U U >+b+2.@.@.@.@.@.@.:.2.b+b+U U P P P P P P b+b+b+:.( Y.0+w m.;+x+:.$+:.Y.S S S 4+Y.v+1 u+L o ) ) ) ) ) ) ) ) ) ) ) ) ) ) ) ) ) ) o o o o L L R 9+9+7+7+9+9+9+9+R R R R R R R R R R 9+9+9+9+9+9+3+3+9+u+u+$+$+1 y.y.y.y.R.R.R.y.y.y.u+u+++3+3+3+3+3+3+L !+o o o o o o !+L 3+3+++N N 4.R.R.c c c R.y.4.N u+++3+3+3+L L L L L L L !+!+!+!+!+!+!+H H <.<.3 e+X ) ) ) S.S.S.S.S.S.S.<+B ) S.S.H H H !+!+S.!+h+h+h+h+!+!+!+!+!+!+!+!+!+!+!+!+!+!+!+!+!+S.S.S.) ) ) ) ) S.S.) ) ) ) ) ",
") ) ) S.!+!+h+3+++++++u+u+u+u+++++3+3+3+3+6 6 6 3+++++|  +d d d d 4.4.4.4.4.4.4.4.4.4.4.4. + + +| ++++++3+3+W.W.W.W.W.W.W.!+o o o o ) ) ) ) ) ) ) ) ) ) ) o o o !+L L L L L L L L 3+3+++u+N N ++3+!+!+o o o o !+L L L !+!+) ) ) B B ) ) o !+L L 9+9+9+9+9+9+9+3+W.o o o S.!+h+W.3+9+/.$+y.y.x+y i i i Y.( :.b+P R R ^ ^ ^ ^ L 9+$+1 :.:.e e e e @.@.@.^+M 4+( ( :.7+R h h h h h R R R R R R L L ^ ^ ^ ^ ^ ^ 9+$+@.( M M M ( @.@.2.2.2.2.2.2.@.@.@.( ( ( ( @.@.@.@.@.@.@.@.@.@.@.@.2.2.b+b+b+>+>+= = = = = P U U b+e @.4+=+=+=+=+4+^+@.e 2.2.b+f+f+f+n.l./ / ! / u e f+b+U U P P P P b+2.@.@.( ( ( ( :.:.2.b+7+P P P P P P P P P b+2.@.Y.0+m.m.;+x+1 7+2.@.( 4+Y.Y.( x+y.u+3+o ) ) ) ) ) ) ) ) ) ) ) ) ) ) ) ) ) ) ) o o o o L 3+9+u+u+9+9+3+3+3+3+3+9+R R R R R R 9+9+9+9+9+3+3+u+u+u+N y.y.y.:.:.:.x+x+x+x+x+R.y.y.4.u+++3+3+3+3+3+3+L !+o o o o o o !+L 3+3+++N 4.4.R.R.c c c c R.R.4.4.| ++++3+3+L L L L L L !+!+!+!+!+S.S.H H <.<.3 e+X ) ) ) S.S.e+e+e+S.X <+B ) S.S.H H H !+!+!+!+h+h+h+h+!+!+!+!+!+H H h+h+h+h+!+!+!+!+!+!+!+!+!+o o o ) ) ) ) ) ) ) ) ) ",
") ) ) ) S.!+h+3+++| N 4.4.4.N u+++3+3+3+W.W.W.W.3+3+++| 4.d d ;.;.;.;.;.;.;.;.;.;.;.;.;.4.4.4.u+++++3+3+3+W.W.W.6 6 W.W. .o o o o ) ) ) ) ) ) ) ) ) ) ) o o o !+L 3+3+3+L L L L L 3+3+++u+N N | ++h+!+!+o o o !+L 3+3+!+!+) ) ) B B ) ) o L L L 9+9+9+9+9+9+9+3+L o o o !+h+h+3+9+/.$+$+y.x+x+Y.i i i Y.x+:.7+P R R ^ ^ ^ L 9+u+y.:.:.:.@.e e e @.^+^+^+4+4+4+@.2.7+h h h h h R P 7+7+7+R R R L ^ ^ o o ^ ^ 9+$+@.( 4+M ( @.@.2.2.2.2.2.2.2.2.@.( ( M ( ( @.@.@.@.^+^+@.@.@.@.@.@.@.@.2.2.b+b+b+U j j j U U U U b+e @.4+=+#+#+=+4+M @.e e b+b+b+f+f+c+n.l.l.l.l.n.f+f+b+U P P P P P b+2.:.( ( ( ( ( ( :.:.$+7+P P h h h h h N.P P 2.@.Y.0+m.m.;+y 1 7+7+2.:.@.( x+x+:.y.u+h+) ) ) ) ) ) ) ) ) ) ) ) ) ) ) ) ) ) ) ) ) o o o L 3+9+u+N 9+3+3+L L 3+3+3+3+R R R R 9+9+9+9+3+3+3+3+u+N 4.y.y.y.x+x+x+x+x+x+x+y x+R.R.y.y.N u+3+3+3+3+3+3+3+!+o o o o o o !+L 3+3+++u+4.4.;.R.c c c c c ;.;.4. +| ++H h+!+!+L 3+3+L !+!+!+!+S.S.S.3 H <.<.3 e+) ) ) S.e+h+h+e+e+e+X <+B ) S.S.H H H !+!+!+!+h+h+h+h+!+!+!+!+!+H H h+h+h+h+!+!+!+!+!+!+!+!+!+o o o o ) ) ) ) ) ) ) ) ",
") ) ) ) S.!+!+3+++|  +4.4.4.4.++++3+3+3+W.W.W.W.L L 3+++ +4.;.;.;.;.c c c c ;.;.;.;.;.4.4.4.N ++++++3+3+3+W.W.W.6 6 W.W. .o o o ) ) ) S.S.e+e+S.S.) ) o o o o L L 3+3+3+L L L L 3+3+++++u+N N | ++3+h+!+!+!+!+L 3+3+3+!+!+) ) ) B B ) o !+L L 9+9+9+9+9+9+9+9+3+L L !+!+h+3+3+9+/.$+$+:.:.x+x+Y.i 0+i Y.x+1 7+R h ^ ^ L 3+9+u+1 y.:.x+|.@.@.e @.@.^+^+M 4+4+4+( :.7+R h h h h R 7+7+7+7+7+R R L ^ ^ o o ^ L 9+1 ( Y.4+( @.2.2.2.2.2.2.2.2.2.e @.( 4+4+4+M ^+^+^+^+^+^+^+@.@.@.@.@.@.@.@.@.2.2.b+b+b+U U U U U b+f+e @.4+g =+=+=+4+^+@.e b+b+b+b+U Y f+c+n.u u n.e f+b+U P P P P P P 7+2.:.( ( ( Y.Y.Y.x+:.$+7+R h h h h h h h = P b+@.Y.0+m.m.;+x+1 9+P P b+2.:.:.:.y.4.++h+) ) ) ) ) ) ) ) ) ) ) ) ) ) ) ) ) ) ) ) ) ) o o !+3+3+u+u+++3+!+!+!+!+3+3+3+9+9+9+9+9+9+9+9+L L 3+++u+4.4.y.y.R.x+x+x+x+x+x+x+x+R.R.y.y.4.N u+3+3+3+3+3+3+3+L !+o o o o o !+L 3+3+++++N 4.4.;.;.;.;.;.;.;.d d  +| <.H H !+!+3+3+3+L !+!+!+!+S.S.S.3 H <.H 3 e+<+) ) S.e+h+e+e+e+X X B B ) S.S.h+H H H !+!+!+h+h+h+!+!+!+!+!+!+h+h+h+h+h+h+!+!+!+!+!+!+!+!+!+o o o o ) ) ) ) ) ) ) ) ",
") ) ) ) ) !+!+h+3+++++|  + +| ++++3+h+ . . . . .^ L 3+3+++ +4.;.;.;.c c ;.;.;.;.;.4.4.4. +| ++++++++3+3+3+W.W.W.W.W.W. . .o o ) ) ) S.e+H <.<.H h+S.o o o o L L 3+3+3+3+L L L L 3+3+++u+u+u+u+++++++++3+3+3+3+3+3+3+3+L !+o ) ) B ) ) o !+L 3+9+9+9+9+9+9+9+9+3+3+3+3+3+3+3+9+/.$+$+2.:.:.x+( Y.;+0+;+Y.x+$+9+h ^ ^ ^ 3+u+4.y.y.x+x+x+:.@.@.@.@.@.^+^+^+4+4+4+( :.7+R h h h R P 7+7+7+7+7+P R R ^ ^ ^ ^ ^ L 9+:.( Y.4+( @.2.2.2.2.2.2.2.2.2.e @.4+4+4+4+4+M ^+^+^+^+^+^+@.@.@.@.@.( ( ( @.@.@.@.e e f+f+b+b+b+b+f+e @.M 4+g g 4+4+@.e 2.b+b+U U U f+f+e n.u u e f+b+U P P P P P P P 7+2.2.@.( Y.4+H.Y.Y.:.$+9+R h ^ ^ ^ ^ h h = P b+:.Y.0+0+0+i x+1 9+h R P 7+$+$+y.y.u+3+!+) ) ) ) ) ) ) ) ) ) ) ) ) ) ) ) ) ) ) ) ) ) o o !+L 3+++++3+H !+!+!+!+!+L 3+3+9+9+9+9+9+9+9+3+3+3+++u+4.4.y.y.y.y.y.y.y.y.R.R.R.R.y.y.4.N u+u+3+3+3+3+3+3+3+3+3+W.!+!+!+!+!+!+3+3+++++++|  + +d d d d d d  + + +<.<.H H H !+!+3+3+!+!+!+!+!+!+S.!+H H H H 3 S.<+B ) S.S.e+e+e+X X *.B B B S.S.!+h+H H !+!+!+!+!+!+!+!+!+!+!+!+!+!+!+!+!+!+!+!+!+!+!+!+!+o o o o o o ) ) ) ) ) S.S.S.",
") ) ) ) ) ) S.!+h+H H ++| | | <.H h+!+o o o o o o o !+3+3+++ +4.;.;.;.;.;.;.d 4.4. +| ++++H H 3+3+++++6 6 6 6 W.W. . . .o o ) ) ) S.S.H <.w+w+<.H h+!+!+!+L L L 3+3+9+3+L L L 3+3+9+u+u+u+++++++++| ++++++3+3+9+9+9+3+L !+o ) ) ) ) ) o L L 9+9+9+u+u+9+9+3+3+3+3+3+3+u+u+u+u+$+$+$+2.:.:.( ( Y.0+0+;+w.x+y.9+L ^ ^ L u+y.R.x+x+x+x+:.:.@.@.@.@.@.@.^+^+4+4+4+( :.7+7+R R R R 7+7+7+G 7+7+P R R ^ ^ ^ ^ ^ 9+u+:.( Y.4+( @.2.b+b+2.2.e e e e @.^+4+S g g T.4+M M ^+^+^+^+@.@.@.@.( 4+4+4+4+( @.@.@.@.e e f+b+b+b+f+e e ^+M 4+4+^+@.e b+b+P P P P U b+f+e e u e e b+b+P P R R R R P P 7+b+2.@.( 4+H.H.H.Y.x+$+R ^ ^ ^ ^ ^ ^ ^ h h P b+:.( i ;+;+y R.N 9+R R R 9+7+$+$+u+u+3+!+) ) ) ) ) ) ) ) ) ) ) ) ) ) ) ) ) ) ) ) ) ) o o o L 3+3+3+3+!+!+S.S.S.!+!+3+3+9+9+9+9+9+9+9+3+3+3+++u+4.4.4.y.y.y.y.y.y.y.y.y.4.4.4.4.N u+u+3+3+3+3+3+3+3+3+3+3+3+3+L !+!+!+h+h+h+H H H <.<.<.<.<.<.<.<.<.<.<.<.<.<.H H H H !+!+!+!+!+!+!+!+!+!+!+h+H H H 3 S.) B ) S.S.S.S.S.X *.B B B B ) S.!+!+H H H h+!+!+!+!+!+!+!+!+!+!+!+!+!+!+o o o o o o o o o o o o o o o ) S.S.S.S.S.X X ",
") ) ) ) ) ) ) ) S.S.h+h+<.<.<.H h+S.) ) ) ) o o o o o o !+h+++ +4.;.;.;.d d  +| ++++h+h+h+h+h+h+3+++++6 6 6 6 W. . .o o o ) ) ) S.S.3 <.w+U.U. +<.H !+!+!+L L L 9+9+9+R L L L 3+9+u+u+u+++++++++u+N N u+u+u+u+9+9+9+3+L !+o ) ) ) ) o !+L 9+9+9+u+N N 9+9+3+3+3+9+u+u+u+u+$+$+$+$+2.2.2.:.@.( Y.H.0+;+w.y y.u+u+3+3+++4.R.y y y x+x+:.x+( ( ( ( @.@.@.^+4+4+4+( :.$+7+R R R R 7+7+G G G 7+P P R h ^ ^ ^ L 9+$+:.5.Y.Y.( :.b+b+b+2.@.@.e e e @.^+4+g g g T.T.T.M ^+^+^+@.@.@.@.@.4+4+4+4+4+4+M ^+^+^+@.e e b+b+b+f+f+e e @.@.@.e 2.b+P P = = P P P b+b+e e @.@.2.b+P h h R R R R R P P b+b+e @.4+H.0+0+Y.x+u+L ^ ^ ^ ^ ^ ^ ^ h h P U 2.( Y.i i y R.N 3+L L R 9+9+u+u+u+++3+!+) ) ) ) ) ) ) ) ) ) ) ) ) ) ) ) ) ) ) ) ) ) o o o !+3+3+3+3+!+S.) ) ) ) !+3+3+u+N N 9+9+9+9+W.W.3+++u+4.4.4.4.N u+u+u+u+u+u+u+u+u+u+++++++++3+3+L L 3+3+3+3+++u+++3+3+!+!+!+h+h+h+h+h+h+h+3 e+e+e+e+e+e+e+3 c.c.c.<.H H H H !+!+!+!+!+!+!+!+!+!+!+h+H H H e+S.) B ) S.S.S.S.) B B B B B ) ) S.!+!+H H H H H !+!+!+!+!+!+!+!+!+!+!+o o o o o o o o o o ) ) o o o o o S.S.S.S.S.e+e+e+",
") ) ) ) ) ) ) ) ) ) S.e+H <.<.H e+S.) ) ) ) ) ) o o o o o  .h+++ +d d d  + +| ++h+!+o o o !+!+h+3+++++6 6 6 6 W. .o o o ) ) ) S.S.H <. + +d d  +| H !+!+L L L L 9+9+9+R L ^ L 3+9+u+u+u+u+++++++u+N N u+u+u+u+9+9+9+3+L !+o ) ) ) o !+L 3+9+9+9+u+N N 9+9+3+3+3+9+N N N u+$+$+$+$+2.2.2.2.@.( Y.i 0+;+;+_.y c R.;.;.;.c y ;+;+i Y.x+x+( ( ( ( ( ( @.@.( ( 4+( ( :.2.$+7+7+9+R 7+7+G G G 7+P P R h ^ L L 9+9+1 :.5.Y.Y.5.:.b+b+b+2.@.@.@.e e @.^+4+S g g T.T.4+M ^+^+@.e e e @.( 4+4+S S 4+4+M ^+^+@.@.e e b+b+b+f+f+f+f+e e e b+b+P = = h h h P P b+b+2.e @.:.2.7+R h ^ L L L R R R P b+b+e @.4+H.0+0+Y.x+u+L ^ o o o o ^ ^ ^ h = P 2.x+Y.i i y R.N 3+L L L L 3+9+u+u+3+h+o ) ) ) ) ) ) ) ) ) ) ) ) ) ) ) ) ) ) ) ) ) ) o o o !+L 3+3+!+!+) ) ) ) ) !+h+3+u+N u+9+9+9+9+W.W.3+++u+4.4.4.4.4.u+u+u+u+u+u+3+3+3+++++++++3+3+L L L 3+3+3+++u+u+u+++3+h+!+!+!+h+h+!+S.S.S.S.) B B B B B <+t.e+3 c.c.3 H H h+!+!+!+!+!+!+!+!+!+!+!+!+h+H h+S.S.B B ) ) S.S.S.) B B B B B ) S.S.!+!+H H H H H H H H H H H h+h+h+!+!+!+!+!+!+!+!+!+!+!+h+h+h+h+!+ .!+!+!+S.S.S.S.e+e+e+",
") ) ) ) ) ) ) ) ) ) ) S.3 H H 3 S.) ) B B B ) ) ) ) o o o o h+++|  + + +| <.<.h+!+o o o o !+h+h+3+3+++6 6 6 W. . .o o ) ) ) S.h+H <. + +d d d  +| H !+!+L L L 3+9+9+9+R L ^ ^ W.9+u+u+u+u+u+++++++++++++++++3+3+3+3+3+!+o ) ) ) !+h+3+3+9+9+9+u+u+u+u+u+9+9+9+9+9+9+u+u+7+7+7+7+7+b 2.2.2.:.( Y.i ;+a a a a a o._._._._.;+;+;+;+Y.Y.( ( Y.Y.Y.Y.( ( ( ( ( ( ( ( :.:.2.$+7+7+7+7+7+7+G 7+7+P R R R W.W.9+9+$+:.:.5.5.5.@.:.7+b+b+e @.@.@.@.@.@.( M 4+4+4+4+4+M M ^+@.e e e e @.( 4+S S S 4+( @.@.@.@.@.e b+b+b+b+f+f+f+f+e e f+b+U = = h h h h h P 7+7+2.:.:.:.$+7+R ^ ^ ^ L L L L R R 7+b+2.@.Y.H.0+0+Y.R.u+L o o o o o o ^ ^ h h P $+:.y i y y R.N ++3+L L L 3+9+u+u+3+h+o ) ) ) ) ) ) ) ) ) ) ) ) ) ) ) ) ) ) ) ) ) ) o o o  . .h+h+ .o ) ) ) ) ) S.h+3+++u+u+9+9+9+3+L 3+3+++u+4.4.4.4.4.4.u+u+u+++3+3+3+3+3+3+++3+3+h+!+!+L L 3+3+++u+u+u+++3+h+!+!+!+!+S.S.S.S.) B B B B B B B B B *.t.e+e+3 3 H h+!+!+!+!+!+!+!+!+!+!+!+!+h+h+e+S.) B B B ) ) ) ) ) ) B ) ) ) ) S.!+!+!+H H H H H H H H H H H H H H H 3+3+3+3+3+3+3+3+3+++<.<.<.<.H H h+h+h+h+S.S.S.S.X X ",
"S.S.S.) ) B B B B B ) S.3 H H 3 S.) B B B B B B ) ) ) o o !+h+H ++++++++H H h+!+S.) o o h+h+h+3+3+3+3+3+3+ . . .o o ) ) ) !+!+H |  + +d d d d  +<.h+!+!+!+L L 3+9+9+9+L L ^ ^ W.3+u+u+u+u+u+u+++++++++3+3+3+3+3+3+3+3+!+o ) ) !+h+3+3+9+u+u+$+u+u+u+9+9+u+9+9+9+9+9+9+9+9+9+9+7+7+b b $+2.2.:.( Y.;+m.w &.&.&.&.].].].].< w m.;+i Y.Y.Y.Y.i S Y.Y.( ( ( ( ( ( ( ( :.:.:.$+7+7+7+7+7+7+7+7+P R R L W.-+9+7+2.:.:.( 5.v+:.:.7+b+2.@.@.^+@.@.@.@.@.( ( ( 4+4+M M @.@.e b+b+2.2.@.( 4+S S 4+4+@.@.e 2.2.2.b+b+U U U b+f+f+e e e e f+b+P h h h h h h R P 7+7+1 :.1 $+9+L ^ o o o o o ^ L R N.7+2.@.Y.i 0+;+y R.u+L o o o o o o o ^ ^ h R 7+:.x+y y y R.N u+3+L L L 3+3+u+u+3+h+o ) ) ) ) ) ) ) ) ) ) ) ) ) ) ) ) ) ) ) o o o ) ) o o  . . . .) ) ) B ) ) S.h+3+++++++3+3+L L L L 3+++u+4.4.4.4.4.4.4.u+++3+3+3+3+h+H H H H h+!+!+!+!+L 3+3+++u+u+u+++++h+h+ .!+S.S.) ) ) B B B B B B p p p B B *.t.t.e+e+3 3 S.S.S.!+!+!+!+!+!+!+!+!+h+e+e+X ) B B B ) ) ) ) ) ) ) ) ) S.S.!+!+!+H H H 3+3+++++++| | | | | | ++++++++++++++++++++++++|  + +| | ++<.H H h+h+S.S.S.X ) ",
"S.S.S.S.) B B B B B ) S.e+H H e+S.) B B B B B B ) ) ) o !+h+h+h+H H H h+h+S.S.) ) ) ) !+h+3+3+3+3+3+3+3+ . .o o o ) ) ) S.!+H |  +d d d 4.4. +| H !+o o !+L L 3+9+9+9+L L ^ ^ W.3+u+u+u+u+u+u+++3+3+H h+!+!+h+h+h+h+h+!+!+S.!+h+3+3+u+u+u+$+$+7+9+9+9+9+u+u+u+9+9+9+9+R R R 9+9+9+-+N.b $+$+:.x+y ;+a &.] =.=.=.=.-.-.s.&.w m.;+i Y.Y.Y.i S S Y.Y.( ( ( @.:.:.:.x+x+|.:.$+7+7+7+7+7+7+7+7+R R R W.W.9+7+$+:.:.@.:.:.:.:.$+7+b+2.@.@.^+^+@.@.@.@.@.@.@.( ( ( ( @.2.b+b+b+b+2.@.( 4+S S 4+( e b+b+b+b+7+7+P P P U U f+f+e u u @.e b+P h h ^ ^ ^ h R R 7+7+1 1 1 9+9+L o o o o o o o ^ L -+7+2.:.( Y.i i y y.u+L o o o ) ) o o o ^ ^ L 9+y.v+y y y R.N N 3+L !+L 3+3+u+u+3+h+o ) ) ) ) ) ) ) ) ) ) ) ) ) ) ) ) ) ) o o o o ) ) ) o  . . . .) ) B B ) ) S.h+h+++++3+3+3+L L L L 3+++u+4.4.4.4.4.4.4.u+++3+3+h+h+h+h+H H H h+!+S.!+!+!+3+3+++u+4.4.++++h+ . .o ) ) ) ) B B B B B B B B p p p p B *.<+e+e+e+e+S.S.S.S.o o o o !+!+!+!+e+e+X X ) B B B ) ) ) ) ) ) ) ) S.!+!+!+!+H H H 3+3+++++| |  + + + + + + +| | | | N N N N N 4. + + + + + + +| <.H h+h+S.S.S.) ) ",
"S.S.S.S.) B B B B B ) S.h+H H h+S.) B B p p B B B ) ) S.!+h+h+h+!+!+!+!+S.) ) ) ) ) ) !+h+3+++3+3+3+3+L !+o o o ) ) S.S.h+H <.|  +d d 4.4.4.| ++h+!+o o !+L L 3+9+9+9+L L o  .W.3+u+u+u+u+u+++3+3+!+!+!+!+!+!+h+h+h+h+h+h+!+h+3+3+u+u+u+$+$+$+7+9+9+9+9+u+u+u+9+9+9+R R R R R R -+-+-+-+/.$+$+y.x+i ;+w ] =.n+l+n+n+n+=.&.w ;+;+i Y.Y.Y.Y.i i Y.Y.( ( :.:.:.:.:.:.|.:.:.$+7+7+7+7+7+7+R R R R L W.W.9+$+:.:.@.@.:.:.:.$+$+7+2.2.@.@.@.@.@.@.@.2.2.2.2.:.:.|.:.2.2.7+N.7+b+2.:.( 4+4+4+4+@.2.U P P 7+7+P N.= = P U b+f+e @.@.@.2.b+P h ^ ^ ^ ^ ^ L R R 9+7+1 N 9+3+!+o o ) ) ) ) o o ^ -+7+$+:.x+Y.y y y y.u+L !+o o ) ) o o o o ^ ^ 9+1 v+y y v+y.N N 3+L !+!+W.3+3+++3+h+!+S.) ) ) ) ) ) ) ) ) ) ) ) ) ) ) ) ) o o o o o ) ) o  . . .X ) B B B B ) ) h+h+3+++3+3+L L L L L 3+3+++N 4.4.4.d d  +++++3+h+h+h+h+h+h+h+h+S.S.) ) !+!+3+3+++N 4.4.++++h+ . .) ) ) ) ) B B B B B B B B p p p p p B B <+e+e+S.S.S.S.S.o o o o !+!+!+S.X X X *.B B B B ) ) ) ) ) ) ) S.!+!+!+!+H H H ++++++++|  + + + + + + + + +| | | | | N N N N  + + + + + + + + +| <.H h+h+S.S.S.S.",
"3 3 e+e+S.) ) B B ) S.S.h+H H h+S.) B B p p p B B ) ) S.!+h+h+h+!+!+S.) ) ) ) ) ) ) ) !+h+3+3+3+3+3+L !+o o o ) ) ) S.h+H <. + +d d 4.4.4.| ++3+h+S.) o !+L L 3+3+3+L L ^ o o W.3+3+u+u+9+3+3+3+!+!+S.S.S.!+h+h+H H H H H H 3+3+++u+u+u+/.7+7+9+9+9+9+9+9+u+9+9+9+9+R R R R R -+-+-+-+-+-+9+$+y.R.y ;+m.&.=.p.l+l+l+l+=.&.w ;+y y x+x+x+x+y y x+x+x+:.:.:.$+$+:.:.:.:.$+$+7+9+R 7+7+R R R R L L L 3+9+$+:.@.@.@.:.2.2.$+$+$+2.2.e @.@.@.@.:.2.2.2.$+$+$+$+2.$+$+7+N.N.7+$+2.|.( Y.Y.Y.( 2.b+>+= N.R R R h h h = >+b+b+e @.@.@.2.7+R h ^ ^ ^ ^ ^ ^ L R 9+9+9+9+9+L !+o ) ) ) ) ) ) o ^ L 9+7+$+:.x+y x+R.y.u+3+!+o o o ) ) o o o o ^ 3+N y.v+v+v+y.N u+3+3+!+o !+3+3+3+3+3+h+h+h+h+h+!+S.) ) ) ) ) ) ) ) ) ) ) ) o o o o o o o o o  . .) ) B B B B ) ) S.h+h+3+3+3+L L L L L 3+3+++++|  + + + +| ++h+h+!+!+S.S.S.S.S.S.S.) ) ) S.!+h+3+++N 4.4.++++h+ .o ) ) ) ) ) B B B B B B B B B p p p p B B <+X S.S.S.S.S.) ) o o o o !+S.S.X X X B B B B B ) ) ) ) ) ) S.S.!+!+!+h+H H ++++| 4.4.4.d d d  + + + +| <.<.<.++++++++++++++++|  + + + + + +| | <.<.H H h+h+e+e+",
"H H 3 3 e+S.S.) ) S.S.h+H H H h+!+) ) B B p p B B ) ) S.!+h+h+h+!+S.) ) ) ) B ) ) ) ) !+h+3+3+3+3+!+!+o o o ) ) ) S.e+H <. + +d d  + + +++++3+h+!+S.) !+!+L 3+3+3+L L L ^ o o L 3+3+3+3+3+3+W. .o ) ) S.S.S.h+H H H ++++++++++++u+u+9+9+9+9+9+9+9+R 9+9+9+9+9+9+9+9+9+9+R -+-+-+-+W.W.W.-+9+9+$+1 x+y ;+w ] p.l+l+l+l+=.&.;+y x+R.y.y.y.y.y.y.:.:.:.:.$+$+$+$+$+$+$+$+$+9+9+R R R R R R L L L L L 9+u+$+:.( ( @.:.2.7+7+7+2.2.2.2.e @.2.2.2.2.$+7+7+b b 7+$+7+9+-+-+-+7+$+:.|.x+( ( @.:.2.b+N.N.-+R R ^ ^ ^ h h N.>+b+2.@.@.:.2.7+R ^ ^ ^ ^ ^ ^ ^ L L R 9+9+9+L L o ) ) ) ) ) ) o o o L R 9+$+1 y.R.R.y.N 9+3+!+!+o o ) ) ) o o o o L 9+1 1 :.y.y.N u+3+h+!+o !+L 3+3+3+3+3+h+h+h+h+h+h+S.) ) ) ) ) ) ) ) ) ) ) o  . .o o o o o o o o ) ) B B B B B ) X h+h+h+3+3+L L L L L !+3+3+++++++++<.<.H h+S.S.) ) ) ) S.S.S.S.) ) ) ) S.!+H ++++N 4.4.| ++h+!+o ) ) ) ) ) ) ) ) ) ) B B B B B B B B B B ) ) ) S.) ) ) ) ) ) ) ) ) ) ) ) ) ) B B B B B B <+<+<+S.S.S.S.S.!+!+!+h+H ++++ +4.4.;.;.;.;.d d  + +<.<.<.H h+h+h+h+h+h+H H H <.<.<.<.<.<.<.<.| | ++<.<.H H H h+",
"<.<.<.3 e+S.S.S.S.S.S.h+H H 3+h+h+) ) B B p p B B ) ) S.!+h+h+!+S.) ) ) ) B B B ) ) ) !+h+3+3+3+L !+o o o ) ) ) S.S.3 <.w+U.d d  + +++++++H h+!+S.) o !+!+3+3+3+3+L L L ^ o o !+3+3+3+3+L !+o o ) ) ) ) S.e+e+H H | | | | N N u+u+9+9+9+9+9+R R R R R 9+9+9+9+9+9+9+9+9+9+-+-+-+-+^ ^ ^ ^ L R 9+7+1 x+i m.A ] p.l+l+l+=.&._.R.y.N u+u+u+u+u+u+$+$+$+$+$+$+/././././.9+9+9+R h h h h h h ^ ^ ^ L L 9+u+y.x+( ( :.2.b+7+7+b+2.2.2.2.2.2.2.2.$+7+7+7+N.-+-+-+-+-+R ^ h -+/.$+:.x+:.:.:.2.2.7+N.N.N.h h ^ ^ ^ ^ ^ h -+N.7+2.2.:.:.$+7+R ^ ^ o o o ^ ^ ^ ^ R R R R L !+o ) ) ) ) ) ) o o o ^ L L 9+u+$+1 y.$+u+3+3+L !+o o o ) ) ) ) o o L 9+9+$+$+$+$+u+u+3+h+o o o !+L 3+3+3+3+++++++++3+h+!+) ) ) o o o o ) ) ) )  . . . .o o o o o o o ) ) B B B B B ) X e+h+h+3+L L L L L !+!+h+h+h+h+h+h+h+e+S.X ) ) ) B B B B B B B B B B ) S.S.H H | | 4.4.| ++h+!+!+) ) ) ) ) ) ) ) ) ) ) ) B B B B B B B B ) ) ) ) ) ) ) ) ) ) ) ) ) ) ) ) ) B B B B B B B <+<+<+<+S.S.S.S.!+!+!+h+3+++| 4.4.;.;.;.;.;.d d  +<.<.H h+e+S.S.S.S.S.!+!+S.e+e+e+3 c.<.<.<.<.<.| | | <.<.<.<.<.",
"<.<.<.3 3 S.S.S.S.S.S.h+H ++3+h+h+) ) B B p B B B ) ) S.!+h+h+S.S.) ) B B B B B ) ) o !+!+3+3+L !+o o o ) ) S.S.S.3 H <. +U.d  + +| ++3+3+h+!+!+!+!+!+!+3+3+3+3+L L L L !+!+!+!+3+3+3+L !+o o ) ) B B <+X e+e+H <.| | | N N N u+u+9+9+9+R R R R R R R R 9+9+9+9+9+9+9+9+-+-+-+-+-+^ ^ ^ ^ ^ ^ R R 7+:.Y.0+w A p.l+l+l+=.w y y.u+9+3+3+3+L L L 9+9+/.$+/./.-+-+9+9+9+9+R L ^ ^ ^ h h h ^ ^ ^ ^ L 3+9+$+y.x+x+x+:.2.7+P 7+b+2.2.2.2.2.2.b+7+7+7+9+9+-+-+-+W.^ ^ ^ ^ ^ R u+y.y.:.:.1 $+7+7+N.N.N.-+h ^ ^ ^ o o ^ ^ -+-+N.$+$+1 1 $+9+L ^ o o o o o ^ ^ ^ L L R L L o o ) ) ) ) ) ) ) o o o !+L L 9+9+$+$+u+9+3+3+L !+o o o ) ) ) ) ) o ^ L 9+7+7+7+u+u+9+3+h+o o o !+L L 3+3+3+++++++++3+h+!+o ) ) o o o o ) ) ) o  . . . .o o o o o o o ) ) B B B B B B X S.h+h+h+L L L L !+!+!+!+h+h+h+S.S.) ) ) B B B B B B B B B B B B B B ) S.S.H H | | 4.4.| ++H !+!+) ) ) ) ) ) ) ) ) ) ) ) ) B B B B B B B ) ) ) ) ) ) ) ) ) ) ) ) ) ) ) ) B B B B B B B B <+<+<+<+<+S.S.S.S.!+!+h+3+++ +4.;.;.;.;.;.;.d  + +<.H e+e+) ) ) ) ) ) ) ) ) ) X X e+e+e+c.H <.<.<.| | <.<.<.<.<.",
"<.<.H 3 3 3 3 S.S.3 h+H H H h+h+!+) ) B B p B B ) ) S.S.!+S.S.S.) ) B B B B B B ) )  . .L L L L !+o o ) ) S.S.e+3 <.<.w+ + + + +| ++3+3+h+!+!+!+!+!+!+!+3+3+3+3+L L L L L L h+W.3+3+h+ .o o ) ) B B B B ) S.e+H ++| | N N N N u+u+9+9+9+9+R R R R R R 9+9+9+9+9+9+9+9+9+-+-+-+-+-+^ ^ ^ ^ ^ ^ ^ R 7+1 x+i m.A p.l+l+l+=.< y N 3+L L !+o o o ^ L R 9+9+9+9+-+-+-+L L L L ^ ^ ^ ^ ^ ^ ^ ^ o o L 3+u+$+y.:.x+x+:.:.$+7+P 7+b+2.2.2.2.b+7+7+7+9+9+9+-+-+W.W.^ ^ ^ ^ ^ ^ L 9+$+y.y.1 $+7+7+P N.N.-+h ^ ^ ^ o o o o ^ ^ -+-+7+$+$+$+u+9+L ^ o o o o o o ^ ^ ^ ^ L L ^ o ) ) ) ) ) ) ) ) o o o o !+L 3+9+9+9+9+9+3+3+L !+o o o ) ) ) ) ) o o L R 9+9+9+9+9+3+3+!+o ) o o !+L L 3+3+3+3+++++3+h+!+o o o o o o o o o o o  . . . .o o o o o o o ) ) B B B B B B S.S.h+h+h+!+L L !+!+!+!+!+S.S.S.) ) ) B B B B B B B B B B B B B B B B B S.S.H H | | 4.4.| ++H !+!+o o ) ) ) ) ) ) ) ) ) ) ) ) B B B B B B ) ) ) ) ) ) ) ) ) ) ) ) ) ) ) B B B B B B B B B B <+<+<+<+<+<+S.S.S.!+h+H ++ +d ;.;.;.;.d d  + +<.c.e+e+<+) B B B B B B B B B B B <+X e+e+e+3 <.<.<.| <.<.<.<.<.",
"c.3 3 3 3 3 3 3 3 H H H H h+h+h+S.) B B p p B B ) S.S.!+S.S.) ) ) B B B p B B B ) X  . .L L L !+o o ) ) ) S.e+c.<.<.<.w+ + +| | <.H h+h+3+3+3+!+!+!+3+3+3+3+9+3+L L L L 3+3+3+3+3+h+ . .o ) ) B B B B B ) S.e+H ++| N N N u+u+9+9+9+9+9+9+9+9+9+9+9+9+9+9+9+9+9+9+9+9+9+-+-+-+-+-+-+-+^ ^ ^ ^ ^ R 9+1 x+i 0+A =.l+l+l+=.< c N L o !+o o o o o ^ W.L R R R L L L L L ^ ^ ^ ^ ^ ^ ^ ^ ^ o o o W.3+u+y.y.:.:.:.:.$+7+7+P 7+b+2.2.2.b+7+7+7+R R R R -+W.W.W.^ ^ o ^ ^ ^ L 9+$+1 1 1 $+7+P P N.h h h ^ ^ o o o o o o ^ ^ W.9+u+u+u+9+3+L o o o o o o o o o ^ ^ ^ ^ o o ) ) ) ) ) ) ) ) ) ) ) o o !+L 9+9+9+9+9+3+L L !+o o o ) ) ) ) ) ) o L L 9+9+9+9+9+3+L !+o ) o o o !+!+!+h+3+3+3+3+3+3+!+o o o o o o o o o o o o ^ ^ o o o o o o o o ) ) B B B B B B S.S.h+H H !+!+!+!+!+o o o ) ) ) ) B B B B B B B B B p p B B B B B B B B S.S.H H | | 4.4.| ++H !+!+o o o o o o o o o !+S.) ) ) ) B B B B B ) ) ) ) ) ) ) ) ) B B B B B B B B B B B B B B B B B B B B B B B ) ) S.h+<.|  +d &+;.;.d d  +<.<.e+e+t.<+B B B B B B B B p p p B B B B <+<+e+e+3 <.<.<.<.<.<.c.c.",
"e+e+e+3 3 3 3 3 3 H H H H h+h+e+X ) B B p p B B ) S.!+!+S.) ) ) B B p p p p B B )  . . .L L L !+o o ) ) S.e+e+c.<.w+w+w+<.<.H H h+h+!+!+3+3+3+3+3+3+3+3+3+9+9+9+L L L 3+3+3+3+3+h+ . . .) ) B B B B B B ) ) S.H ++N N N u+9+9+9+9+9+9+9+9+9+9+9+9+9+9+9+9+9+9+9+9+9+9+9+-+-+-+-+-+-+-+W.^ ^ ^ ^ R R 1 x+Y.0+w ] p.l+n+s.< c ++!+o o ) ) ) ) o o ^ ^ L L L L L L ^ ^ o ^ ^ ^ ^ ^ ^ ^ o o o o L u+$+y.:.:.:.y.$+$+7+7+P 7+b+2.2.2.b+7+P P R R L L W.W.W.W.^ o o o ^ ^ L 9+u+1 1 1 7+7+P P = h h ^ ^ ^ o o ) ) ) o o o W.3+9+u+u+9+3+^ o o ) ) ) o o o o o o o o o o ) ) ) ) ) ) ) ) ) ) ) ) ) o L 3+9+9+9+3+L L L o o o o ) ) ) ) ) ) o !+L 9+9+9+9+L L !+!+) ) ) o o o o o o !+L 3+3+3+3+!+o o o o o o o o o o o ^ ^ ^ ^ o o o o o o o ) ) B B B B B B S.S.h+H H !+!+!+!+!+o o o ) ) B B B B B B B B B B B p p B B B B B B B B S.S.H H | | 4.4.| ++H !+!+o o o o o o o o !+!+!+S.) ) ) ) B B B B ) ) ) ) ) ) ) ) B B B B B B B B B B B B B B B B B p p p p p B B B B S.h+<.|  +d d &+d U. +<.e+e+*.*.B B p p p p p p p p p p p p p p B B B <+X e+H <.<.<.H 3 3 3 ",
"e+e+e+e+e+e+3 3 3 H H h+h+h+h+X ) B B B p p B ) S.!+!+!+S.) ) B B p p p p p B B )  . . .L L L !+o ) ) S.S.e+3 <.<.w+w+<.<.H h+h+!+!+!+!+3+3+3+3+3+3+3+3+9+9+9+R L L 3+3+3+++++6 h+ . .X ) B B B B B B B ) ) !+h+++u+N N u+9+R R R 9+9+9+9+9+9+9+9+9+9+9+9+9+9+9+9+9+9+9+9+-+-+-+-+-+-+-+^ ^ ^ ^ ^ R $+:.Y.;+w ] =.l+n+s.!.;.++o o ) ) ) ) ) ) o o ^ ^ ^ L L L !+o o o o o ^ ^ ^ o o o o o  .3+u+y.y.:.:.y.$+$+7+7+7+P 7+b+2.2.b+7+7+P R R L L L W.W.W. .o o o o ^ ^ L 9+9+1 1 7+7+P P P h h h ^ ^ o o o ) ) ) ) o o  .W.3+9+9+3+W.o o o ) ) ) ) o o o o o o o o ) ) ) ) ) ) ) ) ) ) ) ) ) ) o !+L 3+9+3+L L L L o o o o ) ) ) ) ) ) o !+L 3+9+9+3+L L !+o ) ) ) ) o o o o o o !+L 3+3+L !+o o o o o o o o o o o ^ ^ ^ ^ o o o o o o o ) ) B B B B B B S.S.h+H H !+!+!+!+!+o o ) ) B B B B B B B B B B B B p p B B B B B B B ) S.S.H H | |  + +| ++H !+!+o o o o o o o !+!+!+!+!+o ) ) ) ) B B B ) ) ) ) ) ) ) ) B B B B B B B B B B B B B B B B p p p p p p p p B B X 3 <.|  + +d d U.w+<.e+X *.B p p p p p p p B B p p p p p p p p p p B B <+e+3 H <.<.3 3 3 3 ",
"<+<+<+<+S.S.S.S.3 3 h+h+h+!+S.) ) B B p p B B ) S.!+!+!+S.) B B B p p p p p B B ) o  . .L L L !+o ) ) S.S.e+3 <.<.<.<.<.H h+!+!+!+!+!+!+L 3+3+3+3+3+3+9+9+9+9+L L L 3+3+++++++6 h+ .X ) ) B B B B B B B B ) !+h+++u+u+u+9+9+R R R R 9+9+9+9+9+9+9+9+9+9+9+9+9+9+9+9+9+9+9+-+-+-+-+-+-+^ ^ ^ ^ ^ ^ R u+y.x+i w ] =.n+n+s.!.;.++!+o ) ) ) ) ) ) ) o o o o o !+!+o o o o o o o o o o o o o  .W.3+u+$+y.y.y.$+$+7+7+7+P P b+b+b+b+7+7+7+R R R L L L W.W. .o o o o o ^ L R 9+7+7+7+7+7+P P P R R h ^ ^ o o o ) ) ) ) ) o o W.3+3+3+3+W.o o o ) ) ) ) ) o o o o o ) ) ) ) ) ) ) ) ) ) ) ) ) ) ) ) ) o L L L L L L L o o o o o ) ) ) ) ) ) o  .W.3+3+3+L L L !+o ) ) ) ) ) o o o o o !+L L L L  . .o o o o o o o o o o o ^ ^ o o o o o o o o ) ) B B B B B B S.S.h+h+H !+!+!+!+!+o o ) ) B B B B B B B B B B B B p B B B B B B B B ) S.S.3 H ++| | | | ++H !+!+o o o o o o !+!+!+!+!+!+o o ) ) ) ) ) ) ) ) ) ) ) ) ) B B B B B B B B B B B B B B B B B p p p p p p p p B B X 3 <.|  + + +w+w+<.c.X *.B p p p p p p p B *.*.*.D.p p p p p p p p B B B X e+3 c.3 3 e+S.S.",
"B B B <+<+<+S.S.S.S.S.S.S.S.) ) B B p p p B B S.S.!+!+S.S.) B B B p p p p p B B ) o o !+L L L !+o ) ) S.S.h+H H H H H h+h+h+!+!+S.S.!+!+!+3+3+3+++u+u+9+9+3+L L L L 3+3+++++++h+h+ .) ) ) B B B B B B B B ) o h+3+u+u+9+9+R R R R R R 9+9+9+9+9+9+9+9+9+9+7+7+7+7+7+7+9+9+R R -+-+W.^ ^ ^ ^ ^ ^ ^ L 9+y.x+i m.&.=.n+=.s.o.;.| h+S.) ) ) ) ) ) ) ) o o o o o o o o ) ) o o o o o o o o  .W.3+9+u+$+$+$+$+$+7+7+P P P b+b+b+7+7+7+7+7+R R R L ^ ^ ^ o o o o o o o L L 9+9+7+7+7+7+7+P P P R R R L ^ o o o ) ) ) ) o o o ^ W.L L W.^ o o o ) ) ) ) ) ) ) ) ) ) ) ) ) ) ) ) ) ) ) ) ) ) ) ) ) ) ) o o L L L ^ ^ o o o o o o ) ) ) ) ) o o  .W.W.W.W.W.W.W.o o ) ) ) ) ) ) ) ) ) o o !+L L L  . . .o o o o o o o o o o o o o o o o o o o o ) ) B B B B B B S.S.h+h+h+!+!+!+!+!+!+!+) ) B B B B B B B B B B B B B B B B B ) ) ) ) S.S.S.S.H H | | | | 3+!+!+!+o o o o o !+!+!+!+!+!+!+o o o ) ) ) ) ) ) ) ) ) ) B B B B B B B B B B B B B B B B <+B B p p p p p p p p B *.t.c.<.|  + +<.<.c.e+t.*.B p p p p p p B B *.t.t.t.t.D.p p p p p p p B B B X e+e+e+e+e+S.S.S.",
"p p B B B B <+S.S.S.S.S.S.) ) ) B B p p B B B S.S.h+h+S.S.) B B p p p p p p B B ) o o !+L L L !+o ) ) S.S.h+H h+h+e+e+h+!+!+!+!+S.S.!+!+!+3+3+++u+N N 9+3+3+L L L L L 3+3+++++h+h+S.) ) B B B B p p B B B ) o !+3+9+9+9+9+R R R R R R R 9+9+9+9+9+9+9+9+9+7+7+7+7+7+7+9+R R R R L ^ ^ ^ ^ ^ ^ ^ ^ L 9+1 v+i ;+&.-.=.-.].o.;. +H h+S.) ) ) ) ) ) ) ) ) ) ) ) ) ) ) ) ) ) ) ) o o o o  .3+3+9+u+u+$+$+$+$+7+-+N.P 7+b+b+b+b+P 7+7+7+9+9+R L ^ ^ ^ ^ o o o o ) o !+L 9+9+9+7+7+7+7+P P P P R R R L ^ o o o ) ) ) ) o o o ^ ^ ^ ^ ^ ^ o o o ) ) ) ) ) ) ) ) ) ) ) ) ) ) ) ) ) ) ) ) ) ) ) ) ) ) ) o o o o o o o o o o o o o ) ) ) ) ) o o o W.W.W.W.W.W.W. .o ) ) ) ) ) ) ) ) ) o o !+L L L  . . . .o o o o o o o o o o o o o o o o o o o ) ) B B B B B B ) S.h+h+h+!+!+!+!+!+!+!+S.) B B B B B B B B B B B B B B B ) ) ) S.S.S.S.S.S.S.h+H | | | ++H !+!+!+o o o o !+!+!+!+!+!+!+!+o o o ) ) ) ) ) ) ) ) ) ) B B B B B B B B B B B B B B B <+<+<+<+B p p p p p p D.*.t.e+c.<. + +<.<.e+e+<+B B p p p p p p B B B *.t.e+t.t.*.p p p p p p p B B B <+e+e+e+e+S.S.) ) ",
"p p p B B B B ) S.S.S.S.) ) ) B B B p B B B ) S.e+h+h+S.S.<+B B p p p p p p B B ) o o !+L L L !+o o S.S.!+h+h+h+!+S.!+!+!+!+!+!+!+!+!+!+3+3+3+++u+N N 9+3+L L L L L L 3+3+++3+h+h+S.) ) B B B B p p B B B ) o !+3+3+9+9+9+R R R R R R R 9+9+9+9+9+9+9+9+9+7+7+7+7+7+7+R R R R R ^ ^ ^ ^ ^ ^ ^ ^ ^ ^ 9+1 R.y ;+w &.-.s.].o.E.d | H S.) ) ) ) ) ) ) ) ) ) ) ) ) ) ) ) ) ) ) ) ) o  .h+3+3+u+u+u+u+$+$+7+9+-+-+N.N.7+b+b+b+7+P P 7+9+9+9+9+L ^ ^ ^ o o o o ) ) o !+3+9+9+9+7+7+7+7+P P P P R R R L ^ o o o ) ) ) o o o o ^ ^ ^ ^ ^ o o o o ) ) ) ) ) ) ) ) ) ) ) ) ) ) ) ) ) ) ) ) ) ) ) ) ) ) ) ) o o o o o o o o o o o o ) ) ) ) o o o o W.W.W.W.W.W.W. .o ) B B ) ) ) ) ) ) ) o !+L L L  . . . .o o o o o o o o o o o o o o o o o o o ) ) B B B B B B ) S.h+h+h+!+!+!+!+!+!+!+S.) B B B B B B B B B B B B B ) ) ) S.!+h+H H H H 3 S.!+H H | | H H !+!+!+o o o o !+!+!+!+!+!+!+!+o o o o ) ) ) ) ) ) ) ) B B B B B B B B B B B B B B B <+<+<+<+<+B p p p p p D.*.t.c.c.<.w+ + +<.c.X B B p p p p p p p p B B B *.e+e+e+t.*.p p p p p p p p B B *.X e+e+S.X ) ) ) ",
"p p p B B B <+) S.S.S.S.) ) B B B B B B <+S.S.S.e+e+e+e+S.<+B B p p p p p p B ) ) o o !+L L L !+!+o o !+!+!+!+!+!+!+!+!+h+h+h+h+h+h+h+h+3+3+++u+u+u+u+3+3+L L L L L L 3+3+3+3+3+!+) ) ) B B B B B p B B B ) o !+L 3+9+9+9+R R R R R R R 9+9+9+9+9+9+9+9+9+7+7+7+7+7+P R R R R L ^ ^ ^ ^ ^ ^ ^ ^ ^ ^ 9+N y.y i a < ].].].o.(.;. +<.h+) ) ) ) ) ) ) ) ) ) ) ) ) ) ) ) ) ) ) ) o  .3+++++u+u+u+u+u+u+/.9+-+-+-+N.7+2.2.2.2.7+P P R 9+9+9+9+L ^ ^ ^ o o o o ) ) o !+3+9+9+7+7+7+7+P P P P R R R L L ^ o o o o o o o o o o ^ ^ ^ ^ o o o o o ) ) ) ) ) ) ) ) ) ) ) ) ) ) ) ) ) ) ) ) ) ) ) ) ) ) ) ) ) ) o o o o o o o o o ) ) ) ) ) o o o  .W.W.W.W.W.W.W. .o ) ) ) ) ) ) ) ) ) ) o o L L W. . . . .o o o o o o o o o o o o o o o o o o o ) ) B B B B B B ) S.!+!+!+!+!+!+!+!+!+!+S.) B B B B B B B B B B ) ) ) ) S.h+h+H ++| | | <.H !+!+h+H H H H h+!+!+!+o o !+!+!+!+!+!+!+!+!+o o o o o ) ) ) ) ) ) ) ) B B B B B B B B B B B B B B <+<+<+<+<+<+<+B B p p D.D.t.c.c.w+~ U.U.U.<.c.*.B p p p p p p p p p B B B <+t.e+t.t.*.p p p p p p p p B B B ) X X X ) ) ) ) ",
"p p p B B <+S.S.S.S.S.S.) B B B B B B <+S.S.S.e+e+e+e+e+S.<+<+B p p p p p B B ) )  . . .L 3+L L !+o o !+!+!+!+!+!+!+h+h+3+3+3+3+h+h+3+3+++++u+u+u+++3+3+L L ^ ^ ^ L L L 3+3+3+3+!+o ) ) B B B B B B B B B ) ) !+L 3+3+9+9+9+R R R R R R R 9+9+9+9+9+9+9+9+R R R R R R R R R ^ ^ ^ ^ ^ ^ ^ ^ ^ ^ ^ ^ 3+u+y.R.y _._.a !.!.o.(.E.&+ +H ) ) ) ) ) ) ) ) ) ) ) ) ) ) ) ) ) ) ) ) o 3+++u+4.4.4.y.N u+u+9+-+-+-+-+N.b 2.:.:.2.7+P R R 9+9+9+9+L ^ ^ ^ o o o o ) ) !+!+3+9+u+7+7+7+P P P h h h h h ^ ^ ^ o o o o o o o o ^ ^ ^ ^ o o o o o o o ) ) ) ) ) ) ) ) ) ) ) ) ) ) ) ) ) ) ) ) ) ) ) ) ) ) ) ) ) ) ) ) ) ) ) ) ) ) ) ) ) ) ) ) o o o  .W.3+3+W.W.W.W.W.o ) ) ) ) ) ) ) ) ) ) o o ^ ^ W. . . . .o o o o o ) ) o o o o o o o o o o o o ) ) B B B B B B ) S.!+!+!+!+!+!+!+!+!+!+S.) B B B B ) ) ) ) ) ) ) ) ) o h+H ++|  +4.4.d  +++h+!+!+h+H H h+!+!+o o !+L L L L L L !+!+o o o o o o o ) ) ) ) ) ) ) ) B B B B B p p p p p B B B <+<+<+<+<+<+<+<+<+<+D.D.D.t.t.c.~ ~ U.L.U.U.~ c.t.p p p p p p p p p p B B B B <+*.*.*.B p p p p p p p p p B B ) ) ) ) ) ) B B ",
"p p p B <+S.S.S.S.S.S.S.) B B B B B B S.S.3 h+h+e+e+X X <+<+<+<+B p p p p B B ) X  . .h+3+3+3+L !+o o o !+!+!+!+!+3+3+3+3+++++++++++++++++N N u+++3+3+3+L L ^ ^ ^ ^ ^ L 9+9+3+3+!+o ) ) B B B B B B B B ) ) ) !+!+3+3+9+9+9+9+9+L L L R -+-+-+9+9+9+9+9+R R R R R h h h h ^ ^ ^ ^ ^ ^ ^ ^ ^ ^ ^ ^ ^ L 9+N y.R.c y _._._.o.o.(.E.d <.S.) ) ) ) ) ) ) ) ) ) ) ) ) ) ) ) ) o !+h+++u+4.y.y.y.y.y.u+9+9+-+-+-+-+7+$+:.|.:.:.$+7+R R 9+u+u+9+3+L ^ ^ o o o o ) ) !+!+3+u+N 7+7+P P P P h h h h ^ ^ ^ o o o o o o o o ^ ^ ^ ^ o o o o o o o o ) ) ) ) ) ) ) ) ) ) ) ) ) ) ) ) ) ) ) ) ) ) ) ) ) ) ) ) ) ) ) ) ) ) ) ) ) ) ) ) ) ) ) ) o o o !+L 3+3+3+-+-+W.W.o o ) ) ) ) ) ) ) ) ) o o ^ ^ W. . . . .o o o o ) ) ) ) o o o o o o o o o o o ) ) B B B B B B ) S.!+!+!+!+!+!+!+h+h+h+S.) B B B ) ) ) ) ) ) ) ) o o !+3+++| 4.4.;.;.4.4.++h+!+!+h+h+h+h+!+o o o L L L L L L L L o o o o o o o o ) ) ) ) ) ) ) ) B B B B B p p p p p p B B <+<+<+<+<+<+<+<+<+<+<+D.D.t.c.c.~ ~.L.L.B.L.~ c.t.p p j.j.j.p p p p p B B B B B B B B B p p p j.j.j.p p p B B B ) ) ) ) B B B ",
"p p B B ) S.S.S.S.S.S.S.) B B B *.X e+e+3 H H h+e+e+X X <+<+<+<+B p p p B B B ) X  . .h+3+3+3+L !+o o o !+!+!+!+3+3+3+3+3+++++++++++++++u+N N u+3+3+3+3+W.^ ^ ^ ^ ^ ^ L 9+9+9+3+L !+) ) ) B B B ) ) ) ) ) ) S.!+h+3+3+3+9+9+9+9+L L L L -+-+-+-+9+9+9+9+R R R R h h h h ^ ^ ^ ^ ^ ^ ^ ^ ^ ^ ^ ^ ^ L 3+9+u+y.y.R.R.c c (._.o.(.E.&+ +H e+S.S.) ) ) ) ) ) ) ) ) S.S.S.h+h+h+3+++u+4.y.y.y.y.y.N u+9+L ^ W.-+/.$+:.|.( ( :.$+7+R R 9+9+9+9+3+L ^ ^ ^ o o o ) ) !+!+3+u+N 9+7+P P P h h h h ^ ^ ^ ^ o o o o o o o o ^ ^ ^ ^ o o o o o o o o ) ) ) ) ) ) ) ) ) ) ) ) ) ) ) ) ) ) ) ) ) ) ) ) ) ) ) ) ) ) ) ) ) ) ) ) ) ) ) ) ) ) ) ) o o o L L 3+3+9+9+-+-+W.^ o ) ) ) ) ) ) ) ) o o o ^ ^ ^  . . . .o o o o ) ) ) ) o o o o o o o o o o o ) ) B B B B B B ) S.!+!+!+!+!+!+!+h+h+h+S.) ) B ) ) S.S.S.S.S.o o !+!+3+3+++N 4.4.;.;.;.4.++3+!+ . .h+h+h+ .o o o L L L L L L L L o o o o o o o o ) ) ) S.S.S.S.X X <+B B B p p p p p p B B <+<+<+<+<+<+<+<+<+<+<+D.D.t.c.w+~ ~.L.B.B.L.~ c.t.D.p p j.j.p p p p p B B B B B B B B p p p p j.j.j.p p p B B B ) ) ) B B B B ",
"B B B ) S.S.S.S.3 3 e+S.S.) ) X e+e+c.3 H H H h+e+X X X X <+<+<+B B p B B B B ) X  . .h+3+3+3+L L ^ o o !+!+L L L 3+3+3+3+++++++++++++++++u+9+3+3+3+3+3+W.W.^ ^ ^ ^ W.L 9+9+9+3+3+h+h+S.X X X S.S.S.S.S.S.S.!+h+h+3+3+3+9+9+9+9+L L L L -+-+-+-+9+9+9+9+R R R R h h h ^ ^ ^ ^ ^ ^ ^ ^ ^ ^ ^ ^ ^ L L 9+u+u+N 4.4.4.4.;.c (.(.(.(.;.d  +<.h+e+) ) ) ) ) ) ) ) S.S.h+H <.|  +4.4.4.y.y.y.y.y.1 u+9+R L ^ -+9+$+$+:.x+( ( :.$+7+R R 9+9+9+9+9+W.W.W.^ ^ o o ) ) !+!+3+9+9+9+7+P P h h h h h ^ ^ ^ ^ o o o o o o o o ^ ^ ^ ^ o o o o o o o ) ) ) ) ) ) ) ) ) ) ) ) ) ) ) ) ) ) ) ) ) ) ) ) ) ) ) ) ) ) ) ) ) ) ) ) ) ) ) ) ) ) ) ) o o o ^ L L L 9+9+9+-+-+W.^ o o o ) ) ) ) ) S.o o ^ ^ ^ ^  . . .o o o o o ) ) ) o o o o o o o o o o o ) ) ) B B B B B B ) S.!+!+!+!+!+!+!+h+h+h+S.S.) ) ) S.!+!+h+h+h+h+h+h+3+++++u+4.4.4.y.y.4.N ++3+^ o !+h+h+!+!+o o o !+L L L L L L o o o o o o o o o ) ) S.e+3 c.c.3 e+S.<+B B B p p p p B B B <+<+<+<+<+<+<+<+<+<+<+D.t.t.c.c.w+~ L.L.B.B.U.~ c.*.p p p j.j.p p p p p B B B B B p p p p p j.j.j.j.p p p B B B B ) B B B B B ",
"B B ) ) S.S.!+h+H H 3 e+S.) X e+c.<.<.<.<.H H h+S.S.X X X S.t.<+B B B B B B B ) X h+h+h+3+3+3+L L ^ ^ ^ L L L L L L 3+3+3+3+3+3+3+3+3+3+3+3+3+3+3+3+3+3+W.W.W.W.W.W.W.W.9+9+9+3+3+3+h+h+e+e+e+e+3 H H h+h+h+h+h+h+3+++++u+u+9+9+3+L L W.-+-+-+-+9+9+9+9+R R R R h ^ ^ ^ ^ ^ ^ ^ ^ ^ ^ ^ ^ ^ ^ W.W.9+9+u+u+u+u+u+u+N 4.;.c (.(.(.E.;.d  +<.h+S.) ) ) ) ) ) S.!+h+<.|  +d ;.;.R.R.R.y.y.$+$+7+9+R L ^ L 9+/.$+:.x+x+( ( :.2.7+P R R 9+9+9+9+9+3+W.W.^ o o o ) o !+3+9+9+9+R R h h h -+-+-+W.W.W.o o o o o o o o o ^ L L ^ o o o o o ) ) ) ) ) ) ) ) ) ) ) ) ) ) ) ) ) ) ) ) ) ) ) ) ) ) ) ) ) ) ) ) ) ) ) ) ) ) ) ) ) ) ) ) ) ) o o o ^ L L R R R R R R L ^ ^ o o o o o o !+!+!+!+L L L !+o o o ) ) ) ) ) o o o o o o o o o o o o o ) ) ) ) B B B B B B ) S.!+!+!+!+L L !+H H h+S.S.) ) S.h+H H H H H 3+++++++++u+u+u+4.4.4.4.N u+3+L ^ ^ L 3+3+!+!+o o o !+!+!+!+!+o o o o o o o o o o o ) S.S.3 <.<.<.<.c.e+S.<+B B B B B B B B B B B B B B B B B B B <+<+<+t.t.c.c.w+~ L.B.B.U.~ c.t.<+p p p p p p p p p p p p p p p p p p j.j.j.j.j.p D.D.*.*.B B B B B B B B ",
") ) ) ) S.!+!+H H H H h+e+S.e+c.<.w+w+<.<.<.H !+S.S.) X X e+e+X <+B B B B B ) X S.h+h+h+3+3+3+L L ^ ^ ^ L L L L L L L 3+3+3+3+3+3+3+3+3+3+3+3+3+3+3+3+3+W.W.W.W.W.W.W.3+9+9+9+9+3+3+3+h+h+e+e+h+H H H H H h+h+h+++++++u+u+u+u+9+3+L ^ ^ -+-+-+-+9+9+9+9+R R R R L ^ ^ ^ ^ ^ ^ ^ ^ ^ ^ ^ ^ ^ ^ W.3+9+u+u+u+u+u+u+9+u+u+4.c (.(.(.(.E.;.d  +<.h+h+S.S.S.S.!+!+H <.|  +d ;.c c c c R.y.$+$+9+9+R h ^ L 9+u+y.R.x+x+Y.Y.( x+:.7+7+P R 9+9+9+u+u+u+9+3+L ^ o o o o !+3+9+9+9+R h h h -+-+-+-+W.W.W. .o o ) ) o o o ^ L L L L o o o o ) ) ) ) ) ) ) ) ) ) ) ) ) B B ) ) ) ) ) ) ) ) ) ) ) ) ) ) ) ) ) ) ) ) ) ) ) ) ) ) ) ) ) ) ) ) o o ^ ^ L L R R R R R R R ^ ^ ^ o o o o o !+h+h+!+L L L !+o o ) ) ) ) ) ) o o o o o o o o o o o o ) ) ) ) B B B B B B B ) S.!+!+!+L L L 3+H H h+!+S.S.S.!+H H | ++++++++++++N N N u+u+u+u+u+u+u+9+3+L ^ L L 3+3+L !+o o o !+!+!+!+!+o o o o o o o o o o o S.S.3 H <.w+w+<.<.3 e+S.<+B B B B B B B B B B B B B B B B p p B <+<+<+t.t.3 c.~ U.L.L.U.~ c.c.t.<+D.p p p p p p p p p p p p p p p j.j.j.j.j.p p D.*.*.*.<+B B B B B B B ",
") ) ) ) S.!+!+H H <.<.H h+e+h+<.w+U.U. +| <.H h+S.S.) S.S.e+e+e+X <+<+B B ) ) S.e+h+h+3+3+3+3+L L ^ ^ ^ L L L L L L L L 3+3+3+3+3+3+3+3+3+L L 3+3+3+3+3+3+W.W.W.W.W.W.W.9+9+9+9+3+++6 h+h+h+e+h+H H ++H H H H ++++++u+u+u+u+u+9+3+L ^ ^ -+-+-+-+9+9+9+9+R R R R ^ ^ ^ ^ ^ ^ ^ ^ ^ ^ ^ ^ ^ ^ L 3+9+u+u+u+u+u+u+9+9+9+u+4.;.c (.(.(.c c ;.d  + +| ++| <.++++++++|  +d d ;.c c c R.y.$+$+9+-+-+h h L 9+u+y.x+y w.w.i Y.Y.x+:.:.1 7+7+7+$+$+1 y.y.u+u+9+L ^ o o o !+L 9+9+R R h h h -+-+-+-+W.W.W. .o o ) ) o o o ^ L L L L ^ o o o ) ) ) ) ) ) ) ) ) ) ) ) ) B B ) ) ) ) ) ) ) ) ) ) ) ) ) ) ) ) ) ) ) ) ) ) ) ) ) ) ) ) ) ) ) o o o ^ ^ ^ L R R R R R R R L ^ ^ ^ o o o o !+h+h+!+L L L !+o ) ) ) ) ) ) ) o o o o o o o o o o o o ) ) ) ) B B B B B B ) ) S.!+!+!+L L L 3+3+H H h+!+S.!+H <.| | | ++++++++u+N N u+u+u+u+u+9+9+9+R L L L L L 3+3+3+!+o o !+!+!+!+!+o o o o o o o o o o o o S.S.3 <.<. + +w+<.<.H 3 S.S.) B B B B B B B B B B B B B B p p B <+<+<+<+<+t.c.c.~ U.U.U.~ <.c.c.e+t.t.*.B p p p p p p p p p p p p p p j.j.p p D.*.t.t.<+<+B B B B B B B ",
") ) ) ) S.!+!+H <.<.<.<.H H H <. +U.U.U. +| <.H S.S.) S.S.e+e+e+e+e+e+S.S.S.S.e+h+h+h+3+3+3+L L L ^ ^ ^ L L L L L L L L 3+3+3+3+3+3+3+3+3+L L 3+3+3+3+3+3+3+W.W.W.W.L L 3+9+9+3+3+3+3+h+h+h+h+h+H H H H H 3+++++4.4.4.4.4.4.u+u+9+L ^ ^ W.-+R 9+9+9+9+9+R R R L ^ ^ ^ ^ ^ ^ ^ ^ ^ ^ ^ ^ ^ ^ W.3+u+u+u+u+u+u+9+9+9+u+u+4.;.;.;.c c c c ;.;.;.;.;.;.;.;.4.4.4.4.4.4.d ;.;.;.c R.R.y.u+9+-+h h h ^ R u+y.y _.a m.m.;+;+i Y.x+v+:.:.:.:.:.:.x+x+R.y.y.u+9+L !+o o L L 9+9+R R R R h -+-+-+-+-+W.W.W.o o ) ) o o o ^ L L L L ^ o o o ) ) ) ) ) ) ) ) ) ) ) ) ) ) ) ) ) ) ) ) ) ) ) ) ) ) ) ) ) ) ) ) ) ) ) ) ) ) ) ) ) ) ) ) ) ) o o o ^ ^ ^ L L R R R R R R R L ^ ^ ^ o o o !+!+!+L L L !+o o ) ) ) ) ) ) ) o o o o o o o o o o o o ) ) ) ) B B B B B B ) ) S.!+!+!+L L 3+3+3+H H H H h+H <.|  + +| ++++++++++u+u+u+u+u+u+9+9+9+R L L L L L 3+3+3+3+!+!+!+!+!+!+!+!+o o o o o o o o o o !+!+!+!+h+<.<. + + +| | H H H 3 S.S.) B B B B B B B B B B B B B B B <+<+<+<+<+<+t.c.c.~ ~ ~ ~ ~ w+w+<.c.c.e+t.*.B p p p p p p p p p p p p p p p p *.<+t.<+<+<+B B B B B B B ",
"B B ) ) S.S.!+H H | | | <.<.<. +U.d d d  + +<.H h+S.) S.S.h+H H 3 3 3 3 e+e+h+h+H H 3+3+3+3+L L ^ ^ o o !+!+!+!+!+ . . . . .h+h+h+h+W.3+3+3+3+3+3+3+3+3+3+3+3+3+L L L L L L 3+3+3+3+3+W. . .!+!+!+h+h+h+3+++++4.4.y.R.R.y.y.N u+9+L ^ ^ L L L L L L L L L L W.W.^ ^ ^ ^ ^ ^ ^ ^ ^ ^ ^ ^ ^ ^ L 3+++u+N u+u+9+9+u+u+N 4.4.4.;.;.;.;.;.;.c c c (.(.(.%+c c c R.R.4.4.4.4.4.4.4.4.N u+9+-+h ^ ^ ^ R 9+4.R._.a &.&.&.w ;+i Y.Y.y v+v+x+x+x+x+Y.Y.y x+y.y.u+3+L o o L R 9+9+9+R R R R h h W.-+-+9+3+W. .o ) ) o o o ^ L L L L ^ o o o ) ) ) ) ) ) ) ) ) ) ) ) ) ) ) ) ) ) ) ) ) ) ) ) ) ) ) ) ) ) ) ) ) ) ) ) ) ) ) ) ) ) ) ) )  . .o o o ^ ^ ^ ^ L L L L L R R R L ^ ^ o o o !+L L L L !+o o o ) ) ) ) ) ) ) o o o o o ) ) o o o o o ) ) ) ) B B B B B ) ) ) S.!+h+h+3+3+3+3+3+++++H H H <.|  + + + +++++++++++++++++++++3+3+3+L L L L L L L 3+3+3+3+h+!+!+ . .e+X S.) ) ) ) ) ) o o o !+!+!+!+!+h+H <.|  +| | | | | H H H S.S.B B B B B B B B B B B B B B B <+<+<+<+B B <+t.c.c.c.~ ~ ~ ~ ~ ~ w+w+c.c.t.*.B B B B B B B B p p p p p p B *.*.<+<+<+<+<+<+B B B p p p ",
"B B B ) S.S.S.H H | | | | | |  +d d d d U. +| <.h+S.S.S.S.H H H H <.<.H H H H H H ++++3+3+L L L ^ o o o !+!+!+!+ . . . . . . . . . . .W.3+3+3+3+3+3+3+3+3+3+3+3+L L L L L L L 3+W.W.W.W. .o o o o !+!+h+3+++++4.y.R.R.R.R.y.y.u+9+L ^ ^ L L L L L L L L W.W.W.W.^ ^ ^ ^ ^ o o ^ ^ ^ ^ ^ ^ o L 3+++N N N u+9+9+u+4.y.y.y.4.4.4.4.4.4.R.c y _._._._._._._.y c R.R.y.4.4.4.u+u+9+9+3+L L ^ ^ L 9+u+u+R.y a &.] ] ] w a ;+i i Y.Y.Y.Y.( Y.Y.i i i y x+y.N u+3+L L L R 9+7+7+R R R R ^ ^ ^ L R 9+3+L !+o ) ) o o o ^ L L L L ^ o o o ) ) ) ) ) ) ) ) ) ) ) ) ) ) ) ) ) ) ) ) ) ) ) ) ) ) ) ) ) ) ) ) ) ) ) ) ) B B B ) ) ) )  . . . .o o o ^ ^ ^ ^ L L L L L R R R L ^ o o !+L L L L !+o o o o ) ) ) ) ) ) ) o o o o ) ) ) ) o o o o ) ) ) ) B B B B B ) ) S.S.h+h+h+3+3+3+3+++++++++++| |  + + + + +++++3+3+3+3+3+3+3+3+3+3+3+L L L L L L L 3+3+3+3+h+h+h+h+e+e+X X ) ) ) ) ) ) ) o !+!+!+!+!+!+!+H ++++++++| | | | | | H H e+X B B B B B B B B B B B B B B <+<+<+<+B B B B *.t.c.c.~ ~ ~.U.U.U.U.w+c.e+*.*.B B B B B B B B B B B B *.*.*.t.e+S.S.S.t.t.<+<+<+B p p ",
"B B B B S.S.S.H H H | | | | |  + +U.d d  + + +<.H h+S.!+!+H H H H <.<.<.H H H H ++++++3+3+L L L o o o o !+!+!+!+ . . . . . . . . . . .W.3+3+3+3+3+3+3+3+3+3+3+3+L L L L L L L L W.W.W.W.^ o o o o o  . .3+++u+4.R.R.x+R.R.y.y.u+9+L ^ ^ ^ L L L L L L L W.W.W.W.^ ^ ^ ^ o o o o ^ ^ ^ ^ ^ L 3+3+++N N N N u+N N y.R.R.y.4.4.N N N 4.y.R.y _._._._._._._.y y R.R.y.4.N u+3+L L ^ ^ L L 9+9+u+u+y.R.c _.a &.] ] ] w ;+i i y y y y x+x+Y.Y.Y.i i Y.x+R.y.N ++3+3+9+9+7+7+7+R R R R ^ ^ ^ L R 9+9+L !+o ) ) ) o o ^ L L L L L o o o ) ) ) ) ) ) ) ) ) ) ) ) ) ) ) ) ) ) ) ) ) ) ) ) ) ) ) ) ) ) ) ) ) ) ) ) ) B B B ) ) ) o  . . . .o o o ^ ^ ^ ^ L L L L L R R R L L ^ o !+L L L L o o o o ) ) ) ) ) ) ) ) o o o o ) ) ) ) o o o ) ) ) ) ) B B B B B ) ) S.S.h+h+h+3+3+3+3+++++++++++| |  + +d d  +++++++3+3+3+3+3+3+3+3+3+L L L L L L L L 3+3+3+3+++H H h+h+e+X X ) ) ) ) ) ) ) S.!+!+!+!+!+!+!+h+3+3+++++++N N | | | | <.<.e+e+X X X X X *.<+<+B B B B B <+<+<+<+B p p p p *.t.c.w+~ ~ U.U.U.U.w+<.c.t.t.t.t.<+<+<+B B B B *.*.*.*.t.t.e+e+3 3 c.c.c.c.c.t.t.*.*.",
"B B B B <+S.S.3 H H H H H H <.<. + + + + + + +| <.H h+!+!+!+H H H H <.<.<.H H ++++++3+3+3+3+L L o o o o o !+!+!+ . . . . . . . . . . .W.3+3+3+3+3+3+3+3+3+3+3+3+3+L L L L L L L W.W.W.^ ^ ^ o o o o  .W.W.3+u+4.y.R.R.R.R.y.N u+9+L ^ ^ ^ L L L L L L L W.W.W.^ ^ ^ ^ o o o o o o ^ ^ ^ L L 3+++u+N 4.4.4.4.4.y.R.R.R.R.4.4.N N N 4.y.R.c y _._._._._.y c R.R.y.4.u+u+3+L ^ ^ ^ ^ W.9+u+y.R.R.y y _.a < &.&.&.&.a ;+y y y y v+x+x+x+x+x+y Y.Y.y x+R.y.4.u+u+9+9+9+7+7+7+R R R L ^ ^ ^ L R 9+9+L L o o ) ) o o L L L L L L  .o o o o ) ) ) ) ) ) ) ) ) ) ) ) ) ) ) ) ) ) ) ) ) ) ) ) ) ) ) ) ) ) ) ) ) ) ) B B ) ) ) ) o o  . . .o o ^ ^ ^ ^ ^ L L L L L L L L L L L L L L L L L o o o o o ) ) ) ) ) ) ) o o o o ) ) ) ) ) ) ) ) ) ) ) B B B B B B ) ) ) S.!+h+h+3+3+3+3+3+++++++++++++|  +4.4.4.u+++++++3+3+3+3+3+3+3+L L L L L L L L 3+3+3+++++++| ++<.h+h+X X ) ) ) ) ) ) S.S.S.!+!+!+!+!+!+!+h+3+3+3+3+++++| |  + + +<.<.<.c.c.3 e+e+e+e+e+X <+B B B <+<+<+<+B B p p B B t.c.c.w+~ ~ U.U.U.w+w+c.c.c.c.3 3 e+S.S.S.S.S.e+e+e+e+e+e+c.c.<.<.w+~ ~ ~ w+c.c.c.e+",
"B B B B <+<+S.S.S.S.e+e+e+e+3 H H <.<.<. + + +| | H H H H !+!+H H H H <.<.++++++++3+3+3+3+W.W.W.o o o o o o o  . . . . . . . . . .W.W.W.L L L 3+3+9+9+9+9+9+9+3+3+3+L L L L ^ ^ ^ ^ ^ ^ ^ ^ ^ ^ ^ W.W.W.W.3+3+u+y.y.R.R.y.y.N u+9+L ^ ^ ^ ^ ^ ^ ^ ^ ^ ^ ^ ^ o o o o o o o o o o o o ^ L 3+3+++u+u+u+4.4.4.y.R.R.R.;.;.;.4.4.4.4.4.y.y.R.R.R.R.c c c c R.y.4.4.u+u+9+3+L ^ ^ ^ ^ W.9+u+y.R.y w.;+;+a a < w w w a ;+y x+R.y.y.y.y.1 1 1 y.:.x+x+x+R.R.y.y.4.N u+u+7+7+7+7+R R R L ^ ^ ^ L L 9+9+L L o o ) ) o o !+L L 3+3+W. . .o o o o ) ) ) ) ) ) ) ) ) ) ) ) ) ) ) ) ) ) ) ) ) ) ) ) ) ) ) ) ) ) ) ) ) ) ) ) ) ) ) ) o o o ^ ^ ^ ^ ^ ^ ^ L L L L L L L L L L L L L L L L L L L o o o o o o o ) ) ) ) ) o o o o ) ) ) ) ) ) ) ) ) ) B B B B B B B B ) ) S.!+!+h+3+3+3+3+3+3+3+3+3+++++++u+u+u+u+N N u+++++3+3+3+3+h+h+!+!+!+^ L L L L 3+3+++++|  + + + +<.h+ . .o o o o o !+!+S.S.S.S.o o o !+!+!+!+!+L 3+3+++|  + + +U.U.U.U.~ <.<.<.<.H 3 e+e+X B B B *.*.*.*.B B B B B <+t.e+c.c.c.<.<.<.w+w+w+~ w+w+<.c.c.3 3 3 3 e+3 3 3 c.c.c.c.<.<.<.~ U.L.L.L.L.~ w+<.<.",
"B B B B <+<+<+<+<+<+) ) ) ) S.S.S.e+h+<.<. + + +| | | H H H H H H H H H ++++++++++3+3+3+3+W.W.W.o o o o o o o  . . . . . . . . .W.W.W.W.L L L 3+9+9+9+9+9+9+9+9+3+3+3+L L ^ ^ ^ ^ ^ ^ ^ ^ ^ ^ ^ W.W.W.W.W.L 3+u+N y.y.y.y.N N u+3+L ^ ^ ^ ^ ^ ^ ^ ^ ^ ^ ^ o o o o o o o o o o o o o !+L 3+u+N u+u+u+4.4.y.R.R.;.;.;.;.;.4.4.4.4.y.y.y.y.4.4.4.4.4.4.4.4.u+u+u+3+3+3+L L ^ ^ L L 3+u+4.R.y w.;+a a < < a a ;+_.y x+R.y.1 N N u+u+9+9+9+9+u+$+1 y.y.y.R.y.y.y.1 $+$+7+7+7+R R R L ^ ^ ^ L L 9+9+L L o o o ) ) o !+L 3+3+3+W. . . .o o o o ) ) ) ) ) ) ) ) ) ) ) ) ) ) ) ) ) ) ) ) ) ) ) ) ) ) ) ) ) ) ) ) ) ) ) ) ) ) ) o o ^ ^ ^ ^ ^ ^ ^ L L L L L L L L L ^ ^ L L 3+3+L L L L L o o o o o o o ) ) ) ) ) o o o o ) ) ) ) ) ) ) ) ) B B B B B B B B B ) ) S.!+!+!+3+3+3+3+3+3+3+3+3+3+3+3+u+u+u+u+u+N N u+++3+3+3+3+h+h+h+!+!+o L L L L 3+3+++++ +d d d  +++h+ . .o o o o !+!+!+S.S.) ) o o o o o  .!+!+!+!+H ++|  + +d d d &+U.U.U. +<.<.<.<.c.e+X B B B *.*.*.*.B B B B <+X e+e+e+t.e+e+3 c.c.<.w+~ ~ ~ w+w+<.<.H H H H H H <.<.<.<.<.<.<.w+U.L.B.{+{+B.L.U.~ ~ ",
"B B B B <+<+<+<+B B B B B B B B ) ) S.h+<.<. + + + + +| | <.H H H H H H ++++++++3+3+3+3+3+W.W.W.o o o o o o o o  . . . . . . . .W.W.W.W.L L 3+9+9+9+u+9+9+9+9+9+3+3+3+L L ^ ^ ^ ^ ^ ^ ^ ^ ^ ^ ^ W.W.W.W.^ L 3+9+N y.y.y.N N N 9+9+3+L L ^ ^ ^ ^ ^ ^ ^ ^ o o o o o o o o o o o o  .!+3+3+++u+N N u+u+4.4.4.;.;.;.;.;.d d 4.4.4.4.4.R.y.4.4.u+++++++++++++3+W.W.W.W.W.W.L L L 3+9+u+u+y.R.y w.;+a a a a a _.y y R.y.$+$+u+9+3+3+3+L L L L 9+9+u+u+4.y.y.y.y.y.y.1 $+7+7+7+R R R L ^ o o L L 9+9+L L o o o ) ) ) !+!+3+3+3+W. . . . .o o o ) ) ) ) ) ) ) ) ) ) ) ) ) ) ) ) ) ) ) ) ) ) ) ) ) o o o o o o o ) ) ) ) ) ) ) o o ^ ^ ^ ^ ^ ^ L L L L L L L L L L ^ ^ L L 3+3+3+L L L L L o o o o o o o ) ) ) ) o o o o ) ) ) ) ) ) ) ) B B B B B B B B B B B ) S.!+!+!+3+3+3+3+3+3+3+++++++3+3+9+9+9+u+u+u+u+++++++3+3+3+H H h+h+!+!+L L L 3+3+++++++ +d d d  +++h+ .o o o o o !+!+!+S.) ) ) ) o o o !+h+h+h+3+3+++++|  +d d d &+&+&+d d  + +| <.<.H e+X B B B *.*.*.*.B B B <+e+e+e+e+<+<+B <+X e+c.c.w+~ ~ ~ w+w+w+<.<.H H H H <.<.<.<.<.<.<.<.w+U.L.B.{+{+B.L.U.U.U.",
"B B <+<+<+<+B B B B B B B B B B B ) ) S.h+<.|  + +d d d  + + +| | <.<.++++++++3+3+3+3+3+3+W.W.W.o o o o o o o o o  . . . . . . .W.W.W.L L L 9+9+u+u+u+u+u+u+9+9+3+3+3+L L L L ^ ^ ^ ^ ^ ^ ^ L L W.W.W.W.^ L L 9+u+N 4.4.N N u+9+9+9+9+9+L L ^ ^ ^ ^ ^ o o o o o o o o o o o  . .3+3+3+++u+u+N N N N 4.4.4.4.4.d d  + + +| | | 4.4.4.4.4.4.4.| ++++3+3+3+W.W.W.W.W.W.W.3+9+9+u+u+u+4.y.R.y y w.;+;+_._._.y R.y.1 $+/.9+9+3+L L ^ ^ ^ ^ ^ ^ L 3+9+u+u+4.4.y.y.y.1 $+$+7+7+9+R R L ^ o o !+L L 3+L L L !+o o ) ) o !+!+W.3+3+h+h+ . .o o o ) ) ) ) ) ) ) ) ) ) ) ) ) ) ) ) ) ) ) ) ) S.S.!+!+!+!+!+!+h+h+!+!+!+!+o o o o o o ^ ^ ^ ^ ^ W.L L L L 3+3+3+3+L L ^ ^ ^ L L L L L L L L L L o o o o o o ) ) ) ) ) o o ) ) ) ) ) ) ) ) ) B B B B B B B B B B B ) S.!+!+!+3+3+3+3+++++++++++++++u+9+9+9+9+++++++++++++++++++++++++h+h+h+L L L 3+3+++++|  + + + +++<.h+ .o o o o o o !+o ) ) ) ) ) ) o !+h+H ++++| |  + + +d d d d d d d d  + +| ++<.H 3 e+X B B B B *.*.B B B B X e+e+e+e+*.B B B B <+t.c.c.c.w+w+w+w+<.<.<.H H H H H H h+3 3 c.c.<.<.w+U.L.L.B.L.L.U.U.U.",
"<+<+<+<+B B B p p p p p p p p B B B ) S.e+H <. +d &+&+&+&+&+U. + +| | ++++3+3+3+3+3+L 3+3+3+3+ . .o ) ) ) ) o o o o o o o o  . .W.L L L L 9+9+u+N y.y.4.u+u+u+9+3+3+L L L L L L L L L L L L L L L L L L L L 3+9+u+N 4.N u+u+9+u+u+u+u+u+9+3+L ^ ^ o o o o o o o o o o o o  . .3+++++++u+u+u+u+N N 4.4.4.4. + + +| <.<.<.H H ++++4.4.4.4.4.4.4.| ++3+h+!+ .o  .W.W.W.3+9+u+u+N 4.y.y.y.R.R.R.R.R.c c R.R.y.N u+9+9+9+-+L L L ^ ^ ^ o o o ^ ^ L 3+3+++u+N 4.y.y.y.$+$+$+7+9+R R L ^ o o !+L L L L L L !+!+o ) ) o o !+ .3+3+3+3+h+ .o o o ) ) ) ) ) ) ) ) ) ) o o o o ) ) ) ) ) ) S.S.!+!+L L 3+3+3+3+3+3+3+h+!+!+o o o o ^ ^ ^ ^ ^ W.W.W.L 9+9+9+9+9+9+3+L ^ ^ ^ ^ L L L L 3+L L L L L ^ o o o o ) ) ) ) ) ) ) ) ) ) ) ) ) ) ) ) B B B B B B B B B B B ) S.!+!+!+3+3+3+++++u+N N N N u+u+u+3+3+3+3+3+3+3+++++++++ + + +| ++++3+3+3+3+3+++++u+ +| ++++<.H h+ .o ) ) ) ) ) ) ) ) ) ) ) ) ) ) S.h+<.++ +d 4.4.4.4.4.4.4.4.d d d  + + +++++H H h+e+S.) B B B B B B B B B B e+e+3 3 e+<+B p p B B <+t.t.c.c.c.<.<.<.<.H H 3 S.e+e+e+e+e+e+e+e+e+c.c.<.~ ~ U.U.U.U.U.U.",
"<+<+<+<+B p p p p p p p p p p B B B B ) S.3 <. +d &+s s s &+&+d  +| | ++++3+3+3+h+!+!+L 3+3+3+!+!+o ) ) ) ) ) o o o o o o o o o L L L L 9+9+u+N y.y.y.y.4.u+u+9+3+L L L L L L L L L L L L L L L L L L L L L 3+u+N 4.4.N u+3+3+u+N N N N u+3+3+3+L o o o o o o o o o o  . . .h+6 ++++N u+u+u+u+N N 4.4.N ++++<.H h+e+e+S.S.!+h+++++4.4.4.4.4.d  +| H !+!+o o  . .W.6 6 u+u+N y.y.y.y.y.y.4.u+u+u+u+u+u+u+u+9+9+L L L ^ ^ ^ ^ ^ ^ ^ o o o o o o  . .W.3+u+N y.y.y.$+$+$+7+9+R R L o o o o !+L L L 3+3+3+!+!+) ) o o o  .h+3+3+3+3+h+o o o ) ) ) ) ) ) ) o o o o o o o o o ) ) ) S.S.h+h+3+3+3+9+9+9+u+u+3+3+3+3+!+!+o o o ^ ^ ^ ^ W.W.W.W.9+9+9+9+9+u+9+9+L ^ ^ ^ o o o !+L 3+3+L L L L L o o o o ) ) ) ) ) ) ) ) ) ) ) ) ) ) ) ) B B B B B B B B B B B ) S.!+!+!+3+3+3+++u+N 4.4.4.4.N u+++3+3+3+L !+h+3+3+++++ + + + + +++++++3+3+3+3+++u+4.4.++++h+h+S.S.) ) ) ) ) ) ) ) ) ) ) ) ) S.S.S.e+H <. +d d ;.;.;.;.;.4.4.4.4. +++++++++++3+h+h+S.S.) B B B B B B B B B B <+e+e+c.c.e+t.B p p p p B D.D.t.t.3 c.<.<.<.3 3 S.S.S.S.S.) ) <+*.<+*.X e+e+c.c.<.w+~ ~ ~ ~ ",
"<+<+<+<+B p p p p p p p p p p p B B B S.S.3 <.w+d &+s s &+&+&+U. +| | ++++++3+3+h+!+!+!+3+3+3+h+!+) ) ) ) ) ) ) o o o o o o o o L L L L 9+9+u+4.y.y.y.4.4.u+u+3+3+L L L L L L L L L L L L L L L L L L L L L 3+++N 4.4.N ++3+3+9+u+N N N N u+u+++3+3+W.W.!+!+!+h+h+h+h+h+h+h+6 ++++u+N u+u+u+u+u+N N N ++++h+h+S.X ) B B ) ) S.h+++| 4.4.4.d d  +++H !+!+!+ . .W.6 6 6 u+u+N y.y.y.y.4.4.u+6 W.W.W.W.L L ^ ^ ^ ^ ^ ^ ^ ^ ^ ^ ^ ^ o o o o o o o o o o L 3+N y.y.y.$+$+$+7+9+R L L o o ) o !+L L L 3+3+3+3+!+o o o o o o h+3+3+3+3+ .o o o o ) ) ) o o o o o o ^ ^ ^ ^ o o o o o o !+h+3+3+3+9+9+9+9+u+u+9+9+3+3+L !+o o o ^ ^ ^ ^ W.W.W.W.9+9+9+9+u+u+u+9+3+^ ^ o o o o !+!+3+3+L L L L !+o o o o ) ) ) ) ) ) ) ) ) ) ) ) ) ) ) ) B B B B B B B B B B ) ) S.!+!+!+L 3+3+++u+N 4.4.4.4.N ++++3+3+!+!+o !+ .h+3+++|  + + + + + +++++++3+3+++N 4.4.| H h+) ) ) ) ) ) ) ) ) ) ) S.S.e+e+h+H H H H <. + +d ;.;.;.;.;.;.4.4.4.u+++++3+3+3+3+3+!+!+) ) ) B B B B B B B B B B <+e+e+c.c.3 t.*.B p p p p p p p <+t.3 c.H H 3 S.S.S.) ) ) ) B B B B B B B *.X e+c.c.c.w+~ ~ ",
"<+<+<+B p p p p p p p p p p p p B B <+S.e+H <. +U.&+&+&+&+U.U. +| | ++++++++++3+H !+!+h+3+3+3+h+!+) ) ) ) ) ) ) ) o o o o o o o o L L 3+9+u+N 4.y.R.;.4.4.u+3+3+L L L L L L L L L L L L L L L 3+3+3+3+3+L L 3+++u+4.4.u+3+3+L 9+u+N N 4.4.4.4.N u+u+++++3+3+++++++++++++++++++++++u+u+u+u+u+u+u+u+u+++++H h+S.) B B B B B ) ) !+H ++++|  + + +| <.h+!+!+!+h+3+3+6 6 u+u+u+u+N N 4.4.u+u+3+W.^ ^ ^ ^ ^ ^ ^ ^ ^ ^ ^ ^ ^ ^ ^ ^ ^ ^ o o o o o o o o o o L 3+u+1 y.1 1 $+$+7+9+9+L L o ) ) ) o !+L L 3+3+3+3+L !+!+o o o o  .W.3+3+W. .o o o o o o o o !+!+L L L L L L L W.W.o o o !+!+3+3+9+9+9+9+7+7+9+9+9+9+9+3+L L ^ ^ ^ ^ ^ ^ ^ ^ W.W.W.9+9+9+9+u+u+u+9+3+^ ^ o o o o o !+!+!+L L L L o o o o ) ) ) ) ) ) ) ) ) ) ) ) ) ) ) ) B B B B B B B B B B B ) S.S.!+!+!+!+3+3+++++N 4.4.N | ++++3+h+!+!+o o o o h+h+H ++|  + + + + + +++++3+3+u+4.4.4.| H !+) ) ) ) ) ) ) ) ) ) S.e+3 <.<.<.w+<.<. + + +d d d ;.;.;.4.4.4.4.N u+++3+3+3+3+L !+!+o ) ) ) ) ) B B B B B B B B B X e+3 3 e+t.t.<+B p p p p p p p <+e+3 3 3 e+S.S.S.) ) B B B B p p p B B B B <+t.e+c.c.c.c.",
"B B B B p p p p p p p p p p p p B *.t.e+H <.<. + +U.U.U.w+w+<.<.<.<.<.++++| ++++H !+!+h+3+3+3+h+!+) ) ) ) ) ) ) ) ) ) o o o o o o o L 3+++u+4.4.;.;.;.4.4.++3+L L !+o o o o o o o o L L L L 3+3+3+9+9+3+3+3+3+++N 4.4.u+3+L L 3+9+u+N 4.y.y.R.y.y.4.4.u+u+++|  + + + + + +| ++++++++3+3+3+3+++++++++++3+h+S.) B B B p B B B ) S.h+h+H H <.<.<.H h+h+h+h+h+3+3+6 ++u+u+u+u+9+9+u+u+u+u+3+W.W.^ ^ ^ ^ ^ ^ ^ ^ ^ ^ ^ ^ ^ ^ ^ L L ^ o o o o o o o o o o L 9+N 1 1 1 $+$+7+7+9+9+L !+o ) ) ) o o L L 3+3+3+3+3+L !+!+o o o o W.W.W.W.o o o o o o o ^ L L L L R R 9+9+9+9+9+3+W.^ ^ L L 3+9+9+9+7+7+7+7+7+7+9+9+9+9+L L ^ ^ ^ o o o o o o W.L 3+9+9+9+u+u+u+3+3+^ o o ) ) ) ) o !+!+!+!+o o o o o ) ) ) ) ) ) ) B B B B B B B B B B B B B B B B B B B B ) ) S.S.!+!+!+!+!+3+3+++| | | | ++3+H h+!+!+o o ) ) o !+h+h+h+<.++|  +d d 4.4.++3+3+u+4.4.4. +<.h+) ) ) ) ) ) ) B ) X e+3 <.<.U.U.d d d d d d d d d d 4.4.4.4.4.u+u+u+++3+3+L L !+!+o o ) ) ) ) X *.*.B B B B B B B <+S.e+e+e+e+t.t.*.B p p p p p p *.e+e+e+e+e+S.<+<+) B B B B p p p p p p B B B *.*.t.t.t.t.",
"B B B B p p p p p p p p p p p B *.t.e+c.<.<.|  + +w+<.<.<.H H h+h+H H <.| | | ++H h+!+h+3+++3+h+h+S.) ) ) ) ) ) ) ) ) ) o o o o o o !+3+++N 4.4.;.;.;.4.| 3+!+!+o o o o o o o o o o o !+L 3+3+3+u+u+u+9+3+3+3+++N N N u+3+3+L L 3+3+u+4.y.R.R.R.R.y.4.4.4.4.4.4.4.d d 4.4.4.u+++3+3+3+3+3+3+3+3+3+3+3+h+!+) B B B p p B B B B ) S.S.S.!+h+h+h+h+h+ .h+h+3+3+++++++u+u+9+9+3+L L L 3+L W.W.^ ^ ^ ^ ^ ^ ^ ^ ^ ^ ^ ^ ^ ^ ^ L L L L o o o o o o o o o o L 9+$+1 :.:.$+$+7+9+9+3+3+!+S.) ) ) ) o o L L 9+9+3+3+3+3+!+!+o o o ^ ^ ^ ^ o o o o o ^ ^ L L 3+9+9+9+9+7+7+7+7+/.9+-+L ^ L L 9+9+9+R P P P P P 7+9+9+9+9+L L ^ ^ ^ o o o o o o ^ L L 9+9+9+u+u+u+3+3+ .o ) ) ) ) ) ) ) o o o o o o o ) ) ) ) ) ) ) B B B B B B B B B B B B B B B B B B B B ) ) ) S.!+h+H !+!+!+!+3+++| | | ++H h+!+!+S.) ) ) ) ) ) ) ) S.h+h+H <. +d d 4.4.++3+3+u+4.4.d  +<.h+) ) ) ) ) ) ) ) ) e+e+<.<.U.d &+&+&+&+d d d d  + + +| ++u+u+u+u+u+u+++3+3+L !+!+o o ) ) ) ) X X X *.B B B B B B B <+<+<+t.e+3 c.e+t.*.B p p p p B *.X e+e+e+S.<+<+<+B B B B p p p p p p p p p p B B D.*.*.*.",
"B B B B B p p p p p p p p p B *.t.t.e+c.<.<.<.<.<.<.<.3 e+S.S.e+h+H <.|  + + +| H h+h+h+3+3+3+h+h+S.) ) ) ) ) ) ) ) ) ) ) o o o o o !+3+++4.4.4.;.;.d  +| H !+o o o o o o o o o o o o !+3+3+3+++u+u+u+9+3+L 3+++N N N u+++3+L L 3+3+u+N y.R.R.R.R.y.4.4.4.4.4.4.4.d d 4.4.4.u+++3+L L L 3+3+3+3+3+3+h+!+S.) B B p p p B B B B B ) ) ) ) ) ) S. . . .h+3+3+++++++u+u+9+9+L L ^ ^ ^ ^ ^ ^ ^ ^ ^ ^ ^ ^ ^ ^ ^ ^ ^ ^ ^ ^ ^ L L L L L o o o o o o o o o o L 9+$+1 :.:.$+7+7+9+9+3+3+!+S.) B ) ) o o L L 3+9+9+3+3+3+3+3+!+!+L ^ ^ ^ ^ o o o o ^ ^ ^ L R 9+9+9+7+7+7+7+$+$+$+9+9+L ^ L L 9+9+9+R P P P P P P 7+9+9+9+R L ^ ^ ^ ^ o o o o o o L L 9+9+9+u+u+u+3+3+ .o ) ) B B B ) ) ) ) o o o ) ) ) ) ) ) ) ) ) B B B B B B B B B B B B B B B B B B B B ) ) ) S.!+H H !+!+!+!+h+H H <.H H !+!+!+S.) ) ) ) ) ) ) ) ) ) S.!+h+<.|  +d d  +++3+3+u+4.4.d  +<.h+S.) ) ) ) ) ) S.e+e+H <. +d &+s E.;.;.;.;.d d  + +| ++++++u+u+u+u+u+3+3+3+L !+o o o ) ) ) ) X X X X ) B B B B B B B <+<+t.t.c.c.c.c.t.t.*.*.*.*.<+<+e+e+e+e+S.<+<+<+B B B p p p j.j.p p p p p p p p p p p p ",
"B B B B B p p p p p p p B B <+t.t.e+c.c.<.<.<.<.H 3 e+e+S.S.S.h+<.<. + + + + +| H h+h+h+h+3+H h+h+S.S.) ) ) ) ) ) ) ) ) ) ) ) ) ) o !+3+++4.4.d d d d  +<.h+!+o ) ) ) ) ) ) ) ) ) o o !+3+3+++++u+u+u+9+3+L 3+3+++| N ++++3+3+3+3+3+++N 4.y.y.y.4.4.4.u+u+++| |  + + + + +++++3+L L ^ L 3+3+3+3+3+h+!+!+) B B B B p B B B B B B B B ) ) ) )  . .h+3+6 3+3+3+3+3+3+9+3+W.L ^ ^ ^ ^ ^ ^ ^ ^ ^ ^ h -+R R R R R R R R L L L L L L ^ o o o o o o o o o o L 9+1 :.:.:.$+7+9+9+3+3+h+ .) ) B B ) ) o !+L L 3+3+3+3+3+3+3+3+3+3+L ^ ^ ^ o o o o ^ ^ ^ ^ R R 9+9+7+7+7+$+$+$+$+7+9+R h L R R R R R P P P P P P R R R R R L ^ ^ ^ ^ ^ o o o o o L L R 9+9+u+u+u+3+3+!+o ) ) B B B B ) ) ) ) ) ) ) ) ) ) ) ) ) ) B B B B B B B B B B B B B B B B B B B B B ) ) ) S.!+H H !+!+o o !+h+H H H !+S.S.S.S.S.) ) ) ) ) ) ) ) ) ) S.h+h+<.|  + +| ++3+3+u+4.4.4. +++h+S.S.S.S.S.S.e+3 H <.<. + +d &+;.E.;.;.;.;.d  + +| | ++++++u+u+u+u+++3+3+3+L !+!+o o ) ) ) ) ) X X ) ) ) B B B B B B B <+t.t.c.c.c.c.c.c.c.e+t.t.t.e+e+e+e+e+S.<+<+B B B p p p j.j.j.p p p p p p p p p p p p ",
"B B B B B B B p p p p B B <+t.e+3 c.c.c.c.c.c.e+e+e+X S.) S.e+H <. + + + + + +| <.h+h+h+h+h+h+h+h+e+S.X ) ) ) ) ) B B ) ) ) ) ) ) ) h+H |  +d d d d  +| H h+S.) ) ) ) ) ) ) ) ) ) ) o  .h+3+++++u+u+u+3+3+L L 3+++| | | ++3+3+3+3+3+3+++N N N N u+++++++3+3+++++++++++++++3+3+3+W.^ ^ L 3+3+++3+3+!+!+) ) B B B B B B B B B B B B B B ) ) S.h+h+3+6 6 3+3+3+3+3+3+3+W.L ^ ^ ^ ^ ^ ^ W.W.W.-+-+-+-+R R R R R R R R R R L L L ^ ^ o o o o o o o o o ^ L u+1 :.:.:.$+7+9+-+W.W. . .) ) B B B ) ) o L L 3+3+3+++++++++++++3+3+^ ^ ^ o o o o ^ ^ ^ ^ h R R R 7+7+7+$+$+$+$+7+9+R h h L R R R R R R R R R R R R R R R L ^ ^ ^ ^ L L o o o o L L R 9+9+u+u+u+3+3+!+) ) B B B B B B B ) ) ) ) ) ) B B B B B B B B B B B B B B B B B B B B B B B B B B B ) ) ) S.!+H H !+!+S.) S.S.S.S.S.S.S.S.S.S.S.S.S.) ) ) ) ) ) ) ) S.h+h+H <.<.++++3+3+3+u+u+4.4.++++h+!+!+!+!+h+H H <.<.<. + +d d &+;.;.;.;.;.4.4. + +| ++| u+u+u+u+++++3+3+3+L L !+!+!+o ) ) ) ) ) ) ) ) ) ) ) B B B B B B B t.t.c.<.w+w+<.<.<.c.c.c.3 3 3 3 3 S.S.<+B B B p p p p j.j.j.p p p p p p p p p j.j.j.",
"B B B B B B B B p p p B <+X e+e+c.c.c.c.e+e+e+X *.*.<+) S.S.3 <.w+U.d d  + + +++<.h+ . .h+h+h+h+e+e+e+X S.) ) ) ) B B B B B ) ) ) ) h+<. + +d d d  + +<.H S.) ) ) B B B B B ) ) ) ) o h+h+++++++N N N 3+3+L !+3+++| | | ++++++3+3+3+3+3+3+3+3+3+3+3+3+L !+!+!+h+h+h+h+h+h+!+!+o o o !+3+3+u+u+3+3+!+) ) ) B B B B B B B B B B B B B ) ) S.h+h+3+6 6 u+3+3+3+L L L L ^ ^ ^ ^ ^ ^ W.W.W.W.-+-+-+-+9+7+7+7+7+7+7+R R R R L L ^ ^ ^ o o o o o o o o ^ ^ 3+u+y.:.:.y.$+/.-+W.W. . .X ) B B B B B ) o !+L L 3+3+++++++| N u+++3+L ^ ^ o o o o ^ ^ ^ ^ h h R R 7+7+7+7+1 1 1 7+9+R h h L L L R R R R R R R R R R R R R L ^ ^ ^ L L L L o o o ^ L R 9+9+N N N 3+h+!+) ) B B B B B B B B B B B B B B B B B B B B B B B B B B B B B B B B B B B B B B B B ) ) ) S.!+H H !+S.) ) ) ) ) S.S.S.S.S.S.e+h+h+S.S.) ) ) B B ) ) S.h+h+h+h+h+h+h+h+3+3+++u+u+u+++3+!+!+!+!+H H H <.<.|  + + +d d ;.;.;.;.;.4.4.4. +++++++N N N u+++++++3+3+3+L L !+!+!+!+) ) ) ) ) ) ) ) ) ) ) ) B B B B p B <+t.c.w+~ ~ ~ w+w+<.<.<.<.H H H 3 S.S.<+B B p p p p p j.j.j.p p p p p p p p p j.j.j.",
"B B B B B B B B B B B <+X e+e+3 c.c.c.e+e+t.*.*.B B B <+S.3 H <.w+U.U.U. + +| <.h+h+h+h+h+h+h+h+e+e+e+e+S.) ) ) ) B B B B B B ) ) ) e+H <. + + + + +| <.h+S.) ) B B B B B B B B ) ) ) h+h+++++| N N N ++3+!+!+!+H ++++++++++3+3+3+3+3+3+L !+!+!+!+!+o o o o o o o ) ) ) o o o o o o !+3+++N N ++H !+) ) B B B B B B B B B B B B B B ) S.h+h+3+3+++u+9+9+3+L L L L ^ ^ ^ ^ L W.W.W.3+3+9+9+9+9+9+7+7+7+7+7+7+7+9+R R R L L ^ ^ ^ ^ o o o o o o ^ W.3+9+u+y.y.:.y.$+/.-+W.W. . .X ) B B B B B ) o !+L L 3+3+3+++++u+4.N u+u+3+3+W.L L !+ .^ ^ ^ ^ ^ h h R R 7+7+7+1 1 1 7+R R h h L L L L R R R R R R R R R R R R ^ ^ ^ ^ L L L L ^ o ^ ^ L R 9+9+N N N ++h+!+) ) B B B B B B B B B B B B B B B B B B B B B B B B B B B B B B B B B B B B B B B B ) ) S.S.!+H H !+S.) ) ) B B <+<+t.3 3 3 h+h+h+!+S.) ) ) B B ) X X e+e+S.S.) S.!+!+3+3+3+u+u+u+++3+!+!+!+!+H H H <.| |  + + + +d d d d 4.4.4.4.4.| ++++++|  + +| ++++++3+3+L L L !+!+!+S.S.) ) ) ) ) ) ) ) ) ) ) B B B B p p *.t.c.<.~ ~ ~ ~ w+w+<.<.<.<.H H h+S.S.B B B p p p p j.j.j.p p p p p p p p p j.j.j.j.",
"B B B B B B B B B B B X e+e+3 c.3 3 e+e+X *.*.B B B B S.e+3 <.<.w+w+ + +<.<.<.H h+h+h+h+h+h+h+h+3 3 3 e+S.) ) ) ) B B B B B B ) ) ) S.h+<. + + + + +<.<.e+S.) B B B B B B B B B B ) ) h+H ++++| N N N ++3+!+!+!+h+H 3+3+3+3+3+3+3+3+3+L L !+!+o o o o o o o o o ) ) ) ) ) ) o o o !+!+++| 4.4.++H S.) B B B B B B B B B B B B ) ) ) S.!+h+3+3+++3+9+9+3+L L L L ^ L L R R R 9+9+9+9+9+u+u+u+/.7+7+7+7+7+7+7+7+9+R R R L ^ ^ ^ ^ ^ ^ o o o o ^ W.3+u+u+$+y.y.y.$+/.9+W.W. . . .) ) B B B B B ) ) !+L L 3+3+3+3+++++N 4.u+u+u+u+++3+3+3+3+L ^ ^ ^ ^ h h R R 9+7+7+7+$+7+9+R R h ^ L L L L L R R R R R R R R R R L ^ ^ ^ L L L L L L ^ ^ ^ L R 9+u+N N N ++3+!+) ) B B B B B B B B B B B B B B B B B B B B B B B B B B B B B B B B B B B B B B B B ) ) S.S.h+H H !+S.) ) ) B B <+e+3 c.<.<.H H h+!+S.) ) ) ) ) ) X X X S.) ) ) ) ) !+!+3+3+++u+u+3+3+!+!+!+!+H H H <.<.<.<.<.<. + + + +d 4.4.4.4.4.++++++++++++++++++++++3+3+L L !+!+!+!+S.S.) ) ) ) ) ) ) ) ) ) ) B B B B p p *.t.c.c.<.w+w+w+<.w+<.<.<.<.H H 3 S.) B B B p p p p j.p p p p p p p p p p p j.j.j.j.",
") ) ) B B B B B B B ) S.e+3 c.3 e+e+e+X *.*.B B B B <+e+3 c.<.<.<.<.<.<.H 3 e+e+e+e+e+e+e+S.e+3 H H 3 e+e+) ) ) ) ) ) ) ) ) ) ) ) ) S.e+<.<.<.<.<.<.<.H e+X B B B B p B B B B B B B ) e+H ++|  +4.4.N ++3+!+o o !+!+h+h+h+h+h+W.W.W.W.W.L ^ ^ ^ ^ ^ ^ o o o o o ) ) ) ) ) ) ) o o !+h+++ +4.4.| H S.) B B B B B B B B B B ) ) ) ) S.!+h+3+++++3+3+3+L L L L ^ ^ L R R R 9+9+9+9+u+u+u+u+$+$+$+$+$+7+9+9+9+9+9+9+R R L L ^ ^ ^ ^ ^ ^ ^ ^ ^ ^ ^ 3+u+u+4.y.y.y.$+$+/.-+W.^ o o ) ) ) B B B B B ) S.!+L 3+3+3+3+3+3+++++u+4.4.4.4.4.u+++++3+3+^ ^ ^ ^ ^ h R R 9+9+9+9+9+9+9+R R ^ ^ L L L L L L L L L L L L L ^ ^ ^ ^ ^ ^ L L R L L L ^ ^ ^ L R 9+N N 4.4.u+++!+) ) B B B B B B B B B B B B B B B B B B B B B B B B B B B B B B B B B B B B B B B B ) S.S.S.H H H !+S.) ) ) B B <+3 <.w+w+w+<.H h+!+S.) ) ) ) X X X X ) ) ) B B ) ) ) !+!+3+++u+u+++3+!+!+!+!+!+H h+h+h+h+H H H <.<.<.|  + +4.4.4.4.| ++++++3+H H H H H H H h+!+!+!+!+S.S.S.S.S.S.) ) ) ) ) ) ) ) ) B B B B p p B t.e+c.c.<.<.<.<.<.<.| <.<.H H S.S.) B B p p p p j.p p p p p p p p p p p p j.j.j.j.",
") ) ) ) B B B B B ) S.e+3 H c.3 e+X <+B B B B B B B <+e+c.<.<.<.<.3 e+e+X X X X e+e+e+e+S.S.e+3 H H H h+e+S.) ) ) ) ) ) ) ) ) ) ) ) S.e+c.c.<.<.<.<.<.H e+) B B B p p B B B B B B B X 3 <. + +4.4.4.N ++3+!+o o o !+!+!+!+ . . .W.W.W.W.W.^ ^ ^ L L L L o o o o ) ) ) ) ) ) ) ) o !+H ++4.4.d  +++h+) ) B B B B B B B B ) ) ) ) S.!+!+3+++++u+9+3+L L ^ ^ ^ ^ L R R R 9+7+7+$+$+$+1 1 1 1 y.1 $+u+9+9+9+9+9+9+9+R L L L ^ ^ ^ ^ ^ ^ ^ ^ ^ L 3+u+u+y.y.y.y.$+$+/.9+W.^ ^ o o ) ) B B B B B B ) S.!+3+3+3+L W.L 3+3+++++4.4.4.y.4.4.4.u+++3+L o ^ ^ ^ ^ R R 9+9+9+9+9+9+9+R ^ ^ ^ L L L L L ^ ^ ^ ^ ^ ^ ^ ^ ^ ^ ^ ^ ^ ^ L R 9+9+L L ^ ^ ^ R R 9+N y.y.4.4.++h+) ) B B B B B B B B B B B B B B B B B B B B B B B B B B B B B B B B B B B B B B B ) ) S.S.S.H H H !+S.) ) ) B B e+c.w+U.U. +| <.H !+S.) ) ) X X X X ) ) B B B B B ) ) ) !+3+3+u+N ++3+!+!+!+!+!+!+!+!+S.S.S.X X e+e+h+H ++++ +4.4.4.| ++++3+h+h+!+h+h+H H H H !+!+!+o ) ) ) S.S.S.) ) B B ) ) ) ) ) B B B B p p B *.t.e+3 3 3 3 H <.<.| | <.H 3 S.S.) B B p p p j.j.p p p p p p p p p p p p j.j.j.j.",
") ) ) ) B B B ) ) S.e+3 H H H e+e+*.B B B B B B B B <+3 c.<.<.<.3 S.) ) B B B <+X e+e+e+S.S.e+3 H H H h+e+S.) ) ) ) ) ) ) ) ) ) ) ) S.e+e+c.c.c.<.<.<.H e+) B B B B B B B B <+<+<+e+3 <. + +d d 4.4.| ++3+!+o o o o o o o o o  .W.W.W.W.W.^ ^ ^ L L L L L o o o ) ) ) ) ) ) ) ) o !+H | d ;.;.d  +H h+S.) B B B B B B ) ) ) ) !+!+!+3+3+++u+9+9+3+L ^ ^ ^ ^ L L R R 9+7+$+$+$+$+1 1 1 1 1 1 1 N u+9+9+9+9+9+9+R L L L L ^ ^ ^ ^ ^ ^ ^ L 3+9+u+4.4.R.R.y.y.$+/.9+R L ^ o o ) ) B B B B B B B ) S.h+3+3+3+L W.W.W.3+++++u+4.4.y.y.y.4.4.u+++L o o ^ ^ ^ L R 9+9+9+9+9+9+R L ^ ^ ^ L L L L ^ ^ ^ ^ ^ ^ ^ ^ ^ ^ ^ ^ ^ ^ ^ L L 9+9+R L L ^ L R R 9+N y.y.y.4.++h+S.) B B B B B B B B B B B B B B B B B B B B B B B B B B B B B B B B B B B B B B B ) S.S.S.!+H H h+!+S.) ) ) B B e+c.w+U.U. +| <.H !+S.) ) ) X X X X ) B B B B B B B ) ) !+h+3+++u+++3+!+!+!+!+!+!+S.) ) ) ) B B ) X e+h+H ++| 4.4.4.| ++++h+h+S.S.S.S.h+H h+!+!+!+!+S.) ) ) S.S.S.S.) ) ) ) ) ) ) ) B B B B p p B *.t.e+e+e+e+e+3 H <.<.<.<.H 3 S.) ) B B p p p j.p p p p p p p p p p p p p j.j.j.j.",
") ) ) ) B B ) S.e+3 3 H H H 3 e+X B B B B B B B B B <+e+c.c.<.c.3 S.) B B B B B <+X S.S.S.S.e+h+H H H h+e+S.S.) ) ) ) ) ) ) ) ) ) S.S.S.e+e+e+c.<.<.<.H e+S.<+B B B B B B <+S.e+3 <.<.U.d &+&+d d  +| ++3+h+!+o o o o o o o  . .W.W.W.W.^ ^ ^ ^ L L L L L ^ o o o ) ) ) ) ) ) ) o !+H | 4.;.;.d  +| <.h+S.) B B B B ) ) ) ) !+!+!+3+3+3+3+9+9+3+L L L ^ ^ L L R 9+9+9+$+$+y.y.1 1 1 1 1 1 1 N N 9+9+9+9+R R R L L L L ^ ^ ^ ^ ^ ^ ^ L 3+u+4.4.R.R.R.R.y.y.u+9+9+R L ^ o o ) ) B B B B B B B ) S.h+3+3+3+W.W.W.W.h+h+3+++u+4.4.y.R.R.y.4.++3+!+o o ^ ^ ^ L L R R R R L L ^ ^ ^ ^ ^ L L L ^ ^ ^ ^ ^ ^ ^ ^ ^ ^ ^ ^ ^ ^ ^ L L 3+9+9+L L L R R R 9+N y.R.y.4. +<.h+S.) B B B B B B B B B B B B B B B B B B B B B B B B B B B B B B B B B B B B B B ) S.S.S.!+!+!+!+!+S.) ) ) B B X c.<. + + +| <.h+!+!+o ) ) ) X X ) ) B B B B B B ) ) ) S.h+3+++++++3+!+!+!+!+!+S.) ) ) B B B B B ) S.h+h+++|  + + +| ++++h+!+) ) ) S.S.S.!+!+!+!+!+S.) ) ) ) ) S.) ) ) ) X X X X X *.B B B B B B B <+t.e+e+e+e+3 H H <.<.H h+S.S.) B B B p p p p p p p p p p p p p p p p p j.j.j.j.",
"B B B B ) ) S.e+3 <.<.<.H e+e+X ) B B B B B B B B B <+e+3 c.3 3 S.) B B B B B B B <+X S.S.e+h+h+h+h+h+h+e+e+X X ) ) ) ) S.S.S.S.S.S.S.S.S.X e+e+H <.<.H h+S.S.) B B B ) <+S.3 c.<.w+U.&+&+E.E.&+d  +| H h+h+h+!+!+!+ . . . . . .W.3+3+W.^ ^ ^ ^ L L L L L L !+o o ) ) ) ) ) ) ) ) !+3+| 4.;.;.;.;.d  +<.h+X ) B B ) ) ) ) S.!+!+3+3+++3+3+3+3+L L L L L L R 9+9+9+9+u+$+y.y.y.y.1 $+u+N N u+u+9+9+9+R R R L L L L ^ ^ ^ ^ ^ ^ ^ ^ ^ 3+u+4.R.c c c c R.y.N u+9+R L L L o o ) B B B B B B B B ) S.h+3+3+3+3+W.W. . .h+h+h+++u+N y.R.R.R.y.N 3+L ^ o o ^ ^ ^ L L L L L L ^ ^ ^ ^ ^ ^ ^ ^ ^ ^ ^ ^ ^ ^ ^ ^ ^ ^ L L ^ ^ ^ ^ L L 3+3+9+R R R R R 9+u+N y.R.R.4. +| <.e+X B B B B B B B B B B B B B B B B B B B B B B B B B B B ) ) ) ) B B B B B B B ) S.S.!+!+!+!+!+!+S.) ) ) B B X 3 <.w+ +| <.H h+!+!+o o ) ) ) ) ) ) ) ) ) ) ) ) ) ) ) S.h+3+++++++3+!+!+!+!+S.) ) ) ) B B B B B ) X h+h+++|  + + +| ++++h+S.) ) ) ) S.S.S.!+!+!+!+S.) ) ) ) ) ) ) S.S.X S.S.S.X X *.*.*.B B B B B <+t.t.e+e+3 3 3 h+h+h+h+S.S.S.S.) B B B p p p p p p p p p p p p p p p p j.j.j.j.",
"B B B B ) ) S.3 <.<.<.<.3 e+S.) B B B B B B B B B B <+<+e+3 3 e+S.<+B B B B B B B B ) X S.h+h+h+h+h+h+h+e+e+e+X ) ) ) ) S.!+!+S.S.S.S.S.<+<+X e+h+<.++H h+S.S.) ) ) ) S.S.e+3 <.w+U.&+s E.E.E.&+d  +<.H h+h+h+h+h+h+h+ . . . . .W.3+3+L !+o o ^ L L L L L L L !+o ) ) ) B B ) ) ) o h+| 4.;.;.;.;.;.d  +<.h+S.) ) ) ) S.S.!+!+3+3+++u+9+3+L L L L L L L R 9+9+9+9+u+u+y.y.y.:.y.$+u+9+9+9+9+9+9+R R R R L ^ ^ ^ ^ ^ ^ ^ ^ ^ ^ ^ ^ L 9+4.R.c c c c c R.4.N 9+L L L L L o o ) B B p p p p B B ) S.h+3+++3+3+W.W. .o ) S.!+!+3+u+4.R.R.R.y.N 3+L ^ o o o ^ ^ ^ ^ ^ ^ ^ ^ ^ ^ o o ^ ^ ^ ^ ^ ^ ^ ^ ^ ^ ^ ^ ^ L L L L ^ o o L L 3+3+3+R R R R R 9+u+N y.y.R.4.4. +| <.e+X B B B B B B B B B B B p p B B B B B B B B B B B B ) ) S.S.) B B B B B B B ) S.!+!+!+!+!+!+!+S.) ) ) B B <+e+c.<.<.<.<.H h+!+!+o o o ) ) ) ) ) ) ) ) ) ) ) ) ) ) S.h+h+++++3+3+!+!+!+S.) ) ) ) B B B B p B ) S.h+H <.|  + + +++++++h+S.) B B B B ) S.S.h+h+!+S.) ) ) B B ) ) S.e+e+e+e+e+e+X *.*.*.*.B B B B *.t.t.t.3 c.c.3 e+e+S.S.S.S.S.S.) B B B p p p p p p p p p p p p p p p p j.j.j.j.",
"B B B ) ) S.e+3 <.<.<.<.3 S.) ) ) B B B B B B B B B B <+S.3 3 S.<+<+B B B B B B B B B ) S.e+h+h+h+h+h+h+e+e+e+e+S.) ) ) S.!+!+S.S.S.S.) ) ) ) e+h+3+++3+H !+S.S.S.) S.S.S.3 H <.w+U.&+s E.E.E.&+U.<.H h+h+h+h+h+h+h+h+ . . . . .W.3+3+L !+o o o !+L L L L L L !+!+) ) ) B B B ) ) o h+++4.;.c c ;.;.;.d  +<.<.H h+h+h+h+H H 3+++++N u+9+3+L L L L L R 9+9+9+9+9+u+u+u+y.y.y.y.y.$+u+9+9+R R R R R R R R ^ ^ ^ ^ ^ ^ ^ ^ ^ ^ ^ L L 3+u+4.R.c c c c c ;.4.u+3+L ^ ^ L L o ) ) B B p p p p B B ) S.h+3+++6 6 3+W. .) ) ) ) o L 3+N y.R.R.y.N 9+L L o o o o ^ ^ ^ ^ ^ ^ ^ ^ o o o o ^ ^ ^ ^ ^ ^ ^ ^ ^ ^ ^ ^ L L L L o o o !+L 3+3+3+R R R R 9+9+u+N y.y.y.4.4.d  +<.H e+S.) ) B B B B B B B B p p B B B B B B B B B B B ) ) S.S.S.) B B B B B B B ) S.!+!+!+!+!+!+!+) ) ) B B B B X e+c.<.H h+h+h+!+o o o o ) ) ) ) ) ) ) ) ) ) ) ) ) ) S.h+h+3+++3+h+!+!+!+S.) ) ) B B B B p p B <+S.h+H <.| |  +| | ++++h+S.) B B B B ) S.S.h+h+!+S.) ) ) B B ) ) S.h+h+e+e+e+e+X *.*.*.*.B B B B *.t.t.t.e+c.c.e+e+S.S.S.S.S.S.S.) B B B B B p p p p p p p p p p p p p p j.j.j.j.",
"B B ) ) X e+3 H <.<.<.c.3 S.) ) ) B B B B B B B B B B <+<+S.S.<+<+<+B B B B B B B B B ) ) S.!+!+h+h+h+h+h+3 e+e+X ) ) ) S.S.S.S.S.S.S.) ) ) ) !+h+3+3+3+H h+!+!+!+S.S.S.S.3 H <.w+ +d &+&+s &+&+U.<.3 S.e+h+h+e+e+e+S.X  . . . . .!+!+!+o o o o o !+L L 3+3+3+!+!+) ) ) B B B ) ) o h+++4.4.;.R.R.;.;.;.d d d  + +<.<.<.| | | | ++u+9+9+L L L R R 9+9+9+9+9+u+u+u+u+N N y.y.y.$+$+9+9+R R R R R R R R L ^ ^ ^ ^ ^ ^ ^ ^ ^ L L 3+u+N 4.;.R.c c c R.;.4.N ++3+W.^ ^ L !+o ) ) B B p p p p B B ) S.h+3+++6 6 6 W. .X ) ) ) o !+3+N y.R.R.y.N 9+L L ^ o o o o ^ ^ ^ ^ ^ ^ o o o o o o ^ ^ ^ ^ ^ ^ ^ ^ ^ ^ ^ L L L L o o o !+L 3+3+3+R R R R 9+9+u+$+$+y.y.4.4.4.d  +| <.h+e+S.) B B B B B B B p p B B B B B B B B ) ) ) ) S.S.S.) ) B B B B B B B ) S.!+!+!+!+!+!+S.) ) ) B B B B *.e+e+3 h+h+h+!+o o o o ) ) ) ) ) ) ) ) ) ) ) ) ) ) ) ) !+h+3+3+3+h+!+!+!+S.S.) ) B B B B B B B X e+h+H <.<.<.| ++++++H h+S.) B B B B B S.S.h+h+!+S.) ) ) ) ) ) S.S.e+e+e+e+e+X *.*.*.*.B B B B B B *.t.t.t.e+3 e+e+S.S.S.S.S.S.) ) ) B B B B B B p p p p p p p p p p p p j.j.j.j.",
") ) ) X e+3 H H <.<.c.3 e+S.) ) ) ) ) B B B B B B B B <+<+<+<+<+<+<+<+B B B p p p p B B ) ) S.!+!+!+h+h+H H 3 e+X ) ) ) X X X S.S.) ) ) ) ) ) !+h+3+3+3+3+3+h+!+!+!+!+!+!+!+H H <.|  +U.d d U.U.<.3 S.S.X X X X X X X ) ) ) o o  .!+!+o o o o o o o !+L 3+3+3+h+!+) ) ) B B B B ) ) !+3+| 4.4.R.R.R.R.c c M.M.&+d U. + + + + + +| ++3+L R R R R 9+9+/.7+$+$+$+u+u+N N N N $+$+$+9+9+R R R L L L L L ^ ^ ^ ^ ^ ^ ^ ^ ^ ^ L L 3+u+N 4.;.;.R.R.R.;.4.4.u+u+3+W.W.W.^ ^ o o ) B B B p p p p B B ) S.h+3+3+++6 6 3+h+X ) ) ) ) o 3+u+4.y.y.y.N 9+3+L ^ o o o o o o o o o o o o o o o o o o o o o ^ ^ ^ ^ ^ ^ L L L L o o o !+L 3+3+3+R R R 9+9+7+$+$+$+N 4.4.;.;.;.4.4.| ++H h+e+X <+B B B B B B B B B B B B B ) ) ) S.S.S.S.S.) ) B B B B B B B B S.S.!+!+H !+!+!+S.) ) B B B B B *.t.e+e+e+h+ .o o o o ) ) ) X X ) ) ) ) ) ) ) ) ) ) ) ) !+h+3+3+3+h+!+!+!+S.S.S.) B B B B B B B X e+H <.<.<.<.<.<.<.H H h+S.) B B B B B S.S.h+h+!+S.) ) ) ) ) ) S.S.3 3 e+S.X *.*.B B B B B B p p p B *.t.t.t.t.e+e+e+S.S.S.) ) ) ) ) ) ) ) B B B B p p p p p p p p p p p j.j.j.j.",
") ) S.e+h+H <.<.c.3 3 3 S.S.) ) ) ) ) ) B B B B B B B B <+<+<+<+<+<+<+B B p p p p p B B ) ) ) S.!+!+h+h+H <.H 3 e+X ) ) X X X X X ) ) ) ) ) ) !+h+3+3+3+3+3+3+!+!+!+!+!+!+!+!+H H <.<.<. +w+<.<.3 e+) ) X X X X X ) ) ) ) ) ) o o o o o o ) ) o o o !+3+3+3+3+h+!+) ) ) B B B B ) ) !+H ++N 4.4.y.R.R.c (.(.(.E.;.&+d d d d 4.4.u+3+3+L R R R 9+9+7+$+$+$+$+$+$+N N N N u+u+u+9+9+R R R L L L L L ^ ^ ^ ^ ^ ^ ^ ^ ^ ^ L L 3+++N 4.;.;.;.;.;.4.4.u+++3+3+W.W.W.W.^ o o ) ) B B B p p p p B B ) S.!+3+3+3+++++3+h+S.) ) ) ) o L ++N y.y.y.N 9+9+L L o o o o o o o o o o o o o o o o o o o o o o ^ ^ ^ ^ L L L L L o o o !+L 3+3+3+R R 9+9+7+$+$+$+u+u+u+4.;.;.;.;.4.4.| ++H 3 e+X *.B B B B B B B B B B B ) ) ) S.S.S.S.S.) ) B B B B B B B B ) S.S.h+H H !+!+!+S.) ) B B B p p B *.*.X X X o o o o ) ) ) X X X X ) ) ) ) B B B B ) ) ) !+h+3+3+3+!+!+!+!+S.S.S.) B B B B B B B e+3 H <.<.<.H H H H H H e+S.) B B B B B ) S.h+h+!+S.) ) ) ) ) ) S.S.3 3 S.S.<+B B B B B B B p p p p p p *.t.t.t.e+e+e+e+S.S.S.S.S.S.S.S.S.) ) ) B B p p p p p p p p p p p j.j.j.j.",
"S.S.e+h+<.<.<.<.H 3 3 S.S.) ) ) ) ) ) ) B B B B B B B B <+<+<+<+<+<+<+B B p p p p p p B B ) ) ) !+!+!+H H <.<.c.e+X X X X X X X X S.) ) ) S.S.!+h+3+3+3+3+3+3+3+!+!+!+!+!+!+!+h+H H H H <.<.<.3 e+<+B B *.X X X B B B B ) ) ) ) o o o o o o o o o o !+3+3+++++h+h+S.) ) B B B B ) ) !+!+3+u+N 4.4.y.R.c c (.(.(.E.&+&+&+;.;.4.4.u+3+L L R R R 9+7+$+$+$+$+$+$+$+N N N u+9+9+9+9+R R R R L L L L ^ ^ ^ ^ ^ ^ ^ ^ ^ L L L 3+3+++4.4.;.;.;.4.4.N u+3+L W.W.W.W.W. .o o o ) ) B B B p p p p p B ) ) !+3+3+3+3+++3+h+S.) ) ) ) o L 3+u+N y.1 u+9+9+L L ^ o o o o o o o o o o o o o o o o o o o o o o ^ ^ ^ L L L L L L o o  .L 3+3+3+9+9+9+7+$+$+$+/.9+9+u+N 4.;.;.;.4.4. +++<.<.c.e+X *.B B B B B B B B ) ) ) ) S.S.S.S.S.S.) B B B B B B B B B ) S.S.h+H H !+!+!+S.) B B B p p p p *.*.*.X ) o o o ) ) ) ) X X X X ) ) ) ) B B B B ) ) ) !+h+3+3+3+!+!+!+!+S.S.S.) B B B B B B <+e+3 <.<.<.H h+h+h+H H H S.S.B B B B B B ) S.e+h+S.S.) ) ) ) ) S.S.S.e+S.S.<+B B B B B B B p p p p p p p B *.t.t.t.e+3 3 3 e+S.S.S.S.S.S.S.S.) ) B B B p p p p p p p p p p p j.j.j.",
"e+e+h+<.<.<.<.<.c.3 S.S.S.X ) ) ) ) ) ) B B B B B B B B B <+<+<+<+<+<+B p p p p p p p B B B ) ) S.!+!+H H <.<.c.3 e+e+X X X X e+S.S.S.S.S.e+h+h+h+3+3+3+3+3+3+3+3+!+!+!+!+!+!+h+h+h+h+h+h+e+e+X <+B B B B *.*.*.B B B B ) ) ) ) ) o o !+!+!+!+!+o !+L 3+3+++++3+h+S.) ) B B B B ) ) S.!+3+++u+u+N 4.4.R.c c c c ;.;.;.;.;.;.4.4.++3+L L R R 9+9+7+7+$+$+$+$+$+u+u+u+9+9+9+9+R R R R R L L L L ^ ^ ^ ^ ^ ^ ^ ^ ^ W.L 3+3+++++u+4.4.4.4.4.4.N u+3+3+^ ^ ^ W.W. . .o o ) ) ) B B B p p p p p B B ) !+!+3+3+3+3+h+h+X ) B ) ) o !+3+u+N N N u+9+9+3+L L !+o o o o o o o o o o o o o o o o o o o o o o ^ ^ L 3+3+3+3+L W.W.W.3+3+3+9+9+u+u+$+$+$+u+/.9+9+3+u+N 4.4.4.4.| |  + + +<.<.e+*.B B B B ) <+S.S.S.S.S.S.S.S.S.S.S.) B B B B B B B B B *.X S.e+h+H H h+!+!+!+) B B B p p p p p B *.) ) ) o ) ) ) ) ) X X X ) ) ) ) ) B B B B ) ) S.!+h+3+3+3+!+!+!+!+S.S.S.S.B B B B B B *.e+H <.<.<.h+h+h+h+h+H H S.S.B B B B B B ) X e+e+S.S.) ) ) ) S.S.S.S.S.S.<+<+B B B B B B B B p p p p p p p D.*.t.t.e+e+3 3 3 3 3 3 3 3 3 e+S.S.) ) B B p p p p p p p p p p p p j.j.",
"h+H <.<.<.w+w+<.H e+S.S.X X X X S.S.S.) ) B B B B B B B B B B B B B B B p p p p p p p B B B ) ) S.!+!+H H <.<.<.c.3 3 e+e+e+e+h+h+h+h+h+h+h+h+H h+h+h+h+h+!+!+3+3+3+3+h+h+h+h+h+h+h+h+h+e+X X <+B B B B B B B B B B B B ) ) ) ) ) S.S.!+!+!+!+!+L L L 3+3+++++3+h+S.) ) B B B B ) ) ) !+3+3+3+u+u+u+u+4.4.;.;.;.;.;.;.;.;.4.4.N ++3+L L R 9+9+9+9+9+/./././.9+9+9+9+9+9+R L L L L L L L L L ^ ^ ^ ^ ^ ^ ^ ^ ^ W.3+9+9+u+u+u+N N 4.4.4.N N ++3+3+L ^ o o !+!+!+!+o ) ) ) B B B B p p p p p p B ) o !+!+h+h+h+h+h+X ) B ) ) o !+3+u+N N N u+9+9+9+3+L L !+o o o o o  . . . . . .o o ) ) ) ) ) ) o o o ^ L 3+3+3+3+3+W.W.W.3+3+3+u+u+N 1 1 $+u+u+9+3+L 3+3+++++++++++++++ + +d U.<.c.X B B B ) S.S.S.S.S.S.!+!+!+S.S.S.) B B B p p p p B B *.X X e+e+h+h+h+h+h+!+!+S.) B B p p p p p p B B ) ) ) ) S.S.S.S.) ) ) ) ) ) ) ) B B B B ) ) S.!+H ++++3+h+!+!+!+S.X X X B B B B B B X e+<.<.<.<.h+h+S.!+h+H H S.S.B B B B B B <+X e+e+S.S.) ) ) X X S.S.S.<+<+B B B p p p p p B B B B p p p p p p B <+<+t.e+3 3 c.<.<.<.<.H H 3 e+e+X ) B B B p p p p p p p p p p p p p ",
"<.<.<.<.w+U.w+<.H e+S.) X X X X S.S.S.) ) B B B B B B B B B B B B B B B p p p p p p p p B B ) ) S.!+!+H H <.<.<.<.<.<.H h+h+h+h+h+H H H H H H H h+h+h+h+!+!+!+!+3+3+3+3+h+h+h+h+h+h+ . .X X B B B p p B B B B B B B B B ) ) ) ) S.S.S.!+!+3+3+L L L L 3+9+u+++3+h+o ) ) B B B B ) ) S.!+h+3+3+3+3+3+3+3+++u+4.4.d ;.;.;.4.4.N N 3+3+L L R 9+9+9+9+9+9+9+9+9+9+9+9+9+R R L L ^ L L L L L L ^ ^ ^ ^ ^ ^ ^ ^ ^ ^ W.3+9+u+u+N 4.4.N N u+++++3+3+3+L L o o o !+!+!+S.) ) B B B B B B p p p p p p B ) ) o o !+h+h+h+e+X ) B ) ) o !+3+++N N N u+9+9+9+3+3+3+L !+o o o W.W.W.W. . . . .o ) ) ) ) ) ) o o o !+L 3+u+u+9+3+W.W.W.3+3+3+u+N N y.1 N u+u+3+3+W.!+!+!+h+3+h+!+h+++ +d d d U.<.e+<+B ) S.S.S.3 h+H H H H h+S.S.) B B B p p p p p B B <+X e+e+h+h+h+h+3+3+h+!+S.) B B p p p p p p B B ) ) ) ) S.S.S.S.) ) ) ) ) ) ) ) B B B B ) ) S.h+H ++++3+h+!+o o X X X X B B B B B B X e+<.<.<.<.h+S.S.S.!+H H S.S.B B B p p B *.X e+e+S.S.) ) S.S.S.e+X <+<+B B B p p p p p p p B B B B p p p p p p B <+<+e+3 c.<.<.<.<.<.<.<.3 3 e+e+X B B B B p p p p p p p p p p p p ",
"<.<.w+w+U.U.w+<.c.e+) ) X X X e+S.S.S.S.) B B B B B B B B B B B B B B B p p p p p p p p B B B ) S.!+!+h+H <.<.<.<.<.<.<.<.<.<.H H H H H H H H h+h+h+h+!+!+!+!+!+!+h+h+h+h+h+h+h+h+ . .X X ) B B B p p B B B B B B B B B ) ) ) ) S.S.S.!+h+3+3+3+L L 3+3+9+u+u+3+h+ .) ) B B B B ) ) S.!+h+3+3+3+L L L L 3+3+++| 4.4.4.4.4.N N 9+3+3+L L 9+9+9+9+9+9+9+9+9+9+9+9+R R R L ^ ^ ^ ^ L L L L ^ ^ ^ ^ ^ ^ ^ ^ ^ ^ L L 3+u+u+u+4.4.4.4.N ++3+3+3+L L L o o o o !+!+S.S.) B B B B B B B p p p p p p B B ) o o !+!+h+h+S.) B B ) ) o !+3+3+u+N N 9+9+9+9+3+3+3+3+L !+o  .W.W.W.W.W. . . . .o ) ) ) ) o o o o !+L 3+u+u+u+3+3+W.W.3+3+3+u+N N N N u+u+u+3+W. .o o o o o o o  .h+ +d &+&+d ~ c.e+S.S.S.S.h+H H H H H H 3 S.S.B B B p p p p p p p B <+e+e+h+h+h+h+3+3+3+3+!+S.) B B p p p p p p p B B ) ) ) S.S.S.S.) ) ) ) ) ) ) ) B B B B ) ) S.h+H H ++H h+!+o o X X X X B B B B B B X 3 <.<.<.<.h+S.S.S.!+H 3 S.S.B B p p p p B <+e+e+S.X ) ) ) S.e+e+<+<+B B B p p p p p p p p B B B B p p p p p p p B <+t.e+3 c.<.<.<.<.<.c.3 e+e+e+X <+B B B p p p p p p p p p p p p ",
" +U.U.U.U.U.w+<.c.e+) ) X e+e+e+e+S.S.X X ) B B B B B B B B B B B B B p p p p p p p p p B B B ) ) !+!+h+h+H <.<.<.<.| | |  +| | <.<.H H H 3 3 e+e+e+S.S.S.S.S.!+!+!+!+h+h+h+h+h+h+ . .X X ) B B B B B B B B B B B B B B B ) ) ) S.S.!+!+h+3+3+3+3+3+3+3+u+u+u+3+W. .) ) B B B ) ) S.!+h+h+3+3+3+W.^ ^ ^ ^ L 3+++++4.4.N N u+9+9+3+3+9+9+9+9+9+9+9+9+9+9+R R R R R R L ^ ^ ^ ^ ^ ^ L L ^ ^ ^ ^ ^ ^ L L L L L L 3+3+9+u+N 4.4.4.4.N u+3+3+L L L o o o o o o S.S.) ) B B B B B B p p p p p p p B B ) o o !+!+!+S.X ) B B ) ) o !+L 3+9+u+u+9+9+9+9+u+++++3+3+L L W.W.W.W.W.3+3+3+ . . .o o o !+!+o o o L L 3+u+u+9+3+3+W.W.W.L 3+9+u+u+u+u+u+9+3+3+!+o o ) ) ) ) ) o o h+ +d ;.;.d U.<.<.<.H H h+h+H H H H 3 S.S.S.<+B B p p p p p p p p <+S.e+h+h+h+h+h+3+3+3+L !+o ) B B B p p p p p p B B ) ) ) S.S.S.S.) ) ) ) ) ) ) ) ) ) ) ) ) ) S.h+H H H H !+!+o ) X X X X B B B B B <+S.3 <.<.<.H h+S.S.S.S.3 3 S.S.B B p p p p B <+e+e+S.X ) ) S.S.S.t.<+<+B B p p p p p p p p p B B B B p p p p p p p B B <+t.e+3 c.c.c.c.3 3 e+e+e+e+t.<+<+B B p p p p p p p p p p p p ",
"d U.U.U.U.w+w+<.3 S.) ) S.e+e+e+e+e+X X X X *.B B B B B B B p p p p p p p p p p p p p p B B B ) ) o !+ .h+h+H <.<.|  + + + + + +| <.<.H 3 e+e+X X X ) ) ) ) ) ) S.S.S.X e+e+e+h+h+h+h+ .X X *.B B B B B B B B B B B B B B B ) ) S.S.!+!+h+h+3+3+3+3+3+3+u+u+u+6 W. .o ) ) B B ) S.S.h+H 3+3+3+3+W.^ o o o o L 3+3+++++++3+3+3+3+9+9+9+9+9+9+9+9+9+L L L L L L L L ^ ^ ^ ^ ^ ^ ^ ^ ^ ^ ^ ^ ^ ^ ^ L L L L L L 3+3+3+3+u+N 4.;.;.4.4.N u+3+L L o o o o o o ) ) ) ) B B B B B p p p p p p p p p B B ) o !+!+!+S.) ) ) B B ) ) o o L 3+9+9+9+9+9+3+u+u+u+u+++3+3+3+L L L 3+3+3+6 6 3+W. . . . .!+!+!+^ ^ ^ L 9+9+9+9+3+3+3+W.W.L L 3+9+9+9+9+9+3+3+L !+o ) ) ) ) ) ) ) o h+++d ;.;.&+d U.w+<.<.<.H H h+h+3 S.S.S.S.<+B B p p p p p p p p B <+S.3 h+H h+3+3+3+3+L L !+o ) ) B B p p p p p p B B ) ) ) S.S.S.S.) ) ) ) ) ) ) ) ) ) ) ) ) X X h+h+H H h+!+o ) ) X X X X B B B B <+S.e+3 H H H h+h+S.) S.S.3 3 S.<+B p p p p p B <+e+e+S.X ) ) S.S.<+<+<+B B p p p p p p p p p p B B B B p p p p p p p p B B <+t.t.t.t.t.t.t.t.t.t.t.t.t.<+<+<+B p p p p p p p p p p p p ",
"&+d d U.U.w+w+c.3 S.<+<+S.e+e+e+e+X X X X X X X B B B B p p p p p p p p p p p p p p p p B B B ) ) o o  . .h+h+<.<.|  + +d d d  + +<.<.3 e+X <+B B B B B B B B ) ) ) ) X X X X e+h+h+h+h+e+X X *.B B B B B B B B B B B B B B ) ) S.!+!+!+h+h+h+h+3+3+3+3+u+u+u+6 6 h+ .X ) ) ) S.S.h+H H ++++3+3+W.o o o o o o L L 3+3+L L L L L R 9+9+9+9+9+9+9+L L L L L ^ ^ ^ ^ ^ ^ ^ ^ o o ^ ^ ^ ^ ^ ^ o o !+L 3+3+3+3+3+3+3+L 3+u+N 4.;.;.;.4.N N 3+L !+o o o o o ) ) ) B B B B B B p p p p p p p p p p B ) S.!+!+!+S.) ) ) B B B ) ) o o L 3+9+9+9+9+3+3+++u+N N u+++3+3+L L L 3+3+3+9+u+6 3+W.W.W.3+3+3+L L ^ ^ L 9+9+9+9+3+3+3+3+L L ^ L L L L L L L L !+!+o ) ) ) ) ) ) ) o h+++d d ;.&+&+d U. + +++++H h+S.S.S.S.) B B B p p p p p p p p p B <+S.3 H H 3+3+3+3+L L L !+o ) ) B B p p p p p p B B ) ) ) S.S.S.S.) ) ) ) ) ) ) ) ) ) ) ) X X X e+h+h+h+h+S.) ) ) X X X X B B B <+S.e+3 3 H h+h+h+S.) ) S.S.3 3 S.<+B p p p p p B <+e+e+S.X ) ) ) <+<+<+<+B p p p p p p p p p p p B B B B p p p p p p p p p p B B B <+<+<+<+B <+*.t.t.t.t.<+<+<+<+B p p p p p p p p p p p ",
"d d d U.U.w+<.c.e+<+<+<+S.e+e+e+e+X X X X X X X *.B B B p p p p p p p p p p p p p p p p B B B ) ) o o o  . .h+<.<.|  + +d d d  + +<.H e+X B B B B B B B B B B B B B B B X X X X h+h+h+h+h+e+X X ) B B B B B B B B B B B B B ) ) S.!+!+!+h+h+h+h+h+3+3+3+3+u+u+++6 6 h+h+e+e+e+e+H H H ++++++3+3+!+o o o o o o o ^ ^ ^ ^ ^ ^ ^ L R 9+9+9+9+9+9+L L L L L ^ ^ ^ ^ ^ ^ ^ ^ o o o o ^ ^ ^ ^ o o o !+L 3+3+3+3+3+3+3+3+3+u+N 4.;.;.;.4.N u+3+L !+o o o o o ) ) B B B B B B B p p p p p p p p p p B ) S.!+!+!+o ) ) ) B B ) ) o o o L L 9+9+9+3+3+3+++u+N N u+++3+3+3+L L L 3+9+u+u+9+3+W.W.W.3+3+3+L L L L L R 9+9+9+9+3+3+3+L L ^ ^ ^ ^ L L L L L !+o ) ) B B B B ) ) o h+++ +d d d d d d  + +++H h+h+S.S.) B B B B p p p p p p p p p B B S.S.h+H H 3+3+3+3+3+L L !+o ) ) B B p p p p p p B B ) ) ) S.S.S.S.) ) ) ) ) ) ) ) ) ) ) ) X X X e+h+h+h+!+S.) ) X X X X *.B B B <+e+3 3 3 h+h+h+S.) ) ) S.S.3 3 <+<+B p p p p B B <+e+e+S.S.) ) ) <+<+<+<+B p p p p p p p p p p p B B B B p p p p p p p p p p p p p p p p p p p B *.*.t.t.<+<+<+<+B p p p p p p p p p p p ",
"U.U. + +w+<.<.3 e+<+B B <+S.S.S.X X X X e+e+e+e+*.*.B p p p p p p p p p p p p p p p p p B B B ) ) ) o o !+h+h+H <.++|  +d d d  +| <.3 e+<+B B B B B B B B B B B B B B B B X X X  .h+h+h+h+h+h+e+X ) B B B B B B B B B ) ) ) S.S.!+!+!+!+!+!+ .!+!+!+3+3+3+3+++++++++++<.<.<.<.<.<.| | ++++++3+3+!+o o o o o o o ^ ^ ^ ^ ^ ^ ^ L L R 9+9+9+R L L L L L ^ ^ ^ ^ ^ ^ ^ ^ o o o o o ^ ^ ^ ^ o o !+!+!+3+3+3+3+3+3+3+3+3+u+N 4.4.4.4.N N 3+3+L o o o o ) ) ) ) B B B B B B p p p p p p p p p p B B ) S.!+!+!+!+) ) ) ) ) ) ) o !+L L L 3+9+3+L 3+3+3+++u+u+u+u+++3+3+3+L L 3+9+9+u+9+3+W.W.L 3+3+3+L L L L R R 9+9+9+u+u+u+9+3+L L ^ ^ ^ ^ L L L !+!+o ) ) B B B B B ) S.!+H ++ + +d  + + + +| H h+h+S.S.) B B B B p p p p p p p B B B B S.S.S.!+H 3+3+3+3+3+3+L L !+o ) ) B B p p p p p p B B B ) ) ) ) ) ) ) ) ) ) ) ) ) ) ) ) ) ) X X X e+e+S.S.S.X X X X X X X *.B B B S.e+3 3 3 h+h+S.) ) ) ) S.S.3 3 <+<+B p p p p B B <+<+S.S.) ) ) ) <+<+B B p p p p p p p p p p p p B B B B p p p p p p p p p p p p p p p p p p p p D.<+<+<+<+<+<+<+B B p p p p p p p p p p ",
" + +<.<.<.<.c.e+t.<+B B B <+<+<+*.*.X X e+3 3 e+t.*.D.p p p p p p p p p p p p p p p p p B B B ) ) ) ) !+!+h+h+H H <.++|  + + +| <.h+e+X B B B B B B B B B B B B B B B B B B X X X  .h+h+h+h+h+h+S.) ) B B B B B B ) ) ) X X S.h+h+ . . . .!+o o !+!+!+!+3+3+++++ + + + + + + + + +| | ++++3+3+L !+o o o o o o o ^ ^ ^ ^ ^ ^ ^ L L L L L L L L L L ^ o o o o o o o o o o o o o o ^ ^ ^ ^ o !+!+!+!+!+!+3+3+3+3+3+3+9+N N N 4.N N u+3+3+L ^ o o o ) ) ) ) B B B B B p p p p p p p p B B B B B B ) !+!+!+!+!+) ) ) ) ) ) o !+!+L L L L L L L L L 3+3+++++u+u+u+u+3+3+L L L 9+9+9+9+3+3+L L L L L L L R R R R R 9+9+u+N N u+9+L L L L L L L L !+!+!+) ) B B B B B B ) S.!+h+H ++++| | | | <.H h+h+S.S.) B B B B p p p p p p p B B B ) X S.S.!+!+H 3+3+++9+3+3+L L !+o ) ) B B p p p p p p B B B B B ) ) ) B B B ) ) ) ) ) ) ) ) ) ) S.S.S.S.S.S.S.X X X X X X *.*.*.B B <+S.e+3 H H h+S.) ) ) ) ) S.S.3 3 <+<+B p p p B B B <+<+<+S.S.) ) ) B B p p p p p p p p p p p p p p B B B B p p p p p p j.j.j.j.j.p p p p p p p p p p p B <+<+<+<+<+B B B p p p p p p p p p ",
"<.<.<.H H 3 e+e+<+B B B B B B B B B X e+3 c.c.c.t.t.D.D.p p p p p p p p p j.j.p p p p p B B B B ) ) ) S.!+h+H H H H H ++| | | ++H h+S.) B B p B B B B B B B B B B B B B B B ) X X  . .h+6 6 H h+h+) ) ) B B B B ) ) ) S.S.h+h+h+ . . . . .o o o o o !+!+3+3+++u+4.d d d d  + + + +4.N ++++3+L L o o o o o o o o L L L L ^ ^ ^ ^ L L L L L ^ ^ ^ ^ o o o o o o o o o o o o o o o ^ ^ ^ ^ !+!+!+!+!+!+!+L 3+3+3+3+u+N N N u+++++3+3+L L ^ o o o ) ) ) B B B B B B p p p p p p p p B B B B B B ) S.!+h+3+!+!+) ) ) ) ) ) !+!+3+3+3+L L L L L L L L 3+3+++u+N N u+9+3+L L L 9+9+9+9+3+L L L L L L L 3+9+9+9+R R 9+u+N N N N 9+3+L L L L L L L !+!+S.) ) B B B p B B ) S.S.!+!+h+h+h+H H H h+!+S.S.) ) B B B B p p p p p p p B B B ) S.S.h+h+!+!+h+3+++u+u+9+3+L L !+o ) ) B B p p p p p p p B B B B B B B B B B B B ) ) ) ) ) ) ) ) S.S.S.S.S.) ) ) X X X X X *.*.*.B B <+e+3 c.<.H e+S.) ) ) B ) S.S.3 3 <+<+B p p B B B B <+<+<+S.) ) ) B B B p p p p p p p p p p p p p p B B B B p p p p p j.j.j.j.j.j.p p p p p p p p p p p p B <+<+<+<+B B B B p p p p p p p p ",
"h+h+h+h+e+e+e+X *.B B B B B B B B B <+e+3 c.c.c.e+t.D.D.D.p p p p p p p p j.j.p p p p p B B B B ) ) S.!+h+H H H H h+H H ++| | H H !+) ) B B B B B B B B B B B B B B B B B B ) ) X  . .h+6 ++++h+h+!+S.S.X X X S.S.S.S.S.S.h+h+h+ . . . .o o o o !+h+h+h+3+++++4.4.4.;.d d d d  +4.4.N u+3+3+L L o o o o o o o o L L L L ^ ^ ^ ^ L L L L ^ ^ ^ ^ o o o o o o o o o o o o o o o ^ ^ ^ ^ ^ !+!+!+!+!+!+!+L 3+3+3+3+++N N ++3+3+3+L L ^ ^ ^ o o o ) ) B B B B B B B p p p p p p p p B B B B B B ) S.!+h+3+!+!+) ) ) ) ) ) !+!+3+3+3+L L L L ^ ^ ^ L 3+3+++u+N N u+9+L L ^ L R 9+9+9+9+3+L L L L L L 3+9+9+9+9+9+9+u+N y.N N 9+3+L L L 3+3+3+!+!+!+S.) B B B p p B B <+S.S.S.S.o o !+!+!+!+S.S.) ) ) B B B B p p p p p p p B B B ) S.S.h+h+h+h+h+h+3+++u+u+9+3+L L !+o ) ) B B p p p p p p p B B B B B B B B B B B B ) ) ) ) ) ) ) ) S.S.S.S.) ) ) ) X X X X *.*.*.*.B B <+e+3 <.<.H e+S.) ) ) B <+<+e+e+e+<+<+B p p B B B B <+<+<+<+) ) ) B B p p p p p p p p p p p p p p p B B B B B p p p p j.j.j.j.j.j.j.p p p p p p p p p p p B <+<+<+<+B B B B p p p p p p p p ",
"h+h+e+e+e+X X *.B B B B B B B *.<+<+S.e+3 c.c.c.c.t.t.D.D.p p p p p p p p j.j.p p p p p B B B ) ) S.S.h+H H H H H h+h+H ++++++++h+!+!+) ) B B B B B B B B B B B B B B B B B ) ) X  .h+h+6 ++++++h+h+h+h+h+e+e+e+e+e+e+e+S.!+S. .X X ) ) o o o h+h+H <.++++ +4.4.4.4.4.4.4. + + +N u+u+++3+L L ^ ^ o o o o o o o ^ L L L ^ ^ ^ ^ ^ L L ^ ^ ^ ^ o o o o o o o o o o o o o o o ^ ^ ^ ^ ^ ^ L !+!+!+!+!+!+L 3+3+3+3+++++3+3+3+L L L ^ ^ ^ o o o ) ) ) B B B B B B p p p p p p p p p B B B B B B ) S.!+!+!+!+S.) ) ) ) ) ) !+L 3+3+3+L L L ^ ^ ^ ^ 3+3+u+u+u+u+u+9+3+L L ^ L L R 9+9+9+9+9+9+L L L L L 3+3+9+9+9+9+u+N N N u+3+3+L 3+3+9+3+3+!+!+S.) ) B B B B B B B B ) ) ) ) ) ) ) ) ) ) ) ) ) ) B B B B p p p p p p p p B B S.S.S.h+h+h+h+h+h+3+3+++u+u+9+3+L L !+!+S.) ) B p p p p p p p p B B B B B B B B B B B B ) ) ) ) ) ) S.S.S.S.) ) ) ) ) X X X X *.*.*.*.*.*.*.e+c.<.<.H e+S.) ) ) ) <+X e+e+t.<+<+p p p B B B B B <+<+<+) ) ) B B p p p p p p p p p p p p p p p B B B B B p p p p p j.j.j.j.j.j.p p p p p p p p p p p p B <+<+B B B B B B B p p p p p p ",
"e+e+e+e+X X B B B B B B B *.X X S.S.e+3 3 3 c.c.c.c.t.t.D.p p p p p p p p p p p p p p p B B B ) S.S.h+H H <.<.H H h+h+H H ++++++3+h+!+!+) ) B B B B B B B B B B B B B B B ) ) ) X h+h+h+++++++++++H H H <.<.<.<.H H h+h+e+S.) ) ) ) ) ) ) ) !+h+<.<. + +d 4.4.4.4.4.4.4.u+++++++++++3+3+L L ^ ^ ^ ^ ^ o o o o o ^ ^ ^ ^ ^ ^ ^ ^ ^ ^ ^ ^ ^ o o o o o o o o o o o o o o o o ^ ^ ^ ^ ^ ^ ^ L L L L L L L L 3+3+3+3+3+3+3+3+L !+o o o o o o o o ) ) ) B B B B p p p p p p p p p p p B B B B B ) ) S.!+!+!+!+) ) ) B ) ) o !+L 3+3+3+L L o o o ^ L 3+u+u+N N u+9+3+L L ^ ^ ^ L L 9+9+9+9+9+9+R L L W.W.W.3+3+9+9+u+u+u+u+u+u+3+L L 3+9+u+u+++h+!+) ) B B B B B B B B B B ) ) ) ) ) ) ) ) ) ) ) B B B B B p p p p p p p p p B S.S.S.h+h+3+3+3+3+3+3+++u+u+u+9+3+L !+!+!+!+S.) B B p p p p p p p p p B B B B B B B B B B B B ) ) X X X S.) ) ) ) ) ) X X X X X *.*.*.*.*.*.t.e+c.<.<.H e+S.) ) ) X X X t.t.t.*.B p p p B B B B B B B <+S.S.S.) B p p p p p p p p p p p p p p p B B B B B B B p p p p j.j.j.j.j.p p p p p p p p p p p p B B B B B B B B B B B p p p p p ",
"e+e+e+X X B B B B B B B *.X X e+e+e+3 3 3 3 3 3 c.c.e+t.*.B p p p p p p p p p p p p p p B B B S.S.h+H H | | | H H 3 h+h+H ++++++3+3+h+!+!+) ) B B B B B B B B B B B B B ) ) ) S.!+h+h+h+++++++++++++++++++| <.<.<.<.H h+e+S.S.) ) ) ) ) ) ) S.h+<. + +d d d 4.4.4.4.u+u+3+3+3+3+3+3+3+L L o o o ^ ^ ^ ^ o o o o ^ ^ ^ ^ ^ ^ ^ ^ ^ ^ ^ ^ ^ o o o o o o o o o o o o o o o ^ ^ ^ ^ ^ ^ ^ L L L L L L L L L 3+3+3+3+3+!+!+!+!+o o o o o o o o ) ) ) B B B B p p p p p p p p p p p p B B B B ) ) ) S.!+!+!+S.) ) B B ) ) o !+L 3+3+L L o o o o o L 3+u+N N N u+3+L L ^ ^ ^ ^ L L 3+9+9+N N 9+R L ^ ^ W.W.W.3+3+u+u+u+u+u+u+3+3+L L 3+u+N N ++3+S.) B B B B B B B B B B B B B B B B B B B B B B B B B B p p p p p p p p p B <+S.3 H H 3+3+3+3+++++++++N N N 3+3+!+o  .!+h+S.X <+B p p p p p p p p p p B B B B B B B B B B B ) X X X X ) ) ) ) ) ) ) X X e+e+X *.B B *.*.t.t.3 c.<.<.H e+S.) ) S.e+e+e+t.t.*.*.B p p p B B B B B B B ) S.S.S.<+B p p p p p p p p p p p p p p p B B B B B B B B p p p p j.j.j.j.p p p p p p p p p p p p B B B B B B B B B B B B p p p p ",
"e+e+e+X <+B B B B B B B *.X X e+e+e+3 3 3 3 3 3 c.c.c.e+t.<+B B B B p p p p p p p p B B B B ) S.3 H H H <.<.H H 3 e+e+h+h+H ++++3+3+3+h+!+S.) ) ) ) B B B B B B B B ) ) ) ) S.!+h+h+h+3+6 ++++++++++++++++| | <.<.<.<.H h+e+e+S.X X X ) ) S.e+H <. +d d d d 4.4.4.u+u+9+W.L ^ L L L L L !+o o o ^ ^ ^ ^ o o o o ^ ^ ^ ^ ^ ^ ^ ^ ^ ^ ^ ^ o o o o o o o o o o o o o o o o ^ ^ ^ ^ ^ ^ L L L 3+3+3+L L L L 3+3+3+3+!+!+!+!+o o o o o o o ) ) ) ) ) B B B B p p p p p p p p p p p p B B B B ) ) ) S.!+!+!+S.) ) B ) ) ) o !+L 3+3+L L o o o o o L 3+u+N N N 9+3+L L ^ ^ ^ ^ L L 3+9+9+N N 9+R L ^ ^  . . .3+6 6 u+u+u+u+u+3+W. .L 3+u+4.4.u+3+S.B B B B B B B B B B B B B B B B B B B B B B B B B B p p p p p p p p p B <+S.3 H H H 3+3+3+++++++| N N N u+3+L !+o o !+h+h+X X B p p p p p p p p p p B B B B B B B B B B B B X X X X ) ) ) ) ) ) ) X X e+X X B B B <+t.t.3 c.<.<.<.H e+S.) S.S.e+e+e+t.*.*.*.p p p p B B B B B B B ) S.S.S.<+B p p p p p p p p p p p p p p p B B B B B B B B p p p p j.j.j.j.p p p p p p p p p p p p B B B B B B B B B B B B p p p p ",
"e+e+S.X <+B B B B B B B *.X X X S.S.S.S.S.S.e+3 3 c.c.3 e+t.t.<+<+<+*.B B B B B B B B B B B ) S.H <.<.<.<.H H 3 e+e+e+e+e+h+h+3+3+++3+3+h+!+S.) ) ) ) ) ) ) ) ) ) ) ) ) S.!+!+h+h+3+3+6 6 6 6 6 6 ++++++++<.<.<.<.<.<.<.<.<.c.c.3 3 e+e+S.S.h+H <.|  + +d 4.4.4.u+u+9+W.L ^ ^ ^ ^ L L !+o o o o o ^ ^ o o o o o o ^ ^ ^ ^ ^ ^ ^ ^ ^ ^ ^ ^ o o o o o o o o o o o o o o o ^ ^ ^ L L W.3+3+3+3+3+3+3+3+L L L L L !+!+!+!+!+o o o o ) ) ) ) ) ) ) ) B B B B p p p p p p p p p p p p p B B B ) ) ) S.S.S.S.) ) ) ) ) ) o !+L L L L L !+o o o o o !+3+u+u+u+u+3+L L ^ ^ ^ ^ ^ L L 3+9+9+N N 9+R L ^ ^ o  . . .3+3+3+3+9+9+3+3+L  .L ++N y.4.u+3+S.B B B B B B B B B B B B B B B B B B B B B B B B B p p p p p p p p p B <+<+e+H H H H 3+3+3+++| 4.4.4.N N ++3+L !+o o !+h+h+e+X B B p p p p p p p p p p B B B B B B B B B B B ) X X ) ) ) ) ) ) ) S.X X X X *.B B <+t.e+c.c.c.<.<.<.<.3 S.) S.S.e+e+e+t.*.*.p p p p p B B B B B B ) ) ) ) <+B B p p p p p p p p p p p p p p p B B B B B B B B p p p j.j.j.j.j.p p p p p p p p p p p p p B B B B B B B B B B B p p p p ",
"S.S.S.S.<+B B B B B B B B B B *.<+<+<+<+<+<+S.e+3 3 3 3 3 3 e+e+e+t.t.<+<+<+<+<+B B B B B ) S.e+H <.<.<.H 3 e+S.<+<+<+*.X S.h+H H ++++3+H h+!+S.S.S.S.S.S.S.S.S.S.S.S.!+!+!+h+3+3+6 6 6 6 6 6 6 6 6 6 6 H H H H <.<.<.<.<.<.<.<.<.<.<.H H h+h+H H <.++| |  +u+u+++3+W.L ^ ^ ^ ^ W. . . .o o o o o o o o o o o o o o o o o o o o o o o ^ ^ ^ ^ o o o o o o o o o o o o o ^ L L L 3+3+3+++++++++++3+3+3+L L L !+!+!+!+!+!+o o ) ) ) ) ) ) ) ) ) ) B B B B p p p p p p p p p p p p p p B B ) S.S.S.S.S.) ) ) ) ) ) o !+!+L L L L !+!+o o o o o o L 3+9+9+3+L L o o o o ^ ^ W.W.3+9+9+9+9+9+R ^ ^ ^ o o  . . .W.3+3+3+3+3+L !+o W.++4.y.4.4.++S.B B B B B B B B p p p p p p p p p p p p p p p p p p p p p p p p p B <+<+e+3 H <.++3+3+3+3+++4.4.4.4.4.u+3+3+L o o o !+h+h+e+X X B B p p p p p p p p p p B B B B B B B B B B ) ) ) ) ) ) ) ) X X X X X *.<+B B B <+t.3 c.<.w+w+w+<.<.3 S.S.S.S.e+e+t.<+*.B p p p p p B B B B ) ) ) ) ) ) B B p p p p p p p p p p p p p p p p B B B B B B B B p p j.j.j.j.j.j.p p p p p p p p p p p p p p B B B *.*.*.*.*.*.B p p j.j.",
"S.S.S.S.) B B B B B B B B B B B B B B B B B <+S.e+3 3 3 c.c.c.3 e+e+e+e+e+e+X X ) ) ) ) ) ) S.h+<.<.<.<.H S.<+B B B B B B ) S.h+H ++++++H h+h+!+!+!+!+!+!+!+!+!+!+!+!+!+!+3+3+3+++u+u+6 6 6 W.6 6 6 6 h+h+h+e+h+H <.<.<.w+w+U. + + +| <.<.H H H H H H ++++++++3+3+L ^ ^ ^ ^ ^ ^  . . . .o o o o o o o o o o o o o o o o o o o o o o o o ^ ^ ^ ^ o o o o o o o o o o o !+L L L 3+3+3+++++| | | ++++3+3+L !+!+o !+!+!+!+!+) ) ) ) ) ) ) ) ) ) ) ) B B B B p p p p p p p p p p p p p p B B <+S.S.S.S.) ) ) ) ) ) o !+!+L L L !+!+!+o ) ) ) o o o L L 3+3+L L o o o o o o o W.W.W.3+9+9+9+9+L ^ ^ ^ o o o o o  .!+L L L L L o o W.++4.4.4.4.++e+B B B B B B B p p p p p p p p p p p p p p p p p p p p p p p p p B <+<+e+3 H H | ++H h+h+3+| 4.;.;.4.4.++3+L !+o o o !+h+h+h+e+X X *.B p p p p p p p p p p B B B B B B B B B ) ) ) ) ) B B ) X S.e+X X B B B B B <+e+c.<.w+w+w+w+<.<.3 S.S.S.S.e+e+t.<+B p p p p p p B B B B ) S.S.S.) B B B p p j.p p p p p p p p p p p p p B B B B B B B p p p j.j.j.j.j.j.p p p p p p p p p j.j.p p p p B *.*.*.*.*.*.*.D.p p j.j.",
"S.S.S.S.) B B B B B B B B B B B B B B B B B B <+S.e+3 3 H H H 3 e+e+e+e+e+e+e+S.) ) ) ) S.S.e+H <.<.<.<.e+X B B p p p p B B ) S.H H <.++H h+h+h+!+!+!+!+!+!+!+!+!+!+h+h+3+3+++++u+u+u+3+3+W.W.W.6 6 6 h+h+X S.e+e+H <.<.w+U.U. + + + +| | <.<.H H H H H 3+3+3+3+W.^ ^ ^ ^ ^ ^ ^  . . . .o o o o o o o o o o o o o o o o o o o o o o o o ^ ^ ^ ^ ^ o o o o o o  . .h+h+3+3+3+3+3+++++++++| | | ++++3+3+!+!+o o o !+!+!+S.) ) ) ) B B B B ) ) ) ) B B B B p p p p p p p p p p p p p p B B <+S.S.S.) ) ) ) ) ) o o !+L L L !+!+!+S.) ) ) ) ) o o o L L L L o o o o o o o o  .W.W.W.9+9+9+R L ^ ^ ^ o o o o o o o !+L L L L o o 3+++4.4.4.4.++h+X B B B B B B p p p p p p p p p p p p p p p p p p p p p p p B <+<+t.3 3 H H <.<.H H h+h+++ +4.;.;.;.4.++3+L o o o o !+h+h+h+h+e+e+e+*.B p p p p p p p p p p B B B B B B B B ) ) ) ) B B B *.X e+e+X <+B B B B B <+3 c.<.w+w+w+w+<.c.3 S.S.S.S.e+e+<+<+B p p p p p p B B B ) S.S.S.S.) B B p p p j.j.p p p p p p p p p p p p B B B B B B B p p p j.j.j.j.j.p p p p p p p p p p j.j.j.p p p p *.*.*.*.*.*.*.D.p p p p ",
"S.S.S.S.) B B B B B B B B B B B B B B B B B B <+S.S.e+3 3 h+3 e+e+e+X e+e+e+S.S.) ) ) S.e+3 H <.<.<.<.3 e+B B p p p p p p B B S.3 H H <.H H h+h+!+!+!+!+!+!+!+h+h+h+3+3+++++++++++u+9+3+W.W.W.W.6 6 6 h+h+X X X e+3 c.<.<.w+ + + + + + + + +| | | <.H H 3+3+W.W.^ ^ ^ ^ ^ ^ ^ o  . . .o o o o o o o o o o o o o o o o o o o o o o o o o ^ ^ ^ ^ ^ ^ o o o !+!+h+3+++++++++++++++++++++++++<.<.H H h+!+!+o o o o o S.S.) ) ) ) B B B B B B ) ) B B B B B p p p p p p p p p p p p p p B B <+S.S.S.) ) ) ) ) ) o !+L L L L !+!+S.) ) ) ) ) ) o o o o ^ ^ o o o o o o o o o o W.W.W.3+3+3+L L ^ ^ o o o o o o o o o L L L L o o h+++4.4.;.4.| <.e+X B B B B B p p p p p p p p p p p p p p p p p p p p p B <+t.t.3 3 3 H H H H H H H h+h+++ +;.c c ;.4.++3+o o o o o o !+h+H <.<.<.c.e+*.B p p p p p p p p p B B B B B B B B B ) ) ) B ) *.*.X e+t.<+<+B B B B B t.e+c.<.<.w+<.<.<.3 e+S.X S.e+e+t.<+<+p p p p p p p B B B ) S.S.S.S.B B B p p p p j.p p p p p p p p p p p p B B B B B B B p p p p j.j.j.p p p p p p p p p p p j.j.j.j.p p p B *.*.*.*.*.*.*.D.p p p ",
"S.S.S.S.) B B B B B B B B B B B B B B B B B B B ) S.S.S.e+e+e+e+X X <+<+<+<+<+<+<+) S.e+3 c.<.<.<.<.H e+X B p p p p p p p p B <+e+e+h+H H ++H h+!+!+S.!+!+h+h+h+H 3+++++++++++++++++3+3+W.W. .h+h+<.<.h+h+X X X X e+e+c.<.<. + + + +4.4.4.d d  + +| ++++h+h+ . .o o o o o o o o o o o o o o o o o o o o o o o o o o o o o o o o o o o o ^ ^ ^ ^ ^ ^ ^ ^ L L 3+++++|  + + + + + +++++++++H H h+h+h+!+!+o o ) ) ) ) ) ) ) ) B B B B B B B B B B B B B B B p p p p p p p p p p p p p B B B S.S.S.S.) ) ) ) ) o o !+L L L L !+!+) ) ) ) ) ) ) ) o o o o o o o o o o o o o o o o W.W.3+3+3+L L ^ o o o o o o o o o o L L L !+o o h+++4.4.;.d  +<.H e+X B B B B B B p p p p p p p p p p p p p p p p p p B B t.3 c.c.<.<.<.<.H H H h+h+h+H | d ;.c c ;.4.++!+o o o o o o  .h+<.<. +w+<.c.e+<+B p p p p p p p p B B B B B B B B B B B B ) X X X t.<+<+<+<+B B B B *.t.e+c.c.c.<.c.3 3 e+e+X X X e+t.t.<+B p p p p p p p B B B ) S.S.S.<+B B p p p p p p p j.p p p p p p p p p p B B B B B B B B p p p p p p p p p p p p p B p p p j.j.j.j.j.p p B B *.*.*.<+<+<+<+<+<+<+",
"S.S.S.S.) B B B B B B B B B B B B B B B B B B B ) ) ) ) S.S.S.) ) B B <+<+<+<+<+B B <+e+c.<.<.<.<.c.e+X *.B p p p p p p p p B B X e+h+h+H ++++h+h+S.S.S.!+h+h+h+3+++++++| | | ++++++3+3+W. . .h+H <.<.h+e+X X X X X X e+c.<.<.| | N N 4.4.d d d  + +| ++H h+ . .o o o o o o o o o o o o o o o o o o o o o o o o o o o o o o o o o o o o ^ ^ ^ ^ ^ ^ ^ L L 3+3+++ + + +d d  + + + +++++H h+h+S.S.S.) ) ) ) ) ) ) ) ) B B B B B B B B B B B B B B B B B B p p p p p p p p p p p p B B B B S.S.S.S.) B ) ) ) o o !+L 3+3+!+!+S.) ) ) B B ) ) ) ) o o o o o o o o o ) ) ) o o o o W.3+3+3+L L o o o ) ) ) ) o o o o L L L !+o o h+++ +d ;.d d  +<.<.e+X B B B B B B p p p p p p p p p p p p p p p p B B <+e+c.<.<.<.<.| <.H h+!+S.e+h+<. +d ;.E.c ;. +++!+o o o o o o o h+<. +U.U.w+<.c.e+t.*.B p p p p p p B B B B B B B B B B B ) X X X X t.<+<+<+B B B B *.*.t.t.c.c.c.c.3 e+S.X X X X X t.t.t.<+B p p p p p p p B B B ) S.S.S.<+B B p p p p p p j.j.j.p p p p p p p p p B B B B B B B B p p p p p p p p p p p p B B B p p j.j.j.j.j.p p p B B <+<+<+<+<+<+<+<+<+",
"S.S.S.) ) B B B B B B B B B B B B B B B B B B B ) ) ) ) ) ) ) ) B B B B <+<+<+B B B <+3 c.w+w+<.c.3 e+*.B p p p p p p p p p B B *.X X h+h+++++h+h+S.) S.S.h+h+h+h+3+++++++| | ++++3+3+L !+ . .h+H <.<.H e+X X *.B B X e+3 <.<.| | N N 4.4.4.d d  + +| <.h+h+ . .o o o o o o o o o o o o o o o o o o o o o o o o o o o o o o o o o o o o ^ L L L L 3+3+3+3+++++++ + + + + + + + +++++3+h+h+S.) ) ) ) ) ) ) ) ) ) B B B B B B B B B B B B B B B B B B B B B p p p p p p p p p p p B B B ) ) S.S.S.) B ) ) o o o !+L 3+3+!+!+) ) ) B B B B ) ) ) ) o o o o o o o ) ) ) ) ) o o o !+L 3+3+L !+o o ) ) ) ) ) ) o o o L L L o o ) h+<. +d ;.;.d d  + +<.c.e+e+X <+B B B B p p p p p p p p B B D.*.*.t.t.e+e+c.<.w+w+w+| | H H !+S.S.e+H <. +d &+;.;.d  +H !+o o o o o o o h+<. +d d U.U.<.<.c.e+t.t.D.p p p p B B B B B B B B B B B ) X X X X <+<+<+<+B B B B *.*.t.t.e+c.3 e+e+S.) ) X X X X t.t.*.*.B p p p p p p p B B B ) S.S.S.<+B p p p p p p p p j.j.p p p p p p p p B B B B B B B B B p p p p p p p p p p p p B B B p p j.j.j.j.j.j.p p B B B <+<+<+<+<+<+<+<+",
"S.S.S.) ) ) B B B B B B B B B B B B B B B B B B B ) ) ) ) ) ) B B B B B B <+<+B B B t.c.<.w+w+w+c.e+<+B B p p p B B B B B p B B B *.X h+h+++++h+h+X X X S. .h+h+h+h+h+H <.<.<.<.H 3+3+h+!+!+h+h+H <.<.c.e+X X B B B ) X e+H H ++++++N N 4.4.4. + +| ++H h+ . .o o o o o o o o o o o o o o o o o o o o o o o o o o o o o o o o o o o o !+L L 3+3+++++++++++++ + + + + + + + +| ++++H h+h+ .X ) ) ) ) ) ) ) ) ) B B B B B B B B B B B B B B B B B B B B B B B p p p p p p p p p p B B B ) ) ) S.) ) ) ) ) o !+!+L L 3+!+!+S.) ) B B B B B B ) ) ) ) ) o o o o ) ) ) ) ) ) ) o o !+!+!+!+!+!+o o ) ) ) ) ) ) o o o o !+!+o ) ) e+<. +d d ;.;.;.;.d U.w+<.<.c.e+X <+B B B p p p p p B B *.*.t.t.c.c.c.c.<.<.w+w+w+<.<.<.H h+S.S.S.e+<.<. +d &+&+&+ +| H !+o o o o o o o h+<. + +d d d U.U.~ w+c.c.t.<+B p p B B B B B B B B B *.*.X X X X X <+<+<+B B B B B *.*.t.t.e+e+e+X X ) ) ) X X X X *.*.*.*.B p p p p p p p B B B ) S.S.X <+B p p p p p p p p p p p p p p p p p p B B B B B B B B B p p p p p p p p p p p p B B B p p j.j.j.j.j.j.p p p B B <+<+<+<+<+<+S.t.",
") ) ) ) ) ) ) ) ) ) ) ) ) ) ) ) <+<+<+B B B B B B B B B B B B B B B B B B B B B B B t.c.w+~ ~ w+c.e+<+B p p p B B <+<+*.B B B B B B X h+h+++++h+h+X X X X S.S.S.S.e+e+e+e+e+h+h+h+h+h+h+h+h+h+h+<.<.<.c.e+X ) B B ) ) S.e+h+H 3+3+3+3+u+u+N | ++++++h+h+ . .o o o o o o o ) ) ) ) ) ) ) ) ) ) ) ) ) ) ) ) ) ) o o o o o o o o o o o o !+3+3+++| 4.4.4.4.4. + + + +| <.<.<.<.H H h+h+h+ .X X X ) ) B B B B B B B B B B B B B B B B B B B B B B B B B B B B B B B B B B p p p p p B B B B ) ) ) ) ) ) ) o !+!+L L L !+!+!+) ) B B B B B B B B ) ) ) ) ) ) ) ) ) ) ) ) ) ) ) ) o !+!+!+!+!+!+o ) ) ) ) ) ) ) ) o o o o o o ) ) S.H <. +d ;.c c c ;.&+&+U.w+<.c.e+S.) B B B B B B B B *.*.t.c.c.c.w+w+w+w+w+w+w+<.<.<.H H S.S.) S.h+<.w+U.U.U. + +| <.h+!+o o o o o o o !+H |  +d &+&+&+&+&+U.~ c.c.t.*.B B B B B B B B B B <+X X S.S.S.S.S.<+<+B B B B B *.*.X X X t.t.*.*.B B B ) X X X X *.*.B B p p p p p p p p B B B ) X X X *.B p p p p p p p p p p p p p p p p B B B B B B B B B B B p p p p p p p p p p p p B B B p p j.j.j.j.j.j.p p p B B <+<+<+<+t.e+3 3 ",
") ) ) ) ) ) ) ) ) ) ) ) ) ) ) ) <+<+<+<+B B B B B B B B B B B B B B B B B B B B B B t.c.w+~ ~ w+c.e+B B p p p B <+X X X *.B B B B B ) e+h+++++h+h+e+X X ) ) ) ) ) ) ) ) X X X S.h+h+h+h+h+h+h+h+<.<.<.3 e+X ) B ) ) ) S.h+h+h+3+3+3+3+3+3+++++3+3+h+!+ .o o o o o o o o ) ) ) ) ) ) ) ) ) ) ) ) ) ) ) ) ) ) ) ) o o o o o o o o o o !+h+3+++|  +4.4.d d d d  + +++<.H h+h+h+e+S.S.S.S.X X X X X B B B B B B B B B B B B B B B B B B B B B B B B B B B B B B B B B B B B p p p p B B B B ) ) ) ) ) ) ) !+!+3+3+3+!+!+!+S.) ) B B B B B B B B B ) ) ) ) ) ) ) ) ) ) B B ) ) ) ) o !+!+!+!+o ) ) ) ) B B ) ) ) ) o o o o ) ) ) X 3 <. +d ;.c c (.(.E.s &+U.U.<.<.3 e+S.) ) B B *.*.*.X e+c.c.<.~ ~ U.U.U.U.w+<.<.<.H 3 S.S.) S.e+c.<.w+U. + +| <.H H S.S.S.o o o o ) ) S.h+H |  +&+s E.E.{+s L.~ w+c.t.*.B B B B B B B B *.X X e+e+S.S.S.S.<+B B B B B B *.X X X X *.*.B B B B B ) X X X X *.B B B p p p p p p p p B B B ) X X X *.B p p p p p p p p p p p p p p p B B B B B B B B B B B B p p p p p p p p p p p p B B B p p j.j.j.j.j.j.p p p p B <+<+<+<+S.3 3 3 ",
") ) ) ) ) ) ) ) ) ) ) ) ) ) ) ) <+<+<+<+B B B B B B B B B B B B B B B B B B B B B B t.c.w+~ ~ w+c.t.B B p p B B X e+e+S.X ) B B B B ) e+h+H ++h+h+e+X X ) ) ) B B B B B B B B ) S.e+h+h+h+h+h+h+H H H e+e+X ) ) S.S.S.h+h+h+h+h+L L L 3+3+3+3+3+!+ .o o o o o o o o o o ) ) ) ) ) ) ) ) ) ) ) ) ) ) ) ) ) ) ) ) o o o o o o o o o  .!+3+++|  + +d d d d d  + +| <.h+h+!+S.) ) ) ) ) ) ) X X X *.B B B B B B B B B B B B B B B B B B B B B B B B B B B B B B B B B B B B p p p p B B B B ) ) ) ) ) ) !+!+h+3+3+3+!+!+S.S.) B B B B B B B B B B B ) ) ) ) ) ) ) ) B B B B ) ) ) ) S.!+!+!+) ) ) ) B B B B ) ) ) ) o o o ) ) ) X e+<.| d ;.c c (.(.c E.&+&+d  + +<.<.<.H 3 3 3 e+e+e+c.c.<.<.~ ~ U.U.U.U. +w+<.<.3 e+S.S.S.S.S.e+c.<.w+w+w+<.<.H H 3 S.S.S.o o o o ) ) S.!+H <. +d &+E.E.E.{+s L.~ ~ <.c.c.c.e+e+e+X <+X X X e+e+S.S.S.S.) B B B B B B B *.X X X X <+B B B B B B B X X X *.B B B B p p p p p p p B B B B *.X X X *.B B p p p p p p p p p p p p p p B B B B B B B B B B B B p p p p p p p p p p p B B B B p p j.j.j.j.j.j.j.p p p B <+<+<+<+S.3 3 3 ",
") ) ) ) ) ) ) ) ) ) ) ) ) ) ) ) ) <+<+<+B B B B B B B B B B B B B B B B B B B B B B t.c.w+~ ~ w+c.t.B B B B B <+X e+e+e+S.S.) ) B B ) S.h+h+H h+h+h+X X ) B B B B B B B B B B B ) S.S.S.S.S.e+e+e+3 e+e+e+S.S.S.e+h+h+h+h+h+h+L L L L L L L L !+ .o o o o o o o o o o o ) ) ) ) ) ) ) ) ) ) ) ) ) ) ) ) ) ) ) o o o o o o o o o  . .3+++|  +d d  + + + + + +<.<.h+h+S.) ) ) ) ) ) ) ) ) ) X *.*.B B B B B B B B B B B B B B B B B B B B B B B B B B B B B B B B B B B B p p p p B B B B B ) ) ) ) !+!+h+3+3+3+3+!+!+S.) B B B B B B B B B B B B B ) ) ) ) ) ) B B B B B B ) ) ) ) S.S.S.) ) ) ) B B B B ) ) ) ) ) ) ) ) ) B X e+H <. +d ;.c c c c ;.&+&+&+d d d  + + + +w+w+w+<.<.<.<.w+w+U.U.U.U.U. +w+<.<.3 e+S.S.S.S.S.e+e+c.<.<.<.<.<.H 3 3 S.S.S.S.S.o o ) ) ) ) S.!+H |  +&+&+E.{+{+{+{+L.L.L.U.~ ~ w+<.c.c.e+e+e+e+S.S.S.S.S.) ) B B B B B B B B *.X X <+B B B B B B B B *.*.*.B B B B p p p p p p p B B B B B *.*.*.*.B B B p p p p p p p p p p p p B B B B B B B B B B B B B B p p p p p p p p p p B B B B B B p j.j.j.j.j.j.j.j.p p p <+<+<+<+t.e+e+3 ",
"B B B B B B ) ) ) ) ) ) ) ) ) ) ) ) ) ) B B B B B B B B B B B B B B B B B B B B B B t.c.<.w+w+<.c.t.B B B B B ) X e+h+h+e+S.S.S.) B ) X h+h+h+h+h+h+e+X ) B B B p p p p p p B B B ) ) ) ) X X X X e+e+e+S.e+3 H H <.<.H 3+3+L L L  . . . .!+ . . . .o o o o o o o o o o ) ) ) ) ) ) ) ) ) ) ) ) ) ) o o o o o o o o o o o o o  . .3+++++ +d d  + +| <.<.<.<.h+e+e+S.) ) ) ) ) ) ) B B B B B B B B B B B B B B B B B B B B B B B B B B B B B B B B B B B B B B B B B B B p p p p B B B B B B ) ) !+!+h+3+++++++H h+S.) B B B B B B B B B B B B B B B B B B B B B B B B B B B ) ) ) ) ) ) ) ) ) ) B B B B ) ) ) ) ) ) ) ) ) B <+e+c.<. +d ;.;.;.;.;.d d &+&+;.;.;.;.&+&+&+&+&+U.U.U.U.U.U.U.U.U. +w+<.<.<.H e+e+S.) ) <+S.e+e+3 c.c.<.<.c.3 3 e+e+e+e+S.S.S.) ) ) ) ) ) ) S.h+H <. +d &+B.{+{+{+{+{+{+{+{+L.L.U.~ <.c.3 e+e+S.S.) ) ) B B B B B B B B B B B <+<+B B B B B B B B B B B B B B B p p p p p p p B B B B *.*.*.*.*.B B B B B B B B B B B B B B B B B B B B B B B ) ) ) *.*.*.B p p p j.j.j.p p p B B B B <+<+B p j.j.j.j.j.j.j.j.j.p p <+<+<+<+<+<+S.S.",
"B B B B B B B ) ) ) ) ) ) ) ) ) ) ) ) ) B B B B B B B B B B B B B B B B B B B B B B <+3 c.w+w+c.3 <+B B B B B ) X h+h+h+h+H 3 S.S.) ) X S.h+h+h+h+h+e+X ) B B p p p p p p p p B B B B B B B B B B *.X S.S.3 H H <.| | ++3+3+L L  . . . . .o o  . . . . .o o o o o o o o ) ) ) ) ) ) ) ) ) ) ) ) o o o o o o o o o o o o o o o h+3+++++ +d d d  +| H h+e+e+X X X X ) ) ) ) ) ) ) B B B B B B B B B B B B B B B B B B B B B B B B B B B B B p p B B B B B B B B B B B B B p p p p B B B B B B ) S.!+h+3+3+++++++H S.S.B B B p p p B B B B B B B B B B B B B B B B B B B B B B B ) ) ) ) ) ) ) ) ) B B B B ) ) ) ) ) ) ) ) B B <+e+3 <.|  +4.4.4.4.4. +d d ;.M.E.E.E.E.E.E.s &+&+&+&+d d U. + + +<.<.H 3 3 S.S.S.) ) ) <+t.e+e+c.c.c.c.3 3 e+e+e+e+e+e+e+S.S.) ) ) ) ) ) ) ) S.S.h+<.<.U.&+B.{+%.K.K.K.K.%.{+B.L.U.w+<.H e+e+S.) ) ) B B B B B B B B B B B B B B B B B B B B B B B B B B B B p p p p p p p B B B B *.*.*.*.*.B B B B B B B B B B B B B B B B B B B B B B B ) ) ) ) *.*.*.D.p p j.j.j.j.p p p B B B <+<+<+B p p j.j.j.j.j.j.j.j.p p <+<+<+<+<+<+<+<+",
"B B B B B B B B ) ) ) ) ) ) ) ) ) ) ) ) ) B B B B B B B B B B B B B B B B B B B B B <+3 c.<.<.c.3 <+B B B B B ) S.h+h+H H H H 3 S.) ) ) S.h+h+h+h+h+h+e+*.B p p p p p p p p p p B B B B B B B B B B B S.S.3 H <.<.| | ++3+3+L L  . . . . .o o  . . . . . .o o o o o o o ) ) ) ) ) ) ) ) ) ) ) ) o o o o o o o o o o o o o o !+h+++|  +d d d d  +<.e+) ) ) B B ) ) ) ) ) ) ) ) ) B B B B B B B B B B B B B B B B B B B B B B B B B B B B B p p B B B B B B B B B B B B B p p p p B B B B B B ) !+!+3+3+3+++++H H S.) B B p p p p B B B B B B B B B B B B B B B B B B B B B B B B ) ) ) ) ) ) ) ) B B B B ) ) ) ) ) ) ) ) B B ) e+3 <.<.|  +4.4.N ++++ +d ;.;.E.E.E.E.E.E.s s &+&+&+d d U. + +<.<.H 3 S.S.S.S.) ) ) ) <+t.e+c.c.c.e+e+e+e+e+e+e+e+e+e+e+X X ) ) ) ) ) ) ) ) ) ) S.!+h+<.U.L.{+{+K.K.K.K.%.{+B.L.U.w+<.c.e+S.) ) ) B B B B B B B B B B B B B B B B B B B B B B B B B B B B B p p p p p p p B B B B *.*.*.*.B B B B B B B B B B B B B B B B B B B B B B B B ) ) ) ) *.*.*.D.p p j.j.j.j.j.p p B B B <+<+<+<+p p j.j.j.j.j.j.j.j.p p B <+<+<+<+<+<+<+",
"B B B B B B B B ) ) ) ) ) ) ) ) ) ) ) ) ) ) ) B B B B B B B B B B B B B B B B B B B <+e+c.<.<.c.e+<+B B B B B ) S.h+h+H <.<.<.H e+S.) ) ) S.h+h+h+h+h+e+X B p p p p p p p p p p B B B B B B B B B B B <+S.S.h+H <.| | ++3+L L  . . . . . . . . . . . . . . .o o o o o o o ) ) ) ) ) ) ) ) ) ) o o o o o o o o o o o o o o o h+++ + +d d d  + +<.h+X ) B B B B B ) ) ) ) ) ) ) B B B B B B B B B B B B B B B B B B B B B B B B B B B B B B B B B B B B B B B B B B B B p p p p p B B B B ) ) S.!+h+3+3+3+3+H H e+S.B B p p p p p B B B B B B B B B B B B B B B B B B B B B B B B B ) ) ) ) ) ) B B B B B B ) ) ) ) ) ) B B B ) S.e+H <.| |  +| ++++++++ +d d &+&+&+&+&+&+&+&+d d d U. + + +<.<.H 3 S.S.S.S.S.S.S.) ) <+e+e+e+e+e+e+X X e+e+e+e+e+e+e+e+X X ) ) ) ) ) ) ) ) ) ) ) ) S.H <.U.L.B.{+{+{+{+{+L.L.U.~ <.c.3 e+X ) ) B B B B B B B B B B B B B B B B B B B B B B B B B B B B B B p p p p p B B B B B B *.*.*.*.B B B B B B B B B B B B B B B B B B B B B B B B ) ) ) ) *.*.*.D.p j.j.j.j.j.j.p p p B B <+<+<+<+p p j.j.j.j.j.j.j.j.j.p p B <+<+<+<+<+t.",
"B B B B B B B B ) S.S.) ) ) ) ) ) ) ) ) X X X X ) ) ) ) ) ) ) ) ) X X *.B B B B B B <+e+c.<.<.c.e+<+B B B B B ) S.h+H <.|  + +<.h+S.) ) ) S.S.h+h+H H e+X B B p p p p p p p p p B B B B B B B B B B B B <+S.e+h+<.++++++3+L !+ . . . . . .W.W.W.W.W.W.h+ . . .o o o o o o o o o o o o o o o o o o o o o o o o o o o o o o o h+|  +d &+d  + +<.h+e+) B B B ) ) ) B B B B B B B B B B B B B B B B B B B B B B B B B B B B B B B B B B B B B B B B B B B B B B B B B B p p p p p p B B B ) ) S.!+h+3+3+3+3+h+h+!+S.<+B p p p p p p B B B B B B p p p p p B B B B B B B B B B B B B B B B B B B B B B B B B B B B B B B B B B B B S.e+H <.++++++++++3+3+3+++|  + + + + + + + + + + + +| | <.<.H H 3 S.S.S.S.S.S.S.S.S.S.S.S.e+e+e+e+X X <+X e+e+e+e+e+e+e+X X ) ) ) ) ) ) ) ) ) ) ) ) ) e+<.<.~ U.U.U.U.U.U.~ w+<.c.c.e+e+X ) B B B B B B B B B B B B B B B B B B B B B B B B B B B B B B B B B B B B B B B B B B B <+S.S.<+B B B B B B B B B B B B B *.*.B B B B B B B B B ) ) ) X *.*.*.D.p j.j.j.j.j.j.p p p B B <+<+<+<+p p p j.j.j.j.j.j.j.j.p p p B <+<+t.t.t.",
"B B B B B B B ) ) S.S.S.) ) ) ) ) ) ) ) X S.X X ) ) ) ) ) ) ) ) X X X *.B B B B B B <+e+3 <.<.3 e+<+B B B B B ) X h+H <. + + +<.H e+) ) ) ) S.e+h+H H 3 e+B B B p p p p p p p p B B B B B B B B B p p B B B S.h+H ++++3+3+!+o o  . . . .W.W.W.W.3+3+3+W. . . . .o o o o o o o o o o o o o o o o o o o o o o o o o o o o o o H  +d &+&+&+U.<.e+X X ) B B ) ) ) ) B B B B B B B B B B B B B B B B B B B B B B B B B B B B B B B B B B B B B B B B B B B B B B B B B p p p p p p p B B B ) X h+h+h+3+3+3+h+!+!+S.) B B p p p p p p B B B B B p p p p p p B B B B B B B B B B B B B B B B B B B B B B B B B B B B B B B B B B B B S.e+H H ++++++++3+3+!+!+h+h+h+H H H H H H H H H H H H H H H 3 3 S.S.S.S.S.!+h+h+!+S.S.S.S.e+e+e+X <+*.<+<+X e+e+e+e+e+e+X <+B B B ) ) ) ) ) ) ) ) ) ) S.e+e+c.<.<.<.<.<.c.c.e+e+e+X <+*.B B B B B B B B B B B B B B B B B p p p p B B B B B B B B B B B B B B B B B B B B B B B ) S.S.S.S.B B B B B B B B B B B B *.*.*.*.B B B B B B B B ) ) ) X t.t.t.D.D.p j.j.j.j.j.p p p p B *.t.t.<+D.p p p j.j.j.j.j.j.j.p p p p B <+t.t.t.",
"B B B B B B B ) ) S.S.S.) ) ) ) ) ) ) S.S.e+e+S.) ) ) ) ) ) ) ) X X X *.B B B B B B ) e+3 <.<.3 e+<+B B B B ) X e+h+H <. + + +<.H e+) ) ) ) S.e+h+H H e+e+<+B B p p p p p p p B B B B B B B B B B p p B B B ) e+h+3+3+3+h+ .o o  . . . .W.W.W.W.3+3+3+3+h+ . . . .o o o o o o o o o o o o o o o o o o o o o o o o o o o o  .H  +d &+&+d w+c.X ) B B B B ) ) ) ) B B B B B B B B B B B B B B B B B B B B B B B B B B B B B B B B B B B B B B B B B B B B B B B B p p p p p p p B B B ) X S.h+h+h+3+3+h+!+!+) ) B B p p p p p p p B B B B p p p p p p p p B B B B B B B B B B B B B B B B B B B B B B B B B B B B B B B B B B B S.e+H H <.++++++3+h+ .o o ) ) S.S.S.S.S.S.S.S.S.S.!+!+!+!+S.S.S.S.S.S.S.S.h+H H h+S.S.S.S.S.e+e+X *.B B <+X e+e+e+e+e+e+X <+B B B ) ) ) ) ) ) ) ) ) ) ) ) ) S.S.S.S.X S.X <+B B B B B B B B B B B B B B B B B B B B B B B p p p p B B B B B B B B B B B B B B B B B B B B B B B ) S.S.S.) ) B B B B B B B B B B B *.*.*.*.B B B B B B B B ) ) ) S.e+t.t.t.D.p j.j.j.j.j.p p p p B *.t.t.*.*.B p p p j.j.j.j.j.j.j.p p p p *.*.t.t.",
"*.<+*.) B B ) ) ) S.S.) ) ) ) ) ) ) S.S.S.S.S.S.S.) ) ) ) ) ) ) ) *.*.B B B B B B B ) e+3 <.<.3 e+<+B B B *.X e+e+h+H <.<.<.<.<.h+e+X ) ) S.S.e+h+3 3 e+e+<+B B p p p p p p B B <+S.S.) ) B B B B B B B B B ) S.h+h+h+h+ .o o o o  . . . .W.W.W.W.3+3+3+W.h+h+ . . .!+!+!+o o !+!+!+!+!+!+o o o o o o !+!+!+!+o o o o o o h+++ +d &+&+U.w+3 X B B B B B B ) ) B B B B B B B B B B B B B B B B B B B B B B B B B B B B B B B B B B B B B B B B B B B B B B B B p p p p p p p B B B B ) X h+h+h+h+h+!+!+!+) ) B B B p p p p p p p B B B B p p p p p p p p B B B B B B B B B B B B B B B B B B B B B B B B B B B B B B B B B B B S.3 H H H H ++h+h+ .o o ) ) ) ) ) ) ) ) ) ) ) S.S.S.S.S.S.S.S.S.S.S.S.S.S.h+h+h+h+!+S.S.S.S.S.X *.B B B *.X e+e+e+e+e+e+X *.B B B ) ) ) ) ) ) ) ) ) ) ) ) ) ) ) ) ) B B B B B B B B B B B B B B B B B B B B B B B B B B p p p p p B B B B B B B B B B B B B B B B B B B B B <+<+S.S.S.S.) ) B B B B B B B B B B B B *.*.B B B B B B B B B ) ) S.e+3 3 3 t.<+p p j.j.j.p p p p B *.*.t.t.t.*.*.B B p p j.j.j.j.j.j.j.p p p D.*.*.*.",
"X X X X ) ) ) ) ) ) ) ) ) ) ) ) ) S.S.S.S.S.S.S.S.) ) ) ) ) B B B B B B B B B B B ) ) e+H <.<.3 e+<+B B *.X e+e+e+c.c.<.<.<.<.h+e+X X X X  .h+h+e+e+e+e+t.<+<+B p p p p p B B <+S.S.S.S.S.) ) B B B B B B ) ) S.h+h+h+h+ .o o o o o  . . . . . . . .h+W.3+3+3+3+3+3+L L L L L L L L L L L L L !+!+!+!+!+!+L L !+o o o o  .3+++ +d &+&+U.<.e+*.B B B B B B B B B B B B B B ) ) B B B B B B B B B B B B B B B B B B B B B B B B B B B B B B B B B B B B B B p p p p p p p p B B B B *.X  .h+h+3+h+!+!+!+) ) ) B B B p p p p p p p B B B B p p p p p p p p B B B B B B B B B B B B B B B B B B B B B B p p p p p p p p p B B B <+S.3 H <.<.H H h+h+!+o ) ) ) ) ) ) ) ) S.S.S.S.S.S.S.) ) ) ) ) ) ) S.S.S.S.h+h+h+h+!+!+S.S.S.) <+B B B B *.X e+e+e+e+e+e+X *.B B B ) S.S.) ) ) ) ) ) ) ) ) ) ) ) ) B B B B B B B B B B B B B B B B B B B B B ) B B B B p p p p p p B B B B B B B B B B B B B B B B B B B B *.X X S.S.S.) ) B B B B *.*.*.*.B B B B B B B B B B B B B B B B ) ) S.e+c.c.c.3 t.D.p p p p p p p B B *.*.t.t.t.t.t.<+B B p p j.j.j.j.j.j.j.p p p p D.B ",
"e+e+X X ) ) ) ) ) ) ) ) ) ) ) ) S.S.S.S.S.S.S.S.) ) ) ) B B B B B B p p p p B B B ) S.e+H <.<.3 e+<+B B <+X e+e+3 c.c.c.c.e+e+e+X X X e+e+h+h+h+e+e+e+e+t.<+<+<+B p p p p B B S.S.S.!+S.S.) ) ) B B B B B ) ) S.h+h+h+h+ .o o o o o o  . . . . . . . .h+3+3+3+3+3+3+3+L L L L L L 3+3+L L L L L !+!+!+!+L 3+3+L !+o  . .3+++++ +d &+d U.<.e+B B B B B B B B B B B B B B ) ) ) ) B B B B B B B B B B B B B B B B B B B B B B B B B B B B B B B B B B B B B p p p p p p p B B B B *.X X h+h+3+3+!+!+o ) ) ) B B B p p p p p p p p B B B B p p p p p p p p B B B B B B B B B B B B B B B B B B B B p p p p p p p p p p p p B B <+e+3 H <.<.H h+h+h+S.) ) ) ) ) ) ) S.S.S.3 H H H h+S.S.) ) ) ) ) ) S.S.S.S.h+h+h+h+!+!+!+S.) ) B B B B B <+X e+e+e+e+e+e+X <+B B B ) S.S.S.) ) ) ) ) ) ) ) ) ) ) ) ) B B B B B B B B B B B B B B B B B B B ) ) ) B B B p p p p p p B B B B B p p B B B B B B B B B B B B *.X X e+S.S.) ) ) B B B B *.X X *.B B B B B B B B B B B B B B B B ) ) S.3 <.<.<.c.t.<+p p p p p p p B B *.*.t.t.t.t.t.t.<+B p p p j.j.j.j.j.j.j.p p p p p ",
"e+X X X X ) ) ) ) ) ) ) ) ) ) ) S.S.S.S.S.S.S.S.) ) ) ) B B B B p p p p p p p B B ) S.e+H H c.e+X *.B B <+e+e+e+c.c.c.e+e+X X X X e+e+e+h+h+h+e+e+X X X t.t.<+<+B p p p B B B S.S.3 h+!+S.S.) ) ) B B ) ) ) S.S.!+h+h+!+!+o o o o o o o  . . . . . . . .W.3+3+3+3+3+3+3+L L L L 3+3+3+3+L L L L L !+!+3+3+3+3+L !+!+!+3+++++ + +d d U.w+c.e+B B B B B B B B B B B B B B ) ) ) ) B B B B B B B B B B B B B B B B B B B B B B B B B B B B B B B B B B B B B p p p p p p B B B B ) X X h+h+h+h+h+!+!+) ) ) B B B B p p p p p p p p B B B B p p p p p p p B B B B B B B B B B B B B B B B B B B B B p p p p p p p p p p p p B B *.e+3 <.<.<.h+h+h+S.) ) ) ) ) ) ) ) S.S.3 H <.<.<.<.H e+S.) ) ) ) ) S.S.S.S.h+h+h+h+!+!+S.S.) B B B B B B <+X e+e+e+e+e+e+X *.B B B ) S.S.S.) ) ) ) ) ) ) ) ) ) ) ) ) B B B B B B B B B B B B B B B B B B B ) ) ) B B p p p p p p B B B B B B p p B B B B B B B B B B B B <+X e+e+X X ) ) ) B B B B *.X X *.B B B B B B B B B B B B B B B B ) ) S.3 <.w+w+c.3 <+p p p p p p B B B B *.t.t.t.t.e+t.<+<+B p p p j.j.j.j.j.j.p p p p p ",
"<+<+X X X ) ) ) ) ) ) ) ) ) ) ) S.S.S.S.S.S.S.S.) ) ) B B B B p p p p p p p p B <+S.S.e+3 c.3 e+X B B B <+t.e+e+3 c.e+e+e+X X X e+e+e+h+h+h+h+e+X X X e+e+t.t.<+<+p p p B B B S.S.3 h+!+S.S.S.) ) ) ) ) S.S.S.!+!+!+!+!+o o o o o o o o o  . . . . . . . .L L 3+3+3+3+3+3+3+3+3+3+3+3+3+3+3+3+3+3+3+3+3+3+3+3+3+L L 3+3+++ + + + +U.w+<.3 <+B B B B B B B B B B B B B B B ) ) B B B B B B B B B B B B B B B B B B B B B B B B B B B B B B B B B B B B B B B p p p p B B B B ) X e+h+h+h+h+h+!+!+) ) ) B B B B p p p p p p p p p B B B B p p p p p p B B B B B B B B B B B B B B B B B B B B B p p p p p p p p p p p p p B B *.e+3 <.<.<.h+h+S.S.) ) ) ) ) ) ) S.S.3 H <. +U.U. +<.H e+S.X X S.S.S.S.S.S.e+h+h+h+S.S.S.) ) B B B B B ) ) S.S.e+e+e+e+e+e+<+B B B ) ) S.S.S.) ) ) ) ) ) ) ) ) ) ) ) B B B B B B B B B B B B B B B B B B B ) ) B B B p p p p p B B B B B B B B B B B B B B B B B B B B <+<+e+e+e+X X ) ) B B B B B *.*.*.*.*.B B B B B B B B B B B B B B B ) ) e+H <.w+w+<.c.t.D.p p p p p p B B B *.*.t.t.t.e+t.t.<+<+p p p p j.j.j.j.p p p p p p ",
"B *.*.*.X X X ) ) ) ) ) ) ) ) ) S.S.S.S.S.S.S.S.) ) B B B B p p p p p p p p p B <+S.e+3 3 3 e+e+<+B B B <+<+t.e+e+e+e+e+X *.X X e+3 H h+h+e+e+e+X X X e+e+e+t.t.<+p p p B B B ) S.S.S.!+!+!+S.S.S.S.S.S.S.S.!+!+!+!+!+!+o o o o o o o o o o o o o o o o  .!+!+!+!+!+L 3+3+3+3+3+3+3+3+3+3+3+3+3+3+++++++3+3+3+3+3+3+3+++ +4.d d  +w+<.c.e+<+B B B B B B B B B B B B B B B B B B B B B B B B B B B B B B B B B B B B B B B B B B B B B B B B B B B <+<+B B B B B B B B B B ) S.e+h+h+h+h+h+!+!+) ) ) B B B B p p p p p p p p p p B B B B p p p p p B B B B B B B B B B B B B B B B B p p p p p p p p p p p p p p p p p p B B *.e+3 <.<.H h+S.S.) ) ) ) ) ) ) ) S.S.H <. +&+&+&+&+U.<.H e+e+e+S.S.S.S.S.S.3 3 3 e+S.S.) ) B B B B B ) ) ) <+<+t.e+e+3 e+e+*.B B B B B ) ) S.S.S.) ) ) ) ) ) ) ) ) ) ) ) ) ) ) ) B B B B B B B B B B <+<+<+B B B B B p p p p B B B B B B B B B B B B B B B B B B B B <+<+<+e+e+e+X X ) B B B B B B B B B *.<+<+<+B B B B B B B B B B B B B ) S.e+<.<.w+w+<.c.t.*.p p p p p p p B B B B *.<+<+<+t.t.t.<+*.D.p p p p p p p p p p p p ",
"p B B B *.X X X ) ) ) ) ) ) ) ) S.S.S.S.S.S.S.S.) B B B B p p p p p p p p p B <+<+e+3 3 3 e+e+X *.B p B <+<+<+t.e+e+e+X *.*.*.e+e+c.H H 3 e+S.S.X X X e+e+c.e+t.<+B p p B B B ) S.S.S.S.h+h+h+S.S.S.S.S.3 h+h+h+!+!+!+!+o o o o o o o o o o o o o o o o o o o !+!+!+!+!+3+3+3+3+3+3+3+3+3+3+3+3+++N N ++3+3+3+3+3+3+++| 4.d d d  +<.c.3 S.<+B B B B B B B B B B B B B B B B B B B B B B B B B B B B B B B B B B B B B B B B B B B B B B B p p B <+<+<+<+B B B B B B B B ) S.S.h+h+H H h+h+!+) ) ) B B B B p p p p p p p p p p p B B B B p p p p B B B B B B B B B B B B B B B B p p p p p p p p p p p p p p p p p p p p B B <+e+3 <.<.H e+S.) ) ) ) ) ) ) ) ) S.S.H <.U.&+E.E.&+U.w+<.h+h+h+h+S.S.S.S.S.3 3 3 S.S.) B B B B B B ) ) ) ) <+<+t.e+3 c.c.e+t.B B B B B B ) S.S.S.S.) ) ) ) ) ) ) ) ) ) ) ) ) ) ) ) B B B B B B B B <+<+<+<+B B B B p p p p B B B B B B B B B B B B B B B B B B B B <+<+<+<+e+e+e+X <+B B B B B B B B B B <+<+<+<+<+B p p B B B B B B B B B ) S.3 <.<.w+w+<.c.t.t.*.p p p p p p p B B B B <+<+<+<+<+t.t.*.*.D.p p p p p p p p p p p ",
"p p p B *.X X X ) ) ) ) ) ) ) ) S.S.S.S.S.S.S.) ) B B B B p p p p p p p p p B <+<+e+3 3 e+e+e+<+B p p p B <+<+<+t.t.t.<+B B B X e+3 3 3 e+S.S.S.X X e+e+c.c.c.t.t.B p p B B B ) ) S.S.S.h+h+h+h+S.S.S.S.!+h+h+!+!+!+!+!+o o o o o o o o o o o o o o o o o o o o !+!+!+!+3+3+3+3+3+3+3+3+3+3+3+3+++N N u+3+3+3+3+3+3+++ +4.d d d  +<.3 e+<+B B B B B B B B B B B B B B B B B B B B B B B B B B B B B B B B B B B B B B B B B B B B B B B B p p B <+<+<+<+B B B B B B ) ) S.S.h+h+H H h+h+!+) ) ) B B B B p p p p p p p p p p p p B B B B B p p p B B B B B B B B B B B B B B B B p p p p p p p p p p p p p p p p p p p B B B *.e+3 H <.H e+S.) ) ) ) ) ) ) ) ) S.S.H <.U.&+E.E.&+U.w+<.h+h+h+h+S.S.S.S.S.S.e+e+S.<+B B B B B B ) ) ) ) ) <+<+<+e+3 c.c.e+t.*.B B B B B <+S.S.S.S.) ) ) ) ) ) ) ) ) ) ) ) ) ) ) ) B B B B B B B B <+<+<+<+B B B B B p p p B B B B B B B B B B B B B B B B B B B <+<+<+S.S.e+e+e+X *.B B B B B B B B B B B <+<+<+<+B p p B B B B B B B B ) ) S.e+c.<.w+w+<.c.e+t.*.B p p p p p p p B B B B <+<+<+<+t.t.t.*.<+B B p p p p p p p p p ",
"p p p B B *.X ) ) ) ) ) ) ) ) S.S.S.S.S.S.S.S.) ) B B B B p p p p p p p p p B <+t.e+e+e+e+S.X <+B p p p p p <+<+<+<+*.B B B B <+e+e+e+e+S.S.S.S.S.X e+e+c.c.c.t.t.B p p B B B B ) S.S.S.h+h+h+h+!+S.S.S.!+!+!+!+!+!+!+o o o o o o o o o o o o o o o o o o o o o !+!+!+!+!+L L L L L L 3+3+3+3+3+++u+u+++3+3+3+3+3+3+++4.4.;.d d  +<.3 e+<+B B B B B B B B B B B B B B B B B B B B B B B B B B B B B B B B B B B B B B B B B B B B B B B B B B B <+<+<+B B B B B ) ) X S.h+h+h+h+h+h+h+h+S.) ) B B B B B p p p p p p p p p p p p B B B B B B B B B B B B B B B B B B B B B B B p p p p p p p p p p p p p p p p p p p B B B B X e+3 H H h+e+) ) ) ) ) ) ) ) ) ) ) S.h+<. +d &+&+d U.<.H h+h+h+!+S.S.S.S.S.S.S.S.<+<+B B B B B ) ) ) ) ) ) ) <+<+e+3 c.c.e+e+*.B B B B B *.) S.S.S.S.) ) ) ) ) ) ) ) ) ) ) ) ) ) ) B B B B B B B B <+<+<+B B B B B B B B B B B B B B B B B B B B B B B B B B B B ) S.S.S.e+e+e+X X *.B B B B B B B B B B B B <+<+B B B B B B B B B B B ) ) ) S.e+3 <.<.<.c.c.c.t.t.*.B p p p p p p p B B B B <+<+<+t.t.t.t.<+<+<+<+<+B p p p p p p ",
"p p p B B B B B B B ) ) ) S.S.S.S.) ) ) ) ) ) ) B B B B B B B B B B B B B B B <+t.e+e+e+S.S.) B B p p p p p p p p B B B p p B B <+<+t.<+<+<+<+) S.S.e+e+c.c.c.t.t.B p p B B B B ) ) S.S.h+h+h+h+!+!+!+S.S.S.S.!+!+o o o o o o o o o o o o o o o o o o o o o o o  . . . . .!+!+!+!+!+!+!+!+!+3+3+3+3+++3+3+3+3+3+3+3+++4.4.;.d d  +<.3 e+X B B B B B p p p p p p p p p p p p p p p p p p p p B B B B B B B B B B B B B B B B B B B B B B B <+<+<+<+B B B B B B ) ) X e+h+h+h+h+h+h+h+!+S.) ) B B B B B B p p p p p p p p p p p p B B <+<+*.*.*.B B p p p p p p p p p p p p p p p p p p p p p p p p p p p p p p p p B B B B *.X e+3 H H h+S.) ) ) ) o o ) ) ) ) ) S.S.h+<.w+U.U.w+<.H e+S.S.S.S.S.S.S.S.S.S.<+<+<+B B B B ) ) ) ) ) ) ) ) B B <+e+3 c.c.3 e+*.B B B *.*.*.) ) ) S.S.S.S.) ) ) ) ) ) ) ) ) ) ) ) ) B B B B B ) ) ) B B B B B B B B B B B B B B B B B B B B B ) ) B B B B B B ) ) ) S.S.e+e+e+X X *.B B B B B B B B B B B B ) ) ) B B B B B B B B B *.X X ) ) S.S.e+e+c.c.c.c.c.e+t.<+B B p p p p p p p p p p B B <+t.t.t.t.t.t.<+<+<+<+*.D.p p p p ",
"p p p B B B B B B B B ) ) S.S.S.) ) ) ) ) ) ) ) B B B B B B B B B B B B B B B <+X e+e+e+S.) ) B B p j.j.j.j.p p p p p p p p p p B B B B B B B ) S.S.e+3 c.c.c.t.t.B p p B B B B ) ) S.S.!+h+H H !+!+!+!+S.S.S.o o o o o o o o o o o o o o o o o o o o o o o o o  . . . . .o o o o o o !+!+!+!+3+3+3+3+3+3+3+3+3+3+3+++4.4.;.d d  +<.<.3 e+<+B B p p p p p p p p p p p p p p p p p p p p p p p B B B B B B B B B B B B B B B B B B B B B <+<+<+<+B B B B B B B ) X e+h+h+h+6 h+h+h+ .) ) ) B B B B B B B p p p p p p p p p p p B <+<+<+<+*.*.*.B B p p p p p p p p p p p p p p p p j.j.p p p p p p p p p p p p p B B B B *.X X e+h+H H h+S.) ) ) ) o o o ) ) ) ) ) ) S.e+h+H H h+e+S.S.) ) ) ) S.S.S.S.S.<+<+B B B B B B ) S.S.S.) ) ) ) B B <+e+3 c.c.3 e+<+B B *.*.*.*.) ) ) ) S.S.S.S.) ) ) ) ) ) ) ) ) ) ) ) B B B B ) ) ) ) B B B B B B B B B B B B B B B B B B B B ) ) ) ) B B B B ) ) ) S.S.h+h+e+e+X X *.B B p p B B B B B B B B ) ) ) ) B B B B B B B B *.X X X ) ) ) X X e+e+e+c.c.e+t.t.B B B p p p p p p p p p p p D.<+t.t.t.e+e+e+t.t.t.t.*.B p p p ",
"p p p B B B B B B B B B ) S.S.S.) ) ) ) ) ) ) ) B B B B B B B B B B B B B B B <+X e+e+S.S.) ) B p p j.j.j.j.j.j.j.j.j.p p p p p p p p p B B B B ) S.e+3 c.c.c.t.t.B p B B B B B ) ) ) S.!+h+H H !+!+!+!+S.) ) o o o o o o o o o o o o o o o o o o o o o o o o  . . . . . .o o o o o o o !+!+!+!+L 3+3+3+3+3+3+3+3+3+++u+4.4.d d  + +<.c.e+<+B B p p p p p p p p p p p p p p p p p p p p p p p B B B B B B B B B B B B B B B B B B B B B <+<+<+<+B B B B B <+X X e+h+h+h+h+6 h+ . .) ) ) B B B B B B B B p p p p p p p p p p p B <+<+t.t.t.*.*.B B p p p p p p p p p p p p p p p p j.j.p p p p p p p p p p p p B B B B ) X X e+e+h+h+h+S.S.) ) ) ) o o o ) ) ) ) ) ) ) ) ) S.S.) ) ) ) ) ) ) ) S.S.S.S.S.) B B B B B B ) S.S.S.S.) ) ) ) B B ) e+3 <.<.3 e+<+B B *.*.*.*.) ) ) ) S.S.S.S.) ) ) ) ) ) ) ) ) ) ) ) B B B B ) ) ) ) B B B B B B B B B B B B B B B B B B B B ) ) ) ) B B B B ) S.S.S.h+h+h+h+e+X X *.B p p p B B B B B B ) ) ) ) ) ) ) B B B B B B B X X X X ) ) ) ) *.*.*.t.t.e+e+t.*.B B B p p p p p p p p p p p B *.t.t.t.e+e+3 e+t.t.t.<+B p p p ",
"p p B B B B B B B B B B ) ) ) ) ) ) ) ) ) ) ) ) ) B B B B B B B B B B B B B B *.X e+e+X X ) B B p p j.j.j.j.j.j.j.j.j.j.j.p p p p p p p p B B B <+S.e+e+c.c.c.t.t.B B B B B B ) ) ) ) S.!+h+h+h+!+!+!+!+o o ) o o o o o o o o o o o o o o o o !+!+!+!+!+!+!+ . . . . . . . .o o o o o o o !+!+!+!+L L 3+3+3+3+3+3+3+3+u+4.4.4.d d  +w+<.3 <+B B p p p p p p p p p p p p p p p p p p p p p p p B B B B B B B B B B B B B B B B B B B B B B <+<+B B B B B X e+e+e+h+h+h+h+h+h+ . .X ) ) B B B B B B B B B B p p p p p p p p p B <+<+t.t.t.t.*.*.B p p p p p p p p p p p p p p p p p j.j.p p p p p p p p p p p B B B B ) X X X e+e+h+!+S.S.S.) ) ) ) o o ) ) ) ) ) ) ) ) ) ) ) ) ) ) ) ) ) ) ) ) S.S.S.S.) B B B B B B B ) S.S.S.S.) ) ) ) ) ) ) e+3 <.<.3 e+*.B B B *.*.*.) ) ) ) ) S.S.) ) ) ) ) ) ) ) ) ) ) ) ) ) ) B ) ) ) ) B B B B B B B B B B B B B B B B B B B B B B ) ) B B B B ) S.e+e+h+h+h+h+h+e+X *.B B p p p B B B B ) ) S.S.S.) ) ) ) ) ) B B B B ) ) X X ) ) B B B B B *.*.t.t.t.t.*.B B p p p p p p p p p p p p B B *.t.t.t.e+e+e+e+t.t.t.<+B p p ",
"B B B B B *.*.B B B B B B B ) ) B B B B B B B ) ) X *.*.B B B B B B B B B B B *.X e+e+X X ) B B p p j.j.j.j.j.j.j.j.j.j.j.j.j.j.j.j.p p p p B B *.X e+e+c.c.c.e+t.B B B B *.X ) ) ) ) S.!+h+h+h+!+!+!+!+o o o o o o o o o ) ) o o o o o !+!+!+h+h+!+!+!+!+e+e+e+X X X X X X X o o o o o o o o !+!+!+!+W.W.W.W.3+3+3+3+++u+4.4.d d d U.<.c.X B B p p p p p p p p p p p p p p p p p p p p p B B B B B B B B B B B B B B B B B B B B B B B B B B B B B B X e+e+3 h+h+h+h+h+h+ . .X ) ) B B B B p p p p p B B B B p p p p p p B B <+t.t.e+t.t.*.B B p p p p p p p p p p p p p p p p p p p p p p p p p B B B B B B B B <+S.S.e+e+h+h+S.S.S.S.) ) ) ) ) ) ) ) ) ) ) ) ) ) ) ) ) ) ) ) ) ) ) ) ) S.S.S.S.) ) ) B B B B B B B ) S.S.S.S.) ) ) ) ) ) ) e+H <.<.3 e+*.B B B B B B ) ) ) ) ) ) ) ) ) ) ) ) ) ) ) ) ) ) ) ) ) ) ) ) ) B B B B B B B B B B B B B B B B B B B B B B B B B B B B B B X e+e+h+H H H h+e+S.X B B B p p p B B B ) S.S.S.S.S.S.S.S.S.S.) ) ) ) ) ) ) ) B B B B B B B B B *.*.*.*.*.B B p p p p p p p p p p p p p p B B *.*.t.t.t.e+e+e+e+t.<+B B B ",
"B B B B *.X X X B B B B B B B B B B B B B B B ) X X X *.B B B B B B B B B B B *.X e+e+X X B B B p p j.j.j.j.j.j.j.j.j.j.j.j.j.j.j.j.j.p p p B B *.X e+e+c.c.c.e+t.*.B B *.X X X ) ) ) )  . .h+h+!+!+!+!+o o o o o o o o o ) ) ) o o o o !+h+h+h+h+h+h+h+e+e+e+e+X X X X X X X X o o o o o o o o o o o  .W.W.W.W.L L 3+3+u+u+4.4.d d U.w+c.e+B B p p p p p p p p p p p p p p p p p p p p B B B B B B B B B B B B B B B B p p p p B B B B B B B B B B *.e+e+c.H H h+h+h+h+ .S.) ) ) B B B B p p p p p p p B B B B p p p p B B B t.e+3 3 e+t.*.B B p p p p B B B B p p p p p p p p p p p p p p p p B B B B B B B B ) S.S.S.e+h+h+h+S.S.) ) ) ) ) ) ) ) ) ) ) ) ) ) ) ) ) ) ) ) ) ) ) ) ) ) S.S.S.S.) ) ) ) B B B B B B B ) S.S.S.S.) ) ) ) ) ) S.e+H <.<.3 e+<+B B B B B B ) ) ) ) ) ) ) ) ) ) ) ) ) ) ) ) ) ) ) ) ) ) ) ) B B B B B B B B B B B B B B B B B B B B B B B B B B B B B B *.e+e+H <.H H H H S.S.) B B p p p p B B B S.S.3 h+3 S.S.S.S.S.S.S.S.) ) ) ) B B B B B B p p p p p p p p p p p p p p p p p p p p p p p p p p B B B *.*.*.t.t.e+e+e+S.<+B B B ",
"B B B B X X X X *.B B B B B B B B B B B B B B B *.X X *.B B B B B B B B B B B *.X e+e+X *.B B p p p j.j.j.j.j.j.j.j.j.j.j.j.j.j.j.j.j.p p p p B *.X X e+c.c.c.e+t.*.B B X X X X ) ) ) )  . . . .!+!+!+!+o o o o o o o o ) ) ) ) o o o !+!+h+h+h+h+h+h+e+e+e+e+X X X X X X X X X o o o o o o o o o o o  . .W.W.W.L L L 3+9+u+u+4.d d U.w+<.3 <+B B p p p p p p p p p p p p p p p p p p p B B B B B B B B B B B B B B B B p p p p B B B B B B B B B <+X e+3 H <.H h+h+h+S.) ) ) ) B B B B p p p p p p p p B B B B B p p B B B *.t.e+c.c.e+t.*.B B B B B B B B B B B B p p p p p B B B B B B B B B B *.<+<+B B ) ) S.S.S.S.S.h+h+S.S.) ) ) ) ) ) ) ) ) ) ) ) ) ) ) ) ) ) ) ) ) ) ) ) ) ) ) S.S.S.S.) ) ) ) B B B B B B B ) S.S.S.S.) ) ) ) ) ) S.e+H <.H 3 e+X B B B B B B ) ) ) ) ) ) ) ) ) ) ) ) ) ) ) ) ) ) ) ) ) ) ) ) B B B B B B B B B B B B B B B B B B B B B B B B B B B B B B X e+3 <.<.<.H H H S.S.B B B p p p p B B B S.3 H H H H S.S.S.S.S.S.S.S.) ) ) B B B B p p p p p p p p p p p p p p p p p p p p p p p p p p p p B B B B *.*.*.t.e+e+e+S.<+B B B ",
"B B B B X X X X X *.*.B B B B B B B B B B B B B *.*.X *.B B B B B B B B B B B *.X e+e+X <+B B p p p p j.j.j.j.j.j.j.j.j.j.j.j.j.j.j.p p p p p B *.X X e+c.c.c.e+t.*.B B X X X X ) ) ) ) )  . . .!+!+!+o o o o o o o o ) ) ) ) S.S.o !+!+!+!+!+!+!+!+S.S.S.X X X X X X X X X X X  . .o o o o o o o o o o  .W.W.W.W.L L L 3+9+u+4.d d U.U.<.c.e+t.<+p p p p p p p p p p p p p p p p p p p B B B B B B B B B B B B B B B p p p p p p B B B B B *.X X e+e+3 H H H h+h+h+S.S.) ) ) B B B B p p p p p p p p p B B B B B B B B B B *.X e+e+e+e+X ) B B B B <+<+<+<+<+<+<+B B B B B B <+<+t.t.t.t.t.t.e+e+e+e+S.S.S.S.S.S.S.S.S.S.S.S.S.) ) ) ) ) ) ) ) ) ) ) ) ) ) ) ) ) ) ) ) ) ) ) ) ) ) ) ) S.) ) ) ) ) ) ) B B B B B ) ) ) S.S.S.) ) ) ) ) ) ) S.e+h+H H 3 e+X *.B B B B B B ) ) ) ) ) ) ) ) ) ) ) ) ) ) ) ) ) ) ) ) ) ) B B B B B B B B B B B B B B B B B B B B B B B B B B B B B *.t.e+e+c.<.<.<.<.H H S.S.B B B p p p p B B ) e+H H <.H H H 3 3 3 S.S.S.S.) ) ) B B B p p p p p p p p p p p p p p p p p p p p p p p p p p p p p p B B B B *.*.*.t.S.S.<+<+B B B ",
"B B B B X X X X X X X <+B B B B B B B B B B B B <+<+<+<+B B B B B B B B B B B *.X e+e+X <+B B B p p p p p p p p p p p p p p p p p p p p p p p B *.X X e+c.c.c.e+t.*.B ) X X X X X ) ) ) ) ) ) ) ) S.) ) ) ) ) ) ) ) ) ) S.S.S.S.S.S.S.S.S.S.S.S.S.S.S.X X X *.*.B B B B B *.) X S. .!+ .o o o o o o o o  . . .W.W.^ L L L 3+++|  + + +U.w+<.c.3 <+B p p p p p p p p p p p p p p p p p p B B B B B B B B B B B B B B p p p p p p p p B B B *.X X e+e+3 H H H h+h+h+S.S.) ) ) B B B B p p p p p p p p p p B B B B B B B B B *.X X e+e+e+e+X ) ) ) <+<+<+t.t.S.S.S.<+<+<+<+<+<+<+S.e+e+3 3 3 3 3 3 3 3 3 3 3 e+S.S.S.S.S.S.S.S.S.) ) ) ) ) ) ) ) ) ) ) ) ) ) ) ) ) ) ) ) ) ) ) ) ) ) X X X ) ) ) B B B B B ) ) ) ) ) ) S.S.) ) ) ) ) ) ) ) ) ) ) S.h+H H 3 e+e+X ) ) ) ) B B B B ) X X X S.) ) ) ) ) ) ) ) ) ) B B B B B B B B B B B B B B B B B B B ) ) ) ) ) ) B B B B B B B B *.t.e+e+c.c.<.<.<.<.H H S.S.B B B p p p p B B <+e+H <.<.<.H H H H H H !+S.S.) ) B B B p p p p p p p p p p p p p p p p p p p p p p p p p p p p p p p p p p p B B B <+<+<+<+B B B B ",
"B B B B X X X X X e+X X <+B B B B B B B B p p B <+<+<+<+B B B B B B B B B B B *.X e+e+X *.B B B p p p p p p p p p p p p p p p p p p p p p p p B *.X X e+c.c.c.e+t.*.B *.X e+e+X X ) ) ) ) ) ) ) ) ) ) ) ) ) ) ) ) ) ) ) S.S.S.S.S.S.S.S.S.) ) ) ) ) ) ) ) B B B B B B B B B ) X S.h+h+!+o o o o ) ) ) o  . . . .W.^ ^ L L L 3+++|  + + +w+w+<.c.t.<+p p p p p p p p p p p p p p p p p p B B B B B B B B B B B B B p p p p p p p p p B B *.X X e+3 H H H H h+h+h+S.S.) ) ) B B B B p p p p p p p p p p p B B B B B B B B *.X X X e+e+e+e+X ) ) ) X e+e+e+e+e+e+S.S.S.S.S.S.S.S.e+3 c.c.<.<.<.<.<.<.<.H H H H h+3 S.S.S.S.S.) ) ) ) ) ) ) ) ) ) ) ) ) ) ) ) ) ) ) ) ) ) ) ) ) ) ) X X X X ) B B B B B B B ) ) ) ) S.S.S.S.) ) ) ) ) ) ) ) ) ) ) S.h+H H H 3 e+e+X X ) ) ) ) B B ) X S.S.X S.) ) ) ) ) ) ) B B B B B B B B B B B B B B B B B B B B ) ) ) ) ) ) ) ) B B B B B B B t.e+c.c.c.<.<.<.<.H H H S.S.B B B p p p p B B X e+<.<.| <.<.H H H H H h+S.S.) ) B B B p p p p p p p p p p p p p p p p p p p p p p p p p p p p p p p p p p p p p B B B B B B B B B ",
"B B B ) X X X X X e+e+X ) B B B B B B B B p p B <+<+<+<+B B B B B B B B B B B <+X e+e+X *.B B B p p p p p p p p p p p p p p p p p p p p p p p B *.X X e+e+c.c.e+t.*.B <+X e+e+S.) ) ) ) ) ) ) ) ) ) ) ) ) ) ) ) ) ) ) ) S.S.S.S.S.S.S.S.) ) ) ) ) ) ) ) B B B B B B B B B B B ) S.S.h+!+!+o o o o ) ) )  . . . .W.^ ^ ^ L L 3+3+++|  + +w+w+<.c.3 t.B p p p p p p p p p p p p p p p p B B B B B B B B B B B B B p p p p p p p p B B *.*.X e+e+h+H H H H h+h+h+S.S.) ) ) B B B B p p p p p p p p p p p p B B B B B B B *.X X X e+e+e+e+S.X ) ) S.S.e+e+e+3 3 3 3 3 S.S.S.S.S.S.3 3 H <.<.<.<.<.<.<.<.H H H H h+3 S.S.S.S.) ) ) ) ) ) ) ) ) ) ) ) ) ) ) ) ) ) ) ) ) ) ) ) ) ) ) ) X X X X ) B B B B B B ) ) ) ) S.S.S.S.S.) ) ) ) ) ) ) ) ) ) ) S.!+h+H H 3 e+e+e+e+e+S.S.) ) ) ) S.e+e+S.) ) ) ) ) ) ) ) B B B B B B B B B B B B B B B B B B B B ) ) ) ) ) ) ) ) B B B B B B *.e+c.c.c.<.<.<.<.H H H h+S.S.B B B p p p B B B X e+<.<.<.<.<.H H H H H h+S.S.) ) B B B p p p p p p p p p p p p p p p p p p p p p p p p p p p p p p p p p p p p p p B B B B B B B B ",
"B *.) X X X X X X X X X ) ) B B B B B B B B B B B <+<+<+) B B B B B B B B B B *.X e+e+X *.*.B B p p p p p p p p p p B B B B B B B B p p p p p B B *.X e+e+e+e+e+*.B B <+<+t.S.S.) ) ) ) ) ) ) ) ) ) ) ) ) ) ) ) ) ) ) S.S.S.S.S.S.S.S.) ) ) ) ) ) ) B B B B B p p p p p p B B B ) S.S.!+ .!+o o o o ) ) o  . . . . .L L L L L 3+3+++++| w+w+<.c.c.t.<+B p p p p p p p p p p p p p p B B B B B B B B B B B B B p p p p p p p B B <+t.e+e+e+h+h+H H H H h+h+h+S.S.) ) ) ) B B B B p p p p p p p p p p p p B B B B B B <+<+X X e+e+e+e+e+S.S.) ) S.S.e+e+e+3 3 3 H h+h+h+h+!+!+S.h+h+h+H H H H H H H H H h+h+h+!+S.S.S.S.) ) ) ) ) ) ) ) ) ) ) ) ) ) ) ) ) ) ) ) ) ) ) ) ) ) ) X X X X X ) ) B B B B B ) ) ) ) ) S.S.S.S.S.S.) ) ) ) ) ) ) ) ) ) S.S.S.h+h+3 3 H H <.<.H h+e+S.S.S.S.S.S.S.) ) ) ) ) ) ) B B B B B B B B B B B B B B B B B B B ) ) ) ) ) ) ) ) ) B B B B B B *.X e+c.<.<.<.<.<.<.H H h+S.S.) B B B B B B B B <+S.e+H <.<.H H 3 S.S.S.S.S.S.S.S.) ) B B p p p p p p p p p p p p p p p p p p p p p p p p p p p p p p p p p p p p p p p B B B B B B B ",
"X X X X X X X X X X X X ) ) ) B B B B B B B B B B ) ) ) ) ) ) ) ) ) ) B B B B <+X e+e+X *.*.*.B p p p p p p p p p B B B B <+<+B B B B p p p p B B B *.X e+e+e+e+<+B B <+<+<+<+<+<+) B ) ) ) ) ) ) ) ) ) ) ) ) ) ) S.S.S.S.) ) ) ) ) ) ) ) ) ) ) ) B B B B B p p p p p p p p B B B ) X S.!+!+!+!+o o o o ) ) o  . . . .!+!+!+!+!+h+h+H <.<.<.<.<.c.e+t.*.B p p p p p p p p p p p p B B B B B B B B B B B B p p p p p p p p B B <+t.e+3 H H H H H H h+h+h+!+S.S.) ) ) ) ) B B B B p p p p p p p p p p p p B B B B B <+<+<+S.S.S.e+e+e+e+S.S.) ) S.S.h+h+h+h+h+h+h+H H H H h+!+!+!+S.e+e+e+e+e+e+e+e+e+e+e+S.S.S.S.S.S.) ) ) ) ) ) ) ) ) ) ) ) ) ) ) ) ) ) ) ) ) ) ) ) ) ) X X X X X ) ) ) ) ) ) ) ) ) ) ) ) S.S.S.S.!+S.S.) ) ) ) ) ) ) ) ) ) ) ) S.S.S.e+3 H <.<.<.| <.<.h+!+S.S.S.S.S.S.) ) B B B B B B B B B B B B B B B B B B B ) ) ) ) ) ) ) ) ) ) ) ) ) B B B B B B <+X e+c.<.<.w+<.<.<.H H h+S.S.) ) B B B B B B B <+X e+e+3 H H 3 e+S.S.S.S.S.S.S.S.S.S.) B B B p p p p p p p p p p p p p p p p p p p p p p p p p p p p p p p p p p p p p p p B B B <+<+<+",
"X X X X ) ) ) X X X X X ) ) ) ) B B B B B B B B ) ) ) ) ) ) ) ) ) ) ) ) B B B <+X e+e+X *.*.*.*.B p p p p p p p B B B B <+S.S.<+B B B B p p p p B B B X e+e+e+X <+B B B <+<+<+<+B B B ) ) ) ) ) ) ) ) ) ) ) ) ) S.S.S.S.) ) ) ) ) ) ) ) ) ) ) ) ) B B B B p p p p p p p p p p B B B ) S.S.h+h+!+o o o o ) ) ) o !+h+h+!+!+o o o o !+h+H <.<.<.<.c.c.e+t.*.B p p p p p p p p p p B B B B B B B B B B B B B p p p p p p p B B <+X e+c.<.<.<.<.<.H h+!+!+o o ) ) ) ) ) ) ) B B B B p p p p p p p p p p p p B B B B <+<+<+<+S.S.S.S.h+h+h+S.S.) ) S.S.h+h+h+h+h+h+H H ++++H h+!+!+!+S.S.S.S.S.S.S.S.S.S.S.S.) ) ) ) ) ) ) ) ) ) ) ) ) ) ) ) ) ) ) ) ) ) ) ) ) ) ) ) ) ) ) S.S.e+e+X X ) ) ) ) ) ) ) ) ) ) ) S.S.S.S.!+!+!+S.) ) ) ) ) ) ) ) ) ) ) ) ) ) S.e+h+<.<.<. + + +| <.h+!+S.S.S.S.S.) B B B B B B B B B B B B B B B B B B B ) ) ) ) ) ) ) ) ) ) ) ) ) B B B B B B <+X e+3 c.<.w+w+w+<.<.H h+S.S.) ) B B B B B B B B X X e+e+e+e+S.S.S.) ) B B B ) ) S.S.S.) B B B B p p p p p p p p p p p p p p p p p p p p p p p p p p p p p p p p p p p p p p p B B <+<+<+",
"X X X X ) ) ) ) X X X X ) ) ) ) B B B B B B B ) ) ) ) ) ) ) ) ) ) ) ) ) B B B ) X X e+X X *.*.*.B p p p p p p p B B B ) S.S.S.S.<+B B B p p p p B B B <+X e+e+X <+B B B <+<+<+<+<+B B ) ) ) ) ) ) ) ) ) ) ) ) ) S.S.S.S.) ) ) ) ) ) ) ) ) ) ) ) B B B B B p p p p p p p p p p B B B B X S.h+h+!+o o o o ) ) ) S.!+h+h+!+!+o o o o o  .h+h+<.<.<.<.<.c.c.t.*.B p p p p p p p p p p B B B B B B B B B B B p p p p p B B *.<+t.e+e+c.<.<.<.<.<.H H h+!+o o ) ) ) ) ) ) ) ) B B B B p p p p p p p p p p p p B B B <+<+<+<+S.S.S.S.S.h+h+h+!+S.S.S.S.!+h+h+h+h+h+h+H 3+++3+H h+!+!+S.) ) ) ) ) ) ) ) ) ) ) ) ) ) ) ) ) ) ) ) ) ) ) ) ) ) ) ) ) ) ) ) ) ) ) ) ) ) ) ) ) ) ) S.e+e+e+S.S.) ) ) ) ) ) ) ) ) ) ) S.S.S.S.S.!+!+S.) ) ) ) ) ) ) ) ) ) ) ) ) ) S.e+3 H <.<. + + +| <.h+!+S.S.S.S.) ) B B B B B B B B B B B B B B B B B B B ) ) ) ) ) ) ) ) ) ) ) ) B B B B B B B <+e+e+c.<.<.w+w+w+<.H H !+S.S.) ) B B B B B B B <+X X e+S.S.S.S.S.B B B B B B B ) ) S.S.S.) B B B p p p p p p p p p p p p p p p p p p p p p p p p p p p p p p p p p p p p p p p p B <+<+<+",
"X X X ) ) ) ) ) ) X X ) ) ) ) ) B B B B B <+) ) ) ) ) ) ) ) ) ) ) ) ) ) ) ) B ) ) X X X X *.*.*.B B p p p p B B B B B ) S.S.S.S.<+<+B B p p p p p B B <+S.S.S.X <+B B B B B <+<+<+B ) ) ) ) ) ) ) ) ) ) ) ) ) ) ) S.S.S.S.) ) ) ) ) ) ) ) ) ) ) B B B B B p p p p p p p p p p B B B B ) S.h+h+h+ .o o o o o o o !+!+!+!+!+o o o o o o !+h+h+H <.<.<.<.c.c.t.*.B p p p p p p p p p p p B B B B B B B B p p p p B B *.t.t.e+c.c.c.<.<.<.<.<.H H h+!+o o ) ) ) ) ) ) ) ) B B B B p p p p p p p p p p p p p B B <+<+<+<+S.S.S.S.S.S.e+h+!+S.S.S.S.!+h+h+h+h+h+h+h+3+3+3+3+h+!+!+!+) ) ) ) ) ) ) ) ) ) ) ) ) ) ) ) ) ) ) ) ) ) ) ) ) ) ) ) ) ) ) ) ) ) ) ) ) ) ) ) ) ) ) S.S.e+e+e+S.S.) ) ) ) ) ) ) ) ) ) ) S.S.S.S.S.S.S.) ) ) ) ) ) ) ) ) ) ) ) ) ) S.S.S.3 H <.<.<.| <.<.H !+!+S.S.S.S.) ) ) B B B B B B B B B B B B B B B B B ) ) ) ) ) ) ) ) ) ) ) ) ) B B B B B B B t.e+c.<.<.<.<.<.<.<.H h+!+S.S.) ) ) B B B B B B ) X X S.S.S.S.) B B B B B B B B B ) S.S.S.) ) B B B p p p p p p p p p p p p p p p p p p p p p p p p p p p p p p p p p p p p p p p B B <+<+",
") ) ) ) ) ) ) ) ) ) ) ) ) ) ) ) B B B B *.X X X ) ) ) ) ) ) ) ) ) ) ) ) ) ) ) ) ) ) *.X X X X *.B B B B B B B B B B B ) S.S.S.S.<+<+<+B p p p p p p B B <+S.S.S.<+B B B B B B <+<+) ) ) ) ) ) ) ) ) ) ) ) ) ) ) ) ) ) S.S.S.S.) ) ) ) ) ) ) ) ) B B B B B B B B p p p p B B B B B B B ) S.h+h+h+ .o o o o o o o o o !+!+!+!+!+o o o o o !+h+h+<. + +w+<.c.c.t.*.B p p p p p p p p p p p p p p p p p p p p B B B *.t.e+c.c.<.<.<.<.<.<.<.H h+h+!+!+o ) ) ) ) ) ) ) B B B B B p p p p p p p p p p p p p p B <+<+<+<+S.S.S.S.S.e+e+S.S.S.S.S.!+h+h+h+h+h+h+h+3+3+3+3+H h+!+!+S.) ) ) ) ) ) ) ) ) ) ) ) ) ) ) ) ) ) ) ) ) ) ) ) ) ) ) o o ) S.S.S.) ) ) ) ) ) ) ) ) S.S.S.e+e+3 e+S.S.) ) ) ) ) ) ) ) ) ) ) S.S.S.S.S.S.) ) ) ) ) ) ) S.S.S.S.S.S.S.S.S.S.S.e+3 3 H H H H h+h+S.S.) ) ) ) ) ) ) ) ) ) ) ) ) ) ) ) B B B B B B ) ) ) ) ) ) ) ) ) ) ) ) ) ) ) B B B B B B <+e+3 c.<.<.<.<.<.<.H H h+!+S.S.S.S.<+<+<+B B B B B ) ) ) ) ) ) B B B B p p p p B B ) ) ) S.S.S.<+B B p p p p p p p p B B B B B B B B B B p p p p p p p p p p p p p p p p p p p p p p p B B ",
") ) ) ) ) ) ) ) ) ) ) ) ) ) ) ) B B B *.X X X X ) ) ) ) ) ) ) ) ) ) ) ) ) ) ) ) B B B *.X e+X X *.B B B B B B B B B B ) S.S.S.S.S.<+<+<+B p p p p p B B <+S.S.S.) B B B B B B <+S.S.S.S.) ) ) ) ) ) ) ) ) ) ) ) ) ) ) ) S.S.S.S.) ) ) ) ) ) ) ) B B B B B B B B B B B B B B B B B B B ) S.h+h+!+!+o o o o o o o o o o !+!+!+!+!+o o o o o  .h+++ + + + +<.c.c.t.*.B p p p j.j.j.j.j.p p p p p p p p p B B B <+t.t.c.c.c.<.w+w+w+<.<.<.H h+S.S.) ) ) ) ) ) ) ) ) ) B B B B p p p p p p p p p p p p p p B <+<+<+<+S.S.S.S.e+e+e+e+S.S.S.S.!+h+h+h+h+h+h+h+++++++3+H h+!+!+S.) ) ) ) ) ) ) ) ) ) ) ) ) ) ) ) ) ) ) ) ) ) ) ) ) ) ) o o o o S.S.S.S.) ) ) ) ) ) ) S.!+h+h+h+3 3 3 S.S.) ) ) ) ) ) ) ) ) ) S.S.e+e+S.S.) ) ) ) ) ) ) S.S.S.S.S.S.S.S.S.S.S.S.S.S.S.e+e+e+S.S.S.) ) ) ) ) ) ) ) ) ) ) ) ) ) ) ) ) ) ) B B B B ) ) ) ) ) ) ) ) ) ) ) ) ) ) ) ) B B B B B B <+3 c.<.<.<.<.<.H h+h+h+h+h+S.S.S.S.<+<+<+<+B B B B ) ) ) ) ) B B B B p p p p p B B B ) ) S.S.S.S.<+B p p p p p p p B B B B B B B B B B B B p p p p p p p p p p p p p p p p p p p p p p p p ",
") ) ) ) ) ) ) ) ) ) ) ) ) ) ) ) ) B B *.X X X X S.) ) ) ) ) ) ) ) ) ) ) ) ) ) ) B B B *.X e+e+X *.B B B B B B B B B B ) S.S.S.S.S.S.<+<+<+B p p p p B B <+S.S.S.) B B B B B <+<+S.S.S.S.) ) ) ) ) ) ) ) ) ) ) ) ) ) ) ) S.S.S.S.) ) ) ) ) ) ) ) B B B B B B B B B B B B B B B B B B ) ) S.h+h+!+!+o o o o o o o o o o !+!+!+!+!+o o o o o o h+++++ + + +w+<.c.c.t.t.D.D.p p j.j.j.j.j.p p p p p D.*.*.t.t.e+e+3 c.c.<.<.<.w+w+<.<.<.H h+e+S.) ) ) ) ) ) ) ) ) ) B B B B B p p p p p p p p p p p p p p B <+<+<+S.S.S.S.S.e+e+e+e+S.S.S.S.h+h+h+h+h+h+h+h+++++++3+h+!+!+S.) ) ) ) ) ) ) ) ) ) ) ) ) ) ) ) ) ) ) ) ) ) ) ) ) ) ) ) o o o o S.S.S.S.) ) ) ) ) ) ) S.h+h+h+H 3 3 3 S.S.S.) ) S.S.S.S.S.S.S.S.e+e+e+S.S.) ) ) ) ) ) ) S.S.S.S.S.S.S.S.S.S.S.S.S.S.S.S.S.) ) ) ) ) ) ) ) ) ) ) ) ) ) ) ) ) ) ) ) ) ) ) B B B B ) ) ) ) ) ) ) ) ) ) ) ) ) ) ) ) B B B B B <+e+3 c.<.<.<.<.H h+h+h+h+h+S.S.S.S.S.<+<+<+<+B B B B B ) ) B B B B B p p p p p p p B B ) ) ) S.S.S.<+B p p p p p p p B B B B B B B B B B B B p p p p p p p p p p p p p p p p p p p p p p p p ",
") ) ) ) ) ) ) ) ) ) ) ) ) ) X X ) ) ) X X X X S.) ) ) ) ) ) ) ) ) ) ) ) ) ) ) B B B B ) X X X X ) B B B B B B B B B ) ) S.S.S.3 3 S.S.<+<+<+B p p p B B <+S.S.S.) ) ) <+*.t.t.S.S.S.S.) ) ) ) ) ) ) ) ) ) ) ) ) ) ) ) S.S.S.S.S.S.) ) ) ) ) ) B B B B B B B B B B B B B B B B B B B ) ) S.S.!+!+!+o o o o o o o o o o !+!+!+!+!+!+o o o o o  .h+++|  + + +w+w+<.c.c.t.t.D.p j.j.j.j.j.j.p p p D.t.t.c.c.c.<.<.<.<.<.<.<.<.<.<.<.<.H h+e+S.) ) ) ) ) ) ) ) ) ) B B B B B B p p p p p p p p p p p p p B B <+<+S.S.S.S.S.S.e+e+e+e+e+S.S.!+!+h+h+h+h+h+h+h+++++++3+h+!+S.) ) ) ) ) ) ) ) ) ) ) ) ) ) ) ) ) ) ) ) ) ) ) ) ) ) ) ) ) o o o o !+S.S.S.) ) ) ) ) ) o h+h+H H H H e+S.S.S.S.S.S.e+3 3 3 3 e+e+e+e+e+e+e+S.S.) ) ) ) ) ) ) ) S.S.S.S.S.S.S.S.S.S.S.S.S.) ) ) ) ) ) ) ) ) ) ) ) ) ) ) ) ) ) ) ) ) ) ) ) ) ) ) ) ) ) ) ) ) ) ) ) ) ) ) ) ) ) ) ) B B B *.*.X e+e+3 c.<.<.<.H h+h+h+h+S.S.S.S.S.S.<+<+<+<+B B B B B B B B B B B B p p p p p p p p B B ) ) S.S.S.S.) B p p p p p p p p B B B B B B B B B B p p p p p p p p p p p p p p p p p p p p p p p p p ",
") ) ) ) ) ) ) ) ) ) ) ) X X X X X X X X X X S.) ) ) ) ) ) ) ) ) ) B B B B B B B B B B B X X X X ) B B B B B B B B ) ) S.S.3 H H 3 3 3 S.<+<+<+B B B B B <+S.S.S.) ) ) X e+e+e+e+S.S.) ) ) ) ) ) ) ) ) ) ) ) ) ) ) S.S.S.S.) ) S.S.S.S.) ) ) B B B B B B B ) ) ) ) ) ) ) ) ) ) ) ) ) ) ) S.S.S.!+!+o o o o o o o o !+!+!+!+L L !+!+o o o o o o  .h+++++ + +U.U.~ w+c.c.t.t.p p j.j.j.p p p p p t.t.c.c.w+w+w+U.U.w+w+<.<.<.<.H h+h+e+e+S.) ) B B B B B B B B B B B B B B B B B p p p p p p p p p p B B B <+t.S.S.S.S.S.S.e+e+e+e+e+h+h+!+!+!+!+h+h+h+h+h+++++++3+h+!+) ) ) ) ) ) ) ) ) ) ) ) ) ) ) ) ) ) ) ) ) ) ) o o ) ) ) ) ) o o o o !+!+!+S.S.) ) ) ) o !+h+H <.<.<.H e+S.S.S.S.S.3 3 <.<.<.<.H h+h+h+h+h+e+S.S.S.) ) ) ) ) ) ) ) ) ) ) ) ) ) ) ) ) ) ) ) ) ) ) ) ) ) ) ) ) ) ) ) ) ) ) ) ) ) ) ) ) ) ) ) ) ) ) ) ) ) ) ) ) ) ) ) ) ) ) B B B B B B B *.*.X e+e+3 c.c.c.c.H H h+h+h+S.S.) ) ) ) ) B B B B B B B B B B B B B B p p p p p p p p p p B B X X X S.) ) B B p p p p p p p p p p p p p p p p p p p p p p p p p p p p p p p p p p p p p p p p D.D.D.",
") ) ) ) ) ) ) ) B B B ) X X e+X X X X X ) ) ) ) ) ) ) ) ) ) ) ) ) B B B B B B B B B B ) X X X X *.B B B B B B B ) ) ) S.S.h+H H H H 3 3 S.<+<+B B B B <+X e+e+S.) ) ) X e+e+e+e+e+S.) ) ) ) ) ) ) ) ) ) ) ) ) ) S.S.S.S.) ) ) ) S.S.S.) ) B B B B B B B ) ) ) ) ) ) ) ) ) ) ) ) ) ) ) ) S.S.S.S.o o o o ) ) ) o !+!+!+!+3+3+3+L !+o o o o o o o  .h+H |  +U.U.U.~ ~ w+c.t.*.p p p p p p p D.t.t.c.<.~ ~ L.L.L.U.U. +<.<.H h+e+S.S.S.) ) ) B B B B B B B B B B B B B B B B B B B p p p p p p p p B B B <+<+e+e+S.S.S.S.S.e+e+e+e+h+h+h+h+!+!+!+!+h+h+h+H ++++++h+h+S.) ) ) ) ) ) ) ) ) ) ) ) ) ) ) ) ) ) ) ) ) ) o o o o ) ) ) ) o o o o !+!+!+S.S.) ) ) ) o !+h+<.| | <.h+S.S.) S.S.3 3 <.<.<.<.<.<.H H h+h+h+e+S.S.S.S.) ) ) ) ) B B ) ) ) ) ) ) ) ) ) ) ) ) ) ) ) ) ) ) ) ) ) ) B B ) ) ) ) ) ) ) ) ) ) ) ) ) ) ) ) ) ) ) ) ) ) ) ) ) B B B B B B B B *.*.*.e+e+c.H c.c.3 3 3 h+h+h+S.X ) B B B B B B B B B B B B B B B p p p p p p p p j.j.j.p p p B *.X X X ) ) ) B B p p p p p p p p p p p p p p p p p p p p p p p p p p p p p p p p p p p p p p p D.D.D.D.",
") ) ) ) ) ) ) ) B B B ) X X e+X X X X X ) ) ) ) ) ) ) ) ) ) ) ) B B B B B B B B B B B ) X X X X ) B B B B B B B ) ) ) S.S.h+H H H H 3 S.S.<+<+<+B B *.X e+e+e+e+S.) ) S.e+e+3 e+e+S.) ) ) ) ) ) ) ) ) ) ) ) ) ) S.S.S.S.) ) ) ) S.S.S.) ) B B B B B B B ) ) ) ) ) ) ) ) ) ) ) ) ) ) ) ) S.S.S.S.o o o o ) ) ) S.!+!+!+!+3+3+3+L !+o o o o o o o o o h+<. +U.U.U.U.~ ~ <.c.t.t.t.t.t.t.t.t.t.c.c.w+~ ~ U.L.L.&+U.U. +<.<.h+S.) ) ) ) ) ) B B B B B B B B B B B B B B B B B B B B B p p p p p p B B B B <+X e+e+S.S.S.S.S.e+e+e+e+h+h+h+h+!+!+!+h+h+h+H H ++++H h+!+) ) ) ) ) ) ) ) ) ) ) ) ) ) ) ) ) ) ) ) ) ) ) o o o o ) ) ) ) o o o o !+!+!+!+S.) ) ) o o !+H ++ + +<.h+S.) S.S.3 3 <.w+w+w+w+<.<.<.H h+h+h+S.S.S.S.S.) ) ) ) ) B B ) ) ) ) ) ) ) ) ) ) ) ) ) ) ) ) ) ) ) ) ) ) B B ) ) ) ) ) ) ) ) ) ) ) ) ) ) ) ) ) ) ) ) ) ) ) ) ) B B B B B B B *.*.t.e+e+c.<.<.H 3 e+e+e+e+h+e+S.) B B B B B B B B B B B B B B B p p p p p p p p j.j.j.j.p p p B *.X X X X ) ) B B p p p p p p p p p p p p p p p p p p p p p p p p p p p p p p p p p p p p p p D.D.D.D.D.",
") ) ) ) ) ) ) ) B B ) ) X X X X X X X ) ) ) ) ) ) ) ) ) ) ) ) ) ) B B B B B B B B B ) ) ) X X X X *.*.<+<+<+<+) ) ) X S.S.!+!+!+!+!+S.S.S.<+<+<+<+<+X e+e+e+e+e+S.) ) S.e+e+e+e+e+S.S.) ) ) ) ) ) ) ) ) ) ) ) ) ) S.S.S.S.) ) S.S.S.S.) B B B B B B ) ) ) ) ) ) ) ) ) ) ) ) ) S.S.) ) S.S.S.S.) ) o o ) ) ) ) S.!+!+!+h+h+3+3+h+!+!+o o o o o o o o !+H <. +U.U.U.U.U.~ w+<.c.c.c.c.c.c.c.~ ~ ~ ~ ~.~.U.U.U.U.U. +<.<.h+S.) ) ) ) ) ) B B B B B B B B B B B B B B <+<+*.*.<+B B B B p p p p B B B B <+X S.S.S.S.S.S.S.S.e+e+e+h+h+h+h+h+h+!+h+h+H <.<.<.H h+h+h+S.) ) ) ) ) ) ) ) ) ) ) ) ) ) ) ) ) ) ) ) ) ) ) ) o o o ) ) ) o o o o o !+!+!+!+!+S.o o o !+h+++|  + +<.H S.S.S.e+H <.w+w+U.U.w+w+<.H h+h+h+S.S.S.S.S.S.S.) ) ) ) ) ) X X X ) ) ) ) ) ) ) ) ) ) ) ) ) ) ) ) ) ) ) ) ) ) ) ) ) ) ) ) ) ) ) ) ) ) ) ) ) ) ) ) ) ) ) ) ) B B B B B B B <+<+t.e+e+c.<.<.<.H 3 e+S.S.S.e+S.S.<+B B B B B B B B B B B B B B p p p p p p p p j.j.j.j.j.p p p B *.X X X X X ) B B p p p p p p p p p p p p p p p p p p p p p p p p p p p p p p p p p p p B B D.D.D.D.D.D.",
"B B B B B B B B ) ) ) ) ) ) X X ) ) ) B B B B B B B B B B B B ) ) ) ) ) ) ) ) ) ) ) ) ) ) ) ) X X X X X X X X X X X X X S.S.S.S.S.S.S.S.) <+<+<+<+X e+e+3 c.3 e+e+S.) ) S.e+e+e+e+S.!+o o o o o o o o ) ) ) ) ) ) ) ) S.S.S.S.S.S.) ) ) B B B B *.*.X ) ) ) ) ) ) o o o o !+S.S.S.S.S.S.S.) ) ) ) ) ) ) ) ) ) S.!+!+H H h+h+h+h+!+!+!+o o o ) ) ) ) S.h+H <.<.U.U.U.U.U.U.U.w+w+w+w+~ ~ ~.L.L.L.L.L.~.U.w+w+w+<.<.H h+e+S.) ) ) ) B B B B B B B B B B B B B B B <+X X X X X X <+B B B B B B B B <+X X S.S.S.S.S.S.!+!+!+h+h+h+h+h+h+h+h+h+h+h+H <.<.<.<.H h+!+S.) ) ) ) ) ) ) ) ) ) ) ) ) ) ) ) ) ) ) ) ) ) ) ) ) ) ) ) o o o o o o o o !+!+!+!+!+!+!+!+!+!+h+++ + + +| H e+S.e+H <.|  +U.U.U.U.w+<.3 e+e+S.S.S.) S.) S.S.S.S.S.S.X X X X X X X ) ) ) ) ) ) ) ) ) ) ) ) ) ) ) ) ) ) ) ) ) ) ) ) ) ) ) ) ) S.S.) ) ) ) ) ) ) B B B B B B B B B B B <+<+t.e+3 c.<.<.<.<.H e+S.S.S.S.S.S.<+B B p p p p p p p p p p p p p p p p p p p j.j.j.j.j.j.j.p p p B *.X X X X X X B B p p p p p p p B B B B p p p p p p p p p p p p p B B B B B B B B B B B *.*.*.D.D.D.p p ",
"B B B B B B B B ) ) ) ) ) ) ) ) ) B B B B B B B B B B B B B B B ) ) ) ) ) ) ) ) ) ) ) ) ) ) ) X X e+e+e+e+e+e+X X X X X X ) ) ) ) ) ) ) ) B B <+X e+e+3 H H H h+e+S.) ) ) ) S.S.S.h+!+!+o o o o o o o o ) ) ) ) ) ) ) ) S.S.S.S.) ) ) ) B B B B *.X X X ) ) ) ) o o o o !+!+!+S.S.S.S.S.) ) ) ) ) ) ) ) ) ) ) S.!+h+H H h+h+h+h+!+!+!+!+o ) ) ) ) ) ) S.S.e+H <.U.U.&+&+d U.U.U.U.U.L.L.L.{+B.L.L.L.~.~ w+<.3 3 e+S.S.S.) ) ) ) B B B B B B B B B B B B B B B *.X e+e+e+e+e+X <+B B B B B B B B X X e+e+S.S.S.S.!+!+!+!+h+h+h+h+h+H H H h+h+H <.++| | <.h+h+S.) ) ) ) ) ) ) ) ) ) ) ) ) ) ) ) ) ) ) ) ) ) ) ) ) ) ) ) ) o o o o o o o o !+!+!+!+!+!+!+!+!+!+H ++ + + +| H e+S.h+H <. + +d d U.U.<.c.e+e+S.) ) ) ) ) ) ) S.S.S.S.S.e+e+e+e+e+e+X S.) ) ) ) ) ) ) ) ) ) ) ) ) ) ) ) ) ) ) ) ) ) ) ) ) ) ) S.S.S.S.) ) ) ) B B B B B B B B B B B B <+<+<+e+3 c.<.<.<.<.<.H e+S.) S.S.<+<+<+B p p p p p p p p p p p p p p p p p p p p j.j.j.j.j.j.j.p p p B *.X X X X X X *.B p p p p p p p B *.*.B p p p p p p p p p p p p B B B B B B B B B B B B *.*.*.*.D.p p p ",
"B B B B B B B B ) ) ) ) ) ) ) ) B B B B B B B B B B B B B B B B ) ) ) ) ) ) ) ) ) ) ) ) ) ) ) ) X e+e+e+e+e+e+X X X X X ) ) ) ) ) ) ) ) ) B <+<+S.e+e+3 H <.H h+e+S.) ) ) ) ) S.S.!+!+!+o o o o o o o o ) ) ) ) ) ) ) ) S.S.S.S.) ) ) ) B B B ) X X X X ) ) ) ) o o o o !+!+!+S.S.S.S.S.) ) ) ) ) ) ) ) ) ) ) S.!+h+H H h+h+h+h+!+!+!+S.) ) ) ) ) ) ) ) ) S.e+<.w+U.d d d d d d d d &+L.B.{+B.L.L.~.~ w+c.3 S.S.) ) ) ) ) ) ) ) B B B B B B B B B B B B B ) ) X S.e+e+e+e+e+X X B B B B B B B <+X e+e+e+S.S.S.S.!+!+!+h+h+h+h+h+H H H H H H H <.| | | <.h+S.) ) ) ) ) ) ) ) ) ) ) ) ) ) ) ) ) ) ) ) ) ) ) ) ) ) ) ) ) o o o o o o o o o !+!+!+!+!+!+!+!+!+!+H <.|  + +<.H e+S.h+H <. + +U.U.U.w+<.3 e+S.) ) ) ) ) ) ) ) S.S.S.S.S.e+e+e+e+e+e+S.S.) ) ) ) ) ) ) ) ) ) ) ) ) ) ) ) ) ) ) ) ) ) ) ) ) ) ) S.S.S.S.) ) ) ) B B B B B B B B B B B <+<+<+e+3 c.<.<.<.<.<.H h+e+S.) ) <+<+<+<+B p p p p p p p p p p p p p p p p p p p p j.j.j.j.j.j.j.p p p B *.X X X X X X *.B p p p p p p p B *.*.B p p p p p p p p p p p B B B B B B B B B B B B *.*.t.*.*.D.p p p ",
"B B B B B B B ) ) ) ) ) ) ) ) B B B B B B B B B B B B B B B B B B ) ) ) ) ) ) ) ) ) ) ) ) ) ) ) S.X X e+e+e+e+X X X X ) ) ) ) ) ) ) ) ) ) ) X S.e+e+3 H H <.H h+h+S.) ) ) ) ) ) S.S.!+!+o o o o o o o ) ) ) ) ) ) ) ) ) ) ) ) ) ) ) ) ) B B ) ) ) X X ) ) ) o o o o o o o !+S.S.S.S.S.S.) ) ) ) ) ) ) ) ) ) ) S.S.!+h+h+h+h+!+!+!+!+S.S.S.) ) ) ) ) ) ) ) ) S.H <.w+ + +U.U.U.U.U.U.U.L.L.L.L.~.~ ~ w+c.3 e+) ) ) ) ) ) ) ) ) B B B B B B B B B ) ) ) ) S.S.S.S.S.e+e+e+e+X X <+B B B B B *.X X S.e+e+e+S.S.S.!+!+!+h+h+h+h+h+h+h+h+H H H <.<.<.| | <.H h+S.) ) ) ) ) ) ) ) ) ) ) ) ) ) ) ) ) ) ) ) ) ) ) ) ) ) ) ) o o o o o o o o o o o !+!+!+!+!+!+!+!+!+h+H <.<.<.<.h+e+S.e+H <.<.|  + +w+<.<.e+S.) ) ) ) ) ) ) ) ) ) S.S.S.S.S.S.e+e+e+S.S.S.S.) ) ) ) ) ) ) ) ) ) ) ) ) ) ) ) S.S.S.S.S.S.S.S.) ) S.S.) ) ) ) ) B B B B B B B B B B <+<+S.e+e+3 c.<.<.<.<.<.H h+e+e+X ) ) <+<+<+B B p p p p p p p p p p p p p p p p p p p p p j.j.j.j.p p p p p B B X X X X X X *.B p p p p p p p p D.D.p p p p p p p p p p p B B <+<+<+<+<+<+<+*.<+*.*.*.t.*.*.*.B p p p ",
"B B B B B *.*.*.) ) ) ) ) ) B B B B B B B B B B B B B B B B B B B B ) ) ) ) ) ) ) ) ) ) ) ) ) ) ) S.X X X X X X X X ) ) ) ) ) ) ) ) ) ) X X S.e+e+3 H H H H h+h+h+!+S.) ) ) ) ) ) ) S.) ) ) ) ) ) ) ) ) ) ) ) ) ) B B B B ) ) B B B B B ) ) ) ) ) ) ) ) ) o o o o o o o o o ) S.S.) ) S.S.S.) ) ) ) ) ) ) ) ) S.S.S.S.S.S.S.S.S.S.S.S.S.S.) ) ) ) ) B ) ) ) ) e+H <.<.<.<. + + +w+w+w+~ ~ ~ ~ w+c.c.c.3 e+<+B B B B B B B B B B B B B B B B B ) ) S.S.S.S.S.S.S.S.S.S.S.S.X *.B B B B B <+X X S.S.S.S.S.e+h+h+h+h+h+h+h+H 3+3+h+h+h+h+H <.++| | <.<.H h+S.) ) ) ) ) ) ) ) ) ) ) ) ) ) ) ) ) ) ) S.S.!+o o o o o o !+!+!+!+!+!+o o o ) ) ) ) S.S.S.S.S.S.S.S.S.H H <.<.H 3 S.S.S.h+h+H <.<.<.<.H e+S.S.) ) ) ) ) ) ) ) ) ) ) ) ) ) S.S.S.S.S.S.S.S.S.S.S.S.S.S.S.S.S.S.S.S.S.S.S.S.S.S.S.S.S.S.S.S.S.S.S.) ) ) ) B B B B B B B B B B B B *.X e+e+3 3 c.<.<.<.<.<.H e+e+e+X X X ) <+B B B B B B B B B B B B B B B B B B p p p p p p p p p p p p p p p p B B ) ) X S.S.X <+B p p p p p p p p p p p p p p p p p p p p B B B <+S.S.S.S.X X *.*.t.t.t.t.*.*.*.B p p p ",
"B B B B *.*.*.*.) ) ) ) ) B B B B B B B B B B B B B B B B B B B B B B ) ) ) ) ) ) ) ) ) ) ) ) ) ) ) ) X X X X X X ) ) ) ) ) ) ) ) ) ) ) X e+e+e+3 H H H h+h+h+h+!+!+!+S.) ) ) ) ) ) ) ) ) ) ) ) ) ) ) ) ) ) ) ) ) B B B B B B B B B B B ) ) ) ) ) ) ) ) o o o o o o o o o ) ) ) ) ) ) ) S.S.S.S.) B B B ) ) ) S.S.S.S.S.S.S.S.S.S.S.S.S.) ) ) ) B B B B ) ) ) S.S.e+h+h+H <.<.<.<.<.c.c.c.c.c.e+e+t.t.<+<+B B B B B B B B B B B B B B B B B B ) S.S.!+!+!+h+h+3 S.S.S.S.) B B B B B B <+X S.e+e+S.S.S.S.h+h+h+h+h+h+h+h+3+++++3+h+h+h+<.<.| | | <.H h+!+S.) ) ) ) ) ) ) ) ) ) ) ) ) ) ) ) ) ) ) S.!+!+!+o o o o !+!+!+!+!+!+!+!+o ) ) ) ) ) ) S.S.S.S.S.S.S.S.S.3 3 3 3 S.S.S.S.S.S.S.e+e+e+e+S.S.) ) ) ) ) ) ) ) ) ) ) ) ) ) ) ) ) ) S.S.S.S.S.S.S.S.S.S.S.S.S.S.S.S.S.S.S.S.S.S.S.S.S.S.e+e+S.S.S.S.) ) B B B B B B B B p p p B B B *.X e+e+e+c.H <.<.<.<.<.H e+e+X X X X X X B B B B B B B B B B B B B B B B B B B B p p p p p p p p p p p p p p p B B ) ) S.S.S.S.<+B p p p p j.j.j.j.j.j.j.j.j.j.p p p p p B B B <+S.e+e+e+e+e+e+t.t.t.t.*.*.*.*.*.B p p p ",
"B B B B *.*.*.*.) ) ) ) B B B B B B B B B B B B B B B B B B B B B B B B ) ) ) ) ) ) ) ) ) ) ) ) ) ) ) ) X X X X ) ) ) ) ) ) ) ) ) ) ) X X e+e+e+h+H H H h+h+h+h+!+!+!+S.) ) ) ) ) ) ) ) ) ) ) ) ) ) ) ) ) ) ) ) ) B B B B B B B B B B ) ) ) ) ) ) ) ) ) o o o o o o o o ) ) ) ) ) ) ) S.S.S.S.S.) B B B ) ) ) ) S.S.S.S.S.S.S.S.S.S.S.S.) ) ) ) B B B B ) ) ) ) ) ) S.S.S.h+h+3 c.c.c.e+t.*.*.B B B B B B B B B B B B B B B B B B B B B B ) ) S.S.!+!+!+h+H H !+S.S.S.) ) B B B B B B <+X e+e+S.S.S.S.S.!+h+h+h+h+h+h+H ++++++3+h+h+h+H <.| | <.H h+!+S.) ) ) ) ) ) ) ) ) ) ) ) ) ) ) ) ) ) ) o !+!+!+!+o o o o !+!+!+!+!+!+!+!+S.) ) ) ) ) ) ) S.S.S.S.S.S.S.S.S.S.S.S.S.S.S.S.) ) ) ) ) ) ) ) ) ) ) ) ) ) ) ) ) ) ) ) ) ) ) ) ) ) S.S.S.S.S.S.S.S.3 3 3 3 3 3 e+S.S.S.S.S.S.S.S.S.S.S.S.e+e+S.S.S.S.) B B B B B B B B p p p p B B B X e+e+e+3 H <.<.<.<.<.H 3 e+X ) X X X X *.B B B B B B B B B B B B B B B B B B B B B p p p p p p p p p p p p p p B B ) ) ) S.S.S.<+B B p p j.j.j.j.j.j.j.j.j.j.j.p p p p p B B <+<+S.e+3 3 e+e+e+e+t.t.t.*.*.*.*.*.p p p p ",
"B B B *.*.*.*.X ) ) ) B B B B B B B B B B B B B B B B B B B B B B B B B B ) ) ) ) ) ) ) ) ) ) ) ) ) ) ) ) X X ) ) ) ) ) ) ) ) ) ) S.S.X X S.S.e+h+h+h+H h+h+!+!+!+!+S.S.) ) ) ) ) ) ) ) ) ) ) ) ) ) ) ) ) ) ) ) ) B B B B B B B B B ) ) ) ) ) ) ) ) ) ) ) o o o o o o ) ) ) ) ) ) ) ) S.S.S.S.S.) B B B B ) ) ) ) S.S.S.S.S.S.S.S.S.S.) ) ) ) B B B B B B ) ) ) ) ) ) ) ) X X e+e+t.t.*.B B B p B B B B B B B B B B B B B B B B B B ) <+S.S.S.S.!+!+!+h+H H !+!+S.S.S.) ) ) B B B ) ) S.S.S.S.S.S.S.S.S.!+h+h+h+h+h+H H H ++6 h+h+h+h+h+<.<.<.H H !+S.) ) ) ) ) ) ) ) ) ) ) ) ) ) ) ) ) ) ) o o o !+!+o o o o o !+!+!+!+!+!+!+!+!+S.) ) ) ) ) ) S.S.S.S.S.S.S.S.S.S.S.S.S.S.) ) ) ) ) ) ) ) ) ) ) ) ) ) ) ) ) ) ) ) ) S.) S.S.S.S.S.S.S.S.S.3 H H H H H H H H H H 3 3 e+S.S.S.S.S.S.S.S.S.X X S.S.S.) B B B B B B B B p p p p B B *.X e+e+3 c.H H <.<.<.<.H c.e+e+X X X X X *.*.B B B B B B B B ) ) B B B B B B B B B B B B p p p p p p p p p p p p p B B B ) ) S.S.S.<+B B p p p j.j.j.j.j.j.j.j.j.p p p p p p B B <+<+t.e+3 3 3 e+e+e+t.t.*.*.*.*.*.D.D.p p p ",
"B B B *.*.X X X ) B B B B B B B B B B B B B B B B B B B B B B B B B B B B B B ) ) ) ) ) ) ) ) ) ) ) ) ) ) ) B B B B B ) ) ) ) ) S.X S.X S.S.S.S.!+!+!+!+!+!+!+!+!+S.S.) X X X X X X X X S.S.S.S.S. . .) ) ) ) ) ) ) ) ) ) ) ) ) ) X X X X X X ) ) ) ) ) ) ) ) ) ) ) ) ) ) ) ) ) ) ) ) S.S.3 3 S.S.B B B B B B ) ) ) S.S.S.3 3 S.S.S.) ) ) ) B B B B B B B B B ) ) ) ) ) ) ) ) *.<+*.*.B B p p p p p p p p p p p p p p B B B B B ) ) S.S.S.S.S.h+h+h+h+h+h+!+!+!+S.S.) ) ) ) ) ) ) ) S.S.S.S.S.S.S.!+!+!+S.S.e+h+H H <.<.H H h+h+h+h+h+h+H H H H !+S.) ) ) ) ) ) ) ) ) ) ) ) ) ) ) ) ) ) ) o o o o o o o o o o o !+!+!+!+!+!+!+!+!+!+S.) ) ) ) ) S.S.S.S.S.S.S.S.S.S.S.S.) ) ) B B B B ) ) ) ) ) ) ) S.S.S.S.S.S.S.S.!+!+!+!+!+!+!+!+!+!+!+H H H H H H <.<.<.<.<.<.H H 3 e+S.S.S.S.S.S.) ) ) <+<+<+) B B B B p p p p p p p p p B B *.e+e+3 c.H H H H H H H 3 3 e+e+X *.*.*.*.B B B B B B B ) ) ) ) ) ) ) B B B B B B B B B B B p p p p p p p p p p p p B B B ) ) S.S.S.S.<+B p p p j.j.j.j.j.j.j.j.p p p p p p B B *.<+t.<+t.e+3 3 3 e+e+t.<+*.B B B B D.D.D.D.D.",
"B B B B X X X X ) B B B B B B B B B B B B B B B B B B B B B B B B B B B B B B B ) ) ) ) ) ) ) ) ) ) ) ) B B B B B B B ) ) ) ) S.X S.e+S.S.) ) S.!+!+!+!+!+!+!+!+S.) ) ) X X X X X X X X S.S.S.S. . . . .) ) ) ) ) ) ) ) ) ) ) ) X X X X X X X X ) ) ) ) ) ) ) ) ) ) ) ) ) ) ) ) ) ) ) S.!+h+3 S.S.B B B B B B ) ) ) S.S.!+h+h+!+S.S.) ) B B B B B B B B B B B ) ) ) ) ) ) ) B B B B B p p p p p p p p p p p p p p p p B B B B ) ) S.S.S.3 h+h+h+h+h+h+h+!+!+!+!+S.) ) ) ) ) ) ) ) S.S.S.S.S.S.S.!+!+!+!+S.S.e+3 H <.<.<.H h+h+h+h+h+h+h+h+h+!+!+S.) ) ) ) ) ) ) ) ) ) ) ) ) ) ) ) ) ) ) o o o o o o o o o o o o !+!+!+!+!+!+!+!+!+!+!+S.) ) ) ) S.S.S.S.h+h+h+h+S.S.S.S.) B B B B B B ) ) ) ) S.S.S.S.S.S.S.S.S.!+!+!+!+h+h+h+h+h+H H H H H H H H | | | | | | <.<.<.<.3 3 S.S.S.) ) ) ) ) B B B B B B B B p p p p p p p p p B B <+X e+3 c.<.<.<.H h+h+h+e+e+e+e+X *.*.*.*.B B B B B B B ) ) ) ) S.S.S.<+B B B B B B B B B B B B p p p p p p p p p p p p B B B ) X e+e+X <+B B p p j.j.j.j.j.j.j.p p p p p p p B *.*.t.t.t.<+t.e+3 c.c.e+t.<+B B B p p p D.D.D.D.",
"B B B ) X X X *.B B B B B B B B B B B B B B B B B B B B B B B B B B B B B B B B ) ) ) ) ) ) ) ) ) ) ) ) B B B B B B B ) ) ) ) S.S.e+e+S.S.) ) S.S.!+!+!+!+!+!+S.S.) ) ) X X X X X X X X S.S.S.S. . . . .) ) ) ) ) ) ) ) ) ) ) ) X X X X X X X X ) ) ) ) ) ) ) ) ) ) ) ) ) ) ) ) ) ) S.S.!+h+h+S.S.<+B B B B B ) ) ) S.S.h+h+h+h+S.S.) ) B B B B B B B B B B B ) ) ) ) ) ) ) B B B p p p p p p p p p p p p p p p p p p B B B ) ) S.S.S.3 h+H H h+h+h+h+!+!+!+!+S.) ) ) ) ) ) ) ) S.S.S.S.S.S.S.S.!+!+!+!+S.S.3 3 H <.<.H h+h+h+h+h+h+h+!+!+!+!+S.) ) ) ) ) ) ) ) ) ) ) ) ) ) ) ) ) ) ) ) o o o o o o o o o o o !+!+!+!+!+!+!+!+!+!+!+!+!+S.S.) S.S.S.S.S.h+h+h+h+h+S.S.S.) B B B B B B ) ) ) S.S.3 3 3 3 3 3 3 !+!+!+h+H H H H H <.<.<.H H H H H | | | | | | | <.<.<.H 3 e+S.S.S.) ) ) ) B B B B B B B B p p p p p p p p B B *.<+X e+e+3 H <.<.H H h+h+e+e+e+e+X t.*.*.*.B B B B B B B B ) ) ) ) S.S.S.<+<+B B B B B B B B B B B p p p p p p p p p p p B B B B ) X X X X <+B B B p p j.j.j.j.j.j.p p p p p p p D.*.t.t.t.t.<+t.e+3 c.e+e+t.*.B B p p p p D.D.D.D.",
") ) ) ) ) X X *.B B B B B B B B B B B B B B B B B B B B B B B B B B B B B B B B B ) ) ) ) ) ) ) ) ) ) B B B B B B B B ) ) ) ) S.S.S.S.S.) ) ) ) S.!+!+!+!+!+S.S.S.) ) ) X X X X X X X X S.S.S.S.S. . .o ) ) ) ) ) ) ) ) ) ) S.S.X X X e+e+e+X X ) ) ) ) ) ) ) ) ) ) ) ) ) ) ) ) ) ) S.!+h+h+h+e+S.<+B B B B ) ) ) S.S.S.h+h+e+e+S.X ) ) B B B B B B B B B B B ) ) ) S.S.S.S.<+B B B p p p p p p p p p p p p p p p p B B B ) X S.S.S.S.!+h+H h+h+h+!+!+!+!+!+S.) ) ) ) ) ) ) ) ) ) S.S.S.S.S.S.S.!+!+!+!+S.S.3 H H H H H h+h+h+h+!+!+!+!+!+!+S.) ) ) ) ) ) ) ) ) ) ) ) ) ) ) ) ) ) ) ) o o o o o o o o o o o !+!+!+!+!+!+!+!+!+!+!+!+!+!+!+S.S.S.S.S.S.S.h+h+h+h+h+3 e+S.S.) B B B ) ) ) S.S.S.H <.<.<.<.<.H H H H H H H <.++| | | | | | | <.<.H ++++++++<.<.<.<.H 3 e+e+S.S.) ) ) ) ) B B B B B B B B p p p p p p p B B *.t.t.e+e+e+e+h+H H H H H h+h+e+e+S.X *.*.*.*.*.B B B B B B B B B ) ) ) S.S.S.<+<+B B B B B B B B B B B p p p p p p p p p p p B B B B B *.X X X X *.B B p p j.j.j.j.j.j.p p p p p p B *.*.*.t.t.t.t.t.e+e+e+e+e+*.*.B B p p p D.D.D.D.D.",
"S.S.S.) ) ) B B B B B B B B B B B B B B B B B B B B B B B <+<+B B B B B B B B B B B B B B B B B B B B B B B B B B ) ) ) ) ) ) S.S.S.S.S.) ) ) ) S.S.S.S.S.S.S.S.S.S.S.S.) ) ) ) ) ) ) ) ) ) ) ) ) ) ) ) ) ) ) ) ) S.S.S.S.S.S.S.S.S.S.e+e+e+h+ .o o o ) ) ) ) ) ) ) ) ) ) ) ) ) ) S.!+!+h+h+h+e+S.<+<+B B ) ) ) S.S.h+h+e+e+e+e+X X X ) B B B B B B B B B B B ) X S.S.S.S.S.S.<+B B B p p p p p p p p p p p p p p B B B ) S.S.e+h+h+h+h+!+!+!+!+!+S.S.S.S.) ) ) ) ) ) ) ) ) ) ) ) ) S.S.S.!+!+!+S.S.S.S.!+H H H H H h+h+h+e+S.S.S.S.S.S.S.) ) ) ) ) ) ) ) ) ) ) ) ) ) ) ) ) ) ) ) o o o o o o o o o o o o !+!+!+!+L 3+3+3+3+3+3+3+3+3+h+h+!+S.S.S.S.S.S.!+h+H H H H 3 e+S.) ) ) ) ) S.S.S.S.H <.<.w+ + + +<.<.<.<.++| | |  + + + + + + +| | | ++H H H H H h+h+e+e+e+e+X S.<+) ) B B B B B B B B B p p p p p p p p B B <+e+e+e+3 e+h+h+h+h+h+H H H 3 3 e+S.X <+<+<+<+<+<+B B B B B B B B B B ) <+<+t.t.<+<+B B B B B B B B B B B p p p p p p p p p B B B B B B B B *.*.X X X <+*.B p p j.j.j.j.j.p p p p B B *.*.*.*.t.t.t.e+e+e+e+e+e+X *.*.*.*.D.D.D.D.p p p p ",
"S.S.S.) ) B B B B B B B B B B B B B B B B B B B B B B B <+<+<+<+B B B B B B B B B B B B B B B B B B B B B B B B ) ) ) ) ) ) ) ) S.S.S.S.) ) ) ) S.S.S.S.S.S.S.S.S.S.S.S.) ) ) ) ) ) ) ) ) ) ) ) ) ) ) ) ) ) ) ) S.S.S.S.S.S.S.S.S.S.S.S.e+h+h+!+ .o o o ) ) ) ) ) ) ) ) ) ) ) ) S.!+!+!+h+h+h+e+S.<+<+<+) ) ) ) S.h+h+h+e+e+X X X X X *.B B p p B B B B B B B ) S.e+h+e+e+e+S.<+<+B B B p p p p p p p p p p p p B B B ) S.e+h+h+h+h+h+h+!+!+!+!+S.) ) ) ) ) ) ) ) B B B ) ) ) ) ) ) ) S.S.!+!+!+S.S.S.S.h+H H H h+h+h+h+e+S.S.S.S.) ) ) ) ) ) ) ) ) ) ) ) ) ) ) ) ) ) ) ) ) ) ) o o o o o o o o o o o o !+!+!+!+L 3+3+3+3+3+3+3+3+3+3+h+h+h+h+S.S.) S.S.!+H H H H <.H 3 e+S.) ) ) S.S.S.3 H <.<. +U.d U. + + +| | | |  + + + +d d  + + + +| | H H H !+!+!+S.S.X X ) ) B B B B B B B B B B B B B B p p p p p p p B B B X e+3 H H h+h+h+h+h+h+h+h+3 3 3 S.S.<+B <+<+<+<+<+B B B B B B B B B B B <+<+t.t.<+*.B B B B B B B B B B B p p p p p p p p B B B B B B B B B B B <+X X X <+B p p p j.j.j.j.p p p p B *.*.*.*.*.*.t.t.e+e+e+e+X X X *.*.*.*.D.D.D.D.p p j.j.",
"S.S.S.) B B B B B B B B B B B B B B B B B B B B B B B B <+<+<+<+B B B B B B B B B B B B B B B B B B B B B B B B ) ) ) ) ) ) ) ) S.S.S.S.S.) ) S.S.S.S.S.S.S.S.S.S.S.S.S.) ) ) ) ) ) ) ) ) ) ) ) ) ) ) ) ) ) ) ) ) S.S.S.S.S.S.S.S.S.S.S.h+h+h+!+!+!+o !+!+S.S.S.S.) ) ) ) ) ) S.!+!+!+!+!+h+h+S.S.S.<+<+) ) ) S.S.h+h+e+e+X X X X X X *.B p p p B B B B B B ) X S.h+h+h+e+3 S.S.<+B B B p p p p p p p p B B B B B B ) X S.h+h+h+h+h+h+h+!+!+!+S.) ) ) ) ) ) ) ) ) B B B ) ) ) ) ) ) ) S.S.!+!+!+S.S.S.3 h+H H H h+h+h+h+S.S.S.S.) ) ) ) ) ) ) ) ) ) ) ) ) ) ) ) ) ) ) ) ) ) ) o o o o o o o o o o o o o !+!+!+!+L 3+3+3+3+3+3+3+3+3+3+3+h+h+h+!+S.) S.S.!+H H H <.<.<.H h+S.S.S.S.S.S.3 H H <. + +d d d  + + + + + + + + +d d d d  + + +| | | H H !+!+S.S.) ) ) B B B B B B B B B B B B B B B B B p p p p p B B B B <+e+3 H <.H h+h+h+h+!+!+!+!+3 3 e+S.<+B B B <+<+<+<+B B B B B B B B B B B B *.*.t.*.<+B B B B B B B B B B B B p p p p p p B B B B B B B B B B B B <+X e+e+<+<+B p p p j.j.j.p p p B *.*.*.*.*.*.*.*.X X X X X X X X *.*.*.*.D.D.D.D.D.p p p ",
"S.S.) B B B B B B B B B B B B B B B B B B B B B B B B B B <+<+B B B B B B B B B B B B B B B B B B B B B B B B B B ) ) ) ) ) ) ) ) S.S.S.S.S.S.S.S.S.S.S.S.S.S.S.S.S.S.S.) ) ) ) ) ) ) ) ) ) ) ) B B B B B B B B B <+<+S.S.S.S.S.S.S.S.S.!+!+h+!+!+!+!+!+!+h+h+!+!+S.S.S.S.S.S.S.!+!+!+!+!+!+S.S.S.S.S.S.S.S.S.S.S.S. .X X X X X X e+X <+B p p p p B B B B *.X X S.e+e+e+e+S.S.<+<+B B B B p p p p B B *.*.t.t.t.S.S.S.S.h+h+h+h+h+h+h+h+!+!+S.) ) ) ) ) ) ) ) ) ) ) ) B ) ) ) ) ) ) ) S.S.S.!+S.S.S.S.h+h+h+h+h+h+h+!+S.S.S.S.) ) ) ) ) ) ) ) ) ) ) ) ) ) ) ) ) ) ) ) S.S.) o o o o o o o o o o o o o !+!+!+!+!+!+L L 3+3+3+3+3+3+3+3+h+h+h+h+!+S.S.S.!+!+!+H H <.<.<.<.H h+e+S.S.S.3 H <.|  + + +d d d  + + + + + + + + +d  + + + + +| | ++H H H !+S.S.) ) ) B B B B B B B *.*.*.B B B B B B B B p p B B B B <+<+<+S.e+3 H H H h+h+h+!+!+!+S.S.S.S.S.<+<+B B B B <+<+B B B B B B B B B B B B B *.*.*.*.<+B B B B B B B B B B B B p p p p B B B B B B B B B B B B B B <+<+t.t.t.<+<+B B p p p p p p p B *.*.*.*.*.*.*.*.*.*.*.*.X X X *.*.*.*.*.*.D.D.D.D.p p p ",
") ) B B B B B B B B B B B B B B B B B B B <+<+<+) ) ) ) B B B B B B B B *.*.*.*.<+<+<+B B B B B B B B B B B B B B B ) ) ) ) ) ) ) ) S.S.S.S.S.S.S.) ) ) ) ) S.S.S.S.S.S.) ) ) ) ) B B B B B B B B B B B B B B B B B <+<+S.S.S.S.S.S.S.S.!+!+!+!+!+h+H H H H H H H h+!+!+!+!+!+!+S.S.S.S.S.S.S.S.S.S.S.S.S.S.S.S.S.S.S.X ) ) X X e+e+e+<+<+p p p p p B B <+X X S.S.S.S.S.S.S.<+<+B B B B B B B B B *.*.t.e+e+e+e+e+e+e+h+h+h+ . . . . . .!+S.) ) ) ) ) ) ) ) ) ) ) X X ) B B ) ) ) S.S.S.S.S.S.S.S.!+h+h+h+h+h+h+h+S.S.S.S.S.) ) ) ) ) ) ) ) ) ) ) o o o o o o o o !+!+!+!+!+!+o o o o o o !+!+!+!+!+!+!+!+!+!+!+!+!+!+!+!+!+!+!+!+!+!+h+h+h+h+!+!+!+!+!+!+!+H H <.| <.<.<.H h+e+S.S.3 H <. + + + + + + + + + + + +d d  + + + + +| ++++++H H H H !+S.S.S.) ) B B B B B B *.*.*.*.*.*.*.B B B B B B B B B B <+<+<+S.S.e+e+h+h+H h+h+!+!+!+!+e+S.S.S.S.<+<+B B B B B B B B B B B B B B B B B B B B B B *.<+<+<+<+B B B B B B B B B B B B B B <+<+B B B B B B B B B B B B <+<+<+<+t.t.<+<+B B p p p p p p B <+<+*.t.*.*.*.*.*.*.*.B B B *.*.*.t.t.*.*.*.*.*.D.<+<+<+",
"B B B B B p p B B B B B B B B B B B B B <+<+<+<+) ) ) ) B B B B B B B B ) X X X <+<+<+<+B B B B B B B B B B B B B B B B ) ) ) ) ) ) ) S.S.S.S.X <+B B ) ) ) ) S.S.e+e+S.S.) ) ) ) B B B B B B B B B B p p p p p p B B <+<+e+e+S.S.S.S.S.!+!+!+!+!+H H H H <.<.H H H h+!+!+!+!+!+S.S.S.S.S.) ) S.S.S.S.S.S.S.S.S.S.) ) ) ) ) S.S.e+e+e+<+<+B p p p p B B *.X e+e+S.S.S.S.S.<+B B B B B B B B B B *.*.*.e+e+c.H H H H h+h+h+h+ . . . . . .S.) ) ) ) ) ) ) ) ) ) ) X X X X B B B ) ) S.S.S.) ) ) S.!+h+h+h+h+h+h+h+S.S.S.S.S.) ) ) ) ) ) ) ) ) ) ) o o o o o o o o !+!+!+!+!+!+!+!+o o o o !+!+!+!+!+!+!+!+!+!+!+!+!+!+!+!+!+!+!+!+!+!+!+h+h+h+h+h+h+!+!+!+!+!+H H <.| | <.<.<.<.3 3 e+3 <.<. + + + + + + + + + + + +d d  + + +| ++H h+h+h+!+!+!+!+!+S.S.S.) B B B B B B B *.*.*.*.*.*.*.*.B B B B B B B B <+S.S.S.S.e+3 3 h+!+!+!+!+!+!+!+e+e+e+S.X <+B B B B B B B B B B B B B B B B B B B p p B B B B <+<+<+<+<+B B B B B B B B B B B B <+<+<+<+B B B B B B B B B B B B <+<+<+<+t.e+X <+B p p p p p p B <+<+<+t.*.*.*.*.B B B B B B B *.*.t.t.t.*.*.*.*.<+<+<+<+",
"B B B B B p p B B B B B B B B B B B B B <+<+<+<+) ) ) ) ) B B B B B B ) X X X X <+<+<+<+B B B B B B B B B B B B B B B B ) ) ) ) ) ) ) ) X X X X <+B B B ) ) ) S.e+e+e+e+S.S.) ) ) ) B B B B B B B B B p p p p p p p p B <+t.S.S.S.S.S.S.S.!+!+!+!+h+H H H H H H H H h+!+!+!+!+S.S.S.S.S.) ) ) ) S.S.S.S.S.S.S.S.) ) ) ) ) ) ) S.S.3 3 <+<+B p p p p p B <+X e+S.S.S.S.S.) B B B B B B B B B B *.*.t.e+e+c.H <.H H H h+h+h+ . . . . . .X ) ) ) ) ) ) ) ) ) ) ) ) X X X X B B B ) ) S.S.S.) ) ) S.S.h+h+h+h+h+h+!+S.S.S.S.) ) ) ) ) ) ) ) ) ) ) ) o o o o o o o o !+!+!+!+!+!+!+!+!+o o !+!+!+!+!+!+!+!+h+h+H H H H H H H H H H H H H H H H H <.H H H H H H H H H <.| | | <.<.<.H 3 e+3 <.<. + + + +| | | |  + + + + + + +| | <.H h+!+!+!+!+!+!+!+S.S.S.S.<+B B B B B B *.*.*.*.*.*.*.*.*.B B B B B B ) ) S.S.S.S.S.3 3 3 !+!+!+!+!+!+!+S.S.e+S.X *.B B B B B B B B B B B B B B B B B B B B p p p B B B B <+<+<+<+B B B B B B B B B B B <+<+<+<+<+B B B B B B B B B B B B <+<+<+<+S.e+e+<+<+B B p p p p B <+<+<+<+*.*.*.B B p p p B B B B *.*.t.*.*.*.*.*.<+<+<+<+",
"B B B B B B B B B B B B B B B B B B B B <+<+<+<+S.) ) ) ) ) ) B B B ) ) ) X X X <+<+<+<+B B B B B B B B B B B B B B B B B ) ) ) ) ) ) ) X X X <+B B B B ) ) X X e+e+e+e+S.S.S.S.S.S.<+<+<+<+<+<+*.*.B B B B p p p p p B B *.<+<+<+<+<+S.S.S.S.S.S.S.3 H H H H H H 3 S.S.S.S.S.S.S.S.) ) ) B ) ) S.S.S.S.S.S.S.S.) ) ) ) ) ) ) S.S.3 3 <+<+B p p p p p B *.<+<+S.S.S.S.S.) ) B B B B B B B *.*.X e+e+e+3 H H H H H h+h+!+!+ . . .X X X ) ) ) ) ) ) ) ) ) ) ) ) X X X X ) B B ) ) ) S.S.S.) ) S.S.e+h+h+h+h+h+!+S.S.S.S.) ) ) ) ) ) ) ) ) ) ) ) ) o o o o o o o o !+!+!+!+!+!+!+!+!+!+!+!+!+!+!+h+H H H H H H <.<.| | | <.<.<.H H H H <.<.| |  + +| | | <.<.H H H <.| | | | <.<.<.3 e+e+H <.<. +| <.<.<.<.<.<.<.<. + +| <.<.H H !+!+o o o !+!+!+3 3 3 e+e+X X *.<+<+*.*.*.*.*.*.*.*.*.*.*.B B ) ) ) ) ) S.S.S.S.S.3 3 3 3 !+!+!+!+!+!+S.S.S.S.X <+B B B B B B B B B B B B B B B B B B B B B B p p B B B B <+<+<+<+B B B B B B B B B <+<+<+<+<+<+B B B B B B B B B B B B B B <+<+<+<+S.e+t.<+*.B B B B B B <+<+<+<+*.*.B B p p p p p B B B *.*.*.*.*.*.*.*.<+<+<+<+",
"B B B B B B B B B B B B B ) ) ) ) ) ) *.*.*.t.<+S.S.S.S.S.S.) ) ) ) ) ) ) ) X S.<+<+<+<+B B B B B B B B B B B B B B B B B B B B B B B B ) ) B B B B B B ) X X e+e+e+3 3 3 h+3 S.S.S.S.S.S.X X X X <+<+<+*.*.*.D.p p p p p B B B B B B B ) ) ) ) S.S.S.S.S.S.S.S.S.S.S.S.) ) ) ) ) ) B B B B B B ) S.S.S.S.S.S.S.) ) ) ) ) ) ) S.S.3 3 <+<+B p p p p p p B B <+<+S.S.S.S.) ) ) B B B B B <+X e+e+e+3 c.H H H H h+!+!+!+!+o o ) ) ) ) ) ) ) B B B <+<+<+X X X X X X ) ) B ) ) ) ) ) ) ) S.S.S.S.S.e+e+e+e+e+S.S.S.S.S.) ) ) ) ) ) ) ) ) ) ) ) ) ) o o o o o !+!+!+o o !+!+!+!+!+!+!+!+!+h+h+H H H H H H <.<.| |  + + + + + +| | | | | |  + + +U.U.U. + + +<.<.<.<.<.<.| | | | <.<.h+S.S.e+H <.<.<.H H H H <.<.<.<.<.<.H H h+e+S.S.) ) ) S.S.3 3 3 3 3 3 e+e+e+X *.*.*.*.*.*.*.*.B B B B B <+) S.S.S.S.S.S.S.S.S.S.S.S.S.S.!+!+!+!+!+S.S.S.S.<+<+B B B B B B B B B B B B B B B B B B B B B B B B B p p B B <+<+<+<+B B B B B B B B *.X X <+<+<+B B B B p p p p p p p p B B B B <+<+<+<+<+t.t.<+<+*.*.*.*.*.B B B B B B p p p p p p p p p p B B B B B B B B B B B B ",
"B B B B B B B B B B B B ) ) ) ) ) ) ) ) *.*.*.*.S.S.S.S.S.S.S.) ) ) ) ) ) ) ) ) <+<+<+<+B B B B B B B B B B B B B B B B B B B B B B B B B B B B B B B ) X X X e+e+3 3 3 H H H 3 3 3 e+e+e+e+e+e+e+e+e+t.t.t.t.*.B p p p p p p p p p B B B B B B B B B <+) ) ) ) ) ) B B B B B B B B B B B B B B <+S.S.S.!+!+!+S.) ) B B ) ) ) S.S.3 3 <+<+B p p p p p p p p B <+<+S.S.S.) ) ) ) B B B B X e+e+e+c.c.H H H h+!+!+!+!+o o o ) ) ) ) ) B B B B B B <+<+<+<+X X X X *.B B B ) ) ) ) ) ) ) ) S.S.S.S.e+e+e+e+S.S.S.S.S.) ) ) ) ) ) ) ) ) ) ) ) ) ) ) o o o o !+!+!+!+o o o !+!+!+!+!+!+h+h+h+h+H H H H <.<.<.<.|  + +d d d d  + + + + + + + +d d d d d d d  + +<.<.<.<.<.<.<.| | | <.h+S.S.S.S.3 3 3 3 3 3 3 3 3 3 e+e+e+e+S.S.S.) ) ) ) ) S.S.3 3 3 3 c.c.e+e+e+e+t.t.t.t.*.*.B B B B B B <+) S.S.S.S.h+h+S.S.S.S.S.S.S.S.S.!+!+!+!+S.S.S.S.) B B B B B B B B B B B B B B B B B B B B B B B B B B B p p p B <+<+<+<+B B B B B B B *.X X X X <+B B B p p p p p p p p p p p B B B B <+<+<+<+<+t.e+X *.*.*.*.*.B B B B B p p p p p p p p p p p p p p B B B B B B p p p ",
"B B B B B B B B B B B B ) ) ) ) ) ) ) ) *.*.*.*.S.S.S.S.S.S.S.S.) ) ) ) ) ) ) ) <+<+<+<+B B B B B B B B B B B B B B B B B B B B B B B B B B B B B *.*.X X X e+e+e+3 3 3 H H H 3 3 3 e+e+e+e+e+e+e+e+e+e+t.t.t.<+<+p p p p p p p p p p p B B B B B B B B B B B B B B B B B B B B B B B B B p B B <+S.S.S.!+!+!+S.) ) B B ) ) ) S.S.3 3 <+<+B p p p p p p p p p B <+S.S.S.) ) ) B B B B B X e+e+3 3 H H H h+!+!+!+o o o o ) ) ) ) B B B B B B B <+<+<+<+<+X X X *.B B B B ) ) ) ) ) ) ) ) S.S.S.S.e+e+e+S.S.S.S.S.) ) ) ) ) ) ) ) ) ) ) ) ) ) ) ) o o o !+!+!+!+!+!+!+!+!+!+!+!+!+h+h+h+h+H H H H <.<.<.<.|  + + +d d d d  + + + + + + + +d d d &+&+d d U. +<.<.<.<.<.<.<.<.| <.<.h+S.S.S.S.S.S.S.e+e+e+e+e+e+e+X S.) ) ) ) B B ) ) ) S.S.S.3 3 3 3 c.c.e+e+e+e+e+t.t.t.<+<+B B B B B B <+S.S.S.S.!+h+h+!+S.S.S.S.S.S.S.S.!+!+!+!+S.S.S.<+B B B B B B B B B B B B B B B B B B B B B B B B B B B B p p p B <+<+<+<+B B B B B B B <+X X e+X <+B B B p p p p p p p p p p p p B B B B <+<+<+<+t.e+X X *.*.*.*.B B B B p p p p p p p p p p p p p p p p B B B B B p p p ",
"B B B B B B B B B B B B B ) ) ) ) ) ) B *.*.*.*.<+S.S.S.S.S.S.) ) ) ) ) ) ) ) ) <+<+<+B B B B B B B B B B B B B B B B B B B B B B B B B B B *.<+X e+e+e+e+e+e+e+3 3 3 3 3 !+S.S.S.S.S.S.S.X X X X X X e+e+t.t.t.<+<+p p p p j.p p p p p p B B B p p p p p B B B B B B B B B B B B B B B B B B B <+<+S.S.!+!+!+S.) ) ) ) ) ) ) S.S.3 3 <+<+B p p p p p p p p p B <+<+S.S.) ) ) B B B B B ) X e+e+e+h+h+h+h+!+!+!+o o o ) ) ) ) ) B B B B B B *.<+<+<+<+<+<+*.*.B B B B B B ) ) ) ) ) ) ) S.S.S.S.S.S.S.S.S.S.S.) ) ) ) ) ) ) ) ) ) ) ) ) ) ) ) ) ) o !+!+!+!+!+!+!+!+!+!+!+!+!+h+h+h+h+h+H H H H <.<.<.<.<. + + +U.U.U.U. + + + + + + + +U.U.U.d d U.U. +<.<.<.H h+H H <.<.<.<.H h+S.S.) ) ) ) ) S.X X X <+*.<+) ) ) B B B B B <+) S.S.S.e+e+3 3 3 3 e+e+e+e+X X X t.<+<+<+<+) B <+<+<+S.S.S.S.S.!+h+h+!+S.S.S.S.S.S.S.S.S.!+S.S.S.S.S.<+B B B B B B B B B B B B B B B *.*.B B B B B B B B B B B p p B B B <+<+B B B B B B B B *.t.t.t.t.*.B B p p p p p p p p p p p p p p B B B B <+<+<+<+X X *.*.*.*.B B B B B p p p p p p p p p p p p p p p p B B B B B B B B ",
"*.*.*.*.<+<+<+B B B B B B B B B B B B B B B B B B B ) ) ) ) ) ) ) ) ) ) ) ) ) ) ) B B B B B B B B B B B B B B B B B B B B p p p p p p B B *.t.t.e+e+3 3 c.c.3 3 3 3 S.S.S.S.S.S.S.S.<+<+<+<+<+<+<+*.<+t.e+e+e+t.<+<+<+p p p p p p D.D.p p p p p p p p p p p p p p p p p p p p p B D.D.D.*.*.*.*.B <+) S.S.!+!+S.S.) ) ) ) ) ) S.S.3 3 <+<+B p p p p p p p p p B <+<+<+<+) ) B B B B B B ) ) S.S.e+e+e+S.S.S.S.S.) ) ) ) ) ) ) ) B B B B B *.*.<+<+<+<+<+<+*.B B B B B B B B B ) ) ) ) ) S.S.e+S.S.S.S.) ) ) ) ) ) ) ) ) ) ) ) ) ) ) ) ) ) S.S.S.S.S.S.!+!+h+h+h+h+h+h+H H H H H h+h+h+h+h+h+H H <.<.<.<.<.<. + +U.U.U.U. + +<.<.<.<. + + + + +U.U. + +<.<.c.e+e+e+e+e+h+h+h+h+h+h+h+S.S.) ) B B B <+*.*.B B B B B B B B B <+<+<+S.S.e+e+e+e+t.t.t.t.t.t.t.<+<+<+X X S.S.S.S.S.S.X X X S.S.S.S.S.!+!+!+!+S.S.S.S.S.S.S.S.S.3 3 3 S.S.<+<+B B B B B *.*.B B B B B B *.*.*.*.*.*.*.B B B B B B p p B B B B B B B B B B B B B B B *.t.t.t.*.*.B p p p p p p p p p p p p p p p p p p p B B B <+<+*.B B B B B B B B B p p p p p p p p p p p p p p p p B *.*.*.<+<+<+<+",
"*.*.*.*.<+<+<+<+B B B B B B B B B B B B B B B B B B B ) ) ) ) ) ) ) ) ) ) ) ) ) B B B B p p p p B B B B B B B B B B B B B p p p p p p B *.t.t.e+3 c.c.c.c.c.c.3 e+S.S.S.S.S.) ) ) ) B B B B B B B B <+<+e+e+3 e+<+<+<+B p p p p D.D.D.D.p p p p p p p p p p p p p p p p p p p p D.D.D.D.*.*.*.*.B B ) ) S.h+h+!+S.) ) ) ) ) ) S.S.3 3 <+<+B p p p p p p p p p B <+<+<+<+B B B B B p B B B ) ) ) S.S.S.S.S.S.S.S.) ) ) ) ) ) ) ) B B B B *.X X X <+<+<+<+<+B B B B B B B B B B ) ) ) ) S.S.e+e+S.S.) ) ) ) ) ) ) ) ) ) ) ) ) ) ) ) ) ) ) S.S.S.S.S.S.S.S.!+h+h+h+h+h+H H H H H h+h+h+h+h+h+h+h+H <.<.<.<.<.<.<.w+w+w+w+w+w+<.<.<.<.<.<.<.<.<.<.<.<.<.<.<.c.e+e+X X S.S.S.S.S.S.h+h+h+h+S.X ) B B B B B B B B B B B B B B <+<+<+<+S.e+e+e+t.t.t.t.t.t.<+<+<+B B ) ) ) ) ) S.S.S.S.S.e+e+S.S.S.S.S.!+!+!+!+S.S.S.S.S.S.S.S.3 3 3 e+S.<+<+<+B p p B *.*.*.*.B B B B *.*.*.*.X X X *.B B B B B p p p B B B B B B B B B B B B B B B *.t.t.t.*.B p p p p p p p p p p p p p p p p p p p p p p B B B B B B p p B B B B p p p j.p p p p p p p p p p j.p p B *.*.*.<+<+<+<+",
"*.*.*.*.<+<+<+<+B B B B B B B B B B B B B B B B B B B B ) ) ) ) ) ) ) ) ) ) ) ) B B B B p p p p B B B B B B B B B B B B B p p p p p B *.*.t.t.e+c.c.<.c.c.c.3 3 e+S.S.S.) ) ) ) ) B B B B B B B B B B <+e+e+3 e+S.<+<+<+B B B D.D.D.D.D.p p p p p j.j.p p p p p p p p p p p p p D.D.D.D.*.*.*.*.B B B ) S.e+h+!+S.) ) ) ) ) ) S.S.e+e+t.<+<+B p p p p p p p p p B <+<+<+B B B B p p p B B ) ) ) ) ) ) ) S.S.S.S.) ) ) ) ) ) ) ) B B B *.X X X X <+<+<+<+B B B B B B B B B B B ) ) ) ) S.S.e+S.X ) ) ) ) ) ) ) ) ) ) ) ) ) ) ) ) ) ) ) ) S.S.S.S.S.S.S.S.!+h+h+h+h+h+H H H H h+h+h+h+h+h+h+h+h+h+H H <.<.<.<.<.<.<.w+w+<.<.<.<.<.<.<.<.<.<.<.<.<.<.<.<.3 e+X X X ) ) ) ) ) ) S.S.h+h+h+e+S.X ) B B B B B B p p B B B B <+<+<+<+<+t.e+e+t.t.t.t.t.<+<+<+<+<+B B ) ) ) ) S.S.S.S.S.S.e+e+S.S.S.S.S.!+!+!+!+S.S.S.S.S.S.S.3 3 3 3 e+<+<+<+B p p p B *.*.*.*.B B B B *.*.*.*.X X X *.B B B B p p p B B B B B B B B B B B B B B B B *.*.t.t.*.B p p p p p p p p p p p p p p p p p p p p p p p B B B B B p p p B B B p p j.j.j.p p p p p p p p j.j.p p D.*.*.*.<+<+<+<+",
"*.*.*.*.<+<+<+B B B B B B B B B B B B B B B B B B B B B ) ) ) ) ) ) ) ) ) ) ) ) B B B B p p p p B B B B B B B B B B B B B B p p p B *.*.t.t.e+3 3 3 3 3 3 e+e+e+S.S.S.S.) ) ) ) ) B B B B B B B B B *.t.e+e+e+e+S.<+<+<+B B B <+*.*.*.*.D.p p p p p p p p p p p p p p p p p p p p D.D.D.D.*.*.B B B B ) X e+e+h+S.S.) ) ) ) ) S.S.S.S.e+t.t.*.D.p p p p p p p p p B B B B B p p p p p B B ) ) ) ) ) ) ) ) ) ) ) ) ) ) ) ) ) ) ) ) ) *.*.X X X *.<+<+<+B B B B B B B B B B *.<+X X X X X X X X X ) ) ) ) ) ) ) ) ) ) ) ) ) ) ) ) ) ) ) ) S.S.S.S.S.S.S.S.S.S.!+S.S.S.S.S.S.S.S.S.S.S.S.S.S.S.e+e+e+e+3 3 3 3 3 c.c.c.c.c.c.H H h+h+h+h+3 3 3 3 3 3 e+e+e+X X X ) ) ) ) ) ) ) S.S.h+h+h+h+e+e+X <+B B B B B p p B B B B <+<+<+<+<+<+<+*.*.*.*.<+<+<+<+<+<+<+<+<+) ) ) ) S.S.S.S.S.S.S.S.S.S.S.S.!+!+!+!+!+S.S.S.S.e+e+e+3 3 3 e+t.<+<+<+B p p p B *.*.*.*.B B B B B *.*.*.*.*.*.*.B B B B B B B B B B B <+<+<+<+B B B B B B B B *.*.t.t.*.D.p p p p p p p p p p p p p p p p p p p p p p p B B B B B B p B B B p p p j.j.j.p p p p p p p p j.p p p p B *.*.<+<+<+<+",
"B B B B B B B B B B B B B B B B B <+<+B B B B B B B B B ) ) ) ) ) ) ) ) ) ) ) ) B B B B p p p p B B B B B B B B B B B B B B B B B *.*.t.t.e+c.3 e+e+e+e+e+e+e+S.S.S.) ) S.S.S.) ) ) ) B B B B B B *.*.t.e+e+e+e+S.S.) ) <+<+<+<+t.t.t.*.B p p p p p p p p p p p p p j.j.j.j.p p p p p p p p B p p p B B X X e+e+!+!+S.) ) ) ) ) S.S.S.e+e+t.t.t.D.p p p p p p p p p p p p p p p p p p B B X X ) ) ) ) ) ) ) ) B B B B B B B B ) X X X X *.*.B B B B B B B B B B B B B B <+X X X X X X X X X *.B B B ) ) ) ) ) ) ) ) ) ) ) ) ) ) ) ) ) ) S.S.S.S.S.S.S.) S.S.S.S.S.S.S.S.S.S.S.S.S.) ) ) ) ) X X X e+e+e+e+e+e+e+3 3 3 3 3 e+e+e+e+e+e+e+e+e+e+e+e+e+X X X *.B B B B B ) ) S.S.e+h+H <.H H 3 e+e+<+B B B B B B B B B <+<+<+<+t.<+<+<+<+*.B B B B B B B <+<+<+X S.S.S.S.S.S.!+!+!+!+!+!+!+!+!+!+!+!+!+!+!+S.S.S.e+3 3 3 3 e+e+t.t.<+B B p p p p B *.*.*.*.B B B B B B B *.*.B B B B B B B B B B B B <+<+<+<+X X *.B B B B B B B *.*.t.t.*.D.p p p p p p p p p j.j.j.j.p p p p p p p p p p B B B B B B B B B p p p p j.j.j.p D.D.p p p j.j.p p p p p p B B B B B B ",
"B B B B B B B B B B B B B B B B <+<+<+<+B B B B B B B B ) ) ) ) ) ) ) ) ) ) ) ) B B B B p p p p B B B B B B B B B B B B B B B B *.*.*.t.e+c.c.e+e+S.S.S.S.S.) ) ) ) ) ) S.S.S.S.) ) ) ) B B B B *.*.*.*.e+e+e+S.S.S.) S.S.S.S.S.e+e+X *.B p p p p p p p p p p p p j.j.j.j.j.j.p p p p p p p p p p p B B *.X X e+!+!+!+S.) ) ) ) ) ) S.e+e+e+e+t.*.B p p p p p p p p p p p p p p p p p B *.X X X ) ) ) ) B B B B B B B B B B B ) X X X X *.B B B B B B B B B B B B B B <+X X e+e+e+e+e+X *.B B B B B B ) ) ) ) ) ) ) ) ) ) ) ) ) ) ) ) ) S.S.S.S.S.) ) ) ) ) ) ) ) ) ) B B B B B B B B B B ) ) ) ) <+<+<+<+<+<+<+t.t.e+S.S.S.S.S.S.S.S.) ) <+*.*.*.*.B B B B B B B B B ) ) S.S.3 H <.<.<.<.<.c.e+e+<+B B B B B B <+<+<+t.t.t.t.t.<+B B B B B p B B B B <+X S.e+S.S.S.S.S.!+!+!+!+!+!+!+!+!+!+!+!+!+!+!+!+S.S.S.e+3 c.c.3 e+t.t.<+<+p p p p p p B *.*.*.*.B B B B B B B B B B B B B B B B B B B B <+<+<+<+S.e+X X <+B B B p p p B *.t.t.*.B p p p p p p p p j.j.j.j.j.j.p p p p p p p p p B B B B B B B B p p p p p j.j.p D.D.D.D.p p j.p p p p p p p p p p p p p ",
"B B B B B B B B B B B B B B B B <+<+<+<+B B B B B B B B ) ) ) ) ) ) ) ) ) ) ) ) B B B B p p p p B B B B B B B B B B B B B B B B *.*.t.t.e+c.e+e+e+X ) ) ) ) ) ) ) ) ) ) S.S.S.S.) ) ) ) B B B B *.*.*.*.X e+e+S.S.S.S.S.e+e+3 e+e+e+X *.B B p p p p p p p p p p p j.j.j.j.j.j.p p p p p p p p p p p B B *.X X e+h+!+!+!+S.) ) ) ) ) S.e+e+c.c.e+t.t.t.t.t.t.t.t.t.t.t.t.*.D.B B p B B *.*.X X X ) ) ) B B B B B B B B B B B B *.X X X X *.B B B B B B B B B B B B B B *.X X e+e+e+e+X X *.B B B B B B B ) ) ) ) ) ) ) ) ) ) ) ) ) ) ) ) S.S.S.S.) ) ) ) ) ) ) ) B B B B B B B B B B B B B B ) ) ) ) ) B B B <+<+<+<+<+<+S.) ) ) ) ) ) ) B B B B B B B B B B B B B B B ) S.S.S.3 H H <.<.<.<.<.c.e+X <+B B B <+<+e+3 3 3 c.c.e+t.t.<+B B B B B B B B B ) S.e+e+S.S.S.S.S.!+!+!+!+!+!+!+!+!+!+!+!+!+!+!+!+S.S.e+3 3 c.c.e+t.t.t.D.p p p p p p p B *.*.*.*.B B B B B B B B B B B B B B B B B B B B <+<+<+S.S.e+X X ) B B B p p p B <+t.t.<+B p p p p p p p j.j.j.j.j.j.j.j.p p p p p p p p p B B B B B B B p p p p p j.p p D.D.D.D.p p p p p p p p p p p p p p p p ",
"B B B B B B B B B B B B B B B B B <+<+<+<+<+B B B B ) ) ) ) ) ) ) ) ) ) ) ) ) ) B B B B p p p p p B B B B B B B B B B B B B B *.*.t.t.e+e+e+e+e+X ) ) ) ) ) ) ) ) ) ) ) ) ) ) ) ) ) ) ) B B B B B *.*.*.*.X X e+e+e+e+H H <.<.c.3 e+X *.B B p p p p p p p p p p p p j.j.j.j.j.p p p p p p p p p D.D.B *.*.*.X e+h+h+h+!+S.) ) ) ) ) ) S.e+3 c.c.c.c.c.c.c.c.c.c.c.c.c.c.t.t.t.<+*.*.*.*.*.X X X ) B B B B B B B B B B ) *.*.*.X X X X *.B B B B B B B B B B B B B B *.*.X X X X X X X <+B B B B B B B B ) ) ) ) ) ) ) ) ) ) ) ) ) ) ) ) ) ) ) ) ) ) ) ) ) ) ) B B B B B B B B B B B *.<+) ) ) S.S.S.S.S.<+<+<+<+<+<+<+<+) ) ) ) ) ) B B B B B B B B B B B B B B B B B ) S.S.S.e+3 H H <.<.<.<.<.c.e+e+S.) S.S.3 c.<.w+<.<.c.c.c.e+S.S.) B B B B B B ) S.S.S.S.S.S.S.S.S.!+!+!+!+!+!+!+!+!+!+!+!+!+!+!+!+h+3 3 3 3 3 e+t.t.t.D.D.p p p p p p B B B *.*.B B B B B B B B B B B B B B B B B B B B ) ) <+S.S.S.S.X X ) B B B p p p B <+<+<+<+B p p p p p p j.j.j.j.j.j.j.j.j.j.p p p p p p p p p p B B B B p p p p p p p p D.D.D.D.D.p p p p p p p p B B p p p p p p ",
"B B B B B B B B B B B B B B B B B B B <+<+<+<+<+<+S.) ) ) B ) ) ) ) ) ) ) <+<+<+B B B B p p p p p p p p p p p p p p p p p p B <+<+t.e+e+e+e+e+X X ) ) ) ) B B B B B B B B ) ) ) ) ) ) ) B B B B B B B B *.*.X e+e+3 H <.<.<.<.<.c.e+X X B B B p p p p p p p p p p p p p p p p p p j.p p p D.D.D.D.*.*.*.*.*.X e+e+h+h+h+S.) ) ) ) ) ) S.e+h+H <.<.<.<.w+w+~ ~ ~ ~ ~ w+c.c.c.t.t.t.t.*.*.*.*.*.*.B B B B B B B B B *.X X X X X X X <+B B B B B B B ) ) ) ) ) ) ) ) X X X *.*.*.*.*.<+*.B B B B B B B B B ) ) ) ) ) ) ) ) ) ) ) ) ) ) ) ) ) ) ) B B B B B B B B B B B B B B B B B *.*.<+X X S.S.S.S.S.S.S.S.X X S.S.S.S.<+) B B B B B B B B B p p B B B B B B ) ) ) ) ) ) S.S.S.S.S.e+h+<.<.w+w+<.<.c.e+e+S.S.3 <.w+w+U.~ ~ w+<.<.c.3 S.S.) ) B ) ) ) S.S.S.S.S.S.S.S.S.S.!+h+h+h+h+h+h+h+h+h+!+!+!+!+!+h+H H 3 3 3 e+t.t.D.D.p p p p p p B B <+B B B B p p p B B B B B B B B B B B B B B B ) ) ) ) ) ) S.S.) ) ) B B B B p p p B <+<+<+<+B p p p p p j.j.j.j.j.j.j.j.j.j.j.j.p p p p p p p p p p p p p p p p p p p D.D.D.D.<+<+<+B p p p B B B B B B B B p p p p ",
"B B B B B B B B B B B B B B B B B B B B <+<+<+<+S.S.S.) ) B B B ) ) ) ) <+<+<+<+B B B B p p p p p p p p p p p p p p p p p p B <+<+e+e+e+e+e+X X X ) ) ) ) B B B B B B B B B B ) ) ) ) ) B B B B B B B B B B *.e+e+H <.<.w+w+w+<.c.e+X X B B B B p p p p p p p p p p p p p p p p p j.j.p D.D.D.D.t.t.*.*.*.*.X e+3 H H h+e+S.) ) ) ) ) S.S.h+H <.<.w+~ ~ ~ ~ ~ ~.~.~ ~ w+c.c.c.e+e+e+X X *.*.*.*.B B B B B B B B *.X X X X e+X X <+<+B B B B B B ) ) ) ) ) ) ) ) X X X X *.B B B B B B B B B B B B B B B ) ) ) ) ) ) ) ) ) ) ) ) ) ) ) ) ) B B B B B B B B B B B B B B B B B B *.*.t.t.e+e+e+h+h+h+h+3 3 e+e+e+S.S.S.S.S.) B B B B B B B B p p B B B B ) ) ) ) ) ) ) ) S.S.S.S.S.S.S.e+<.<.w+w+w+<.<.<.H h+h+H <.U.U.L.L.U.U.w+<.<.H 3 S.S.) ) ) ) S.S.S.S.!+!+!+S.S.S.S.h+h+h+h+h+h+h+h+h+h+h+h+!+!+!+h+H H H 3 3 t.<+<+D.p p p p p p B B <+<+<+B p p p p p p B B B B B B B B B B B B B ) ) ) ) ) ) ) ) ) ) ) ) B B B B p p p B <+<+<+<+B p p p p j.j.j.j.j.j.j.j.j.j.j.j.j.j.p p p p p p p p p p p p p p p p p D.D.D.D.<+<+<+<+B B B B B B B B *.*.*.*.p p p p ",
"B B B B B B B B B B B B B B B B B B B B <+<+<+<+S.S.S.) B B B B ) ) ) ) <+<+<+<+B B B B p p p p p p p p p p p p p p p p p p B <+S.e+e+e+e+X X X ) ) ) ) B B B B B B B B B B B B ) ) ) ) B B B B B B B B B B <+X e+c.<.<.<.w+<.<.c.e+X *.B B B B p p p p p p p p p p p p p p p p p p p p D.D.D.D.t.t.*.*.*.B *.e+c.<.<.H e+S.) ) ) ) ) ) S.h+h+<.<.w+~ ~ ~ ~ ~ ~.~.~ ~ w+c.c.c.e+e+e+e+X *.*.*.*.B p p B B B B ) X X X X X X X X X <+<+B B B B ) ) ) ) ) ) ) ) ) X X X *.B B B B B B B B B B B B B B B ) ) ) ) ) ) ) ) ) ) ) ) ) ) ) ) ) B B B B B B B B B B B B B B B B B B B *.*.t.t.e+e+e+h+h+h+h+h+3 e+e+e+S.S.S.S.) ) B B B B B B B B B B B B <+X e+e+3 3 e+e+S.S.S.S.S.S.S.) ) e+h+<.w+w+U.w+w+<.<.H H H | U.L.L.L.U.U.w+<.<.H H S.S.S.) ) S.S.S.S.!+!+!+!+S.S.S.S.h+h+h+h+h+h+h+h+h+h+h+h+h+h+h+H H H c.3 e+<+<+D.p p j.p p p p B <+<+<+<+B p p p p p p p B B B B B B B B B B B B B ) ) ) ) ) ) ) ) ) ) ) B B B B p p p B <+<+<+<+B p p p p j.j.j.j.j.j.j.j.j.j.j.j.j.j.p p p p p p j.j.p p p p p p p p p D.D.D.D.<+<+<+<+B B B B B B B B *.*.*.*.B p p p ",
"B B B B B B B B B B B B B B B B B B B B B <+<+<+<+S.) ) B B B B B ) ) ) <+<+<+B B B B p p p p p p p p p p p p p p p p p B B <+<+S.S.S.S.S.X X ) ) ) ) ) B B B B B B B B B B B B ) ) ) ) B B B B B B B B B B B X e+e+c.c.<.<.<.c.c.e+X *.B B B B B p p p p p p p p p p p p p p p p p p p p D.D.D.D.*.*.*.*.*.*.e+c.<.<.<.H S.S.) ) ) ) ) ) S.e+3 <.<.<.w+w+~ ~ ~ ~ ~ w+c.c.c.e+e+e+e+X *.*.*.*.B B p B B B B <+<+X X X X X *.X X X e+e+X S.<+S.) ) ) ) ) ) ) ) ) ) X X *.B B B B B B B B B B B B B B ) ) ) ) ) ) ) ) ) ) ) ) ) ) ) ) ) ) ) B B B B B B <+<+<+<+*.*.*.*.) ) *.*.*.t.t.t.e+e+e+h+h+h+h+h+e+e+e+S.S.S.S.S.) ) B B B B B B B B B *.*.e+e+3 <.<.<.<.<.<.h+e+S.S.S.S.S.) ) S.e+<.<.w+U.U.U. + +<.H H <.w+U.U.U.U.w+<.<.<.H h+S.S.S.S.S.S.S.S.S.!+!+!+!+!+S.S.h+h+h+h+H h+h+h+h+h+h+h+h+h+H H H H 3 3 e+t.<+B p p j.j.p p p B <+<+<+<+<+B p p p p p p p p B B B B B B B B B B B B B B B ) ) ) ) ) ) ) B B B B B p p p p B <+<+B p p p p p p j.j.p p j.j.j.j.j.j.j.j.p p p p p p p j.j.p p p p p p p p p p D.D.D.D.<+<+<+<+B B B B B B B *.*.*.*.B B p p ",
"p p B B B B B B B B B B B B B B B B B B B B B B B B B B B B B B B B B B B B B B B p p p p p p p p p p p p p p p p p p B B <+<+S.S.S.S.S.X ) ) ) ) ) ) ) B B B B B B B B B B B B ) ) ) ) B B B B B B B B B B B <+X e+e+e+3 c.c.e+e+t.t.*.*.B B B B B B p p p p p p p p p p p p p p p p p p p p p D.D.B B B *.t.c.<.w+w+<.H e+S.) ) ) ) ) ) ) X e+e+c.c.c.c.c.c.c.c.c.c.c.e+t.t.X X t.*.*.*.B B B p B B B B ) S.S.S.<+<+<+<+*.<+t.e+e+e+e+e+e+S.S.S.) ) ) ) ) ) ) ) ) B B B B B B B ) ) ) ) ) ) ) ) ) ) ) ) ) ) ) ) ) B B B B ) ) ) ) ) ) <+<+<+<+<+<+<+<+<+X X X X X X X X X X *.t.t.<+S.S.S.S.S.e+e+e+e+e+S.S.S.S.S.) ) B B B B B B B B B *.X e+3 <.<. +U.U.U.U.<.<.H 3 S.S.S.S.) ) ) S.e+H <. +U.&+d U. +<.H <.<.w+w+w+<.<.<.<.H 3 3 S.S.S.S.S.S.S.S.S.!+!+!+!+!+h+h+h+h+H H H H H H h+h+h+h+h+H H H H 3 3 e+t.<+<+p p p j.j.p p B <+<+<+<+<+<+B p p p p p p p p p B B B B B B B B B B B B B B B B B B B B B B B B B B p p p p B B B B p p p p p p p p p D.D.p j.j.j.j.j.p p p p p p p p p p p p p p p p p j.j.j.p p p p p B B <+<+<+B B B B B <+<+<+<+B B B B ",
"p p p B B B B B B B B B B B B B B B B B B B B B B B B B B B B B B B B B B B B B B p p p p p p p p p p p p p p p p p p B *.X X S.S.) ) ) ) ) ) ) ) ) ) ) B B B B B B B B B B B B ) ) ) ) B B B B B B B B B B B B B <+*.*.X X X t.t.t.t.*.*.B B B B B B B p p p p p p p p p p p p p B B p p p p p p p p B *.*.t.c.<.w+w+<.<.e+S.) ) ) ) ) ) ) ) *.*.X t.t.t.t.t.t.t.t.t.t.*.*.*.*.*.*.*.*.B p p p B B B B ) S.S.S.<+<+<+<+B B <+t.e+c.c.c.3 3 e+S.S.) ) ) ) ) ) ) B B B B B B B B ) ) ) ) ) ) ) ) ) ) ) ) ) ) ) ) B B B B B B B ) ) ) ) ) <+<+<+<+<+<+<+<+t.e+e+e+e+e+e+X X X X X <+<+<+<+S.) ) X X X e+e+e+S.S.S.S.) ) ) B B B B B B B B *.X e+e+<.<. +d &+&+&+d U.<.<.3 3 S.S.S.) ) ) ) S.e+<.w+U.&+&+d  +<.H H H <.<.c.c.c.3 e+e+S.S.S.S.S.S.S.S.S.S.S.!+!+!+!+h+h+h+h+h+H H H H H H h+h+h+h+h+H <.<.3 3 e+<+<+<+p p p j.j.p p p <+<+<+<+<+<+<+B p p p p p p p p p p B B B B B B B B B B B B B B B B B B B B B B B B B p p p p B B B B p p p p p p p p D.D.D.D.j.j.j.j.p p p p p p p p p p p p p p p p p j.j.j.j.j.j.p p p p B <+<+<+<+B B B B <+<+<+<+B B B B ",
"p p p p B B B B B B B B B B B B B B B B B B B B B B B B B B B B B B B B B B B B p p p p p p p p p p p p p p p p p p B B *.X X X ) ) ) ) ) ) ) ) ) ) ) ) ) B B B B B B B B B B B ) ) ) ) B B B B B B B B B B B B B B B B B B B *.*.*.t.*.<+*.B B B B B B B p p p p p p p p p p p B B B B p p p p p p p B *.*.t.c.<.w+w+<.c.e+S.) ) ) ) ) B B B B B B B B B B B B B B B B B B B *.*.*.*.*.p p p p B B B ) S.S.S.S.<+<+<+B p p B t.3 c.<.<.3 3 e+S.S.) ) ) ) ) ) ) B B B B B B B ) ) ) ) ) ) ) ) ) ) ) ) ) ) ) ) ) B B B B B B B B ) ) ) ) <+<+<+<+<+<+<+<+t.e+e+e+e+e+e+X X X X X <+<+<+<+) ) ) ) X X X X e+S.S.S.) ) ) ) B B B B B B B B X X e+h+<.<. +d &+&+&+d U.<.<.H 3 S.S.S.) ) ) ) ) S.3 w+U.&+&+&+ +<.H H 3 3 3 3 e+e+e+e+S.S.S.S.S.S.S.S.S.S.S.S.!+!+!+!+h+h+h+h+H H H H H H H H h+h+h+h+H H c.3 e+<+<+B p p p p j.j.p p D.<+<+<+<+<+<+<+B p p p p p p p p p p p B B B B B B B B B p p B B B B B B B B B B B B B p p p B B B B B p p p p p p p p D.D.D.D.p j.j.p p p p p p p p p p p p p p p p p p j.j.j.j.j.j.j.p p p p B <+<+<+B B B B <+<+<+<+B B B B ",
"p p p p p B B B B B B B B B B B B B B B B B B B B B B B B B B B B B B B B B B B B B B B p p p p p p p p p p p p B B B *.*.X X X ) ) ) ) ) ) ) ) ) ) ) ) ) ) B B B B B B B B B B B ) ) B B B B B B B B B B B B B B B B B B B B B B *.*.*.t.t.t.<+<+B B B B B p p p p p p p p p B B B B p p p p p p p B *.*.*.t.c.c.<.<.c.3 S.S.) ) ) ) B B B B B B B B B B B B p p p B B B B *.*.*.*.B p p p p B B B ) S.S.S.S.S.<+<+B B p p <+t.c.<.<.<.3 3 S.S.S.S.) ) ) ) ) B B B B B B B ) ) ) ) ) ) ) ) ) ) ) ) ) ) ) ) ) B B B B B B B B B B ) ) ) <+<+<+<+<+<+<+<+<+X X X X X X X X X X S.S.S.S.S.) ) ) ) X X X X e+S.S.S.) ) ) B B B B B B B B ) X X e+h+H <.<. +U.d d U. +<.<.H 3 S.S.S.) ) ) B B ) e+<.U.&+&+d U.<.H 3 3 e+e+e+e+X X S.S.S.S.S.S.S.S.S.S.S.S.!+!+!+!+h+h+h+H H H H H H H H H H h+h+h+e+3 e+e+t.<+<+B p p p p p j.p p p <+<+<+<+<+<+<+B p p p p p p p p p p p p B B B B B B B B B B B B B B B B B B B B B B B B B B B B B B B B p p p p p p p p p D.D.p p p p p p p p p p B B B B B B B B B p p p j.j.j.j.j.j.j.j.p p p p B <+<+*.B B B <+<+B B B p p p ",
"p p p p p p p B B B B B B B B B B B B B B B B B B p p p p p p p p p p p p p p B B B *.B B B B p p p p p p B B B B *.*.*.*.*.*.) B B B B B B ) ) ) ) ) ) ) ) ) B B B B B B B B B B B B B B B B B B <+<+B B B B B B B B B B B B B B B *.t.t.t.e+t.t.<+<+B B B B B B B B B B B B B B p p p p p p p B B *.*.*.t.t.e+c.c.c.3 e+S.) ) B B B B B B B B B p p p p p p p B B B <+<+<+*.*.*.B p p p p p B B <+S.S.S.S.S.S.<+<+B B p p <+t.c.<.<.<.3 e+S.S.S.S.S.) ) ) B B B B B B B ) ) ) ) ) ) ) ) ) ) ) ) ) B B B B B B B B B B B B B B B B B B B B B B B B B <+<+<+<+<+<+*.X X S.S.S.S.S.S.S.S.) ) ) X X X e+e+X X X X ) ) B B B B B B B B B ) X e+h+h+h+h+<.<.<.w+w+w+<.<.H H 3 S.S.S.) ) B B B ) e+<.U.U.d U. +<.<.3 e+e+t.*.*.*.<+) S.S.S.S.S.S.S.S.S.h+h+h+h+h+H H H H H H H !+H H H H H H h+e+e+e+e+t.t.<+<+p p p p p j.j.p p p p <+t.t.<+<+<+B B p p p p p p p p p p p p B B B B B B B B B B B B B <+<+<+<+<+<+B B B B B B B B B B B B B p p p p p p p p p p p p p p p p p p p p B <+<+<+<+<+*.*.*.*.*.p p j.j.j.j.j.j.j.j.j.p p p p B B *.*.*.*.B B B p p p p p ",
"p p p p p p p B B B B B B B B B B B B B B B B B B p p p p p p p p p p p p p p B *.*.*.*.B B B B p p p p B B B B *.*.*.*.*.B B B B B B B B B B B ) ) ) ) ) ) ) ) B B B B B B B B B B B B B B B B <+<+<+<+B p p B B B B B B B B B p p B *.t.e+e+e+t.<+<+<+B B B B B B B B B B B B p p p p p p p p B *.*.*.*.t.t.t.t.t.t.t.<+<+B B B B B B B B B B B p p p p p p B B <+<+<+t.t.*.*.B p p p p p p B <+S.S.S.S.S.S.S.<+B B B p p <+t.c.<.<.c.3 S.<+) S.S.S.) ) B B B B B B B ) ) ) ) ) ) ) ) ) ) ) ) B B B B B B B B B B B B B B B B B B B B B B B B B B B B B B B B B B B ) S.S.S.S.S.S.S.S.) ) ) X X e+e+e+X X X X ) B B B B B B B B B B ) X e+h+h+e+S.e+3 c.<.<.<.H H H H 3 S.S.S.) B B B B B X c.<.U.U.U.w+<.<.c.e+t.*.*.*.B B ) S.S.S.S.S.S.S.S.h+h+h+h+H H H H H H H H h+!+!+h+H H H H 3 e+e+X <+*.B p p p p j.j.j.j.j.p p p D.<+t.t.<+<+B B B p p p p p p p p p p p p B B B B B B B B B B B B <+<+<+<+<+<+<+<+B B B B B B B B B B B B p p p p p p p p p p p p p p p p p p p p B <+<+<+<+t.X *.*.*.*.D.p j.j.j.j.j.j.j.j.j.j.p p p p B *.*.*.*.B p p p p p j.j.",
"p p p p p p p B B B B B B B B B B B B B B B B B B p p p p p p p p p p p p p p B *.*.*.*.B B B B B p p p B B B B *.*.*.*.B B B B B B B B B B B B ) ) ) ) ) ) ) ) B B B B B B B B B B B B B B B B <+<+<+<+B p p B B B B B B B B B p p B *.t.t.e+e+e+t.<+<+<+B B B B B B B B B B B B p p p p p p B *.*.*.*.*.t.t.t.<+<+<+<+B B B B B B B B <+<+<+<+B B p p p p B B <+<+<+t.t.t.t.*.B p p p p p B B <+S.S.S.S.S.S.S.<+<+B B B B t.3 c.<.<.c.3 <+B ) ) S.S.) B B B B B B B B ) ) ) ) ) ) ) ) ) ) ) ) B B B B B B B B B B B B B B B B B B B B B B B B B B B B B B B B B B B ) S.S.S.S.S.S.S.S.) ) ) ) X X e+e+X X X X *.B B B B B B B B B B ) S.e+h+e+S.S.S.S.e+e+e+e+3 H 3 3 S.S.S.<+B B B B B B X c.<.w+w+w+<.<.c.e+e+*.*.*.B B B ) S.S.S.S.S.S.S.S.h+h+h+h+H H H H H H H H H h+h+h+H H H 3 e+e+X <+B p p p j.j.j.j.j.j.j.p p p p D.*.*.*.*.B B B B p p p p p p p p p p p p B B B B B B B B B B B <+<+<+<+<+<+<+<+<+<+B B B B B B B B B B B p p p p p p p p p p p p p p p p p p p B B <+<+<+t.e+X X *.*.*.D.p j.j.j.j.j.j.j.j.j.j.j.p p p p B *.*.B p p p p j.j.j.j.",
"p p p p p p p B B B B B B B B B B B B B B B B B B B p p p p p p p p p p B B B *.*.*.*.*.*.B B B B B p B B B B B B *.*.B B B B B B B B B B B B B B ) ) ) ) ) ) B B B B B B B B B B B B B B B B B B <+<+B B B B B B B B B B B B B p p p D.t.t.t.e+3 e+e+e+X *.B B B B B B B B B B B B p p p p B B B *.*.*.*.*.<+<+<+<+B B B B B B B B B <+t.e+e+t.t.<+D.D.D.D.<+<+<+<+t.t.t.t.t.*.B B p p p p B B B <+S.S.e+e+e+e+e+t.t.*.*.t.t.3 c.c.c.3 e+<+B B ) S.S.<+B B B B B B B B B ) ) ) ) ) ) ) ) ) ) B B B B B B B B B B B B B B B B B B B B B B B B B B B B B B B B B B ) ) ) S.S.S.S.S.S.S.) ) ) ) ) X X X X X X X *.<+<+B B B B B B B B B X S.e+e+e+S.S.) ) <+X X S.S.S.S.S.S.<+<+B B B B B B B *.e+c.<.<.<.c.c.e+e+*.*.*.B B B B <+S.S.S.S.S.S.S.3 h+h+h+H H H H H H H H H H H H H H 3 3 e+e+t.<+B p p p j.j.j.j.j.j.j.j.p p p D.*.*.*.*.*.B B B B p p p p p p p p p p p p B B B B B B B B B B <+<+<+<+<+<+<+<+<+<+<+<+B B B B ) B B B B B p p p p p p p p p p p p p p p p p p B B B <+<+<+<+X X *.*.*.*.p p j.j.j.j.j.j.j.j.j.j.j.j.p p p p D.D.p p p p j.j.j.j.j.",
"p p p p p B B B B B B B B B B B B B B B B B B B B *.B B p p p p p B B B *.*.*.*.*.*.B *.<+<+<+B B B B B B p B B B B B B B B B B B B B B B B B B B B B B B B B B B B B B B B B B B B B B B B B B B B B B B B B B B <+<+B B B B B p p p p D.<+t.e+e+3 3 e+e+X X B B B B B B B B B B B B B B B B B B B B B B B B B B B B B B p p B B B <+t.3 c.c.3 t.t.*.*.*.*.*.t.t.e+e+e+e+X X *.B B B B B B B B B <+<+S.e+e+3 3 e+e+e+t.t.t.e+c.c.c.c.e+t.B B B ) X X *.B B B B B B B B B B B B B B B B B B B B B B B B B B B B B B B B B B B B B B B B B B B B B ) ) ) ) ) ) ) ) ) S.S.) ) ) ) ) ) ) ) ) ) ) ) ) ) <+<+<+<+<+<+<+<+<+B B B B B B B B S.S.e+3 e+S.S.<+<+<+B ) ) S.S.S.<+<+B B B B B B B B B B t.e+c.c.c.e+e+X *.*.B B B B B B <+S.S.3 3 3 3 3 3 H H H H H H H H H H H H H H H H 3 3 e+t.<+*.B p p p j.j.j.j.j.j.j.j.j.p D.D.*.*.*.*.B B B B p p B B B B B B B B B B B B p p B B B <+<+<+<+<+<+<+<+<+<+<+<+<+<+<+<+<+<+<+<+S.S.<+<+<+<+B p p p p p p p p B B B B p p p p p B B B B B B <+<+<+*.*.B B p p p j.j.j.j.j.j.j.j.j.j.j.j.j.p p p p p p p p j.j.j.j.* * ",
"p p p p B B B B B B B B B B B B B p p B B B B B *.*.*.B p p p p B B B B *.*.*.*.*.B B B <+<+<+<+B B B B p p p p B B B B B B B B B B B B B B B B B B B B B B B B B B B B B B B B B B B B B B B B B B B B B B B B <+<+<+<+B B B B p p p p p B *.t.e+c.c.3 e+X X *.B B B B B B B B <+<+<+<+B B B B B B B B B p p B B B B B B p p B B B <+3 c.c.c.c.c.t.t.t.t.t.t.t.t.e+e+e+X X X *.B B B B B B B B B B <+t.e+c.c.c.c.c.c.c.c.c.c.c.3 3 e+e+<+B B ) X X X *.B B p p B B B B B B B B B B B B B B B B B B B B B B B B B B B B B B B B B B B B B B B B ) ) ) ) ) ) ) ) S.S.S.S.) ) ) ) ) ) ) ) ) ) ) ) ) B B <+<+<+<+<+<+<+<+<+B B B B B B B <+S.e+3 e+S.<+<+<+B B B B B B B B B B B B B B B B B B B <+t.t.t.t.t.<+*.B B p p p B B B <+S.e+3 3 3 3 3 3 H H H H H H H H H H H H H <.<.c.3 e+t.t.<+B p p p j.j.j.j.j.j.j.j.j.p p D.*.*.*.*.B B B B p p p B B B B B B B B B B B B p p p B B <+<+<+<+<+<+<+<+<+<+<+<+<+<+<+<+<+<+<+S.S.S.S.<+<+<+<+B p p p p p p p B *.*.B p p p p B B B B B B B B B B B B B p p p p j.j.j.* * * j.j.j.j.j.j.j.j.j.j.j.j.j.j.j.j.j.j.* * * ",
"p p p p B B B B B B B B B B B B B p p B B B B B *.*.*.*.B p p p B B B B *.*.*.*.B B B B <+<+<+<+B B B B p p p p p B B B B B B B B B B B B B B B B B B B B B B B B B B B B B B B B B B B B B B B B B B B B B B <+<+<+<+<+<+B B B B p p p p p B t.e+c.c.c.e+e+X X *.*.B B B B B <+<+<+<+<+B B B B B B B B B p p B B B B B B p p B <+<+e+3 c.<.<.c.c.t.t.t.t.t.t.t.t.t.X X X X X X *.B B B B B B B B B *.t.e+c.c.c.c.c.c.c.c.c.c.c.e+e+e+S.<+<+<+X X X X *.B p p p B B B B B B B B B B B B B B B B B B B B B B B B B B B B B B B B B B B B B B B B ) ) ) ) ) ) ) ) S.S.S.S.) ) ) ) ) ) ) ) ) ) ) ) ) B B <+<+<+<+<+<+<+<+<+B B B B B B B <+S.S.e+S.<+<+<+<+B B B B B B B B B p p B B B B B B B B B <+<+<+<+<+B B B B p p p B B B <+S.e+3 3 3 3 3 H H H H H H H H H H H H H H <.c.3 e+t.t.*.p p p p j.j.j.j.j.j.j.j.j.p p D.D.t.t.*.*.B B B p p p p B B B B B B B B B B B B p p p B B <+<+<+<+<+<+<+<+<+<+<+<+<+<+<+<+<+<+<+<+S.S.<+<+<+<+<+B p p p p p p p B *.*.B p p p p B B B B B B B B B B B B p p p p j.j.j.j.* * * j.j.j.j.j.j.j.j.j.j.j.j.j.j.j.j.j.j.* * * ",
"p p p p B B B B B B B B B B B B B B B B B B B B B *.*.B B B B B B B B B *.*.*.*.B B B B B B B B B B B p p p p p p p p p B B B B B B B B B B B B B B B B B B B B B B B B B B B B B B B B B B B B B B B B B B <+<+<+<+<+<+<+<+B B B B p p p p B <+e+3 c.3 e+e+X X X t.t.*.*.*.<+<+<+<+<+<+<+) B B B B B B B p p B B B B B B B <+<+t.e+3 c.<.<.<.c.3 t.t.D.D.D.*.*.*.<+*.*.*.X X X X *.<+<+<+B B B B B *.X e+c.c.<.w+w+w+<.c.c.c.c.e+e+e+S.<+<+S.X X X X *.B p p p p B B B B B B B B B B B B B B B B B B B B B B B B B B B B B B B B B B B B B B ) ) ) ) ) ) ) ) ) ) S.S.) ) ) ) ) ) ) ) ) ) ) ) ) ) ) ) <+<+<+<+<+<+<+<+B B B B B B B B <+<+S.S.<+<+<+<+B B B B B B B B B B p p B B B B B B B B B B B B B B B B B B B p p B B B B <+S.e+3 3 H <.H H H H H H H H H H H H H H 3 e+e+t.*.*.D.p p p j.j.j.j.j.j.j.j.j.p p p D.*.t.t.<+B B B p p p p p B B B B B B B B B B B B p p p p B <+<+<+<+<+<+<+<+<+<+<+<+<+<+<+<+<+<+<+<+<+<+<+<+<+<+<+B p p p p p p p B B B B p p p p p B B B B B B B B B B B p p p p j.j.j.j.j.j.j.j.j.j.j.j.j.j.j.j.j.j.j.j.j.j.j.j.j.* * * ",
"p p p p B B B B B <+<+<+) ) B B B B B B B B B B B B B B B B B B B B B B B B B B B B B B B B B B B B p p p p p p p p p p p p p B B B B B B B B B B B B B B B B B B B B B B B B B B B B B B B B B B B B B B <+<+<+<+S.S.<+<+<+<+B B B B p p p p *.t.e+e+e+e+e+e+e+e+e+e+e+e+X X e+e+e+S.S.) ) ) B B B B B B B B B B B B B B <+<+t.3 c.c.<.<.c.c.c.t.t.D.D.D.D.D.D.D.B B B B B *.X X X X <+<+<+<+B B B *.X e+c.<.w+~ ~ ~ ~ <.c.c.c.e+t.t.S.S.S.S.S.S.S.S.<+B p p p p p p p p p p p p p p p p p p p p p p p p p p B B B B B B B B B B B B B B ) ) ) ) ) ) ) ) ) ) ) ) ) ) ) ) ) ) ) ) S.S.S.S.S.S.S.S.S.S.) ) ) ) <+<+B B B B B B B B B B B <+<+<+<+<+<+B B B B B B B B B B B B B B B B B B B B B B B B B B B B B B B B B B p p B B B <+S.3 H <.<.<.H H H H H | | <.H H H H e+e+e+t.*.*.p p p p j.j.j.j.j.j.j.j.j.p p D.D.*.t.<+<+<+B B p p p p p p B <+<+B B B B B B B B B p p p p B B B B B B B B B B B D.D.D.D.D.D.B B B B B B <+*.*.*.*.B B B p p p p p p p p p p p p p p p p p p p B B B *.*.B B p p p j.j.j.j.j.j.j.j.j.j.j.j.j.j.j.j.j.j.j.j.j.j.j.j.j.j.j.j.",
"p p p p B B B B <+<+<+<+) ) ) ) B B B B B B B B B B B B B B B B B B B B B p p B B B B B B B B B B p p p p p p p p p p p p p p B B B B B B B B B B B B B B B B B B B B B B B B B B B B B B B B B p p p B <+<+<+<+S.S.S.S.<+<+<+<+B B B B p p p B t.t.t.e+e+e+e+e+e+c.e+e+e+e+e+e+e+e+e+S.) ) ) ) B B B B B B B B B B B B <+<+t.3 c.<.<.<.c.c.c.e+t.*.p p p p p p p p p p B B B *.X X e+t.<+<+<+<+B B *.e+e+<.<.w+~ ~ ~ ~ w+c.c.e+t.t.<+<+S.e+e+e+S.S.S.<+B p p p p p p p p p p p p p p p p p p p p p p p p p p B B B B B B B B B B B B B ) ) ) ) ) ) ) ) ) ) ) ) ) ) ) ) ) ) ) ) S.S.S.S.S.e+e+S.S.S.S.S.) ) ) ) B B B B B B B B B B B B B B B B B B B B B B B B B B B B B B B B B B B B B B B B B B B B B B B B B B B B p p p B B <+S.3 <.<.| | <.H H H | | | | H H H 3 S.S.<+B B p p p p j.j.j.j.j.j.j.j.j.p p D.*.*.*.t.<+<+<+B p p p p p p B <+<+<+<+B B B B B B B B p p p p B B B B B B B B B p p D.D.D.D.D.D.p p p p p B B *.*.*.*.B B B B p p p p p p p p p p p p p p p p p p p B *.*.*.*.B p p p j.j.j.j.j.j.j.j.j.j.j.j.j.j.j.j.j.j.j.j.j.j.j.j.j.j.j.j.",
"p p p p B B B B <+<+<+<+) ) ) ) B B B B B B B B B B B B B B B B B B B B B p p B B B B B B B B B B p p p p p p p p p p p p p p B B B B B B B B B B B B B B B B B B B B B B B B B B B B B B B B B p p p B <+<+<+S.S.S.S.S.S.<+<+<+B B B B p p p B *.t.t.e+e+e+e+e+e+c.c.e+e+e+e+e+e+e+e+X S.) ) ) ) B B B B B B B B B B <+<+<+t.3 c.<.<.c.c.c.e+t.*.p p p j.j.j.j.j.j.p p p B B B X X e+e+<+<+<+<+B B <+X e+<.<.w+~ ~ ~ ~ <.c.c.t.t.<+<+<+S.e+e+e+S.S.S.<+B p p p p p p p p p p p p p p p p p p p p p p p p p p B B B B B B B B B B B B ) ) ) ) ) ) ) ) ) ) ) ) ) ) ) ) ) S.S.S.S.S.S.S.e+e+e+e+e+S.S.S.S.) ) ) ) ) B B B B B B B B B B B B B B B B B B B B B B B B B B B B B B B B B B B B B B B B B B B B B B B B B B B p p p B B <+e+H <. + + +| <.<.<.<.| | <.H H 3 S.S.B B B p p p p j.j.j.j.j.j.j.j.j.j.p p *.*.*.t.<+<+<+B B p p p p p p B <+<+<+<+B B B B B B B B p p p p B B B B B B B B p p p p D.D.D.D.p p p p p p p B *.*.*.*.*.*.B B B B B p p p p p p p p p p p p p p p p p *.*.*.*.B p p p j.j.j.j.j.j.j.j.j.j.j.j.j.j.j.j.j.j.j.j.j.j.j.j.j.j.j.j.",
"p p p p B B B B B <+<+<+) ) ) ) ) ) B B B B B B B B B B B B B B B B B B B B B B B *.*.<+*.t.*.*.*.B p p p p p p p p p p p p p B B B B B B B B B B B B B B B B B B B B B B B B B B B B B B B B B p p p <+<+t.t.e+S.S.S.S.S.S.<+<+<+B B B B B B B *.t.t.e+e+e+e+e+e+e+e+e+e+X X X X <+X X X S.X X ) ) ) ) ) <+<+*.*.<+<+<+<+t.3 3 c.c.c.c.c.t.t.*.D.p p j.j.j.j.j.j.j.j.p p p B B <+<+X S.t.<+<+<+B B <+X e+c.<.<.w+~ w+w+c.c.t.t.<+<+<+<+<+S.S.S.S.S.S.<+B p p p p p p p p p p p p p p p p p p p p p p p B B B <+<+<+<+<+<+<+<+<+<+<+) ) ) ) ) ) ) ) S.S.S.S.S.S.S.S.S.S.S.e+e+e+3 3 3 3 e+e+e+e+S.S.S.S.) ) ) ) ) B B B B B B B B B B B B B B B B B B B B B B B B B B B B B B B B B B B B B B B B B B B B B B B B B B B p p B B B S.e+<.|  + + + +<.<.<.<.<.<.H H 3 S.S.<+B B p p p p j.j.j.j.j.j.j.j.j.p p p B *.t.t.t.<+<+<+B B p p p p p p B <+<+<+<+B B B B B B B B p p p p B B B B B B B B p p p p p D.D.p p p p p p p p p B *.*.*.X X e+t.<+<+<+<+B B B B p p p p p p p p p p p p D.D.*.D.p p p p j.j.j.j.j.j.j.j.j.j.j.j.j.j.j.j.j.j.j.j.p p p p p j.j.j.",
"p p p p B B B B B B B B B B B ) ) ) S.<+<+<+<+B B B B B B B B B B B B B B <+<+<+<+<+t.t.t.t.t.t.*.*.*.B p p p p p p p p B B B B B *.*.B B B B B B B B B B B B B B B B B B B B B B B B B B B B B p p p <+t.t.e+e+S.S.S.S.S.S.S.<+<+B B B B B B *.<+t.e+e+e+c.c.e+e+t.t.*.<+<+*.*.*.*.<+<+X X S.S.S.S.X X X X X X X X X S.e+e+3 3 3 3 3 3 t.t.*.D.p p j.j.j.j.* j.j.j.j.j.p p p B B *.<+X S.S.t.<+<+B B X e+e+c.c.<.<.c.c.c.t.t.<+B B B B <+<+<+S.X X X *.B p p p p p j.j.j.j.j.j.j.j.p p p p p p p B B B B *.<+<+t.t.S.S.S.S.S.S.S.S.S.S.S.S.S.S.S.S.S.S.S.!+!+!+!+!+h+h+h+h+H H H H H H h+h+h+e+S.S.S.S.) ) ) ) ) ) ) B B B B B B B B B B ) ) B B B B B B B B B B B B B B ) ) ) ) ) ) B B B B B B B B B B B B B B B p p B B B B S.S.H <. +U.d d U. +w+<.<.<.H H 3 3 S.S.<+B B p p p j.j.j.j.j.j.j.j.j.p p p B <+t.t.t.t.<+B B B B B B p p p p B <+<+<+<+B B B B B B B B p p p p B B B B B B B p p p p p p p p p p p p p p p p p B B *.X e+e+e+e+e+e+<+<+<+<+*.B B B B p p p p p p p p p D.D.D.D.p p p p j.j.j.j.j.j.j.j.j.j.j.j.j.j.j.j.j.p p p p D.D.p p p p p ",
"p p p p B B B B B B B B B B B ) ) S.S.S.<+<+<+<+B B B B B B B B B B B B <+<+<+<+t.t.t.t.e+c.e+e+t.*.*.B p p p p p B B B B B B B *.*.*.*.B B B B B B B B B B B B B B B B B B B B B B B B B B B B p p B *.t.e+3 e+e+S.) S.S.e+e+X <+B B B B B B *.X e+e+e+c.c.c.e+t.*.*.B B B B B B B B *.<+e+e+e+e+h+h+e+e+e+e+e+e+e+e+e+e+3 3 3 3 t.t.<+<+B p p p j.j.j.j.* * * j.j.j.j.j.j.p p B B B <+X e+e+X <+B B *.e+e+e+c.c.c.c.e+t.*.B p p p p B B B B X X X X *.B p p p j.j.j.j.j.j.j.j.j.j.j.p p p p p B B B B *.t.t.t.e+e+3 3 3 3 e+S.S.S.S.S.S.S.S.S.S.S.S.S.!+H H H H H H H H <.<.<.<.<.<.H h+h+h+h+S.S.S.S.) ) ) ) ) ) ) ) B B B B B B B B ) ) ) ) B B B B B B B B B B B B ) ) ) ) ) ) ) ) B B B B B B B B B B B B B p p p B B B ) S.3 <.|  +d d d U.U.U.w+<.H 3 3 3 S.<+<+B B B p p p j.j.j.j.j.j.j.j.j.p p B B <+t.e+e+t.<+B p p B B B B p p p B <+<+<+<+B B B B B B B B p p p p B B B B B B B p p p j.p p p p p p p p p p p p p B B *.e+e+c.c.3 3 3 e+t.t.t.t.*.B B B B p p p p p j.j.p D.D.D.D.p p p p j.j.j.j.j.j.j.j.j.j.j.j.j.j.j.j.p p p p D.D.D.D.p p p p ",
"p p p p B B B B B B B B B B B ) S.S.S.S.<+<+<+<+B B B B B B B B B B B B <+<+<+<+t.t.t.t.c.c.c.e+t.*.*.*.p p p p B B B B B B B B *.*.*.*.B B B B B B B B B B B B B B B B B B B B B B B B B B B B p p B t.t.c.c.e+e+S.) X X e+e+X <+B B B B B B *.X e+e+3 c.c.c.e+t.<+B B B B B B p p B B <+e+e+e+h+h+h+h+e+e+e+e+e+e+e+e+3 3 3 3 t.<+<+<+B p p p p j.j.j.* * * * j.j.j.j.j.j.p p p B B *.X e+e+X <+B B <+X e+e+e+e+e+e+t.*.B p p p p p p B B B *.X X X *.B p p p j.j.j.j.j.j.j.j.j.j.j.j.p p p p B B B *.*.t.t.t.e+3 3 3 3 3 3 3 S.S.S.S.S.S.S.S.S.S.S.S.H H H H H H H H <.<.<.<.<.<.<.<.H h+h+h+S.S.S.S.) ) ) ) ) ) ) ) B B B B B B B B ) ) ) ) B B B B B B B B B B B B ) ) ) ) ) ) ) ) B B B B B B B B B B B B p p p p B B B S.S.H <. +U.d &+&+d U.U.w+<.c.3 3 S.<+<+<+B B B p p j.j.j.j.j.j.j.j.j.j.p p B B <+S.3 3 <+<+B p p B B B B p p p B <+<+<+<+B B B B B B B B p p p p B B B B B B B p p p j.j.p p p p p p p p p p p p B B *.e+3 <.<.<.3 3 3 e+t.t.t.*.*.B B B p p p p j.j.j.p D.D.D.D.p p p p j.j.j.j.j.j.j.j.j.j.j.j.j.j.j.j.p p p p D.D.D.D.p p p p ",
"p p p p B B B B B B B B B B B ) S.S.S.S.<+<+<+<+B B B B B B B B B B B B <+<+<+<+t.t.t.t.c.c.c.c.t.t.*.*.B p p p B B B B B B B B *.*.*.*.B B B B B B B B B B B B B B B B B B B B B B B B B B B B p p B t.t.c.c.e+e+X ) X S.e+e+X *.B B B B B B *.X e+e+3 c.c.c.e+t.B B B B B B B p p p B <+e+e+e+h+h+h+h+e+e+e+e+e+e+e+3 3 3 3 3 <+<+<+B p p p p j.j.j.j.* * * * j.j.j.j.j.j.j.p p B B <+X e+e+X <+B B *.X e+e+e+e+e+X <+B p p p p p p p B B B B X X X *.B p p p j.j.j.j.j.j.j.j.j.j.j.j.p p p p B B B *.*.t.t.t.3 3 3 3 3 3 3 3 S.S.S.S.S.S.S.S.S.S.S.S.H H H H H H H H <.<.<.<.<.<.<.<.H h+h+h+S.S.S.S.) ) ) ) ) ) ) ) B B B B B B B B ) ) ) ) B B B B B B B B B B B B ) ) ) ) ) ) ) ) B B B B B B B B B B B B p p p p B B B S.S.H <. +U.&+&+&+d U.U.w+<.c.3 e+<+<+<+<+B B B p p j.j.j.j.j.j.j.j.j.j.p p B B <+S.3 3 <+<+B p p B B B B p p p B <+<+<+<+B B B B B B B B p p p p B B B B B B B p p j.j.j.p p p p p p p p p p p p B B *.e+3 <.<.<.H 3 3 3 t.t.t.*.*.B B B p p p p j.j.j.p D.D.D.D.p p p p j.j.j.j.j.j.j.j.j.j.j.j.j.j.j.j.p p p p D.D.D.D.p p p p "};
