/* XPM */
static char * wall_xpm[] = {
"512 512 87 1",
" 	c #282828",
".	c #2B2B2B",
"+	c #313131",
"@	c #3A3A3A",
"#	c #434343",
"$	c #494949",
"%	c #4B4B4B",
"&	c #4A4A4A",
"*	c #474747",
"=	c #404040",
"-	c #3E3E3E",
";	c #3C3C3C",
">	c #393939",
",	c #373737",
"'	c #353535",
")	c #343434",
"!	c #323232",
"~	c #303030",
"{	c #363636",
"]	c #383838",
"^	c #2E2E2E",
"/	c #2D2D2D",
"(	c #272727",
"_	c #232323",
":	c #202020",
"<	c #262626",
"[	c #252525",
"}	c #212121",
"|	c #1D1D1D",
"1	c #1C1C1C",
"2	c #1E1E1E",
"3	c #222222",
"4	c #2C2C2C",
"5	c #3B3B3B",
"6	c #2F2F2F",
"7	c #292929",
"8	c #242424",
"9	c #1B1B1B",
"0	c #191919",
"a	c #171717",
"b	c #181818",
"c	c #2A2A2A",
"d	c #1F1F1F",
"e	c #161616",
"f	c #151515",
"g	c #1A1A1A",
"h	c #141414",
"i	c #131313",
"j	c #333333",
"k	c #101010",
"l	c #0F0F0F",
"m	c #111111",
"n	c #121212",
"o	c #3D3D3D",
"p	c #444444",
"q	c #4C4C4C",
"r	c #4D4D4D",
"s	c #484848",
"t	c #464646",
"u	c #3F3F3F",
"v	c #424242",
"w	c #414141",
"x	c #454545",
"y	c #4E4E4E",
"z	c #4F4F4F",
"A	c #505050",
"B	c #515151",
"C	c #525252",
"D	c #535353",
"E	c #545454",
"F	c #0E0E0E",
"G	c #555555",
"H	c #565656",
"I	c #575757",
"J	c #585858",
"K	c #595959",
"L	c #5A5A5A",
"M	c #5B5B5B",
"N	c #5C5C5C",
"O	c #5E5E5E",
"P	c #5D5D5D",
"Q	c #0D0D0D",
"R	c #0C0C0C",
"S	c #0B0B0B",
"T	c #5F5F5F",
"U	c #606060",
"V	c #616161",
" .+@#$%&*#=-;>,')!+~~~!){]>>>],{)!+~^/.(_::_<  [}|123(4!,55])~//^6^47<[[[[83:|90ab9:[7c [3d|90bbbbbb000bbaaeffffeb0g9119gbaaeeefhhiihhhiihe0|3<.~j)j+6^/4. 82bikllllkmniheb92d:d2190bbabb0baab1376{op$qrrqq%&stp=o@,'!~^.7<3|0eeeabbaab0g99gbaeea9:(^j'{{)+4<:gfinnf01d38[<[__8(c/6+!jjjj){>o-o]!4/!@uv##w=-;>]{')',]>,+c8[/{;;,~(:199gbaeeeeea09d_7^++4[291d3_3:d:_<c^j,@55@>@;-=wu-;;ouwv#ppxxppppxxpp#w=uo5]'+^c<3d9bfinmniihfeeab000bbbbbbbb000gg999gg912d:}3___8888888_33_<7..7<_}2|d[^{ou=-o;;oo-=w#t$%q&xu]j6/.7(<8_3}}::",
" c~>v*&$tv=o5>,')!+~~~!j{,]>]],{)!+~6/. 8}:3[((8:||d_(/!,55])~^/^6^47<[[[[83:|9bab9:[7c [3d|90bbbbbb000bbaaeffffea0g91190baaeeefhhiihhhiiheg23(4~)')!~^//. 82bikllllkmniheb9|d:d|190bbbbb00bbg28c+,-ps%qqq%&$st#=o@]'j+^47<320aeabbbaab0g990beeea9:(^!'''j~4<dgfnnieg|:_[<<[8_8(c/6+!!jjjj'>;-o]+44!>uvvvwuo5>,{')'{]>,+c8<^{;;]~(:199g0baeeeab01d8c6!+/(}2d38[83}3[ 4~']5;;5@@;u=w=-oo-uw##pxxxxpppxxpp#w=uo5>{!64 [}2gahnnnihhfeeabb00bbbbbbbb000gg99ggg912d:}33__888888__33_<7..7<_}d2:<6,ou=-o;;;o-uw#xs%q&tu>j~/.7([8_}}:::",
"<7^,uptx#=-;@>,')!+~~~+j',]]],,{)j!+~647[}:3[<<_:|2}[c^)]55])~^^^6^. <8888_3d1gbab9:[7c [3d|9gbbbbb0000bbaeffhhfeab0g99g0baeeeffhhhhhhhiihegd_ /!'{')!~6^4782bikllllkmnihfbg|2d2|9g0bbbbb0g91d876)@ups&&&&$$s*x#w-;@]'j+^. 8d9baabbaaaa0ggg0affeb9:(/+j)j+^7820fnnia1:_[(  ([_8(c/6~+!!!+!),@;5{~..+]o=w=u-;@>,'))){]>,!c[(6,oo]~(:199g00bbaaa0g|:[c~jj~.<8[(77 <[<c^!{>;-u-o;;-=ww=-oo-=v#pxttxxxxxxxp##v=u-;@]'!~/c(8d9ahiihhffeeabbbbbbbbbbbbbb00ggggggg1|2::}33__8888__3}3_<7..7(83::3 ~]o=u-;5@@5;-=vps&%&t=@'+^47([_}::ddd",
"8<.!>-==-;5@>>,{)!+~~~+!){,,,,,{')j!!~^c<3}}_883d|d_ /+'>5@])+6^66/. [____3:21gbab9:[ 7 [3:|9g0bbbb0000baeefhhhhfeabb00bbaeeefffhhhhhhinnie9:<.~),]]{'j+6/c[dbiklllkmniihfa01|2|19g0bbbbb0923<.~{@-wpt*s**tttxp#vwuo5>{)+/c[}|gbbbbaaeab000afhhfb9:<4~++647[:9ahmmhgd8(7.4.7<88<74^6~++~66+),>]j/ 7^'@o-o;5@>,{')j){]>,!4(7+>-->+(:1999gggg0bbg923<4+)'j~///6~~^.c4+{5-=vvvw=uu=wvvwu--=vpxt****txxxxpp#vvw=u-;5>]{)!64(}9affffffeeaabbbaaaaaaaabbbb000000091|2d::}3_88__33}}}_<7..c [8__[c!>-=uo@>]]]>5o=#t$%&*vo])~/7<8}:22|||",
":3<4!{]>],,,]],{)!+~~~~+j)'{{{{{{'')j!~4 _}:}3}d2|:<4+']@5@]'!~666/c(83}}}}d|90aaa9:[ 7 [3:21g0bb00000bbaefhiiiihffeeaaaeeefffffhhhhhiinmia13 /!{>55>,{)+^c[d0imkkkmmniihfebg1119g000bbbbg|_ ^j];=vpppppp##vvvv###vwuo@,)~4 8:1g00baeeeaabaehnifb1:<c/^/c<_d1bfnkme1_ 4^66^4 <[< .4^666^//^+)')~c<<.!,>@>]],,{')j!j{]>]j/ .j5==5! :191911119gg9|:_ /!{,,{'''{,{)+~!]-#t***tx#vwv#p#v=uuw#x*sssss*ttxxp##vvww==u--o;5>,j^(:gaaaeeeeeeaaaaaeeeeeeaaaabbbbbaab091|22d:}3___3}::::3[7..c <[[< /)5u=u;>,')'{]@-wxs&&spu5,!/7<3d|19999",
"|d}<c/~++!j){{{'j!~66^6~+!j))'''{{{'')+/78}:ddd|1|3 6)]@55@]'!~66^47<3::::d|1gbaeagd8( ([3:21g00000000baefhinnnnihhhffffffffffhhfhhhhiimmia28c6)]5;;5>,'!6c[d0hmkkmmnihhhhfa0gggg00b000b09:(^)>-vpxxp#vw=uuuuu=w#pp#v=-5])~4 8:2190baeeeaaehnmnfb1:[7.. 8:1gaehmknb:(/~!!!+^c([< c.4/^/4.c./~!+/ 8876j'{'))))))j!!j']@])^c/'ovv;j7}|11||2dd2||2:3<c6),@5555;;;5]'),o#s%qq%&stxpppxpvw==vp*s$$&$$s*txxp##vvvwwww====u-;>j482g0baeeffeeeeeeeeffeeeeeeaaaaeeeabg911||2:}__3}:ddd:3[ ...7 ((7.~{;=wu5,)!++!']5u#*$&sxw->)6c<}29g0000",
"1|2}8< 7.4^~j))j!~^/444/^6~+!j))''{{')!^78}d22|19|3c+,@555>,)!~6^/. [}d222|1g0beeagd8( ([3:21900000000baefhinmmnniihhhfffeefffhhhhhhiinmmibd<.~)]@55@>,)+/782bhmmmnnihhhhhfeab00bbbb00gg928.j>-vx**t#wu-o;5555;uw#ppp#wu;]'+/c<_}21g0baeeefimkmh0|:8(7 [}1bfhhimmh9_.+)'')!6. <<(7c.444c7 746~64(__(/+!!+~~++!!+++j']@>)646,upp-'c32|22d:}33}}3_[ .~'>5o-uu==uo@,']-x%yzyyq&stxxpp#v===vx*$&&&&$s**txp###vvvwwww=====u;{6 }|90aefffffeeffffffffffeeeeeffffeabgg991|d:}3}d2222d}[ c..7  7c/+,;=w-@{j~6^~!{@-vts$stvu5{+4<3|gbaaaa",
"||22d}3_8<746++~^4c7((( 7.4^6~+!j)''')!^78:2||19g|3.j]5;;5>,)+6^/4c(_:||||190baeeag2_<(([_:219g0000000baehinmmmmniihhffeeeeefffhhiiiiinmmi0:(/+){]]],{)+^c<}1ainniihhfffhhhfeaaaaeabbg9123 ~,-vx***xv=o;5>],{{,@-w#pxxp#=-5])+/c<_:|90baefhnklmf0|:_[<<_20ehinnnia2(6']],'j~47((( 77ccc7  74^~64 [8 46~~^///^^66~+j{]@>'~^+>wtt=,4_d2d:}_8[<<<(( c/+'>;-=vvvw=o@{),ox&yzAzyq$*xp##v=uu=vxs$&&&&$$s*txp####vvww=-o;;o--;]!.[}|0affhhhffffffffffffffffffhhhffeab0ggg9|2d:d2|1||d}8(c..c77c.^!,;==-@'!6//^+'>owp***xvu;,j^ _|0aeeee",
"222|||||2:_<c4/4c([_3}}38< 7./^~+!j))j+/ _d||11g013.j>;oo5>{j6/4.c [3219999g0aaefe023<(<[_}d|9g00gg000baehinmkkmniihfeaaaaaaeefhinnnnnnnnhg} /~j))))j+6/7[3|0finihffeeefhhhhhfffffeabg|d3</);wx***tpw-;@>,'j+6+)>o=#xt*tx#w-5])~4 [}d1g0aehnklmf0|:388_}|0ehnniie93.)>55>{j~/c (((       7c/6+~^c(< .^^/4c77c.4/6+j{]@>'+6j5#ssv>^[}:}38<(7c..44.46!{@o=v#p#v=o>)!'5vsqyAAzr&*x#vw=-oouvxs$&&$$$ss*txpp####vwu-5>,,>5;5]j^78dgehhiihhhffhhhhhhhhffhhhhhhhhfeaabb00g91||11991|2}8(7ccccc.4^!,;uuo>'+^44/~)];=#xxxpvu;>'+.820effff",
"dd2|9g000g|}[( ([3:21g912}_[(7./^~+!!+64(32|111g093.j@o-o5>{!^.cc7(8:|9ggg00baeffe0|3[<<8_}d|9gggggg00baehinmkkmnihfeabbbbbaaefhinnnnniiie93 /6~~~66^4. [}29afiihfeeeeefhhiiiiiihhfa0923[c~]upt**tpvu;@],'!^.7c^)>owptss*tx#=o@{!/c(8}d|90ehmkmf01d:}3}d10ehinhe0d<6,;-o@{j~/c7 ((<<[[<<(7.^~++6. (7.44.7(<[<(7.^~j{]>]'!~)ox&&p5~ 8__8< c4/6666^^~j,5-wpxxpvu;,!~!,ux$rzAAy%sx#wu-;5;-wxs$&$$ssss*txxpppp#v=-;])++),>>,)6.<:geiiiiihhhhhhhhhhhhhhhhiiiihhffeaabbb0gggggg0g912:_< 777cc.46!,;uu;])~/.c46)]5-w###vwuo5]j^(dgaffff",
"dd21gbeefe0|:_83:210baab9|d38< c4/^6~6^c[:|1111g093.j>;oo5>'+/c7 ([3d100000baeeffe0|}8<[8_}d|19gggggg0baehinmkkmnihfeabbbbbaaefhinnniihhfa13(.//4.cc7 (83d1gbefeeaaaaeefhiinnnnnnifag|:87^j@=pt*xpv=o5]{)+^c<_876)>owxt*s*tx#=-@,j~/c <_}29bhnnfb9|2dd21gbehiif0|_c!@u=-@{!6/.7 (<[8__8[(7.^~++^. ( 7cc <8_33_<7/~j',]]'++'-*qqtoj.(<<( ./6~+!+~66+'>o=pt**t#=;{+^6)5wt%zBBzq$t#w-;5@5o=ps$$$sssss**txxxpp#v=-5{!^^~j{,'j6.<:gfiniiiihhhhhhhhhhhhhhhiiiihfffeeaabbbbbbbbbb0g1|:38<  77c.4^!,;-u;])~47 c/!{@ouwvvw=u-;@{+c310aeff",
"2|190aefhfag1dd21gbaeeeb09|d:38< c.4//.(_2991||9g13c!]5;;5>'+47(<<8}2g0bbbbbaefffeb|}8[[8_}:2199999gg00aehinmkkmnihfeaaaaaaaeefhinnihfeea0|}[ 77(<[[[[83}d|1g00bbbbaeffhiinnmmmmnifb92_(4+{5=#xp#wuo5]{j~47[}d:8c6)>ow#xxttxp#w-;>,)j+^. [}|0fihe0g99990behiihb1}(^';=w-@'+^/.c ([83}}38(7./6~6/c <<((([_}:dd:_(4~j',,{)+~'usrys={6.777./6+!!j!+~~!,;wp*$&$*p=;{~44+,o#$yBCBy%sxw-;@>@;=p*$$s********ttxxp#v=o@{+^4^~!j!~/c[dgfiniiihhhhhhhhhhhhhhhhiihhffeeeaaabbbaaeeeaa0g9|d}_[<(( 7c.^!,;uu;]j6c([<c6)]5-=ww==uu-;>)/<:10bae",
"119g0aeeffeb0g9gbaeeeaab091|2d:38< 7cc [:1gg1|2|1|37~{>555>'~4 <[83d1gbbbbbaeffhheb1:_8[8_3:2|199999gg0befinmmmmnihffeeeeeeeeeeffhhfeab0g12:_88_3:::}}3}}:dd2||190baefhinnmmkkkmnie01:[c6)];uwvwuo;@]{j~.(_d19|:[c6j]5-=v##ppp#v=-o5@]{j~4 _|bfhhfeaabaefhiihe9:<4!]-ww->j6^/4c7<83}dd:_<7./^^^47<[888_3:d|11|}[.6!)'{'!~~'u$yz%#@j6/44^~!jjjj!~6~j>ups&qq%$xw;{6.c/!]utqBDCAr$tvu;@>>5up*$s*ttt*******ttx#vuo@{!^///^^/4c(_2gehiiiihhffffffffffffhhhhhfeaaaaaabbbbafhhfeabg9|2:}_88[<( c/+,;u=o]!/ 8}3(4+{>;-u=uuuuuu;,+c8d1gba",
"ggg00baaeeeeaaaefffeab00gg9991|d}_8[<<[}|0b01222|d_76),>55>'+4 [8_}290aab0baeffhheb1:3888_3:d|1111999g0befhinmmnihhffeeeeeeab000bbb0gg9|2dd:}}:d|1112d:}33333}:d|90befiinnmkklkknhag23(4+'>5o--o5>]{'j~4(}|gbbg|}[7^!{>5ou=v#ppp#vw=u-;>{!^ 31ahinnihffhhhhfagd[c~'@uwwo]!^/44.7<_}d||d3<7.4//4c([_3}}:d|19gg928c^+j))j+^6'u$zArt-]j+66~!)))j!+~6~)5vsqyyyq&tw;{6c 7^)5#&ACCAr%*#u;@]]5up*$s*txtt**ssss*txpwu;>{!6/4.cc77([32gafhhihhffffffffffffffffffeabbbbbbb0bbefiihfab0912d:}33_8[(74+,;==o]!/(}2d_76j,@o----u===-@)^78:1g0",
"ggg00baaeeffffhhiihfab0ggggggg912d}3__329aeb9|dd:}[7^j{]@5>{+4 <83d|gbaab00befhhhfb1d3_88_3}d|1111119ggbafhinnnnihfeeaaaaa09|d::dd2dd::}3333}}:2|191|2d}_8[<<[83:|90aefinnmkllkmie01:87^!{]@5;5@,'j!+64 31bffeag|}[7/+),>5o=v#pppp##vw=-5,j/(:geimkmnihffeb9|}[c6j,;uw=;,+^///.7<_:21123<7.44.c <_}:d2|19g0bb0|_7/~!!j!6/^'=&ACz$v;])!+!)'''j!+~6+{-x%yAAzr&*vo{67<(c~,u*rAAzr&*#=o@]>5ups&$stxtt**s$$$s*tpw-5]'!64c7 ((((<_:|gbefhhhfffffffffffffeeeeeab0g000000bbehinifeb091|22d::}3_[(c6{;u=o]!/<:11} ^!{>5oooo-uww=o]j/ _d1g",
"9ggg0baaeffhhhhiiihfab000000000g1|2d::21bfhe012:3[ .6!']@5@,j^c(8}210aab0g0bafhhhfb9d3_88_3}d2|1111199g0aefhinnihfeab000g9|}8(   (<<<<<<<<<[8_3}:dd222:3[(7ccc <_:|9g0afhnklllknfb1d_(.^!',]]]]{j+6/4c(_|bhinifbg23<c^+j']@ouv########v=-5]!4[d0fnkknhea0923[7/~),@;-u-5{+^///47[3d|9923<7.44.7([3:2|9g00bbaab13(46~++~/./)=&CEBqtw;]'j)'{{'j+~~~j]=syBCBAy%*#-,~7[[(4j5#s%qq%$t#uo@>>;wt&%%$*ttt**$&%%&st#wo@{j~/.7 (((   <_}29behhhhfffeeeeeeeeeeeaab0g999gg000baehiiifea0g911|||2d:}38(/)@uuo>j/(:99:(/+']@5555;-=vwu;,j/(}|9",
"199g0baeffhhhhhhhihfeabb0000bb00g911||90eiiha923[ .^~!',@5@])~4 8}|gbaab0gg0afhhhfb9d3_8__3}d2||||1119g0baehhiihfea0g911|23<.6~~6^/44....cc7 (<[[8_3:d:_(c4/^/47<3:2|1gbfnklFlmiag23<746+j)''')!647([_}|0fnmmnhe01d_(./~!){@ouwwvvv####vwu5{~7_|aimmieb9|:8 /~j{]@5ooo;>'+^^^/47[}219923<7.4.c7(8}d|90baaeeeeb1}<c/^66^47.ju%CGDz&x=5,'',],'j+~~+'5v&ACDCAy%spu>+c[8[76{o#tsss*xvuo5@@ov*%rq&s*tt*s$%qq%$t#=;])+^.7((((7c..7(8329behhhffeeaaaaaaaaaabb0g911119gg0baehiihfeabgg999991||2d}8c!>ouo>)^ }11}(/+),>@>]]>;uvvwu;]!.8d|",
"119g0baefhhhffffhhhfeeabb000000000gggg0ahnnhag2_ .^6~!),>55>{!^c[:1gbaabg99gbehhheb92}____3}d2||||||119g0aefhhhhea0g12dd:3<.~)'')j!+~66^^/4.cc7777([_}3[74^6~~64 [3}:21geiklFlmhb1:8(c/^6~+!!!~^c(8}d|gbfnmkkmifag2}[ .4^~j{@;-uu==wwvvvvw->j4<:gfnifb92}[7/!']@55;;55>{)+6^^/4 8:|9g923<7..c7 <_:210aeffffeeb1:[7.4//4c c!u&CGEBr$pu@],]]]'j+~+j,oxqCEEDAyq$tw@!c[_8(4!]ow#xxx#w-o5@5-#sqyrq&s***s&qrrq$t#u5{!647(<<( c4//4c [3d10baaaaaabbbaaaabbb00g9||2||19g0baefhhhfeab0ggggggg9911|}(6,;-;>)673|1}(/+){,],{',@-w##v=;,6(3d",
"119g0baefhhhfffffhhffeaab00000000000bbafinnfb1:[7/66~~!{>55@,)~.<:10aeabg99gbefhfeb92:3_88_3:2||||||||190aefhhhfeb092:}3_[7^!{,,{)j!+~~66^^/4.....c([__<74^~~+~/c([_3:29aiklFlmf01:8 .4/^^^^6^/c<_d|gbfinkkllknhe01:_< 7./~j{>5;;o--u=wvvwu@'^ 31ahfb1d3[7/+']@5555@>,{)j+~~6^. _d1g09|3<7cc7 <83:210afhhhffeb1:8(7c..c (7+osADEDArs#-@>>>]{j!!j'>u*yDHGEBzr%*#;)4<_8<c6'@-w#xp#=-;5@5-#$ryyq&$sss$&qyr%$xv->'+/c <[<< c/66^4c <83:d|19g00bbbaaabbb00g912ddd2|9g0baefffffeabb00000000g999d[/'@;5])673|1:<4~!)'{)jj'>ow#xx#=@j.<_",
"gggg0bbefhihhfffhhhhfeeab0ggggggg00baefinnhb1:8 ./^^/^~)]5;5>'+4<:9beeebg11gbeffeb09|d}_8[83:2|1||2222|90aefffffebg1d}_[< .6!'{')j+~~6^^^^//444444.7([[(7./^6~6^47([_}d9aiklFlnfb1d_(c.44.....7<_d10afimkllllknheb92}_[( c/~j{,]>@@5;o-u==-@)^ _|bab9d_<746j']>>>>]{'j!!!!!+~^.(32g00g|}[ 77([8_3}d|gafhhhfea01d_<     (<7~@pqACDDAq*w-5@>,{')'{];v$AGIIGDBzr&x-{^(88<c6)>owpxx#=o5@>@-#sqyyr%&$$$&%rrr%*p=;]j~4c <[[<(c/~~6^4...c7([3:21gbaeeeeab00gg1|d:::2|1g0baefffffeaab0000b0000gg9284j]@>{!^ }19d[c^~!jj!+~j,;wpt*t#-,~.7",
"000000bafhiihfffhhhhfeeab0g991199g0befhiiha9:8(c4//4cc/!];o;@,j^(:9aefebg11gbefea0g91|d38<<8}211|22ddd210aefffeeabg|:_[(7./6+jj!+6^//4444///444444.c7 (  7c./^^^/.c [3d9aimllknhag23[ 7c77   (<_:10afinmkllllkmiebg|d}_[< c/6!j)'{,,]>5;oo;]j^7_2g09d_<7/6!)'{,,{')!~^^~!j)!~^.<}|0bb01:8( (83}}33}29afhhffea01d3[<<<<<<<76,ut%ADEDA%xwo5>,{{,]>;up%BHJJIGECzq*=]~7<[<c6'@-vxttp=o@>>@ov*qrrq%&&&&%qrrq$tv-@{!64c <[8[<c/~+~6^^6+++647<_d1gbeffeab00g912:}}}d|1g0aeeeffeeeeabb00000000gg92_c+{],)+4(}192874^~++~^^+{5=ptsstw5)~^",
"bbbb00bafhiihffhhhhhfeaab0g9111119gbaefhfeg2_(7.4447((c~,;-o;>'6 :gaffebg99gbeeabg999123[((8}|11|2dd::d1gaefeaaab092}8<7./^6~~6^/.cc77cc..444444...cc77 ((( c.4///.7<329aimllkmie01:_<(((<<[[8_:|gafhinmkllllkmifa012d}_8< c4^6~+!j))',]@@>{!/ 8d1123<746+j))))j!+6/.7c^+)'j+^c[:1baa09:_<<8}d2d}33d1befffeab012}_88__8[(.6'5wtrCGGDysp=;>,,]@5;-wtqCIKKKIGDBrsv>+.(< .~'@uvx*t#u;>]]>;wt&qrq%%%%%%qqq&*pu;])+^4c7([8_[7/~+~6^6!',,'j647[}290aeaab00g912:33}:21g0aeeeeeeeeeaabbb000000gg92_7~){'j~4<:9g2_(c4^66/446)@u#t$$sp-]'j",
"bbb000bafhiihfffhhhhfeeab0g9911199g0bbaabg1:8(7c..7(88 6{5--o@{~ :gaeeabg990aeea0g99g9|}[(([}|91|2d:::d|gbeab0gg99|:3[ c4^66^^/.c7     7cc..........cc7 <[[< c.4//.7[}2geimllkmifag2}8[[88__3}:29behhinmklFFlkmifa0g12d:3_[(7.4/^6~++!j'{,{)~4 8:22:8 .^~!jjj!+~6/. <[(4+)')+/7[:9beeb923883d112:33:10effeeabg12:}33}3_<7/~)];v&AGHEA%tv-5>>@;o-=#*rDILLKJHEBrsv@!47 74~'@-wpxxv-@],,>;wt$%qq%%%%%%%%&sxwo>'!6/4.c7<838(.6~~6^~j{>@>,'!~/7<_:|9g0000gg12:}3}:2|90aeeeeeeeeeaabbbbbbbb00g9|376j''j~/ }1923(7.4//4c.^j>-vt$&$tw;@]",
"ggg0bbaehhihffffhhhhffeabb00gg999ggg9991|2d38[((  (833<^'5--o5,+7:gaabb0g9g0affa0g9ggg|}[(([}|99|2d:::d|90b09|22dd:38< c4^^^/4.7 (<<((  7ccccc......cc ([__[( c.44c 8:|0eimkkkmnhe01d3__3}}::d21gaehhinmlFFFlkmifeb091|2d:38< c.4/^^^6~+j)j+^c(8}::_<c4^~+!+~6^/.7(83}8c~)'j~4 8d9aeea0|:33:|gg1d}}:|0aaeaab0g1|2d:::}8 4~j){>u*yDGEBr$xw-;;o-u=w#*rDILLKJHDz%*=@j^.c./~)]5-wvvu;],{,>;=xs&%%%&&&$$$$stv-@{j~/4444c(8}}[7/^^//6!{>555@>]{j+/7[}21g000g9|2::::d21gbeeeeeeeeeeaaabbbbbbb00g|376){{'j6c_|12_(c.444c774+,;wxs&&sp=-o",
"||1gbafhhhhhfeeffhhhffeeaabbbb000g91|2d:}33333__88_}::[/'@o-o5]+7:gbb0gggg0beffebggggg|}8((8}|9912dd:dd|9gg12:}33_8[<(7c4///4.7 <[[<(( 777777ccc...c77([_33_[(7ccc7<329bfnkkkkmnheb9|d:::dd22|190befhinmlFFFlkmihea0g991||d}8< 7.44444/^~~~^. <83}3[ ./^6~~6^4.7([_:2d3 ^j)!6.(_d9befeb92::29bb92::d|g0bbbb0g99111|2d}[.~){{{,;p%BDDBy%spwu-u===w#*rCIKLKIGBr$p-]j6/4/^~j{]5o--;>{''{>;=p*$&&&&$s**ttx#u5,j~/..4/^478:d3<c..../+)]@;-uuu-o@{!/ 8:1gbb0g9|2dddd21gbeeeeeeeeeeeaaaaaaaaabbg|37~),],{j/<d|d8 .44..7 7.~'@u#*&&$tpvv",
"::d10ehiihhfeeeefhhhhffeeeeeeeab0g12:3_8[[8_}d2dd::2|d84)>o--;]!c}gb0999g0bafhfeb0gg0g1:8((8:|991|2ddd2|9g9|:38[[[<(( 7c.44.c7 <[88[<  77    77cccc7 (<83}}38<(   <8:|0ehnkkkkmnifa01|2222||119g0baefinmlFFFlkmihfab00ggg91d}8< 7c..ccc.4//.7<[_338<7./^^^/4.7 <83d|11:(/!j+^c<329beffa012210abg|dd21900b00gg999gg9|d_(/j,],'{>=srABBAy%*pvwwwwwv#*rCIKKJHEA%tw;,j~^^^6~+j']@55>,')'{]5uvx*s$$s*txp##wu;]j~/.cc4^6^c8d|d_(777c46j{@o=vpxxpw->j^78d1gggg91||2ddd|gbeeeeeeeeeeeeeeeeeeeaab0137~']>>]'6(:|:[7.4..c7  c6)]ovt$&$s*tt",
"[83dgeinihffeeeefhhhhhffffefffebg12}_[(( (<_d1991||112_.j>;--o@j.}90g119gbaefhfeb0000g1:8<<8:1991|2222|19g9|:_8[<<(  77c...c7 <[_3_8<     ((   77c7 (<83}d:}_[<<<<8}29bfimkkkkmnifebg11|11199ggg00bafhnmlFFFlkmnhfeaabbbab01d}_<( 7  (( 7cc <8_33_8(7.444..7 ([_}d|90gd<4+!~/ [}29beffebg11gbaa09|2|19g00000g9g000g|:[c~'>>]'),-p&yABBAr&tp#vvvvvpsrDIKKJHDz$#-@'!~^^^^6~+j{]@@>{')'{]5-w#xttttx#vw=u-;])+^4.c./6~6c821|}[(  c46!{>owptssst#->)678:2||111||2ddd|gbeeeeeeeeeeeeeeeeeeeeeab9} 6)]@@>{~ :|:<c44.c7 ((c^!,;=xs&&&$$$",
"7 <31ennihfeeeefhhiiiihhhhfffea092}8(7ccc <_2gbb0g9gg13c!];-u-5'4310g1190aefhhfeb000009d_[<_:1991|||||1g00g1d3_8[<<( 77ccc7 (<[_3}}_<   ((<((((    (<8_}d2d:388[8_}d10ehnmkkkmmnihea0g999999ggg000baehnmklFFlkmnhffeeeeeffa012}_[<<<[[[<((([_3}}3_8< ccc7 (<[83:2|90b02[.~+6.(_:|9befhfa0gg0aeebg9119gg00bb0000baag23(4!,@@]'j'5w*%zCEDAr$tp####pt$yEJKLKHDy*w5,j+6/////^~!{>5;@]{''{]@;-=wvvvvw=-o;5@,)+^4.44/6~+6c8|91:_<(7c46!'>-vxs$&&$tv->'6.(8_3:dd222dd21gbeeeeeeeeeeefffffffffeeagd(/j{>@>{~ :|:<c44c7 (<(7/!{5up*$&%qqq",
"^/c[2anmihfeeeffhinnnniiihhffa092}8(7.44.7<3|0eea00009}7+];-==o{/8|g919gbefhhhfeb000b09d3[[_:199911119g0aabg|d}3_8[< 7777  (<8_}:d:3[(  (<[<<<((((([8_}:222d}3__3}d10ehnmmkkmmnnihfab0g999ggg00ggg0behimklllkkmnihffffhhiihe092:3_88____8883}dd:}38[<( (<[8_3}:2|9gba0|8c6~^c[3d|90afhheb00baeeab0ggggg0bbbbbbbaea9:[c6)]@5]'j)]-#syCGGDz%*xp##pxs%AEJLLJHCqx-])+6/44..44^+{5--o@,{{{]>@5;oo--oo5@>]{'j+^4.4/6~+++^7_|g1d_[(7.^~!'>ovxs&%%&sxv-@'+/c7([_3}:ddd21gbeeeeeeeeeefffffffffffffb|8.+',>>{~(d1:<c44c <[[<7/+{@-vt$%qryy",
"!+^7}0imiffeeffhinnnnnniihfea092}_<74/^/.7[}1affeabbbg:7~,5uww-]6[299990afhhhfeabb0bbbg23883d1999119ggbaefeb9|d:}3_[(777 (<[8_}:22d}[( (<[8[[<<<<<[83}:d2||2:}}}:21gahnmmkkmmnniihfeb0ggggggg00ggg0behimkklkkmmnihhhhiinnmnhebg12:}}}}}333}:2||2:}3_8[[8_}::d2||19gbab|8c^64 8:2190afhhfabbbaeeeabb00000baaaaaaaa02_76j{>5@]'!j{@ux%BGGDAq$txppx*$rBGJKKIGA&#5'!6^/..ccc./+,;==-5]{{{,,,]]]>>>>],{'j!~6^444^~+!!+~/ 3|91d3[ ./6+j{>owx*$&%&$*pwo>{!~^4c <83}d2|90aeeeeeeeeefffhhhhhhhhhhhe1_c~j,]]{~(d1d<c4.7<[88<7/+{@-wxs&ryzA",
"{'!489hnifeeffhhinmmnnnihfeb092}_<7./^^/c(8:9ahheabaag: 6{@-wv=@+(:199gbefhhhfeabbbbabg|}_83d19g999ggbaeffebg1|2d:38<   (<[83}:2|1|:8<(<[8_88[[[[[8_}:d2|||2d:dd21gbfimkkkmmmnniihfeab0ggggg000ggg0behinmkkkmmnnihhiinnmmkmnhebg9|2dd:::::d219912:}3333}d2||111199g0b0|_c^^4(3219g0afhhfebbbaaaeeeaab00baeeeeab092_76),>@@@,)!+j{@=tqBCByq$s*tt*$%rBEHIHEBr*u]!6^^/4.ccc.^+,;=wu5]'''''')))'''')j!+~^/444/^~!))j+6.(3|91d3[ 4^+!){>;=#t*$$$stpvu;>{'j!~^. [_:21gbaeeeeeeeeefffhhhhhhhhhiif9_c~),>>{~(d9d[c.c [8_8[ /+{@o=p*&qyAA",
"@>'6(|ehhfffffhinnmmnnihfa09|d}8(7.4/^/. [32gaffebbaagd<^)>-v#w5j73|9gbafhihfeeabbbaaa0|:__}d19g999g0baeeeebg9||2d}_[(((<8_3}:2|991d_[<[833_8[[[88_3:d2||11|222|1g0ehnkkkkmmnniiihfeab00ggg00000gg0behinnnmmmmnniiiinnmmkkmmihfa0g1|2ddddd21g00g12dddd2|199gggg9111g0g|8c^^.<}|99g0aehhfabbbbbaeeeeeabbaefffebg1d87~{@;o;@]{j+~~!)>up$%q%&&$$$$&%qyACDCBy%t=@j6^^6^/4...46!,;u=-@{)j!!!+++++!!++~^/4.c.4/6+j'{{j~478:|1|d3[7/~!)',>;-w#pxxxx#v=uo5@>>]{)+/c<}|gbaaeeeeeeeeefffhhhhhhhhhiif9_.+']@@,+ d1d8 c7<8_3_[ /!{@o=vxs%rzz",
"o;]!c:0efffffhhinnnnihfeb092:_[(7.4///.7[3d10aeab00bbg2[4!]-vpvo'48d90afhiihfeaabbaaaa01:33}219gggg0baaaaab0g91||2:38<<<8_3}:2|9g09238[8_}}3_888__3}:d2|1111|||1g0afimklkkmnniiiihheab0000000000000afhiniiinnnniihiinnmmmmmmnnifeb09|22d22|90bb0g11119gg000000g91||1g928c^^.[:1ggg0beffeab000bbaeffeaaaeffffa01:[c~,owv=o>{)!~6^/^~'>-wpts&&%%%qrryyzyr&*#->)64/^~~6/444^~j,5o-;])!+~66^^^^^666^4.c777c/~j',]],j67[3d|||d3<c^!)'{,>@;-u=www=uu-o;;;ooo;>{!^7_2gaaeeeeeeeeeefffffffffffhiie1[/j,@55]!7:12_( (83}}3[ /j,@ouwp*$qry",
"=u5'/81beeffffhhiiihfea09|d}8< c.4//4.7<3d1g0bbb0gg0bg28c+,ovxpu,^<:9bfiiiiheaabaaaaea01d}3:21ggggg0baaab00g911||2d}_8[8_3:d2|1g0bg|}_8_3::}3_8__3}}:d2|1199119g0behnkllkmmniihiiihfab000000bbb000bafhiiihhiinniihhinnmmmnnmmnnihea09|222|1gbaea0ggg0bbabbbbbb09|22199d[.^^.[dg00g0baeeab0gggg0baaeeeaeefffa01}<.+,o#tt#->'j+~^47  c/+{5wt$&%qqrrrqq%&*p=;,j64./~!j!~^^^6~j{>55>'!~^/44...44///.c7   7.6j{]>@>,j/<3d|||2d3[c^!'{,,]>55;;;;;55555;;ou==uo@'+4<:9baaeeeeeeeeeefffffffffffhha2<6'>5;;>!7}1|3[<[_}::38 ^j]5o-=vxs&qq",
"vw-]~(:9befffeefffeab09|d}_[( c.4//4.7(8:|g0bb00ggg00g2_76';vxx=]6 }1bhnnniheaaaaaaeeab1d}}:21gggg0baaab0g9911|||2d:3___3:d2|190ba01:3_3}dd:}3___33}:d2|199999g0bafimkllkmmnihhhiihfeabbbbbbaaabbbbefiiihffhhiniihhiinnnnnnnnmnnihebg1|||19gbeeeab0baeeeabbbbb091|2199d[.66.[2gbb00baeaa0gg999gg00bbaaefffa0|}(4!]-#s%&t=>'!+~^.(8_3_<4);vts&&%%%&$s*x#=;]'+6^^+){{'j+666~+){,,'!~^4..ccccc....c7   7.^+']@@@]'~c_d111||2}87/+)'{,]]>>>>>]],,]]>5;ou=w=-5,j678d10beeeeeeeeeeeffffffffffhha2(~{@;o;]!7:11:_8_}ddd}8 ^j]5;ouw#t$&&",
"x#=5j.82gaffeabbbb0g12:38[( 7c.444.c7(83d1g00000ggg00g|3(/)5vtxw>+7_|bimmniheaaaaeeeeeb92}}:219ggg0baeeb0911||2222d:}33}:d22|1g0aab9d}3}:222d:}3____3}d219gggg0baefimkllkmnnihhhiiihfeeaaeeeeeeaaaaehiihfeefhiiiihhhiiiiiiiinnnnnifa0g911190aefeabbbaeeab0000b0g9119g9d<466.[20ab00baaaab0ggg999999gbaeffe0|3 ^)@=x&yzy$v5{j+~^.(_}22:<6,-vpxttttxp#vwuo5>,'jj){>55>{)!~6^^6+++~^4..ccccccccccc7  7c46!']@5@]'!/(}1gg991|23<.6+j'{,,]]],{'''''{,>@;o---;@]'!^c<}|0aeeeeeeeeeeeeeeeeeeeeffbd +,5;;5,+ :992}}:d222:_(/j,@;;-=vx*s$",
"txvo{^ }1bfeb0g999|2:38< c..444..c7 <83:21gg000000000g|}<4!5vttv5!.82bimmnnhfeaaaeeffeb92:}:219gg00beeebg1||222dddd:::::d22|19gbaeag2:}:d2||22:3_[[[_3:21g00000baehimkllkmnnihhhiiiihffffhhhhffeeaefhiifebbefiiihhhhhhhhhhhhiiiiiiheab0g99g0aefeabbbbab0g999g00gg99g0gd<4~~4[20aa00bbbb0g9911||2d:d|9baee0|3 ^)5w*%zCDBqxo,)!+64 [321|3c!];-u===u--oooo;;55@>>@;-uuo@{j+^4cc...c7777cc.....cc77777./~j{]@;5>'+/ _2g00gggg1d_(.^+j)'{,,,{')jjj)){,]>@@@@>>]{'!~4(}1aeeeeeeeeeeeeeaaaaaaaffbd7!]5;5>'6(dg092d2|1||d3(4!{>5;ouwpt**",
"*t#u]+.820ee09||2d:38< c4/^^/44.7 ([_}d219gggg00000b0g|:8c+@wttv;)4[d0hmmmnhfeaaeefffeb92:}:219gg0baeeebg122dddddddddddd22|1190beeag|d:d2|11||d3[<(<[_}21gbbbbbaefhimkllkmnihhfhiinniiiiiiniiihhfeefhiheb00behiihhffffffffffhhiiiihfeab0ggg0aeeab00000091||19000000bb02<4~~4[|bab0gg9912d}33__8[[<[_:|9gg1:<4j>=*qADGGDy*u@,'j+^.(8:||:</!{]>>>>],,]]>@5;o-----=v#v=;])+/7([[88[[<( 7c.....cccccc.^+),>@55@{+4(_d90bbbbbb09d_(c/~!j''{')j!+++!j)'{{{{{{{,,,,{)+4[20eeeeeeeeeaaaaaabbbaaefbd7+]@5@,j^<20b0911991|2}<4+{>@5;-=#ptt",
"tx#u@j/(:gea012d:}_8< c4^6~6^4.7 <83:d|19gggg000bbbbb0923(6]wtt#o'^(:gfnmnihfeaeeffffeb1d}}:219gg0baeea09|2d::::::ddd222||119g0beea09|22|111|2:_< 7 [_:290aaaaaeefhimkkkkmniffefhnnmmnmmmmmmmnnihffhhifag99gafhhhfffffffeeeffhhhhhhhfeab0000bbbb0ggggg91|||1g0bbbbbaa02<4~~.8|ba09|2:38(7.//^^66^^4c([3}:}8c~{o#&zCEHGDysvo@>,'!^c(321|3 46+!jjj!!!jj'{>5o-uuu=vpxpw;]j64 [_}::}38[< 7cccccc...4/^~j{]@@@>,j/(3290aeeeeeea01d_<746+!j))j+~66~~+!j))jjjj'{]>>>]'6 :gaeeeeeaaaaabbbbbbbbaee0d ~{]>,'+4[dgbb0gggg912}[.+']@5;ouv#px",
"p#w-@'67}geag|d}38[< 7./6~+6^.c <8_:219g0000000bbbbaab09d8/,=t*p-{~731einniheaaefhhffa0|:33}d|9gg00aeea012d::}}:::dd22|||1199g0beeebg1|1191|2:_<7..7<3d1gbeeeeeffhinmmkkkmnheaaehnmkkkkkklkkkkmnihhhihe012210efhffffffeeeeeeffhhhhhhffeab0ggggg991111911|||90beeeeaaagd<466c_1aag|}8(c^+']@5;;;5>,'j~^.7((7/!]-x&zCEEECy$pwu-o5,j^78d1923< c4//^^6666~!']@;o-u=vpxp=5'~/c [_}dd:}38[<((   7.4^6~~+j',>>],)+/(3|gbaeffhhhhfe01d3[ c46~++~6^/^^6~~+!!+++!),>@55@,+c31baeeeabbbbbbbbbbbbbbaa0d</!'')!6c[:90bbbbb0g9|:8c~']>@5ouw#pp",
"==-;>{+c_9aag|:38<( 7c./6+~64c <8_}d1gbbaaaaabbbbaaefeab9}c'ux*pu]!.82bfiiifeaaefhhfeb92}__3d|9gg00baabg12::}}}}:dd2|||11199gg0baeeb0g99g912}8<74//c<}|gbafffffhhiinmmkkkmnfa00afnklllllFFllllkmniiiiha92}}d9beffeeeeeeeeeeefffhhhhfffeab0g991||||||||||||1gbefhffeab9d[.^/73gab1}[c^!,5=#t*ss*x#=-5>,)+^//~'@ux&zBCCBzr&*xpp#=;,!4(3|gg12}_[(7c4///44/~j{]@5;-wpx#u]+4c7 <83:::}3___8888[ .^+!j))'{]],'+^c[}10aeffhiinniifa092:3[(c4^6^/4.4//^66~~~~~!),@5;;5]j4[dgbeeeb0gg0000bbbbbbbabg287^~~~^47[}|90baaab0g1d8c~),>@5o-=v##",
"o;;5>,j4[|bbg2:_[( 77c./6~~^. <[_3:290aeeffeeeeaaaefhhfe0d7)-ptpu>j/<d0ehhhfabbafhhfa092}__3d|9g000baabg12::}}}:dd2|||11199gg00baeeab0000g1:_(c4^6/c[:90aefhhhhiiinnmmmkkmiebggbfnklFFFFFFFFFllkmniihfb1:__}|0aeeeeeeeeeaaaeefffffffffeab0g91|22dd222||119gbehiihfeab9d[c/4(:gag:[.~'@upsqyABBAy%*pv=-5])!!),5=x&yAAAzyq%&$$s*xw5'~c8d9bab01d3[ c4/.c7c46!'{]@;uv#w;'/ ( 7 <83}}}333}}}}}_<c^!)'''{{,{)+4<32gbefffhinmmmnihfeb09|d3[ ...c77c.4//^^^^6~!']@;oo;>)^(}|gbaa0g99gg000bbbaaaabg|}[7.4/4.7<3d1gaeeeab092_76),>@5;ou=ww",
"@@@@@]'6(dg0g|:_[ 777cc4/^^4c([8_3:29befhhhhhhffeeefhhffb2 jo#xp=@'^(:gefhhfeaaaeffea092}__3d|9g0bbaaabg12d::::dd2||111999gg00bbaaeaabbbbg|}<c4^66/782gafhhiiinnnnmmmmmkkmie0990enkFFFFFFFFFFFlkmniihe0238832gaeeeeeeeeeaaaeefffffffffeeab091|222222|1199g0behiiihfeb9d874.<:g02[.+{5=x$rBDGHIHDzq$*xpwo@,{,@owt&yzAzyyrqq%%%$*#-]j/ 3|0fhheg23<c4/4c 7c/~!)',@ou=u>!c<< cc <_3}}3}}:dddd:_ /~!))))))j+/(}10afhhhfhinmmmnnihhfea0g|}8< ((<( 7c....4/^~!']5;oo;>'6c[:|g00g999gg00bbbaaaaabg1d3[ c.4.c(8}2gafhfeabg|3 ^j{]>>@5;o--",
">>@@5@]!c31g9|d3[( 7777c...7 <88_3}29behinmmmnnihhfhhhfa0d(!5wp#u5{~ :geffhfeeeeeeeeabg|:33}d1g0baaeeab091|22222|1119999ggg00bbaaaaaaaaabg2_7/6~~^4 31bfhinnnmmmmmkkmmmkkmiag11geiklFFFFFFFFFllkmnihfagd3[[_dgbeeeeeeeeeaaaeeffffffffeeeabbg911||1199gg00bbaeffhhhfebg2_ .c<d91_.!]-v*&yBEHJKLKHDzq%&stvu;@5ouv*%yAAAzzyyyrq%&sp=5{+4<}9ainhb1}<.^6^4cc./6~+j){>5;@'^ [<c44c(83}}}}}:d22|2}8 4^666~~6^4 _d9baefffefhimmnniiiihhhfa01d}3___8[( 77  c4^+j{>5;;;5>'+/ 8}2199999gg00bbaeefeeb09|:_<74^^47<32gehihfea01}(/!'{,,]]>>>>",
"]>@5oo@'/[d1912}8<(     (((<<[[[[8_:|0afinmkllkmnihffeb01} +@uvwu;,+7:0efffffeeabbbbaa01d}}:21gbaeeffeab099111119999999gg00bbbaaaaaaaaaaagd[.~!+~/c[:gehnnmmkkkkkkkkkkkkmnhb9||gaimlllllllllllkmnihfeb9d_[[_dgbeeeeeeeeeaaaeefffffffeeeeeaab00gggg00baaaeeeaaaeeffffa0|_(cc[:1d +>upsqzBDGHJLMLIEBzrr%$t#=--uwps%yABBBBAAzyr%&*pwo>'~c[dgehha9}(4~++6/4//^6~+!j',,'+.<[ 46647[3}}}}}:dd2||2:3[<( 777 (<8}21g0baaaaefhiniihhhiiiiihfag9|2d:3_[<<<[[(c^!),>5555@]'!64 [}d|19ggg00bbaeffhhfabg12}[c^++64 8d9ehnihfeb9:<4+j''''')))j",
"]]@;--;,~(}21|2:_[<((<<[8888<((   <8}|9bafhnmkkknihea09|d8c+>-=wuo]!c:0ffffeea091||1g009|d:d|9gbeffhffeab000ggg00000gggg00bbaaaaaaaaeeaaag:(^!)!6.(_20finmmkklllllllkkkmmnfb9||9bhmkkkkkkkkkkkkmnifea01:8<[_dgbeeeeeeeeeaaaeeffffffeeeeeeeeeeaaaaaaefhhhhhfeabbaefffeb1}<77[:23.'o#sqzCDEEHJKLLJGCAzyrq$t#wwv#t$qzBCCCCCBAzr%$*pvu;]j^7_2bffa9}(/+jj!~6666666~+!jj+^c((c^+~^c[3}}}}}::d2|1111|2d:}33}}::dd2|9gg00bbefhihhfffhiiiihfeabg9|d:3_8[8_8<c6j{]>@@@>],'j+^. 8}d|9g0000bbaefhiihebg123<4+))!^7[:9ahnnihfagd[c6+!!!++6^^^",
"]]>;-uo]+c8:d2d:38[[[[8_3}_[ .4///4c(8}:2|90afhihfa092:38(4!]ou==-@).}gfhfebg|d38[[_d199|222|9gbefhhhfeeaaaaaaaabbb00000bbaaeeeeaaaaeeaab9}7~'{j6c[:9ahnmmmkkllllllkkkmmnif01221bfnmmmmmmmmmmmmnihfa092}8<[_dgaeeeeeeeeeaaaeeffffffeeeeefffffffeeefhinnnnihfabbaefffeb1:[  [}:[^,ux$rACDDDEHJKJHEBzzyyq&*x##px*&yACDDEDDDCAy%stx#w-5,!/(}9aea9}(^!'')j!+~~~666~++!+^.774~!+^c[3::}}:::d2|19g0bb0g911111|2dd2|19gg0baehhhfeefhhihfeab0g9|d}3__88__8(4~){]>>>>]{')!~^47<_:|9g0000bbaefhiihfag|:87^!'{j6c<}1bhinihfa02_ 4^66^^/.c77",
",]>;-uo>j4(83}:}3_88_33}:}8 /+j)')j+^4c7 ([3d1gbbbg|:_[(746)>;u=wu;'/3gfiha9d8(.^6^.<}211||||190afhhffeeeeeffffeeaabb0bbbaeefffeeaaaeeaa0|_.!,,)^(3|0ehnnmmmkkkkkkkkmmnnnieg|dd|0einnnnnnnnnnnnihfeb9|:3[<[_dgaeeeeeeeeeaaaeeffffffeeeeefhhhhhhfeeehimmkmmnhfeaeefffeb9d_<([__(6,-#sqzBBBABDGHGEBzrrrq%$*xppt*$qACEEEEEEEDBy%stxpv=o@{+c_|bea9:(^j'{{')jj!++~~~!j)j!6^^6+!+^78}dd::::::d2|1gbefeabbbb0g|d:}:2|199g0aefhfeaaefhfebg9|d:}_8[[[8_88< c^!',]]]],{)j!~6/.7(8}29g00000baefhiiihagd8 /+){{)~4(_20ehhhffa0|}<7..cc7  ((<",
",,]5o-o>)^c([8_____3}::dd}<4j,@555@]{)!++~^.(8}2|12}[ ./^~j{@ouwvw-]681eif0d[.~),],j/<}2|1111|1gbfhhfeeefhhhiihhfeaabbbaaeffhhhfeaaaaaabg2[/)]])/[dgafhinnnnmmmmmmmmnniiiha92::2gahiiiiiiiiiiihhhfag|d38<<<_2gaeeeeeeeeeaaaeeffffffeeeefhiiiiihfeaefimkkkkmnhfffffeea09238[[8[76'5=x$qyyrrrzABBAyq&&&&$*txxx*$%yBEGGGGEEEDCz%stxp#vu;>)^<20eag:(^j{,,{{'')j!++!){,,{)j!!jj+/ 3d22dd:::::dd|90efffeeaa09|:33}d21199gbeffeabbaeea01d}8< 7ccc7 <88<7.^+){]]],{')!+6/4c7 ([3d1g00000bbaefhhihe9} /+){,{)+4 8d9beffeeb01:_[<<[888[[[[",
"{{]@;;5])~4c7 <[8_3}d222d_ ~,;u==u-o5>]]],'!6. [_3_<c^~!j'{>5ouv##=@+(d0ab|8.!{5-u-@j4<321991||9beffeeeefhinnnnifeeaaaaeefhhiihfeaaaaab01:(^'>>)4_1befhhhhhiiiiiiiiiihhhhfb9d}}d9bfhhhhhhhhhhhfffeb9d}8[((<32gaeeeeeeeeeaaaeeffffffeeeffiinniihfaaafhnkkkkkmnihhfeeabg12:388[<7^j];wxs$$$ss&%qq%$s*ttttxpppt*&qzCGHHGEEEEECz%stxpp#w-5{~ d0eag:(/!',,,,,,{')j!j{]@@@]{')j!6.<}|1|2ddd::::d21gaefffeabg1d3_83:2||119gbaaab000b0923[ ./6~~~~^. << .6+){,,,{')j!~^4c7(((<83d9000000bbaeefhiie9_.~){,,{)+/7[}10aeeeab092:}3}:d:}_8[[",
"''{]>@>,)~^/4.c7([_:d||2:8.!@uvvvw=-o;;;;;5>{j~/c 74~j',]]@5o-=vpxvo'4[}d:8c+,;=#p#u>!4<}|99|2210aeeeaaefhinnmnihfeaaaeefhhiiiifeaaaaab923 6{>]j.}gefffffeeffffffffffffffe01:33:10effffffffffffffe0|:8<((([32gaeeeeeeeeeaaaeefffffffeefhinnnnihfeaefimkkkkkmmnihfea0g1|2d}3_8<74~)];=#xpp##pt**tp#vvvvvvv#px*$qzCEGEEDDDDDCz%stxpp#wu;,+ :0eagd</!'{,,]]]],')j),@;;5>,')!~/78d191|222ddddd21gbefhfebg|d38[[83:d2dd2|1gggg9991|:[7/~!)'{{{'j6.  c/~!){{,{')!+6^4c([88[[_}290bb0bbbaaeffhiif18.+',],{)+^c<}|0aeffeabg9|22|11|:38<<",
"j))'{,{)!~66~~6/c(8}d||d3<4)5=vvwu-oooo-u==uo5>'!~~!']@5;;oo-uw#xtpu>!/c 74+,;=p*s*#-]!.[d99|22|gbaaaaaefhiinnnifeeaaeeffhiinniheabaaa01:8c~'],!7dbffeaabbbbbaaaaaaaaaaaabg2}__}|gaeeeeeeeeeeeeeeag23<   ([32gaeeeeeeeeeaaaeeffffffffffhinmmmnnihfhinmkkkkmmmnihfa09|2dddd:3_[ c46!{@o--ooo-u===-oooo--u=wvpts&rzBCCBAABCCBz%stxp#v=-5,~ d0eagd<4+j'{{,]>>],')),@oo;>{)!~/c<}100g11||||22||90aefffa92}_[( (<_}}}3__3:d22|22d:_(4!{>@5;;;5@,)~4.4^~!j)'')j+~^/.7(83}333}d10aeeeeeeeffhhhiif9_c~){,,,'!6.(}1behhhhfeab0gggg9|:_<  ",
"!!!!!!!+~~~+j)j~/7<_:2d}[76'5uw=-o;55;ouv#pp#v=o@,{]5ouuu====wvp**tvo])!+!)]owp*$&&*#-]+7}19|dd|90bbbbbaefhhiiihfeeaaeefhhiinniheabaabg23(.~){'6(2afeab0gggggggggggg0000b09d388329baaaaaaaaaaaaeeagd8 cc7 [32gaeeeeeeeeeaaaeeffffffffffhinmmnnniiinnmkkkmmnnnnihebg|d}}}d22:38[< 74~j{,,{{{,]>>],,{,,>@;ouwvpts&qyzyyrryAAAy%$tx#vwuo@{6(2bfagd[.6!j))',>@>]')),5oo5])+^47<3|0aa0g99999999g0beeffe0|3[(77c7([__8[((<[8_}}:}_[7/j>-=wvww=u-5])~^^6~++!!!+~6^4c <8}d2ddd21gaffhffhhhhhiiinif937^!'{,,'j~4(}9ahnnnnihfffeabg1d3< c.",
"~~~66^^^^6~j'{{j~4 [_}3[7/!,;u=-;>]>@5o=#x*ss*t#uo;ouwv##vvvwv#x*ssxw;@>>@5-wp*$%q%&tvo'4_19|dd21g0bbbbaaefhhhhffeaaeeefhhiinniheabaab9d87/~j)!/[|afebg9911111111199999ggg1:_[[_d90bbbbbbbbbbaaeea9}<c..c [3|0aeeeeeeeeeaaaeeffffffffffhhihhfeeffhinnmmmnnnnnnifa09d3_83:2|2:3__8[(c/6~~~~~+!!!++~~+!j']5ouwv#x*$&%%&&&qryyr%$*x#wuo5])/[|afa9d[c6+!!j){>@@]'j){@;;>'+^. [32gafea00gg00000bbaeeeeb9:8 c..c7([88[(7c7 (<[8_[(c^j>u#tttxp#vw-5,j~66666666^^/.c <8}d|111|1gbafffffffhhhiiiihe9}(4~j{,,'j64(}9enmkkkmniiiifbg2}[ .4/",
"66^/4..4/^+j{],'!647(( .^!{@ouuo@,{,>5o=#ts$&%$*#=u=v#pxxxp#vv#x*$st#=-o-u=vpts&qqq%$tw>68|g122|1g0bbbaaeeffhhhffeeeeeefhhiiniifeabaab1}<.^~!!~.81aea0g91|||||||||11111999|}8<<8:1gbbbbbbbbbbbaeea13 4//. [}|0aeeeeeeeeeaaaeeffffffffffeeabg1|||90befiinnnnnnihfa01:_[[_:2||2:}}3_[(7.44....444..c../6!'>;-u=wvpt*s****$%qq%&stpv=-;>,!481efegd[.6+!!!j']>>,)!!']>>{!^c(83d9bfhheabbbbbbbaaaeeeabg|}[ c.c7 <83_[(7cc7  (<< .^!,ovtss*txp#wu;]'!~6^/4444..c7 <_}d|9gg999g0bbb0000bbaeeffhfa9}(4~j{,,'!^c[:gfnkllkmnnnnif0|:8(c/^6",
"^^/4c77c4^~j{,]{)+6^//6!{>5-u=u;>{'{]5-=vx*$%q%$t#vv#pxtttxpvwvp*$$*pw=wvpxt*s$&%%q%%sp;+[10g1|19g0baaeeffffhhhfffeeeeeffhhiiiifeabaab13 /6++~/731bab0g1||22||||||||||11912}[((8}|g0bbbbbbbbbbaeea1_7^6^. 8:10efeeeeeeeeaaaeefffffffffeb0123[((<8}d10afhinnnnihfa01:8<<[3d|||2d}38< c...7      (<<((7.^j,@o--u=v#pxxppxts&&$s*x#wu;@]'~c_9ehegd<4~!!!+!){,,'!~6+)''!^7<_}d10ehiifeaaaeeaaaaeeeabg1d3[(  (<83:d:3< 777    746j,5u#t**tp#vw=-;>{j~^4c77     (<_}d|19g00gg991|2dddd2|190baeeb|_7^!){,{)~4 _2gfnkllkmniihfb1:8(c4^~~",
"//4.7  7./6!){,{')jjj){>;uwvvwu;]'){>5-=w#xs&qq&*x##ppxt**tpv==#ts$*pvv#x*ssss$$$&&%q&t-j<1bbggg00baefhhhhhhhhhhhfffeeeeffhiiihfeabaab|8c^++~^.<}10bb0g9||22|||||||||||11|d3[ ([3290bbbaaaaaaaaeeb|8.6+64(8:1beffeeeeeeeaaaeefffffffffag|:87/6~647<3d9bfhnmmnihfa01:8((<_:21112}8(7.4//.c (<<[[88_88< 4+'>5;oo-=wvvvvvvpx***txpv=-5>{!^ }gfhfgd(/!))j!!j)')!6/4/6~64 8}d2|90einihfffffeeeeaeeabg12:38[[8_3:2191d_[(((  7c46j,@o=vppp#w=u-o;@]{j~/c(<888[[<[83d2199gggg9|d}38[<<[8_}:21900gd[.~){,,{!^7[}|gehnkkmnhffeb9d_(c4^~++",
"44.c ((7c/6+j'{{{{,,]>5-wppp#vu;])){>;-u=vp*&%q&stppppxt*s*pwuuvxsstpvvpt$&&$$sss$$%qqs=)(1aebbbbbaefhiiiihhhhhhhhhfeeeeeffhhihfeabaa02[4~!+6. 8:1g000g91|2|||111111|||11|d_<  <329gbbaaaaaaaaaeeb2[4+!~4(_d9beffeeeeeeeaaaeeffffffffeb1:87^j{,{j~4 8d9bfinnihfeag|}8((<8}2199|3<c4^666/. ([8__33}338<c6)]@5;;o-u======w#ppxppvwu;@,)~4<:0fif0: 6){{)j!!jj!6/c77cc7<_d|111gbeinnihhhfffeeaaaaa092:}3333}:d|90b01:_[[<( ./~j{@ou=www=u-o;5@>],'j~4 83}::}_883:2|11111912:_< c.444c7([_}d2|23 ^!',,{)~.<3d1gbfinmnhfab0923<c4^~~++",
"4..7 (( c4^~+j){,]>@5ouwpttxpw-5,)){>;-u=w#t$%%&stxppppt**tp=--=p**x#ww#ts$&$$ssss$%rr$w' |afeeaaaafhinniiihhhhhhhhfeaaaeeffhhhfeaaaa0d</!j+^c<_d|9g0gg91||||11111111111|2:8(c7(_d90bbaaaaaaaaaea0d</!j+/ _d9bfffeeeffeeaaaeeffffffhfe0|3(4!,@5@]'!^78d1befhhfeb092}8(([_}d|912_ 46~++~64c [_3}:::}}38 /!{>@55;o-uuu---u=wvvvvwuo5]'!^c8d0fih0:7+{>]{)!!!+~^. <<<<83d1gg99gbehnnihhhhffeaaaaab092:}::dd:}}:290092}_8<(c/~j{>5o---oo;;55>],{')j+^c[3d|112:33}d2|22ddd::3[ ./6+!!+~^/.7([8_8<.~){{')+/78:2|9gafiiifeb09|:8 .^6~~++",
".cc (<( c4^6~+j']@;o-u=vpttpvuo>{)){>5-uwvpts$&$*tp####pttxvu;;u#xxpw--=#t*ss$$ss$&qyy&v,72afeffeeefinnniihhhhhhhhhfeaaaaeefffffeeaaag: ^j)+/ 8}2|9ggg991||||11111199911|2}[7.. _290baaaaaaaaaaab9: ^j)!/ 8d9afhffffhhffeaaeffhhhhhhfegd87^)>;--o5])^ 8:1gbaeea092:38[[8}d211|}<.6+jjj!~^47<_}ddd::}38(4~),>@5;o----oooo-u====uo5]{j64 _20fihb:cj>5@]')j!+~/c([8__}d1g00g9g0ehiihfffffeaabbbbb09|2d2||2}8<<8}|11|d}_<74~),@5;;;5@>]>>@>]{)!++6/c(_:|9009|d:dd2d:}_8[[(7.^+j'{,,,{)j+~^/.c.46j'{)!647<3:d2|1gafhfea0g123[74^666~~",
"c77 (<( c4^^^6!']5ouu=wvpxpv=o@]')){]5o=vpx**ss*txp#vvv#pxpw-55-wp#w-5@;uvpt*s$$$$&ryy%#,cdbfffhfffhinnnihhhfffhhhfeeaaaaaeeeeeeeeeab9}7~)'!/(3d2|1999911||||1111999gg91|d3<c/4782gbaaaaaaaaaabb01376j)!^78:9ahhhffhiihfeaaafhiiihhhheg:[c~'@ou==uo]j/ 8}21g00g1d}3_88_3:2||2:_ /+j)')j!+64 8:22d:}}3_<c6j']@5;o---o;55;;oo--o;5]{j~/7<}|0eihb}.'5-o@,')j!~/c<8_3}:29g0g9190afhhfeeeeeaab000bb0g9119g9287/^.(_:222:_(c6)]5oo;@>{)jj',]]{j~^/4.7<8}290aa09|2dd:}_[(7c./6+){]@5;;5@>],{)j!++!j'{'!^c<8_3}}::21gaeeeb09|:_<74/^^^^^",
"7  (<<(7.4///^~)>;-u==wv##v=o5]{')){]@o=#xt***ttxxp#vwwv##v=o@@o=ww-@,{]5-w#ts$$$$&ryy%#,.:0efhhhhhhinnihhfffffffffeaabaaaaaaaeeeaaa013c+''!4<}2|11999991|||1111999gg0g9|d_ 4^^c820aeeeeaaaaaab092_c~)'j^7[:9ahihffhiniheabafhiiiihhha9}(4+{5-=vvv=5{~. <83:d2d}8<(<[8_3::d:}_<c6!)''')j!+^c[}22d}333_<7/+){>5;oooo;@>>>@55555@]{j~^c(8:10ehhb3/,-=uo>,{)j+/c<_3:d2|9gg91|1gbeffeaaaaaab0gg00bb0000ba02(^j)!/(_:22d_(4+{@o-o5]'!6^^+){{)+/.7(<[_}:|90aabg12d}38<7.4^~+j']@5o-uuu-oo5@>],,{{{{{j6c8}:}3333}:290aaabg12}8(74///444",
"(((<<<(7.4//4/6j];-u===wvvw-5]{')j)',@o=#t***txxxxp#vwwwvvwu;@>5-u-5,jj'];uvx*$$$$$%rr$v,cd0efhihhhiiiiihfffffffffeeaabaaaaaaaabb000g|_.!{{!48d|1999ggg99111111999gg00g9|d_ /~6.[20aeeeeaaaaaa0g1:[.+''j6c[:9ahihffhinifebbafinnniiihe1376)];uwvvv=;,!^4c7 (<<(7.//.7([[[[[[8[(.6!))))))j!6.(3dd:3333_[ .^!',@5;;55>],{{,,]]],{'j~^. [3d10ehf0_6>=#vu;>,{)+/7[3:d2199g91|2|10aefeaaaeeab00g0bbaaaaefhadcj]@{+c[}2|d_7^!,5--;>'!^.7c/+))!^. <[8_3}:d|gbb092:38< c4/6+!)',>5;-u=====u-o;;5@>],{)+4<:22}_8883}d1g0bb0g|d38(7.444...",
"<<<<<<(7.4/444^!,5o--uu===uo@,')jj)',>;=p*ss*txxxxxp#vwwvvw-5>>@5;5,j~6!{5-vp*s**t*$%&*='72bffhihhhhiihhffffffffffeeaaaaaeeeaab091|1|d84j,,j4829ggg0000gg99999999gg000g91d87^+~4<20eeeeeeaaaaa092}</!{{j678d9ahihffhiihfabbafinnnnnnie18.!{@ou=w=uo@{j+~~~~666~!){'!6.c.4//.7( c/~+!!!!!j!~/783}3_____[(746!',>>>],{)j!!jj))jj!+6^47(8}29bafe9[!;ptt#u;>,)+/7[}d|9gggg9|2dd|gbeeeeeeeeeab00baeefffhnna}/,o-@)4[:||d8c6j,@;;@,j64 <(c/~~^47([8888883:|9912}8(c4/^6~+!j){,>@5o-u=====uu-oo;5>,'+^7_d|d_[<<[_}d1g000g9|:38(7..4...c",
"[[[[<<(7.444.4^+'>5;oo--uuo5]'j!!!j){]5=p*ss*ttttttxp#vvvv=-5>]]>>,j64/+{5uvptttpppt**poj(|affhhhhhhhhhfffeeeeeeeeeeaaaaaeeaabg12:}:d:[/)]]j._|000bbaaab0ggg999gggg000gg1d8c6!!/<20eeeeeeeeeaa01d_ ^j{,)678d9ahhhfffhhfeb0bafinmmnnmne|<^)>;-uu-o5>,'jjj'{,,,]>5oo;>'+~!){'!^c 7./^6666+!!+^.([8_8____8< c/~!)''')j+6^/^^666^^//4.c [_:|9baea| )ut$sxw-5]'+/ 8:|90b00912:}:210aefffhhhfeaaaaefhiinnmma3~@wv-{/[:||:[.~),]>>,)~/c(88<7.4.7(<<[[<<((<8}22:3[ 46+!!!+!!j)'{,]>5;-uu====uu-oo5>{!^7[}22}[ 7([_}219g0g912:38< c...ccc",
"888[<< 7c.44.4/~),>@5;;ooo;@,)!+++!j',5up*$$s*tt***txp###vw-;>,{{'j6.7.~{;uvpxxpvwv#ppw@~[1effhhhhhhhffffeeeeeeeeeeeaabbb000g9|:_[[833</)],j.39baaaeeeeabb00ggggg00000gg1d_c~jj^(d0eeeeeeeeeeag|}[c~),,)67_d9afhffefffeab0bafimmmmnmne2 ~,5-uu-;>{)j!j){]@;o--uwvvwo>{{];-o>j/c7c.....4^~++647([[8__3__8< c/6+!!+~^/.ccc....cc7777 <83d|gbaeb27{=s%&*#=;>'+4 _d10aaa09|d}3}:|gbefhiiiiihfeefhinmmmmkmb8!opx=,/8d1|:<4+)'{{'j+^. [_3_[(   ((((( 77c7<_}}3[746j'{')!!!j))))'{]@;o-uu==uu--o5>)67[3:d}8 cc7<3:2199g91|2:38< 7cccccc",
"33_8[( 7c....4/~j',>@5;;o;5>'j+~~~+j',5=p*$$s***sss*txxpp#wu;>,'j!6. <76{;=v#pp#w==v##u]689ehhhhhhhhffffeeeeeeeeeeeaab091|d:}38(7cc [8(/j,{!c}gaeaeeeeeeaab00gggg000000g92_c+')~ d0eeeeeeeeeeagd_ /!{]])67_d9afhhffeeeaabbbehnmkmmmmmed7!>ou=uo@{!~6~+j{>;-=wv#pp#vu;@5u#xp=>+4c7c77  7./66^4c <[__333_8[< c/^6^/4.c7  77cc7  ((((<[_}d1gbaa0d7'=*&$*#=;])~4(_d9befa092:3__}290afhnnnnnihffhinmkkkkkn0[juxtw,4_|91d[.~j)))j+647<8}:}38[( 7777 7cc.c(8338(.^!',,{)!++!!j!!j){]@;o-uuuu--o;@,!4<}dd}_<c447<3d2|1111|2d}38<(7cccccc",
"::3_[( 7cccc../6!',]@5;;o;@])+6^^6~!)]5=ps$$$ssss$ss**ttxpv=o>{j~^.(88 6,o=v###vw==wvvu]^_gfhhhhhhhhffffeeeeeeeeeeeab092}8< c./^~~6/7( /!')~ d0eeaaaaaaaaaab0ggg000bbbb0g|_.!{'+7:gaeeeeeeefea9}<.~),>]'678d9bfhhhffeeaaaaehnkllkkmkmedc)5u==u;]j^..46!'>;uw#xxpv=u-o-wt&r%tu{~4.7 (<[< c.4.c7([_3}}}3___8< c.4.c77777cc...c77 ((<[_3:21gbaab2(!op*tpw-5,j6.(_d9affe012}_883d1gafinmmmmniiiinmmkkmnmh9<)utt=,.}90g28c6!jjj+~/. [3d2d:3[(c4/4.c7ccc7(83_[ 46!',,{)+~~~++~~+!),>5;--uu--o;5>'~7_d2:_<74//c<}d22222dd::}_8[( 7cc...",
"2d:_[(77777cc./6!){>@;;oo;@,j~^44/6+)];wxs$&$ss$$$$$$ss**tpwo@{!^c<_}3(6,owv#vvvwwwv#v-,^30hhhhhhhhhffffeeeeeeeefeea09d_(.^~!j)'{{)+4774~j!/[|affaabbbbaaeab0gggg00bbbbb013.!,,!c}9baaaeeeeffa1_76j{>@>'~c8:1bfhihhfeaaaeehnklFFkmnmna}4';=w=-5,+.  746j,5-wptxv-5@5-vtqADCqp5)64c <8__8[(    <83:dd}3____8[(777 ( 7c.4////44c7 ([83}d|90baea186]-vvw-;>'+/c<_d9bffag|d3_[8_:|gbehnmkkkmmnnnmmmmmnihe1()uxxu'7dbeb13 /~+!++647<_:2||d3[7/6~6/.c77 ([_33[746!'{{'!~^^^^6^^6~j{]@;o---oo;5>,j/(:|23[ ./^/c[}22d::}}}}}3_8[<(77c...",
"1|d3[ 777  7c./6!),>5;oo;5>{!64.c./+'>owxs$$$$$$$$$$$$$$s*xv-@{+.<_::3 ~]-wvvvwwwwvv#v-,/30hihhhhhhhffffeeeeeeeefea01d_ 4~j{,]>@@>,j6.c46+6c_1effab0000baaab0g99g00baaaab93.j,,j.31baaaaeeeffa|[4!{]@@>'~.[}1bfhiihfeaaaefhnkllmifeab18^,-wvwu;,+.(< c/+'>;=#xp=@''>ux&AGIHAsu,!^. <_3}}3_8[<(<8:2|2:}333338[<(<<<(7./^6666^/4c <83}d2|90baeeg}c!>;oo5>,j~47(8:|0eeag|:38[[_:|90afinkklkkmmmkkmmnhfe0d '-pp-j(1eheg:<c/6~~6^. [3d|1|:_<.6!!+^.7 (([83}3[ 46+)''j~^4444///^6!),>5;;oo;;@>,)~.8212_(c4^6/c8:|2:33_33333_8[<( 7c..4",
"g9|}[ 77 (( 7./6!',@5;o;5@]'+/.c7c/+'>owp*s$$ss$$$$$&&$$$st#=5,+c8:d:8c!@uvvw====wwvv=o'4}bhihhhhhhhffffeeeeeeeeea0|}[7/+',]>@@@@>,j~4.4^6/739ehfabb0000bbb09119g00baaaaa93.j]])4_10bbaaeeehha2(6'>55@]'+4(3|0ehihhfabbbaaefiihe012:}[.!@uv#vw->)^c77c46!{@-w#vo,!j>=*rCIKIC$=>)~/c([_3}}}38<((8}2||d}}}}}3_8[[[[[< c4^^^^^/4.7([_}d2|190baeeb2</j{]>],'!64c [3d90b012}_8[[_}290befimkllkkkkkkmnifa013c'-##;![ghnhb|_(c4/^/47<8}d||d}8 46!!~^.7(<[83}}3[ .^~!j!+^4.cc...4/6+){]>@5;55@>,'!^ 3|1d_ ./^^4 _d|2}_88__333__8[<(7c...",
"b01:8(7 (<<( c/~),>5;oo;@]{j64c7 c4+{@-wpt*sssssss$$$&&&&$*xwo]+c_dd3(/';=vwuoo-u==w=-@jc:aiihhhhhhhffffeeeeeeeea0|3(4~j{]@>>],,{')+6/4/^^4 39effeaabb0000g91||190bbbaaab934j]])4_|0bbbaaeehhad7!];o;@]'+/ 82gehhhfeabb0000bbbg|}[ c/6j]o=#pppv->)+^/44^~!'>ou-@'!)@wsyDHJHB$=@'+64c <[_33_[(7 <3d||2::}}}33_8888[<(7c.444.c7 <[_}d2|19g0baefe9}(/~j''')!6/4c [3d1912:}_8[[_:219g0afimkllkkkkkmnifb9d[/{-vv5~_0nmie9:8< ccc <83}dd:38(74^66^.7(<[8_3}:}8(c4^6~~^4c777cc.4/6+j'{]>@@@>>,'!6.<}11d8 c444c<3|123[<[8_3333_88[( 7c..",
"ab9d8(  <[[< c/+']@;;;;@]{)+^.7  c/+{5-w#xtt******ss$$&&&&st#u>j._:}<.+]-wvw-5@5o-uu-5,+ 2aiihhhhhhhffffeeeeeeaab9:(/!{>@55>,)!+~~6^////^^4(39affeeeaab091|2:::21gbbbbbb01_4)]])4_|g00baaeehia:.'5--;@,)+^c[:gaffeeab0g9||2||2}[7/+),>5-=vpx**t#=;]'!6^//^~),>>,)j';#$yCEGDy*=@{j+6/4.7([88(7.. 8}2222d:}}3__8888[[<(     (<[83}:d||19gg0bafhfa1}<c^+jjj!~6^4. [3d22d}3_8[83:21199gafnmkkkkkkmmnif02_76,-w=>63amknfb1:38[<<[_3}}}}_[ c.444.c <[88__}::}_< c.4/4.7 (( 7c.4/6~!)'{,]]]],'j~/78:11d8(7cc7(8:11d_<(<83}}}33_8[<( 7cc",
"fagd_< ([88[(c/!{>5;;;@>{)+64c7  c/!,5-=v#pxxxxxxtt*ss$&&&$*p=5)4[3[c~'5=v#=;],]5oo;5])^<|eiihhhhhhhffffeeeeeeaa0|_.!,5;o;5,j64c777c.//^^/.(}9affffeebg1d}_[<<[3d90bbb00g|_4)]])4_|g00bbaefhia}/,-=u;>{)+6.<}9bab0g91|d:3888[[ 4~)]5-wv##px*$&&$t#=;])~/4.4^+))j!j,o#$rABCA%xu@{)!+~~6/.7((7./4c(_}d22d:}3__88888[[[[[[[88_3}d22|1199g000bafhifb1:87/~!!!++~^/. [_}}}3_8[[83:2||||1gahnmmkkkmmmnieg:<4!]o=-,/}amknhag|2:}33}}::}}_[(c.4.7 <[88___33}:::38< 77c7 ([[<( 7.4^6~+!j)'{{{{'j+/c<_d1|d_<  (<8}|99d_<(<8}:::}33_8[<(  7",
"he023<(<[__8<7/+{>555@]{)+6/.7  7c^j];-=wwv##ppppppxt*s$&&$stv-,6 <76'>-w##=5,{,>55>,)~c_9eiihhhhhhhffffeeeeeeabg28/)@o-o;>'~.([88[ ./^^^/c<}9afhhfeb923(c4^^^47_290b0009284)]]j4_|g000baefiia}/,-w=;]'j+^.<}90g1d:3_8< c4///^~j,@ow#xt*tt*&qryrq&*#->)~477c/6~~+!{5wt&rzzr$p-@,)j!!j!+64c7c4//.7<83}::}3___88888888___333}d2|199ggg0000bbafhnifb9:[c^+!!!!+~^4c([____88[[8_:2||22|90ehinmmmmmnnie1_c~'>;o5).demmifag1|2d:::dd:}3_[(7..7<83}}}}}}}}:dd:}_8[(( (<[8_8[< c./^6~++!j))))j+^. 8}211d_[<<[83d1g9d_<([_:ddd:}3__8[<(((",
"ifb|3[<[833_[ 4+']@@]{'j+^/.77  746)];-uuu==wvvvwwv#pt*s$&&$*x=@!4c^)@-w#pp=;,'{,],'!6.[d0fiihhhhhhhffffeeeeeeabg2[/'@oo5]'~.<3:d:_(c/^^/. 8dgehihfa9d8c~),>>]{+c310bb009d[/j,,j._|g0g0baafiia}/,-=u5,)+6/c[:9g|}[ c4/~!'{,,,,]@ouvpts$&&&%rzABCCBy&x=@)^c( c4/^^~j]ovt$%q%*#-@,'jj)'{'j~/444//4.c ([8___888_____8___333}}:2|9g00000bbbbbbafhiiif0|_7/~!j)j!+6/.7(<[88[[<<[_}d22dd2|9bafhnnmmmnmne|[^)]@5@,~(|fnifa09|2dddd::::}}3_[(  <_:222ddd:ddd22d:}_8[<<<[_333_[< c.4/^66~+!!!!+647[3d191238[[_3:|gbg|3[[83d222d:}3_88[[[<",
"iha1}8[8_33_8(.6),],'!~6/.c7   7c/~'>o-u-o--u==uuuu=vpx*$&&&$*#o{~6j>-vpxxpwo]{'{')+/7[:1bfiihhhhhhhffffeeeeeeab9d[/'@5@,)~.<}|112}<.^6^47<3|0finheg28c!>-w##vu]~(dgbbbg|}</j,{!.3|g0g0baafine:4{ou-@{!~^. 8d91}(46!){]5ou===u=wvpx*s&%qqryABDEHIIGBqt=>!4 ( c.../~)]owxs&$*v-@,'jj',>]{j~^//44///4.7(<[[888__33_____333}}:2190bbbaabbbbbbaehiiifb13(46!)''j+6/.c (<<[[<((<83:22ddd2190afhinnnnmme2 +,@5>{!489fiha012:}}}:::}}}:::}38[83d1g91|22222|||22d}38[<[83}::}38<(7c.44/^6~~~6^/c(_:|9g9|}_8_3:29bab1:3_3:2|1||2:}__88888",
"nia9:_8_3}}38<c^!'{)+^4.77 ((( 7.^+{@o--o;5;o--oo;o-=w#ts&&%&sx=>))]ovxt*txv-@]{')!^78:10efhhhhhhhhhffffeeeeeea09d[/)]>,j^c[:1g0g1:<.^6^4 [}1bfiif028c+>=t$%%$tu{4_|0bbg23 ^j{'+c31ggg0bbefined.'5o;])+^47<_d2:<4!']@;-w#xtttxxxt*s$&%qrzABCDEHJLMLHB%xo{^7( 7777c4~)];wt$$*#u5]')){>55>{j+6/4./^66^4c7(<[8__3}}}}3333333}:21g0baaeeaaabbbaefhihfb1}<.^+)'')+6/.c7  (<<(( ([_}ddd:dd2|90afhiiiinna:.)5o5]j/(:gfhe012}_8_3}}}}3}:d22d:}:29babg9111111111|2d:38[[_}dddd:3_[< 77c.4//^^/4. [}21g001d3_3:21gaeag2:}:219991|d}3___333",
"nie9d3__}::}_<7/+))!6.7((<<<<( c4^!{@o-o5@@@5;;;5@5;-=vx*$&%&$*v;]];wx*ss*x#=o@>,'!^ _2gbefhhhhhhhhhhffffeeeeea09d[4j,]'~c[:10aeb9d<.6~64 [:1bffe02[.!>=*qzAAz%p5+731g09:876j''~731g0g0baefinf27!>5@,j64c([_3_(4!{>5o-=#x*ssssss$$$&&%qyABCDDEHKNOPLGzsw>+47   (( c^!{5wt&%$tvu5,)){>;;5>{j~/.c4^666/4c7(<[_3}:::::}}333}:d|1gbaeefeeaaabbaefhhhfb9:[7/~j))j+^/4.c7 ((((   <83:::::::d290efffeeff03/,ou;{~c820eebg|:_[[[_3}}}}:d|191|2|9bfhebg999999gggg912:3__3:2|||2d}_8[<( 7c..44.c <_d|gbab9d}3}d|9befeb12d219ggg912:}33}}}}",
"nieg2}33:d:}_[ 4~!!~/7([[88[[( c46!{>;o;@>]>@55@>>>@;-=#t$&%&$*pu;;=p*$$s*tpv=-;5]'~.8d90efhhhhhhhhhhhhhfffffea09d84!{{j/(}|0affe02[.6~6/7[}10aagd[4)5wsrCEGECzs=,6 }19|3(.~j')67}1g0g0baefinf1<6',,)+^c([8[ .6j,@o--u=v#xt*s$$$&&&&&&%rABCCCCEJMOOMIB%p;'6.7 (<<(c^j]-p$ryr%spu>'){>5;;@]'!^c7c4/^^/4.7 <[_}d2222dd:}}}:d21g0aeeffffeeaabaefhhhfb92_<c/~!j!~^/4.cc ((((777([_3}}}}}}}d|gaeeb0000|[~>u=;{^(}|0aa092}8<(<8_3}::d|900g99gbfiiha0g999g0baabb092:}3:d|1111|d:3_8[<( 77c77 <_}29beeag2:}:21gafhfa01119000009|2:}}::::",
"nif0|:}}:dd:3[ .6++6. [8___8[< c46!']55@>],]>@@>]]]>@;uvxs$&&$sxv==#t$&&$stxp#v=u;>)6 _d9befffffffhhhhhhhffffea09d8.+))+.82gaefhfb2[.~+~^.(_2g09d8.)5vsyCHIJIGBqxo'/<d|d87/+)'j6 }10000baehinh98.+jj+64 83_ /!{>;----oo-=w#xts$&&&&&$$&qzBBAzzBGLPONJDy*=>j^.7(<<(.~{;vsrBDCAr$#;{)']@;;5@]j^c((7c....c7 <[3:21111|2d:::d2|90beefffffeeaabaefhhfebg|:_<c/6~~6/44.cc (<( 777 <8_33333_3}29babg1|||: !5wwo'4[:|g00g1d3[( ([_}:d21g0aab000ahnnhebgg99gbefhhfeb9|d:d|19gg91|2d}3_8[<(  (<[8}210afheg|:}:|90efihfa0gg0bbabb09|d:::ddd",
"nif0|d::d2d:38(.^~~/c(8_33__8< c46+),>>>]{{,>@@>],,,>5owp*$&&$stp##xs&&&$s**ttxpv=o]j/ _d1g00g00baaefffffeeeeab01d8c~jj67}1baefffb2[4~!+647[}22:8c+>wsrCHJKKJHCysw@!732}<.6!))j^(:9000baefhnnh0} /666/c<3:_c!]5-uuuo;@@@5;-wp*s$&&&$ss$%rzzyqqyDJNPNKGA&po,!^c(<< 4!>ux%AEHHEBrt-,j){>5;;;@'~c(<<( 7ccc7 <83d19ggg91|dd22|9gbaeffhhfffeaaaaefhhfabg12:_<74///44..c7 (<<( 77 ([8_____8_3d9bbg|:}}}8.)ovvo'.8d|1999|d3[( ([_}d|1gbeffeabbehnnieb0g9ggbfinnnheb9|||1gg000g91|2:}3_8[<<[8_}d1gafiif0|::d|gbehiiheabbaaaeeabg122ddd22",
"nif01d:d222:38(c/66/7<8_333_8<(7.^~!'{,{'''{]>>],{{{,>5u#ts$$$s*txx*$&&&$s*****tpvu5{+4 [3::}}}:2|9g0bbbbbbbab09|:[.6!!/(dgaeeeee02<4+jj+647[__<c6{op&zDHJKKIGCy$#o)._d3 /~j))!/(:90b0baefhnnhb287.44.7[:d_4)@-uu-o5]{''{]5u#ts$&&&$s*s$%rr%$$%AHLNNLIDy$v;{~. << /j@w*rCGIIHDysu,jj{>5;oo5,+4 [[[[( 777 <8}21gbbb091|2||190befhhhhffeeaaaaefhfea0g912:_< ccccccc7 (<[[< 77 <[88____8_3d9001d_88[(/{ovvo)._d||111|d}8<<[83:21gbefhhfeaafinnieb0ggg0afnmkmnhe0999g00bbb0gg9|2d}3__8__3:d|gbehnnhb1d:210afinnihfeeeefffea091|22222",
"nifb12d2|||d}8<c4^^47<8_333_8[( c4^~+jjjjj)',]>],'')'{>owx*s$$ss*t*s$&&&$sssss*tx#wo>'+^.c77c.c7<_}d2119119g00g1d_(.6!+4[2beeaaaagd(^j''j+6/c7c4~'@=x&yCEHIIGDAr$p-'4_:_7^+j)j+/<:9bbbaefhinnia1}[( 7 (_:d84'5--;@]'!~~~+)]ovts$&&&$s**s$&&s**$yEKMNMLIDysv5)/ <<7^)5v*rBGHHGDy*u,jj{>5o-uo>)^c(8__8<(  (<8}290babbg91||19g0aefhhhhfeeaaaaaefffa0g991|2:38<((    ((<[88[<((<[88_______}290g|3[(  c6{oww;jc_:d222|22:3__3}d21gbafhiifeaafinnifab0gg0bfinmmnifa0000bbbbbb00g9|2d:}}3}}d21gbehnmmhb1dd|9bfhinniihffhhhhhfebg91|||22",
"nifb9|22|1|2:_<74^^4c([8____8[<(7c.4^^6~~+!){]]]{')jj),5=ptss$$s***ss$$$$sssss*txpvu;>{)!++!j)j+^c([_}::::d219123[ 4~+~.8|aeebbb01} 6),,{)!+66~j{@-wx$qzBDDDCAy%*#o'4_:_c6!j)j~4<dgbaaaehiinnieg238[<<[3::8/'@;5])+^.77c/~'5wxs$&&$s**ttttxppx*rCILNNNLIDys=,^ [(c6'5w*%ADEEEBrt-{!j{>5-u=-5{+/7[_338[<<<[_}290baab0g91119g0aehhhhfeabbbaaaeffebg91111|2d:}_8[[<<<[8_33_88[88__333333}:|909d8 c../+,o=u@!c_:::dd2222dddd219gbafhhihfeaaehiihfab0gg0befhinniheaaaaaaabbbb00g9|22d::d2|1gbehimkmia92210ehinnnnihhhiiiihhfa0g91||||",
"iifb9|2|1112:3[ .//47([8___88[<<( 77cc.4/6+j{,],{)j!+!'>-vxtssss****sss$$$sss**txpv=-;@>,,,>@5@])~/c (<[[[8}d22}8(c/6~6c_1babg999|37~']],{''''{>5-w#x*$%yzzzyq%stvo'4_:8.~j)j!6.[dgbaaefhinnnie01d}__8_3:}[/)>@,j^7[_}38 /j@=xs$&$$s*txp#vwwwvx&AEJLNPNLICq#>6 [(c6'@=x$rABCBz%xo{!!{>;-=w=o>)~.<3::3_8888_:290baaab0g991990aehhhhfeab0bbaeeeea091||111111|d}3_8888_3}}}3___33333333}:d1g01:<c4/^6!,;-o]+7_}:}:d2||11199g0baeffhiihfeaaefhhheab00g00baefhiihhfeeeeaaabbbb00g91|222|190behnmkkmia9||9bfinnnnniiiinnnniifeb0g91|||",
"iifbg1||191|d38(c44.7<[888888[[[<<<((( c4^~j'{,{)j++~+)];=#xt****ttt***ss$sss*ttp#vw=-o;55;ou==o>'!~^/4..c7<_}}_<74^66/ 31001222|d_c~']]]]]]>@;-=w#pxts$%qqq%&stpw;'48}[.+j)j+^c82gaaeefhinnnifb92:}3__3}_</j{,j^ _d19|:<4!@=xs$$$$s*tpv=--o-=#*qBEILMNMJEzt56(8[7/!,;wxs%ryyr&p;'+!{>;-=ww-5,!/(3d2:}3__33:21gbaaaab0g9919gbefhhhfab000baeeeabg9||||19ggg9|d:3____3}}}}33333333_33}:d|9gg|}<./6~!)]5;5{6(3::::d2|19g0bbbaaefhhiiihfeaaaffhfeaab00000baefhhhhhhhfeeaabbbbab0g991119g0aehnmkllkieg11gahnmmnnniiinnmmnnihfab0g9111",
"nifag1|1999|d}_<7cc7([8888888[[[[[[[[[(74^+j)'')!+~66+j,5uw#pxxxxxxxxtt*sssss*tx#vww===u--uw#p#wo@,')j!!+~^. [8<7./^^/.(}|9|:__3::876),]]>@;-=v##pxxt**s$$$$s*tpv=5)483<4+j)!~/7_|0aeefhiinnnifb92d}}33__[ 4~j!67_20aagd[.!>=xs$$$ss*tpw-5@@5ou#sqzDGIJKJGA*;6<3_<7/!{@-vx*$&&sv@)~!'>;uwvw=o>'6732|2d:}}}:d2190baaabb0g919gbeffhffabgg0aeeeeabg1|22|19gggg12:33____3333___888888_3}d|1gg923(.^~j){]@@]j4[:22d22|19g0baaeeffhhiiiihfeaaaeefeeaabbbb0000bafhhiiiihfeaabbaaeeab0ggggg0aehimklllknf0990eimkmmnnnnnnmmmmnnhfeb00g999",
"nifag1|199912:3[(  ([____88888888____8<7/6+j)))!~^^^6+),@ouwv#######ppxt*ssss*tpvw==wwwwwwvpt*tpwo5@>>]],{)~47 7./^/4. [}22}8( <_3_ ^!',]>5uvxt*ttt***ss***ttxpvw-@)4[_(/!)j!64(3|0aeefhiinnnie012:}}3_8[(7.^6/c82gehf0d[4j@=xs$$$ss*x#=;>,,,>;uvt$qzCEGHEA*;6[dd}_<c^!{@-wp**x=>!~+'>;uwvvwu;,+c_|11222dd222|1g0aeeab0g911g0aefffea0gg0aefeab091222||19gg9|d:3__888____8[[[[[[[[8_:21g0g923(.^!',]]],)673211|119gg0baaeeffhiiiiihhfeabaaaaaaaaaaab0ggg0bafhinnnihfeabbaefffeabbbbbafhimklFFFlmha00afnkkmmnnnnnnmmmmmniheab00ggg",
"nihag9119991|d}_[<<[_3}3_888888__333_8(c/~!jjj!~^/4^6!){>5o-=wwww=wwvvpxt*ss**x#wu-uwvvvvvvpt**xvu-ooo;;5@])~4c./^^/.7<_}:}8 .. [3_(.~j',>;wxs&&$ssssss*txpp#vvwuo>j4<[7^!)j+^.<}10aeeffhinnnie0|:}333_[( 7c.c [:9ahif0:(/)5=xs$$$sstxv-@{))){]@o=#t$qyBDDA*;6821|2d3<c6)]owxtx=]+6+'>;-=vvw=-@j4_|991111|||22|90baeaabg91190baeffea0ggbaefeabg9|2222|11991|d}3__888___8[[<<<<[[[83:|g00g1d3<c^!{>@>,)~.[:1gggggg00bbaaeffhhiiiiihfeaabbbaabbbaaeeabg99g0aehnmmmihfeabbafhihfeeaaaefhinklFFQFlkieaaehmkkkmmnnnnmmmkmmnihfaabb000",
"nnha09119g9912d}_88_}::}3_8888__3333_[(.6+jj!+~^/44^~!){]@5o-uuuu--u=wv#xt***txv=-o-=wvww=wvptxpv=--uuu--;@{!^//^6^/c [_33_<c447[}}8 46!'];wt$%%&&$$&&$*x#vw===u-o>)/ (c6j)j~/7[:1baeeffhinnnheg2}3___8<(777 <8:1ahnnhg} 6'5wxs$$$$stpwo])!+!j',>5-w#t&yBCz*;68|99912}</j>ovtstw>+^~)]5-=wvvwu5'/[29999999912221gbaaaab0g99g0baaeeeab00baeeea0g1|2222||1991|2:}}3333333__88888888_}d90bbg1d3[7^j]55>'+4(3|g00000bbbbaaeefhhiiiiihhfeaabbbbbbbbaaefeb0g9g0afhnmkmnifeabbehiniihfeeefhinmlFFQQQFknheefimklkkmmmnmmmkkkmnihfeaaaabb",
"mnhe09199ggg912:}3_3:dd:}3____33333_8<74~jjj!~6/44/6+j'{,]@5;oooo;;o-u=w#pxttxpvuo;ou==u-;o-=ww=u-o-uuuu-o5,)~^^^^^47(<888< .44 8:2:_(.6j,5=ps&%%%%%q%&*p=u------o@'6.c/+)'j~4 8d9baeeffhinnnhe9d3888[[<(  ([_:|0fimmf93c+,ovts&&&$stpw;,j~6~+!)',@;uvx&zAy*;6[d119123 ~]ups%q&#@+/6j]5ou=wvv=o,6<:199gg00g1|22|90baabb00ggg00bbaaaabbbaeeeab091|2222||19991|22ddddddddd:}}}}}}}}:21gbabg1d}8 /)>oo@)^78d90bbbbbbaaaaaeefhiiiiihhffeaaabb000bbaefffeb000aefimkkmnifeabbehnnnihhffffhnmklFQQQQFlmiffinklllkkmmmmmkkkkmmnihfeeeeaa",
"mniebg99g000g912:}}:d22d:}33333}}3_8< .^+))j+6//4/^~!)'{,,]@5;;;5@@@5;-uwv#ppp#=-;5;o--;>,,,>@55@@5;-uuu-o5]'!~6^^/.7 (<<( 7..c<3|992}<.~'>-vts&%qrrrr&*v-555;;ooo5,!//6j''j6.(_29baeeffhinnnha9:_[<<<<<((<83d|gahnmnf18.!]-vt$&%&&stp=;{+^/^6~!j'{]5-v*qyrt;~(}22|2:[/{ut%zBBy*;!/^!,@;-=wvvw-]~ 3219g0bb09|2d|1g0bbbbbbb000000baaaaeeeeeaa0g91|2222||19ggg999119999g9911||||||119gbaabg12:_(4)5uu@j.[:|gbabbbbaaaaaeeffhiiiihhffeeeaabb0000baefhhfeaaaefinmkkmnifeabbehnnnnihhffhinklFFQQQQFlmniinmllllkkkkmmkkkkkkmmihfffffee",
"mnifbg9gg00b00912::d2||2d:}}}}}}}3_[(746!))j~/44/^6+j)'{{,]>@55@>]]]>@5ou=wvvvwu;@>@5;5]'!~~!j)'',]@;---o5@,'!~6^/4c77  77cccc 8dgaeb1}(^)];=#t$%qyyyr%tw;>]>@5;oo;])~6+){{j6c[}|gbeeeffhinnnha1:8<((((<<[83d1gbfhinne|[/)>-#t$&%%&st#u5'~/4/^6~+j){]5ux&r%x5~ 3:dd:3 ~@pqAEHGB$-!44+{>5ou=wvwu>!c8:|90bab09|22219g000bbaaab0gg00baeefffeeab0g91|222||119gg00000bbbaaeeaabbbbbbbbbbaeeeb09|d}[4);==5j73|g0bbbbbbaaeeeeefhhiihhhfeeeeeeabb0000baefhihffffhinmkkkmnhfeabbehinnnihhffhinklFFFQQFFlkmnnmkllFlllkkkkkklllkkmnihhfffff",
"mmifb0gg0bbbbb092d:d2||22d:::::}}38[(746!))!64.4/6~!j'{{{,]>@55>],{{,]>5;-uuuu-;@],]>@>{!^.../^~+j{]5;o;5>]{)!+6/4.........c7 [}1ahnia2<^)>;uvxs&qyyyq$p->{{,>@;o-o@{j!j{,{j^78:10aeeeffhinnnha1}8<((((<[83d|gbehhinia|[/)@-vx*$&&$*xv-@)~/44/^6+!){]5ux&r%x5~ _}::}_ +5xrCGIHC&-+c.~']@;-uwvvu5)4<}290aaabg122|19ggg00baeea0gg00baefhhfeab0g991||||||119gg000bbaeeffffffffeeeeeeeefffea09|2}[4';w=5! :900bbb00bbaeeeeffhhhhhfeeaaaaeeaab000bbaefhihhhhhinnmmkmnihfeabbafiiiihhffffhnmklFFFFFFlkmmmmklFFFlllkkkkllllkkmnnihhhhhh",
"kmnfa0gg0bbaaab9|d:d2|||2ddd:::}3_8<(7.^+!!~^..4^~+j)''{,,]@555>,'))'{,]@5;;;5@]{)){,],)6. (( 74^+),>55@]{')j!~^/..44/^^/4.c([320fnkme|(6{@ouwp*&qrr%$tw5{j){]@;--o5]')',],j^ _d90aeeeffhinnnha1:8<(((([83:|9befhhhiha|[/)>ow#x*ss*t#=o])~/44/^~+j',@owt%r%x5~(3::::3(6@pqBEHGB$o~77^),>5ouwvv=;'^ _d9baeabg9|||11999g0baeeab000baefhihfab0g99111111111999ggg00bbaeeeffffffffffeeeefhhfebg12:[4';w=5+(2g00000gg0bbaeeffhhhhfeeaabbbaaeeab000baaefhhhhhhinmmmmmniihfeabbaehhhhffeeefhimkkllFFFllkkmmkllFFFllllllllllllkkmnniiiiii",
"kknha0g00baeeebg|d::d|||22ddd:}}38[<( c/6++6/..4^+!j))'{,]>@;;5>,)j!jj){,]]],{'j+~+j'{{!^c<888[ .6!']>>]'j+~~~6^4../6~+~6/.7[}2genklke27!>ou=w#ts&%&stvo]j+j']5o-u-;@,,,>>,j/(32gbeeeeffhinnnha1:8<(((<[_}210afhhffhha|[/j];uw#pttx#w-5,j~///^6+j',@;=#sryqx56<}::::}[/,wsrBDDz*5^( /!{]@;-=v#wo,+.[:9beeab0g911111199gbaefeab0baefhiihfa0g9991111199999919999gg00bbaaaaeeeeeeeeaeefhhhfe09|:[4';==@+<2g0ggg999g0baeffhhhhfeab0000bbaeeabbbbaaeeeffffhhinmmmniihhfeaabbaefffeeeaaaefhnmkkllllllkkkkklFFFFFFllllllllllkkmmnnnnnnn",
"lkmha000bbaefeag|:}:d2||222dd:}3_8[<<(7./66/.cc4^+!j))'{]>@5;;5>{j++++!j)'')j+~^/4/~j')+/7[_}}3[7/~j{]]'!6//^6^/4..^~!j!~^. _2geikllma:.';=wwwvx*$$*xv-@'+~!{>5o-u-o5>]>@@,j/<}10aefeeffhinnnha9:_[<<<[_3d|9befhfffffb2[/j,@ou=v###wu;>{j~^//^~!),>;uvx&yzrx5^[::::dd_c)op$rAAqp]4[<4+',>5-=v#v->!/(}9aeeab00gg9111119g0aefeabbaefhhiihebg9111199999g999111111199gg000bbbaaaaaaaaaefhiihfbg2}(/';uu>~<2gg9999199g0baefhhhfeab0gggg0baeeeabbaaeeeeeeeefhinmmmnhhffeeaabbaaaaaaaabbaaefinmmkkkkkkkkkkllFFFFFFllllllFFllkkmmmmmmmmm",
"llmieb00baefffag|:}:d2|||222d::3_8[[<< c4//4c77.^~!j)'{,]>@5;;@]'!+~6~~+!!!+6/4c7 c/+jj+/ [}d2d_(.6!',,)~4..4//4.c.^+j)j+6.(3|bhmllln0_^]uv#vwv#xttpvu5,)++j{@;o-u-o;@@@55]j/[d90aefeeefhinnnha9d_8[[[83:21gafhhfeeffb2<^)]@;o-uww=u;@,'!~6^^6~!',@;uvx&yzqx@/8::}}dd} +@wt&qq$w{c8[c~j{]5o=v#vu@)^ }9afeabbb00g91111190befeeaaeefhiihfa091111199gggggg9911111999gggg00bbaaaaaaaaaefinnnha9d_76{5u-]6<29g9991199g0baeffffeab0g999g0baeeeaaaaeffeeaaaaefhnmmnihfeeeeaabbbbbbbbbbbbbaefhinmmkkkkkkkkkllFFFFFFFllllFFFllkkkkkkkkkkk",
"Flmifabbaefhhheg|:}:d2||||22dd:}_88[[[(7.44.7( 746+j',]]>>@@@@>,)!~6^^66~~~^4c <[[(.6!!~4 8:|1|}<c^!',{j6.77c44.cc.^+jjj+6.(31bhmkkmf1<+5vxx#vwwv#v=-;>{)!!']5o--u-o;55;;;>)/[dgbaeeeaefhinnnha9d3888_3}d|90aefffeefebd(6'>@55;o-u-;@]')!~6666~!',>5-=p$qy%p>4_:}33:d:<^,-#tssxoj7_876!']@o=#p#=5{~739afeabbaab0g111119gbaeeeeeefhhhhfeb09111199ggg00gggg9999gggg00000bbaaeeeeeeeefhnmmmie9}<4+,5o;,^[29999999gg00baeeeeaab0g91199g0aeeeeaaefffeaabbbaehimmnhfeeeeeaaabb000000000bbaefhinnmmkkkkkkkllFFFFFFFllllFFFlllkkkkklllll",
"Flknfeaaefhiihe0|d::d2|||||22d:}3_8888< c4.c <<(c/~j{]>@@>>>],{'j+~6^//^^^^4c([_}}87^+!~4 8:|91:[c^!',{j^c  7ccccc./~!!!~^4(3|bfnmnia27)-xs*xv==uu-;5>,{))',@;o----o;;;;o;@)/[2gaeeeaaaehinnnheg2}___3}:2|90aeffeeaee0:7+,@55@55;o;@]{)j!+~~~~+!){]@5-wt%r&#].3:}8_}dd8/';=#ppw@~(387^+),>;=#xpw;,+c_1efeabaaeabg911199gbaaeeeeffhhhfeabg9111999gg00000000000bbbbbbbbbaaeefffffffhhnmkkkne1_c6)]5;@'/[d1999gg000bbbaaaabb00g911199g0beeeeeeefhfeabb00bafinnihfeeeeeeaab00ggg000000baefhiinnmmkkkkkkllFFFFFFFllllFFFFllllllllFFFF",
"FFknhfeefhiinif01d::d2||111||2d:}3____8(7.c7<88[ .^!{>55@>],{')j!+~^//4///4c <_}dd3(4~+64 8:1g9d87/+){{j^c((( 7777c46~++~^4 _2geinif0}.,ws&$tvu-;5@>],,{{{,>5o---oo;;;;o-o@)/8|0aeeeabbefinnnheg2}__3}:2|190baeeeaaeag}cj>;;5@@@55@>,')j!!!+~~+!)',]>5ux&q&v,c3:3[[3dd84'5uwvwo,6<38 /~j'];u#xxvo]!481afeaaaeeeb0g99999g0baaeeefffffeab0g911199ggg0000000bbbaaaaaaaaaaeefhhhhhhhhinmkllkne|[/j{>@@,!.82199g00baaaaabbbb00gg9111119g0baeeeeefhhhfab0000behnniheeeeeeeaab0g99gg00000baefhhiinnmkkkkkkllFFFFFFFllllFFFFllllllFFFFFF",
"QFlmihffhiinnifb12dd2|1119911|2d}33333_[ 77([__8(c^!{@5@>]{'')j!!+~6^/4444.7([_:||:[.^~^4 [}|g92_ 4~j''!^c(<<(((  c4/6~~6^47[:1bfiheg}4,v$%&tv-;@>,,,,,{{{,>5;ooo;;5555;oo@)4_1beeeabbbafhinnieg2}_3}:d|19g0baeeeaaab1_/'5--;@>>>>>]{'))))j!+~~+j)'{,>-p$q&v,c}:_<<_::[^{o=vwu;{^(_8 .6+),@uvxxv->)/[|afebbaeeea0g9999gg00baaeeeeeeaab0gg999999ggg000000bbbaaeeeeeeeeeefhhiiiiiiiinmllllme2(6']@>,)673|9ggg0aaeeeaabbb00gg99111119g0bbaeeeffhihfeab000behinifeeeeeeeaab0g999g0bbbbbaefhhhiinmmkkkmkkllFFFFFllllllFFllllllFFFFQQQ",
"RQFlmiiiiiinnifb9|22|1199gggg912d}}}::}_<(([_}}_<c^!{>@@]{')jjj!!++6^/444.c7(<_:|12_7/^/. [}29923<c^+jj+^c <<<<<<(7c4^^666/c<32gehheg}.,v$%$x=o@],{{,,],,{,]@5;;5@@@@@@5;;>j.39aeeeab00befhinie9d3__}d2|190baaeeeeab02<6]-==-5@>>]],{{{{{{{)!~6~+!j){]op$q&#,c}:_<<_::(+@wxxpwo,~7[[(c/6!'>owppvu@'^<2beabbbaaab0gg999ggg00bbaaaabbb000gg99999ggggggggg000bbaaaaaeeeeeffhhiiiiiiiinmklllmad7!]@@]'+4<:9000baeeffeeaabb0ggg991111199g0bbaaefhiiihfaabbbaehiiifeeeeeeeeab0999g0baaaaaeffhhhiinmmmmmmmkkllllllllllllllllllllFFFFQQQ",
"SRQFkmnnnnnniifag911199g00bbbbg12:::dd:}_[[_}:}_<c^!{]>]{)jjjjjj!!+~6^//4..c ([}21|3(.44c <3d112}[ .^~~6/.7([888[< 7.4/^66^. 8:1bfff0:c{ws&spu5>,{{,]>>],{{,]>@@>>]]]]]@55]!c}gaeeab000baehinie9:_8_3d219g0baaeeeeab9: !@=#vu;@>]]]]]]]>>>]{j~^^6~+!']op&r%p]c}:_<<8}37'ut$$*#u>!4 <(7./~j,;=#pvu5{~ :gab000bbb00gggggggg0000bb00ggggggggggggggggggggggggg000bbbaaeeefffhhhhhhiiiinmkllkna:.)@;@{+4(3|0aaaaefffffeaabb00gg999111999gg00baefhiniihfeaaaefhiihhfeffffeeabg999gbaeeeeeffhhhiiinmmmmnnnmkkllllllllllllllllllllFFFFQQ",
"SRRFlmmnnnniihfa0g9999g0bbaeeabg|d:dd22:}_3}dd:_<c^!',],)!++!jjjj!!+~6^//4.c7 <3d1|}[7ccc <_:|12:_<7./^^/.c([_3_8[< 7c4/66^47<32gaff0d7{=*$*vo@,{'{,>@@>,')'{,]],,{{''{,>>{+7:0eeeab0gg0befinie9:8[83d2190baaeeffea01}7j5w#vu;@],,,]@55;;;@,j~///^~!)]-x%zrx>.3:8( [8[/]#&rq&tw5'6c ( 7./+'@-w#v=;]+7}900gggg00ggggggggggggg0ggg999999ggggggggggg9999999ggggg00bbaaeefffhhhhhhhhhhinmkkkib3/{;o@'^ _2gaeeeefhhhhfeeaabb00gg9999999999g0baefhinnihhffeeffhiihhffffffeeabg9990aefhfffhhhiiiiinnnnniiinmmkkkkkkkkkkkkkkkkkkllllFFFF",
"QQFlknnnnnniihfeb0gggg00baaeeeag|d:dd22d:}}:22d3<c^+){,'j+~~+!jjj!!!+~6^/4..c <3211d8(777 <_:|1|d}8<7c.44.c([3}3_8[<(7c4/^^/c(8:1bee0:7'utstw;>{')',@55>{)jj)''''')jj!j)'{j^(20eeaab0gg0befinie9}8[83d|1g0baaeeffea0137!>uw=o@],{{,@;-u=u-;])6/4/^~!'>-trAyt@4_}[7c7 c+5p%yr%*#o]!/7((( .^j];=ww=o>j._1gg999999999999ggggggggg991111199gg000ggggg9999999999ggg00baaeefffhhhhhhhhhhinmmmnhg_^,o-@j.8d90effffhhihhfeeaabb00ggg999999999gg0aefhinnnihhhfffhhhhhhffhhhfeeb0g9990afhhhhhhhiiiiiiiiiiihhhiinmmmmkkkkkkkkkkkkkkkkkkkkkk",
"kkmnihhhinniihfebb00g000bbaaeab9|d::dddd:::d2|d3<c/+){{)!~6~+!jjj!!!!++~6^4.c [329923<   (<_d1912:38<( 7cc7(83}}3_8[<( c4//4.7<3|0ab9}c'-ptxw;]'j!j{@;;>{!~~+jjjjj!+~^^~++6c8|beabb0000baefinne1}[<[3d|9g0baaaeefea01:<^)>5@]')j)'];=#ppv=o>)~//^~!){@=syBz*5/8_ 4^^^6'op&rq%spu@)6.([[<74~'@-===-@)48299111111111119999999999111||1199gg0000gggg9999999999ggg0bbaaeefffhhhhhhhhhhinmmnie186]oo>+ }|gbaeeffhhiihfeeaabb000gggg9999999gg0aefhinnniihhhhhhhhhhhhhhhhffeb0g9990afhhhhhhhhiiiiihhhhffffhhhinnmmmmmmmmmmmmmmmmmmmnnnn",
"ihhfeeefhiiihhfeab00000000bbab092:}}}:::::d2||d3<7/~j''j+66~+jjj!!!!!!!+~6/.7(8}|gg|}[(((([329gg12:}_8<(   <83}}}3__8[< 7..4.c 8dg0g|_.'o#x#=5])!~!{@o;>'~^^6~+!!!+64c7c.4c<}9aaa00000bbaefimnf13<([3d190baaaaeefeab92_ /+!!~666+)]-ps$sxv->)~/^~!){>;v$ADB$;^[[c~!j)'>-ps&%&sxw;,!/ 8__<c^j]5-u=u;{^[d11|||||||||||119911111111|||1199gg00000ggggggggggggggg00baaeeefffhhhhhhhhhhiinnif02<~];;]~<d9g0baaefhiiihffeaabb000gggggggggggg0baefhinnniiiihhhhhhhhhhhhhhffeb0g999gbeffffffhhhiiihhfeeeeefffffhinnnnnnnnnnnnnnnniiihhhh",
"eaab000afhiihffeabb000000000b0g12:}}}}}:::d2||d3[746!))j+66~+jjj!++!jjjj+~^47<_d1001:_[<<<8}|g0g9|d:}3_[<(<[_}::}}3333_[( 7c..7[:1g1:</';w#vu5,)~6~'@oo>)64./^6~++~/7<8[<<[3|0aab0g00baaefhnmmf13<(<3d1g0baaaaaeeeeb01d3[ 77  7.^!]=*qr%*#->)6^6+){]@-#&BEC&o6((4!',>5-wp*$&&$*#u>)^ _}}8 4~'>;-=uo,6<:||2222222222||11111|||||||||1199gg000000gggggggggggg000bbaeeeffffhhhhhhhhhhhinifa9} ~,;5{^8|g0g0baefhiiihffeaabbb000gggggggggg00baefhinnniiiiiihhhffhhhiihhfeab0g999gbaeeeeeffhhiiihfeaaaaeeeeaefhiiiiiiiiiiiiiiihhfffeee",
"00g99190ahiihffeaabbb000ggg0bb09|d:}}}}::d2|||d}[ .^+jj!~66~+jj!+++!j))j!~^47[329bb9d38[[8_:|0bg12d::}3_8[[_3:dd::}:::}38[( cc [:11d876{;uw=o@,j~^~'@-o@)^cc4/6~~~6.(_::}}:2gbea0ggg0baeefhnkme|_( <_d1gbaaaaaaeeeeabg9|d:}}3_[ .+]w$yAr$#->j6/6!',>;up%CGD%-~  /j,5-=#x*s&%%%$tw;{~7_dd3[7^j,@ou=-]~(}222222222222||111|||||||||||1199gg00000000ggggggggg000bbaaeefffffhhhhhhhhhhhiiieg2_c+,5@'439b0gg0baehhiihffeaabbb00000gggggg000bbaefhiinniiiiiiihffffhhiihhfeab0g999g0baaaaeeffhhiihfebbaaeeaabaaefhhhhhhhhhhhhhhffeaabbb",
"111|22|9bfiihffeeaaabb00gg00babg9|2d:}}:d2||1|2}8(c/~!!+~^^~+jj!+~~+j))j!~^. [}|gaag|:3___}d100g|d:}}}33___}:222d::dd2dd}38[( (_d|23 /!,@o-o5]{!6^~'5--@)^cc4^6~+~6.<:|11|1gbeea0g9g0baefhimkne|8 7(_290baeeaaaaeeeeab00g99112}876]w&ABz&p-]!^4^+']@;uxqCGD%u!c7^j]ovts&%qrryyqsp->!c32|:_(4~)];u=->+ 3d2222222222|||||||||||||||||1199gg0000000000000000000bbaaeefffffhhhhhhhhhhhhiihb1}(4!,@>j.}gab00bbaefhiihfeeaabbbb000000000000bbaaefhhiiiiiiiiiihfeefhhiiihfeab0g999g0bbbbaaaefhhiiifeabaeeeabbbbaeffffffffffffffeaab000g",
"|22d::d|0ehihfffeeeaabb00g0baeea0g1|d::d2||1112:_<746+++6^^~+jj!+~~+!))j!~^.(8:|0aa092:}}}:29001d}3__33333}d|11|2dd2|111|2:38[8}2|d[4+']>@@@],)!6^~'5u-@)^../6~+++6c[d9000baeffa0999g0befhimmna2[7c(_29baeeeaaaaeeeeeeaaaabbbg23(^,w&ACz&#o,+4./+']@;uxqCGEq=)4c/j]ux&rzAAABBAy%tw5j.3|12}[7^!{5-=->+73d2||||||||||||||||||||||||||1199gg0000bb000000000000bbbaeeffffhhhhhhhhhhhhfhhhf0d8c^j,>,!7:0aabbbaeefhiihfeeaabbbbbb00000000bbbaaeeffhhiiiinnnnihfeeefhiiihfeab0g9999g0000bbaaefhiiiheaaaefeab00bbaeeeeeeeeeeeeeaab00g999",
"ddd:}3}29afhhfffffeeaabb000befhfeb09|222|119112:3[ .^~+~6^^~+jj!~66~!jj!+6/c(_d1beeag1|2dd21g0g|:_888__3}:2|9gg9|22|1gg0gg12:}}d||} 6']>]],,{')+6^+{5uu5'644^~+!!+6c82gaeefhhhfa0g99g0bafhimmibd<cc _2gbeffeeaaaaeeefffffeeffa9:(^,w&ABysv;'6.74~),@;=xqCGDqw'/./!]=syBDDDEEEDBrs#;)4_|9|:_(4~)>ou->!7_d||19911111111||||||||||||||1199gg000bbbbbbbbbbbbbbbbbaaeffhhhhhhhhhhhhhhfffhhe9}(/+),,'~ d0eeaaaaeffhiihfeeaabbbbbbbbbbbbbbbbaaaeeeffhhiinnnnniheaaefhiiihfeab0g99999gggg00baefhinihfeaeefeab000bbaaaaaaaaaaaaabb0gg9111",
"2d:}3_3:10aeffffffffeaab00baehhhhfa091|1199991|d}8<c/6~~6^6~+!!+~66~+!!+~^47<3d9befebg91111900g2}8[<[8_}:2190bbg9||1g0baaa09|dd|1|3c+,>>]{''))j+66+{5--5'~/^~!jj!+^c820ehhiiihfabg99gg0aefinnh0:(.. 82gaefffeeaaeeeffffffhhiifg:(6,=sry%xu>!/7 .~']@o=x%BGDqv{^.4+,=szDGGGGHHGCz&po'48|91d3<c^j];u->!c8:219gg999999111|||||||||||||1199gg000bbbbbbbbbbbbbbbbaaeefhhhhhhhhhhhhhhhfffhhe1_c6j'{{j^<2bffeeeeeffhhhhfeeaabbbbbbbbbbbbbbaaaaeeeeffhhiinnnnnifeaaefhiiihfeab0g991999ggggg0baehinnifeeeeeea00gg00bbbbbbbbbbbbb00gg9111|",
"|2d}3__}d1gbaeeffhhfeeaabbbafhiiiiheb0ggggg991|d:3[746~~666~+!!+6^^^6~~6^4c 8}2gafhfeab0ggg0b0923[<<[83:21g0aeebg99g0aefffeb91|1913c!]@>,')jjj!+66+{@oo@{!~+j)')j~/7_|bfiinnihfeb0ggggg0aefinh0} 44782gaffhhhffffeeeeefffhhiifg37+]ux$$t=@)^7<(.~'>5o=x%BECqv,644~{u*yCEGHHIIHDA%x-{/[2912}8 4+{5o;]!.[}21g00gggggg911111111111||||1199gg00bbbbaaaaaaaaaabaaaaeefhhhhhhhhhhhhhhhhfhhha|[/!'{'j~.8|affeeefffhhhhhfeeaabbbbbbaaaaaaaaaaeeeeeeeffhhinnmnnifeaaefhiiihffeb0g9911199999ggbaefiiiiheeeeaab0gggg00000000000000gg9991111",
"91|:388_}21g0aefhhhhfeeaaaaaefhinnnhfeabbb0g91|2d}8(.^~~~66~+++~6////^//4c <_:|gafiihfeeaaaaab9d_<(<[_}d|90afffebgg0aefhiihe099gg13.!]@>,)jjjj!+~~!'>;;@,)!j'{{'j~4 3|bfhinnihfeabb0g99g0behifg3 //c82gafhhiiihhfffeeeeeeffhie184j>-vp#u@j^7[8<.+{@;-=x&ACB%w,~4.6)oxqBDGHHIIHEA%x-,^<d112:_(.6)>55,!.<3290000000ggg991111111111|||1199gg00bbbaaaaaaaaaaaaaaaeeffhiiiiihhhhhhhhhhhhiha2(6',{)~/(}9affffffhhhhhhffeeaabbbbaaaaaaaaaaeeeeeeeeeeffhinmmnnifeaaefiiiihfeab0g99111111119g0aefhiiihfeaab0gg999ggggggggggggggg999911111",
"0g1d38883:21gbefhiihfeeabbb000bafhiiihhfeabg91||2d3<.^~~~~~~++~6^44....c7 <83d1gahinniihhffeeb9d_<(<83:290afhiifabbaefhinnifa0g0013c!,>>,)jjjjj!++!']55@]{'{]]]{!6.<}|0ehiiihhffeea0g9119g0efeg37/^c[20efhinnnnihffeaaaaaaeee0d ~{@;-o;]!/ 8}}8.+,5o-wx&zBA&w,~4./!5#&zCEGHIIIEB%xu,6(}||2:_<c^j,>>{+4(_d1g0b00000gg9999999999111||1199gg00bbaaaaeeeeeeaaaaaaeefhhiiiiiihhhhhhhhhhhihad7+,],j^78dgafffhhhhhhhhhffeeaabbbbaaaaeeeeeeeeffeeeeeeefhnmmmnihfeaaefiiiihfeab0g99111||||1190befhhihhfea0gg99119999999999999999911119999",
"0g1d38[8_}d|gbehiiiifeab0g9|2dd|90aehiihfeb091|||2}<c^~~~~~++~~6/4.cc77 (<83:210ahimmmmmniiheb9d_<<[_}d1gafhinnhfeeefhinmmifa0g001}7+{]],')))))j!!j']@@@],,]>@]{!/7[}|0afhhhhfffffebg1|2||10ee93c^^.[20ehhinnnnihfeeeaaaaabb0|_4j>55@]'~.<3d2d_c+,5ouwx&yAy$=,~.7.~>w$rADEHIIIGB%xu,6 32|2:3[7/+']]'+4 [}29g000000gggg99999999911111199gg00bbaaaeeeeeeeeaaaaeeffhiiiiiiihhhhhhhhhhhihb:cj>@,!.<}|0efffhhiiiiihhffeeaabbbaaaaeeeeeeeeffffeeeeeefhnmmmniheaaaefiiiihfeab0g911|||||||19gbaefhhhffabg9111111119999999991111111199999",
"g9|:_[<[_}d1gafinnniheb092:_[((<8}29ahiihfa0g9111|:[c/~+++++~~6^/.c7 (<[8_3}d210afimkkllkmnifag238[83d|gbehinnnnihhhhinnmnifa0g009: 6),],,{{{{')jjj',]>>>>>@5@>'+4 8:|gaeffffeefhhfbg|d:::d1ba9_c^6.[20ehiiniihhfeeeeeeeea09237~,;o5,!^7[}299|37+,5ouvx$rzrsu{67( ^,=*qzCDGHIIGB%x-,~7_d22d3[ 4~){{)+/c<_:219gg0ggggggggggggggg9111199gg00bbaaaeeeeeeeeeeeeeeeffhiiiiiiiihhhhhhhhhhihb}4'5;]+7_2gbeffffhinniihhffeeaaabaaaaeeeeeeeefffffeeeeeefinmmmihfeabaefiiiihfeab0g911|||222||9gbaeeffffea09|222||||11111111111111111999ggg",
"112}8<<[_}210ehinnnihe0123[7466^. [:9eiiifebg99991:87/~+++++~66^4.c ([8_33}:d|1gafimklFFlkmifag2}__3:|gbefinnmmnnniinnnnnnhebg9gg9d<4+',]]>>>],{'))'{,]>@55;;5>'~c<3d|g0aeeeeaefiiha92:3_8_dgb9_c664<20fhiiihffeeaeefhffeb9d_ ^'5uu5)/(3d1g0b9} ~{5o=vx$ryq*-'/(8[.)-t%yBCEGHHEA%p-,~78:d2d}8 .6!)'j+^.7<83d|9ggg99gg000000000gg911199gg00bbaaeeeeeeeeeeeeeeeffhhinnnniiihhhhhhhhffhh03/,;o]~(:9baefeefhinnnihhffeeaaaaaaaaeeefffffffffffeeeeffinmmnifeabbbefiiiihfeab0g91|||22222|1g0baaeeeeabg|2ddd222|||||||||111|||11199g000",
"||d38<<[_}d10afinniheb9d3<c6!'')!^c[d0hnihea0g9991d87/~++++~~6^/4c7([83}::d22|1gbfimkFFQFlknhe01d}}:|9befhinmmmmmmmmnnnnniha0999g928c6!']@555@>],{''{,]@;ooo;5])^78}d|1g00bbbaafhifa92}8<(<3|09_c6~4<20fiiiifeaaaaaehhheb9d87^)@uw=@! :900baag: ~{@-=#t&ryqtoj.[}3 jox&rACDGHHEA&p-,~c8}d2d}8(c^+jj!+^/4c7(8:|99999gg00bbbbbb00g91199gg00bbaaeeeeeeeeeeeeeeeeffhiinnnnniihhhhhhhhfffeg_^,oo]~[|0aeeeeeehinmnihhffeeeaaaaaaaeefffffffhhhffeeeffhinmmnheabbbbafiiihfeab0g911|||22222|1g0bbaaaaaa09|d:::d22222222|||||||||1199gg000",
"|2d}8[<[83:290affhfe09d_(.6j,>>]{j673gfnnhfa0g9991d8c^~++++~6/44.c <83}:d22||19gbehnkFQQFlknhe092dd290afhinmmmmkkkkkmnnnnifa0999gg|3(4~)]@5;;55@],,,,]>5ouu-o5,j/(_}dd2|119g0baeffeb92}[7.c<d91_.6~4<2bfiiihfeaaaaefffeb1:[c~'>-wv=>6_gefeeee0d ~{5-w#t&ryqto!c_d:(+5#$rzBDGHHEz&#o{678:222:_<746+!+~6^6~~^c[d1g999g0bbbbbbbbbb0g9999gg00baaeeeeeeeeeeeeeeeeffhhiinnnnniihhhhhhhffeea186]oo]^89affffeeehinnnihffeeeeeaaaaaeefffhhhhhhhhhffffffhinmmifab000bafhihfeaab0g91||||||||||9g0bbbbaaaab9|d:::dd222222222||||||1199gg0000",
"||2:388[88_}21gbaabg1:8 /+']@;;5@,j481fnnihe0g9991:[c^~+++~6/4.c7 ([_}:22|11119gbefimlFFFlmnhebg1||90afhinmmmkkklllkmnnniifa099g0g1}<c6j{>5;;;;5@@>>>@5ouwwuo@{+4<_}}}:::d2|90baab00g|}(46^c_||8.~~4<2bfiiihfeeeeefffe0|}<4!];=v#v-,4:aiieeee0:7+];uw#t%yArto+ }2:(~@vsqzCEGHHDz$v5)^(3d|||d}8(c^~+~6^~j,],!c31gg99g0baaaaaaaab0g999gg00bbaeeeffffffffffeeffffhhinnnnnnihhhhiiihheabg2<6,;5{/30fhffffefhinnihfeeeeeeeeeeeeeffhhhiiiiiiihhhhhhhiinmnheb00g00aehhfeab00g91|||||1111119g0bbbaaaaabg12dddddd22222222||||||119gg00000",
"||2d}3_[<<<83:d|9912:8 ^!,>;o--o;@{6(|enmnhebg911|}<.6+++~6^4c7  (<83:d2|19999g0baehnklllkmihea0g9g0befhinmmkkkllllkmniiiifa0ggg009d87/+']@;;ooo;;;;;;-=wvv=o>'~.<3}3__88_3d1g00g119g1: ^!!/<d28.~~4<2bfhiihhfffhhffe0|3(/j>u#xx#w;)72fnheaee0:7!>o=vp*qABz*o~<:2}(~>=t%zCGHIHDys=>j4[:|991|d3[ 4^6^/^+,o=u>68100gg0baaaaaaaaaa0g999gg0bbaaefffffffffffffffffhhiinnnnnnihhhhiiiihebg|}(6{@>).:bhihfffffhhiiheaaaaaeeefffeeffhhiinnnnniiiiiiiiiinnnifa0gggg0beffeab0g991||22|19g9999gg0bbaaaeeea0g1|22dd222222222|||||119gg000ggg",
":::}}38< cc7 <[_}:}3[ 4+{@;--uuu-o>!7denmnhebg1112}<.6+++~^4c (<<<[_}:2|199ggg00bbefimkkmmnifeaabbbaefhinnmkkkllllkkmniiiiheb000bb9d87/+),>5;ooooo---u=w##v=;])67[33_[<(  <_d1g12::|99: ~''~ }:[.~~4[2bfhhhhhhhiiifa0|3 ^j>up*st#-]~<1hnfb0aag}cj@-w#xsrBCAs;6[d2}(6,-x&zDGIIHDy*u]~7_|g0gg1|:_(c/^//^j5vtx-j<1bb0g0baeeeeeeeaabgg99g00baaeeffhhhhhhhhhffffffhhiinnnnniihhhhiniifa01:876',{+ 2eiihhhhhhhhhhfeabbaaaefffffffhhinnnmmnnnniiiiiiinnnihebg99gg0baeeab0g911||22219000gggg0bbaaaeeeeea0g9|22d22|||2222|||||119g000gg99",
"<<<<[<(c4^666^4c <<(746)]5o-uuu==u5).:anmnifbg91|23(.6++~6/.7(<[[[83:d|199gg0000bbafhnmmnnihfeeaaaaefhhinnmkkkllllkmnniiihfeabbaeagd[c^+),>@5;oo---uu=wvvvwu5,j/ 8}3_< c4/. _d|d_[8}|9d +{{!c_3<4~6.[|bffffhhhhiihag2_76'@u#*$sxw5)4_giie0gbbg}cj@u#xs%zCDAs;^_||}</';vsyCGIIHDyt-{^(}10b00g1d3<c/^//6)ox&$v{ 1aa00baeeeeeeaaab0gg9gg00baeeffhhhhhhhhhhhhhhhhhhiiinnniiihhhinnnifb9d_(.6j'j^<1fnnhhhhhhhhhfeabbbbaaeffhffffhiinnmmmnniiinnnnnnnnnihebg99gg0baaab09911|||22|1gbbb00000bbaaeeefeeab0g1|2d22|||||||2||||119g00g911|",
"^^^/4./6!)'{{{'j~^//^~!),@5;o-u=w=o{/30innifa091|d3(.6~~~^/. <[888_3:2199gg0000bbbaehinnnihffeeaaeefhhinnnmmkkllllkmnniihhfeaaaefeg:(4~j',]>@5;;o--u=wwww=u;>{+4(3:}_<c/+!+/(3}8(c7[:1d ~{{!4[8(466.8|befefffhhhhegd[.+,owx*sstv;'^(daihag9gbg:c!@=psqzCEDz*5/311:[.!>utqBEHIHDrx;)/[dgaab0g92}<c/^^^~{u*q%#,7|aebbaeeeeeaaaabb0gg9gg00baeeffhhhhhhhhhhhhhhhiiiiiiiiiiihhhhinnnhe0|3<c/~++6c_ghnnhhhhhhhhhfeabbbbaaefffffffhiinnnnniihhiinnnnnnniiheb0gg000bbb0g9111||||||190baabb0bbbaaeeeefeeab0g1|2d22||11|||2222||19g009122d",
",,{)j!!),>5o--o5]'j!!jj)',]>5;-=ww-]^_9finihe0g9|d3(.^~~6^4c <[888_}d|9gggg000bbbaaefhiiihhfeaaaaeefhiinnnmmkkklllkmnnihhffeeeehifg376j'{,]]>@@5;o-u=ww=-o5>,)+4<}d:_<.~',,!4([ /6^c_2d(6''!/ <746^c_|beeeeeffffe028.+,-#*$$sxw;{^ }gfnf01190g:7!>=tqADEGDyx>.:99d876';#&zDGIHDrx5!.8|beeab09|}<c/66~!,=sr%p]7|afaeefffeeaabb00gg99gg00baeeffhhhhhhhhhhhiiiiiiiiiiiihhhhhhhinnifa9d[c/6~6^.<d0hnihhhhhhhhhfeaabbaaaefffffffhiiiiiiihhffhinnnnnnniiheab00bbbb00g911||||11119g0aaaabbbaaaeeeeeeeeabg912ddd2|11111|22d22||9g0g12d:}",
"uu-;@]]>5ouwv#v=o@,{'')jjj){]5o=vvu>6[1eiiiheb09|d3(.^66^/.7([8888_:21ggggg00bbbaaaeeffffffeaabaaeefhiinnnnmmkklllkmniihfffffffhhe|[/j{]]]]]]>>@5;ou===-5>,')!6.[:|2}<.!]55,!4.^!'j^(}}(^j'!^c7./6/7_1beeaaaeeeab9}(^'5w*&%$xw;{6(:geiieg||1g9: ~>=syDHHGCr#,720g23<.+]=*rBEHHDq#>+731beeab09|}<c^~+!'@vsq%#,7|effffhffeeab00gg9999gg00baeeffhhhhhhhhhhiiiinnniiihhhhhhhhhhinnhe0|3(/~+~^c<31ahnihhhhhhhhhffeaaaaaaeeffffffhhiiihhffeeefhinnnnnniihfeaaaaaab0991|||||11199g0baaaaaaaaaeeeeeeeeab0g9|2ddd2|11991|2ddd22|1999|:3__",
"*tx#wuooo-uvpxx#=;@]{'j!~~+j{>;uwvu>~[1ahiiifeb9|:_(./6^/4c ([88__3:|9000gg00bbaaaaeeeeeeeeab000baafhiiinnnnmmkkkkkmniihffffffeea9}c+,@55@@>>>>@5;-u==u;])!++~^7821|:[.j>-u;])j']@]j.[8 ^j)!6/4/66^7_1beeaaaaaaa01} 6'5wts$tw5{6 }gfnmia9221g9:(~]=$AGIIEA&w'(|b0|:_(/);p%zDGGC%v,^(}1beeeabg|}[c^!){>o#$%$w{ 1ehfhhhhfeab00g999999gg00baeeffhhhhhhhhhhiinnnnniiihhhfffhhhhiiifag28c6!j~4(32gehiihhhhhhhhhhfeeaaaaaeeefffffhhiihhffeeaefhinnnnnniihffeeeeea0g1|||2|||1199g0bbaeeaaaaeeeeeeeeeaabg91|2dd22|11991|22ddd22|1|2:38[<",
"zyr%sxv=o;ou#xx#=o@,'j+^44/~),5-wwu]681eiinnifag2}[ ./^/4.7(<8___3}d1gbb0000baaaeeaaabbaaab0gggg00bafhhiiinnnmmkkkkmniihhhhffebg|} ~,;-u-o;55@5;oo-uuuo>)6//^^4 3|gg|37!@uw=-;5o-uo,~c c^!j!+66~++6c8|beeaaaaaab01:<4!,5=vwu@)^ 39enmmia92d|91:(6,=$BHJHDr*o![9ab9|:_7~>v$rBDDz$u'4[d1beffea01:[c6j,@-wxs$t-j<9hihiihhfeab0g9111199gg00baeeffhhhhhhhhhhiinnnnniihhffffhhhhhhhfa01:[4+))+.82gaehhhhhhhhhhhhhffeeeaaeeeeeeeffhhhhhfeeaaaaehinnnnnniiihffeeeea09|2222||1199g00baaeeeeeeeeeeeeeeaab0g1|22dd22|11111||2222222dd}_[( 7",
"GGEBy%*vo>>;=#pvu;>{j~^.7 7/!{@o==-]681ahhinnie9d_<7.//4.7 <[8_33}:|90ab0000baeeeeeab000000g91119g0bafhhhiiinnmmmmmnniiiiihhfag2_ ^';=vvwu-oo;oo-uuuuo5{~c( c.c<}10bg:(+@=#ppp#pp#w;'64/6+!!!!!jjj~.8|beeaaaaaab092_(.6j{,,)~.<}1aimkmhb1dd211:(^{u$BHIGA&v>6_gee09|d[/{ut%zAArto!7_d|gbeffeb1:876)@u#x**tv@6_0iniiihhfeab0g11|1199gg00baeeffhhhhhhhhhhiinnnnnihhffffhhhhhhfea0923(^j{'+c}9aeffhhhhhhhhhhhhfffeeeeeeeeeeeeffhhhhfeaaaaaehinnnnnniiihhffffeag1|2222||119gg0bbaaaeeeeeeeeeeeeaab0g91|22222||||11||||||22d:}38< c..",
"LLJHDz&p;,']owv=-5,)+^. << /!{@ou=o]~<d9g0afiie9:8(c.44.c <[8_3}}:21gbaab00baeefffeb0g99ggg91|||19g0beffhhiinnnmmmmniiiiiiihe0|_ ^)5=ptxpv=uu--uuuuu-;>j/<_[ cc<}10ab|[6>=p*$$&$$*pu>)+~~+!j)''{{'!4[2beeeeeaaab0g1d38(7c.c 8:|gehnmmnfb1dd2||}(^{-sAGHDrxo'.}0eea0g1}c)op$rzzqx5~ _}:210aeab9d876';v*$st#-{4}anniiihfeeabg91|||199gg00baeeffhhhhhhhhhhiinnniiihffffffhhhffea09|:_ 6),{+7dbfhffffhhhhhhhhhhhfffeeeeeaaaeeeffhhhhfeaaaaaehinnnnnniiihhhfffebg12dd2||1199g00bbaaaaeeeeeeeeeeaabb091|222222||||||||11||2d}38< 7.//^",
"NNLJGBqxo{j{@-u-5]{!64c   .~)>;-==->j4(8_3:1bea9}[ c.44c7([8_3}}:d|90aaab00baefhhfebg1119g91|222|19g0aeffhhiinnnmmnniiiinniha9:(/j>up*sstpvw=uuuuuu--;]j4[_[74. _|gab18^]ups%rrr%$tvo]'j!!!){,]]]{j/<2befeeeeaabb0912d::}}d29behinmmmifb12d2|23(/)otyDDzs=]~ :geeabbgd !5#sqyy%x5+c(((<_:1g009d876{-x$%$x=@!7:biniihhfeab0g91|||199gg00baeeffhhhhhhhhhhhiiiihhhfeeeeeffffeeabg12}876),{~ 2eihffffhhhhhhhhhhhffffeeeeaaaaaeefhhhhfeeaaaaehinnnnnniiiihhhfeabg|2d22|1199gg00bbbbaaaaeeaaaaaaaab0g9||222222|||2222|1112d}_[(7.4^666",
"NMLJGBqt-]'{>5;@]{j~/.cc.^+'@ouwvw=o>'!~6/c[dg01}[ c...c <8_33}:2|1gbaaab00befhhhfe09|2|1991|2222|19gbaeffhhiinnnnnniiiinihfb|_.!]-#t$&$*x#vw=uu-oooo;>)^ <7/~64<}10018/{-#sqyzyq&*#u;]{)j)']@@5@])6(d0efeeeeeeab0gg9999g0baefhiiiinnifb9|222d_(/j5#%zz%#@!.[d9baaabgd(+5vsqzzrto)6^6+~4 _d1g92_7~,ut%%$po,~ d0fhhhhfeaab0g91|||199gg00baeeffhhhhhhhhhhhhhhhffeeaaaaeeeaab00g912}87^j{'6(|eihffffhhhhhhhhhhhhffffeeaaaaaaeefhhhhffeeaaefhinnnnnniiiihhffea09|222|1199ggg00bbbbbbaaaaaaaaaabb0g91|222222||2222d2|11|d}8< .4^6~~++",
"LKJHDA%tu@{{,]]{)!~^4..^+)];=vppp#vwuo5@>,j/<29|}[ 7..c7([_33}:d|1g0baaab0baehiiihe0|dd21999|2222||1g0baefhhiiinnnnniiiiiifagd<^{owxs&%&stp#v=u-;55;o;@{+4.^!))~c8:19|_4);v*%yzyq$*pwu;>{'',@;oo;>{6 d0efeeeffeabb000bbaeffhhhhhfffhhhfbg122d}8(4!]=*%&xoj.[3d1gbaabg: !5#srABz$=])),>]'~c[:192_c+>=*%%sv5)^(}9befffeeab00g91111199gg00baeeffhhhhhhhhhhhfffeeaaabbbbaab00g9999|2}8 /!)j^<|ahhffffhhhhhhhhhhhhhfffeeaaaaaaaefhhihhhffeeefhinnnnnniiiihhfeab091|2|199gggg000000000bbbbbbbbbbb00g9122dd22|||222ddd|11|:8(c4^~+++!!!",
"IIHEBy&x=5]{'')!~6/4.4^!,5u#ts$s*xxpp##vw-@j.3223[ 7ccc <8_3}:d21g0baaabb0bafhiniheg2::d|9g91|222||190baeffhhiinnnnniiiiiheb1} +>up*&%%&stx#v=uo5@>5;o;]j66!'],j/(3d2d8.j@=x&ryr%stpv=-5>,,>;-u-o@{~ d0efeeffffeabbbaeefhhhhhffeeeeffffa09|2:3[ .~{o#txu{48:dd|90bb01}7j;#$yCDB%#5,>;--5{~.<}2:[4j@w*&&t=>j/ _d90aeeeab00gg99111199gg00baeeffhhhhhhhhhhfeeaabbbb000bbb0g911199|d}[ /~!+/<d0effffhhhhhhhhhhhhhhhffeeaabbbaaeffhiiihhhfffhiinnnnnniiiihhfeb0g91||19gg00000000ggggg0bbb00000000g91|2ddd22||222dddd2||d_(./6+!jjjj!!",
"HGECzqsp=5]'j!~6/4.446!,owxs%rrq$****s**x#-,^<::_< 7cc7 <_3}::d|90baaabbbbbefinnnhe92}3:|9gg91|||||1g0baeefhhiiinnnniihhfebg2_c!@=xs$&&&stx#v=u;@>>@;o;>'++j,>]'67[}:}[.!>-ps%q%$tp#vwuo@>>5ou=uo5{~ d0eeaaefffeeaaeffhiinnihfeeaaaefffabg12}_< .^j>-w=@+<d||221g0g928.'ox%ADGDrp;>@o==-5{!/(8[7~{;wtssp-]j^. 8:10aeab00ggg99911999gg00baeeffhhhhhhhhhffeab000gg000000g91||191|:_<7/6+~4(}10aefhhhhhhhhhhhhhhhhffeeaabbbbaaefhiiiiiihhhhinnnnnnniiiihhfabg991119g000000000gg999gg000ggggg0ggg91|2d:d222||222ddd2|2}<c^+j)))))jjj",
"EECAr&tvo>{j+6^4cc.46j,o#s%yBCBzq&s$&&&$sxw@+ __[ 7ccc7([_}::d21gbaaabbb0bbehinmnia9d33:|g00g9911119g0baaeffhhiinnnniihfabg|:8.!@upts$$s*xp#v=uo@>>5o-o@'!+),>]'~.(83_(/j>-vts$sx#ww==uo5@5;-==uo@{6(d0aabbaeffffeffhiiinniihffeeeeeffeea09238( c4~'@;5'431g122|9912}(^,=*qCGHEyx;]>;u==-;>)6..~'@-vpxpw;])+6/c[:9aab0gggg999999999gg00baeeffhhhhhhhhhfeab0gg999ggggggg9111199|}8 ./6~64 8:10ehiihhhhhhhhhhhhhhhffeaabbbbaaefhinnnnniiiiinnnnnnniiiiihfa0g91119g0bbbbb000gg911199gggg999gggg91|2d:::d222||||22222:87^j'{{''))jjj",
"DDBz%spu5{j~^/.c77.^j]o#$rBEGHGCzq&&%qq%$tw5j.<[(7c..c7([3}:dd290aeeabb00baehnmmnia1:__}2gbbb0gg999g0bbaeeffhhiinnnnihfa09|d3<.!]-wpt***xp#vw=-o5@@;o-o@'!+j{]]'~4 <[<7^)>o=#pp#wu-o---o;;o-=w=uo>'^(d0ab00baefffhhhiiiiiihhhhhfffffffeeab9d_<( 7c/+',{+7:9g122|112:8c+@v$zDIJHzx;{{];-=wv=;,j!{5uwvwwuo@]{')j~.8|babg9999999999999gg00baeeffhhhhhhhhhfeb0g9111199ggggg99119g923(c/^66^/. [}1ahnihhhhhhhhhhhhhhhffeeabbbbbaefhinmmmmnnnnnnnnnnnniiiiihfa091119g0baaabb00gg91|||199gg9999999991|2d:::dd22|||11||2:_(/!{]],{'))jjj",
"DDBy&tvo])~/4.7  74+,ovsyCGIKKIGBrqqqrq%$tv5)4 ( c...c7(83:dd2|gbeffabb0bbafhnmmmia1}88_:|g0bbbb0000bbaaeeeffhhiiiiihfa012}_[ /!];uvpxxx#vww=u-o5@@;o-;>'+~!){{j~47(( .~{@ou===-;5@5;oo---u=vvwu;])/<20ab000beffhhiiiiiihfffhhhhhhhfffeeeagd_(    c^+j!^(:991|2|1|d3(/);p%AGJKHzx5)j'];=#txvo>>5uv#wu;5@>>>>>]{~ :9009999999ggg9999gg00baeeffhhhhhhhhhfa0g91|||1199ggggg999gg92_7/66^^/^^/.<d0hnihhhhhhhhhhhiihhhffeaabbbbaefhinmkkkmmnnnnnnnnnniiiihhebg91119g0baeeabb0gg91|22|1999999999991||2d::::d22||1191|d3<c~{>5@]{')))))",
"EDCz%tvo,!^4c77  7^)5v*rCHJKLKIGCzrrrrq%$tv;)/ (7c...c7<83:d2|90afhfebbbbaafinmmmia1}8<[83:29baaabbbaaaeeeeffhhhhhfeab9|:3[(74~)];-wv##vw=uuu--;5@@5;;@,!6^~!))!^.7 7.^j,5o-oo;@>]]@;ou==wv#px#wo]j/[20ab00bbaefhhiiiiihhfffhhiiiihhffefeagd_(  (< 46++/(}|1|||11|d_ 6{-tqBHKLIzx@j+)];wxsstvu-uv##=o>]]>@5o--5'/[299999999ggggg999gg0bbaeffhhhiihhhhfebg91|||||199ggggg999gg9d[.6~~^//~j)!4[1finihhhffffhhhhiihhhfeeabbbbaefhinmkkkkmmmmnnnnnniiihhhhebg11119gbaeeeaab0gg91|22|1199999999911|2dd::::d22|119912}[7^j]5;5]{''{,,,",
"HHEBr$p-]!^.c77 7.+]=*rCHKLKJHGDBAzyrq%&stv;)/ ( ccccc <8}d2190afinhfabbaaefhnnmmie9}[(7cc 8dgefeaaaeeeeeffffhffeeb09|d3[ c46+),@ou=www=u-ooooo;5@>>>]{!64./6++647 7./+'>;oo5@],,,]@ouw#pxt*ss*#-]!4[20aaabaaaeffhhhiihhffffhhiiiihhfffffagd_( (<[(.6!+^78}d2||999d_7~,u*rCHKKHzp>!+)>ovt$&st#v##pvu5]{,>5-=##w5jc_2199gg9ggg0ggg99gg0baeefhhiiiiiihhfebg1||22||19gg000g9119g1:(/+!+^4^j]5@).:biihhhfffffffhhhiihhhfeeaaaaaefhinmkkkkkkmmmmnnniihhhhhhebg1||19g0aeffeabb0g91|22|119gggggg9911|2dd:::dd2||11991:87^!{>55@]{{,>5;;",
"KJHDA%t=>j^.c777.^)oxqBHKMMJGCBABBAyq&ss*xv5)4(<( 7cc7 <8}d|90afinmifeaaeeffhinmmne9:[7/~+~.81ehfeeefffffffffffea09|d}8<746+){]@;-uuuu-o;5555;;5@>]{)!~/c (74^^47((74~j,5o-;>,''{,>;uvpt*s&%qq&t=>!.[20efeeeeeeeefffhhhhfffhhhhhhhhhhffffag2_<(<[[(4~jj+/ 83:21g0g2_c+]=*rCHJKHy#]!!{5u#*$&&$*txp#w-@,{]@o=p*st=]6 321g0gggg000gg99gg0baefhiiinnnniihea091|22||19gg0bb0g91119|} ^j)+^46,-vv5+[9fihhhfeeeefffhhhiiihhfeeaaaaefhinmkklkkkkkmmmnnihffffhfebg1|||190afhffeab0gg1||||199g00b00g991|22d:::d22||111123 /!{]@@@>,{{>;uww",
"LLJGBrsw@j^.7cc./!]w$AGKMNMICyqrzAAy%stttpw5j.<8[(  7  <_}21gbehinniheeefffhhiimmmfg:[c~']{+ 2aiihfffffffffffeeb09|d}_<746+){]@;o---o;5@>],]>>@>],'j~/c([88<7cc <8[ /+'>;--5])jj',@-wp*s&%qyzzrsw>!.820fhhhhfeaaaeeefffhhhhhhhhhhhhhhhhhfe023[<[88(4+)'j6. 8}d10b0|8.!>=*qBGIIEqw{+!,owpts&&&&$*xv=o>,,]5-vt&%&po)/<}10b0gg00000gggg0baefhiinnnmmnnifebg9||22||19g0bbab09|||12_7~)'+/.~>vs*w{cdbfhhhfeaaeefffhhiiiihhfeeaaaefhinmmkkllkkkkmmniihfeefffebg1|||190afhhfeaab0g91|||19g0baab0gg91||2d::d22||1111|:[.!{>@5@>,{',5u#xx",
"LLJGCrsv@j^c7c./+{oxrEJMPPMHA&s&rzzr&*xxxp=@!c83_[<(((([3:290aeffffffefffhhhhiimkmh0d[4j>;5'4:aiihhhhhhfeeaaaab0912:38<7.^~j',>@555@>],')jj)'{{{{)!64 [_}}}_<(([_3_(.~)];-o5{j+!)]5-vx*$%qyzAArsw@j4[2bfiiihfeaaaaeeeffhhhhhhhhhhhhhhhhhfe0|}8[8_8<4+)')+^c(_:1gb02[4j@=t%zCGGC&u'~j]-vpt*s$&&$*xv=o@]]>;uv*%rq*w@j.820ab00000000000bbaehinnmmmmmmnifebg9||2||19gg0baab09|222d8.+''+4c6@p%%x@^81bfihfeaaaeeffhhiiniihffeaaaeffhinmkklllkkkmmnnihfeeeeeabg1|||190afhhfeeab00g911119g0aeeab0g91||2dddd22||11|2d_ 6{@oo;5>,'',;=x*s",
"KJHEAq*w@j^c774~{;#&BILPOPLGr*pt$qq%$txxx#=>+ 3:}3_[<<[8}d|9g0b00gg0aeffhhhiiinmkmh02[4';=u]^3biniiiiihfabb000g91|2d:}_[ c4^~!j)''')j!+6^^^^~++++~^. [3:ddd}_[8_:d:_ 4+{@oo@'+~!)]5-wp*$%qyzzyq*w@j4[2bfiiihfeaaaaeefffhhhhhhhhhhhhhhhhhhfb1:38___<.~j))!647[}29g1:(^)@ups%yBByt;!6!>uvpppxtsss*x#w-;5@@;-wt&qq$xu]+ :0aab00000bbaaaaeefinmmmmmmmmnifebg9|||||19g0bbaabg1|22d}[4+''~c ^@x%q*-j739einheaaeeffhhiiinnihffeaaaeefhinmkkkkkkkkmmmnihfeeeaab091|||190afhhfeeabb0g991119g0affeab0911|2dddd2||11|2:3<4j@-==-;@]{'];wx*s",
"HGEBy&xu>!/c 7/j5vszEKNPOPKD%p=wxs$s*txxp#u]6<d|2d}38883:219gg9|2dd|gafhhiiiinnkkmhb284{-vv5+80hninnnihebg911|||222222d:3_[( 7..4/44.c7 ((( 7c....7(83:d222:}33:2|2:_ /j]5;>)+~!']5-w#ts&qrrrq&tw5)/<2bfhhhfeeaaaaeeffhhhhhhhhhhhhhhhiiihfa92}3333[7^+jj!~^.<3d|12_7~{@-wp*&qq$v>~^!>uv#vwv#pxtxx#v=uo;;;o=ps%q%sp-{43geebb00g0bafhhffhinmmkkkkkmmnifebg91|||119g0bbabbg1|dd:_(4+')67<4]p%qsw,6(dbnmifeeeeffhhiinnnihffeaaaaefhinmmkkkkkkkmmmmnihfeaab091||||190afhhfeeaab00g99119g0afhfeb0g91|2dddd2||11|d3[c~,ov##=o5]{{];wx*s",
"DCAy%*vo,+47( ^{-tqCHLNPPMIAswoo=#pxxppp#w-,^8|99|2:3_3}d199912:38_:1bfhiiiinnmklmhb|8/,=xp-j<9hnnnmnifb9|d:}}}}:d2|9ggg91|2d:}33____33}}:}3_8[[[[8_}d2||||d:}}:2|2d3[c+{@5])~~!{>;-=vx*$%qq%&*p=5'^(d0fhfffeaaaaeeffhhhhhhhhhhhhhhhiiiiihe0|d}}}38 46+!!!~4 8}dd}[.!,5-=wpts$tu{^/!>uwv=uu=wv#ppp#vwu-;5;-v*&qq%s#5~[9aeab00g0afinniiinnmkkkkkkmmnifebg91|||119g0bbbb0g9|d:}8 /+)j^(_7{w$%$#;)4_giknhfffffhhiiinniihffeaaaaefhinnmkkkkkkmmmmmmnhfeabg91||||11g0affffeeaabb0gg991990ehhhfabg91|22dd22||11|:8 /j@=ptxvu;>,{];wx*s",
"zyq&tv->)6c([(/,=syDIKLLKIDqp;]>5-=wwwwwwu5'4_|gg1|d}33:29gg9|d_< (_20fiiiinnmmkkmha18/>v**='(1fninmnieg238<   <8}210aefeeaaab0g9111|111111|2d:::::d2|1111|2d}}}}338[ 4!,@@])+~j,@ouw#x*$%%%$sxvu5{6(d0fhfffeeaaeeeffhhhhhhhhhhhhhhhiiiiiifb92dd:}_(.^~!jj+^c<_}:3</)@ou=wvx*sxu{6/+]o===uuuu=wv####w=-o55owt&qrr%*u) 2baaab000afnmmniinnmmkkmmmmmnifeb091||119g0bbaabb0912:3[ /+j!4[}(j-t$sxu>+(1hkmhfffffhhiiinniihffeabbaeefhinmmkkkkmmmmkkmnifebg91|||||19g0aefffeeaabb00gg99190ehihfabg91|22dd22||11|:[c~{;vt*t#=o@,{,;=p**",
"$$*p=5,j^c(8_[/,w$zDGHIHEBqt-,)){>5;;;ooo5]j._|gg9|2:3}d|9gg9|:[7.c<:gfiiiinnmmkkmha18^@p&$v,7|fiinnnhb2_ .^~~~/ 8d1bfiniiiiiihfeb000gggg99911|||||1199gg912:3_[(7c4/6!'>5@])++)];uwvpts&%%&st#w-@{6 d0fhhhffeeeeeffhhiiihhhhhhhhhhiiiinnifag1|2d:_<c/6+jj!~4 [3}3(6{;uwww#ts$*w]+^+{5ou====u-u=wv#vw=-;55owx$qyzy&#]439bbaabbbefinnniiinnnnmmmmmmnifeb09111119g0baaaabb09|d3[7/~+~c_d86@vt*t#-{.dfkmihhfffhhiiinniihffeabbaaefhinmmmmmmmmmkkkmnifa091|||||119g0aeffeeeeaabbb0g99190ehiifebg91|222222||11|}<4!,o#t*t#=o@,{,5=p*s",
"ppw->)6. [_::_4,v&zBDDCAqsp-]!66+)'{{{,,],)~7_2191|d:3}d1g00g|}<.^/739finiinnmmkknha1865tqqx>c|ehhinnfg} /+',],j/<:1bhnmmmmmmmnifebb00gg99999999999ggg000g92:_<7/~!){,>@;;5]'!!{@-w#px*$&%%$*pwuo@{~ :0fhiihfeeeeffhhiiiiiihhhhhhhhiiinnnihebg1|2d3[746+j))!^c(8}3(~]uv###xs%q$p;)~~j,@-w##vuoo-=wvw=u-;5@owx$rzBArt5~<dgbeeeaaefhiiiiiiiiiiinnmmmnifeb09111199g0baeeeaab09d3[746~^73|}.);wx*t#5~3anmiihhffhhiiinniihfeaabbbaefhinnmmmmmmmmkkkmnheag1|222||199g0baeeeeeeeaaab00g9190ehiifebg9|2222222||11|}(/j>-#t*x#=o@{'{5=p*s",
"w=->j/ 83:d|23.,v$yAAyq$p=5{+4c./6~~~~~+!!~/ _d||||d}3}d10bbg|}(466c_9eiiiinnmmmmnfa186;*yrt@.2ahfhiie184!{@oo;,~ }9ahnmmmmmmmnifebb0gg91111999ggg000bbbb09|:8 4+']@o-uuu-;>{)']ow#xt*s$%%%$tv=-;>'~7}9ahhihffeeeffhiiiiiiiihhhhhhhiinnnnnifabg912}8 .^+){{)!^.(88 +@wpxxts%yzr*u,+6~j,;wpx#=oo-uwwwu-o5@@owx&rACCzs-jc3|0effeeffhhhiiihhhhhiinnmmnifeb0g91119g0baeeeeefeag23<7.//4(:12<^{;v*$tuj<9hniiihffhhiiinniihfeabbbbaefhiinmmmmmmmmmkmmihebg12d22|199gg0baaeeeeeeeaaab0g9190ehiifabg1|222222|||11|3 6)@-vxtx#=o>{)'@=x*s",
"vw->!.[}d2|1|3.,v$ryr&*#o]j6. ( c.4....4//4c(_}d2||d:}}d10bbg|}(466.81eiiiinnnnnnieb186oszy*54dafefhhb2(6'@o==->+(:gehnmmmmmmmnifeab00g91111199g00bbbbaaabg1d_(/!{@-vpxp#wu;>]>;=pt***s$&%&spw-;5>'~c_|0efhhffeeffhhinnnniiihhhhhhhiinnnnniheabg9|:_(c^!{>>>,)+/7(.j5vx**s&yBCA&v>j6^6j>=ptpw--u=vvwuo;@@@;wx&rBDDB&w,^<:gehhffffhhhiiiihhhhiinnmmnifeb0g91199g0baeffffhhe023<7...78dg9}7~]=t&sw,cdbfhiihhfhhiiinniihfeabb0bbaefhinnmmmmmmmmmmnhfa09|2d2|1199gg0bbaaeeeeeeeeab0g9190ehihfa0g1|22222||||11237~{@-vpppvu;]'j)@=ts$",
"s*p-{^(_d|112_/]v$qq&tvo,+/7(<<< 77 (<<((  ([83:2||2:}:290bb01:<.^/7_1ehiiiiinnniha0|8~oszy*54:beaefe0:7+];uww-]~<2behinniiiniihfeeab0gg9111119gg0bbbaaaab09|:[c~'5wt$&$*pv=-o-wxs$$s**s$&$t#=o5>,)~.[}|0afffffffhhiinnnnniihhhhhhhiiinnnnihfea0g|d3[7^j>;-u-;>)64^);vts$%rBGHEyx;)^..6{o#xpvwwv#xpvuo5>>@;wt&yBDEBqp5!c_1eiihhhhiinnmmnniiiinnnmmnifeb0g9999gg0aeefffhiihb|_(7cc7<3|00|_cjox&&p@^8|beiihhfhhiiinniihfeab000baefhinnmmmmmmmmmnifabg1|2d2|199ggg0bbaaaaeeeeeeaabg9990afhfebg9|22222||||1112_c+,5-wv#vwu;,j+j@w*&%",
"yr&p;j4<3d||:[^>#$q&*v-]!4 <[[[<( (<[______888_}d2|2d::290bb09d87..(39ahhhhiiiiihfb0|[~osyy*54:0abaea93cj>o=w=o,^_9effhhhhhhhhhfffeabb0gg9911119g0bbbbaaaabbg|}(/j@wsrzr%sx#vv#t$qq%$***ss*xv-;@]{)~4 8}|gaeefffhhiinnnnnniiihhhhhhiiiiiiiiihfebg1d}8 ^'5=#pp#=5'++{;vts%rAEJKIBs-'^7 .!@=#pp#px**t#=;@]]>;wt&yBDDCrt-,^<|eiiiiiiinnmmkmmmnnnnnmmmnifeb0g9999g0baefffhhinhb2_(77 <_d9aa0|8^@p&&x;!731ahihhfhhiiinniihfeab000bbaehiinnmmmmmmnnihebg9|222|19ggggg00bbaaaeefffeeab0g990aefeb091|22222||1119128.!]5-==w=uo5{+6!>wsqr",
"DCzs=,~78:22}(6>#$&sp->j/ [_8[[<(((<83}:d::38[[_:2|2ddd|900b0923<  [:9afhhhhhhhhfa0g2[~o*yrt54}gbbbab93.j>ouu-5).:bhhfffeeeeeeeeeeeaab00gg911||1900bbbbaaaaea0|3 6,w$zBAr&sttt*&qyyq&*tt**tpw-5>,'j+^47[}290aeffhhinnnmmnnniihhhhhhhiiiiiiiiihfa012:_(^{o#tsssx=@{']ovx$qzDILNKD$u'/([ 6,-w#pxt*ss*#u5>,,>;wt&yBDDCysw@!7daiihhhhiiiiinnnmmmmmmmmmnifeb0gg99gg0baefffhhinhb28 c7<_:|0effbdc,vs&t-{^(:gfiihfhhiiinniihfeab0000baefhinnmmmmmnnihebg91|22||9gggggg00bbbaaeeffffeab0ggg0baab091|22d22||111191d[4j>;-uuuu-;>)6/~>v$rz",
"GEA&v>+c8}dd3(6>v*$t=@)^7[_3_[<((((<[_3}dd:3[(([3d2|222|9g00g9|}8[[3dgaeffhhhffeebg9d[~;*rrt5/3900bab9}c+,@;;@,~(2eiheeeeeeeeeeeeeaabb00gg911||1g00bbbbaeefffagd8.)-*yAAr&$***s&ryyq$*xxttx#=o@]')!++~^.(_d1gaehhiinmmmmnnniihhhhhhhiiiiiiiiiifa092d3</'op*$&$*#-@>5u#t$rAEJMNLD$-)4<_</';=#pxt**tpwo@]{{]5=x&rBDDCz&po'.:biihhffeaabbbafhinnmmmmmnifeb0gg9gg0baeffhhhhinh0:<c.7<}|gafinh9<)utst=@j481fiihfhhiiinnnihfeab0g00baefhinnmmmmmnihfa09|222||19g000gg000bbaaeeffffeab0ggg0bbb091|22dd22||119991:<^'5-uuu--o5]j/.6>#%zA",
"EDz$=,678}dd3(6]wtt#;'6c<83_8<(((    (<83}38(77(8:2||1199gg991|d}33:|gbeeffffeeab091d<~;*rrt5/_1g0babgd</!)'')~._9fhfeaaeeeefffeeabb000ggg991119gbbbbbbaeffhhfb9:<6>#$qq%$s*tt*$%qq%$txxtxpvu;@,)!!!))j+/ 8:10ehinnmmkkmmnniihhhhhhhiiiihhhiiihe09|2:8.)o#tssstpw--uvp*&yBEJLMJB*5!783[4)5uv#pp#v=u;@],''{@up$rADEDA%tu,43bhihfeb09|d:d|9behnmmkmmnifeb0gg9g00aefhiiiiinnfg3 //.<:9bfinmnb_~5#txvo]+ 2eiihhhhiinnnnihfeab0g00bbefhiinmmmmmnifeb9|2dd2|19g0b00ggg00bbaaeffhhfeaab0gg00009122ddddd2||19999|}(6,o=w=u-o;@,+.7^>pqBC",
"CArt-)4(_:dd3</{-#pu]~c<88_8<((   7c...7<[[(c4.7<3d|9gggg9111|22ddd|9gbaeefeeeab0g1|:<~;tqqt5^_|g0baab1}<c4/4. 820fhfaaaeefhhhheab00ggggg999119g0baabbbaehhhhfeb9:7j;#t**ttxxxxts$$$sttttxpvu;>{j++){]]{!^c[:9afinnmkkkmmnniihhhhhhhiiihhhhiiiha09|2d_cj5wxtxpp#vvv#xt$%yBEIKKHyp]^(33[4)@-=vvwu5],{{{{')']o#sqADEDBr*w]^_0fhebg12}8<(([}|gafimmmmnifeb0gg9g00aefiiihhhhhe18.6~4<dgehnmkma}/,uvp#wo'.:aiihhhhiinnnnihfeab0g00bbafhiinmmmmmnhebg12::d219g0bbb0gggg00bbaefhhhfeaab00g00gg12d::::dd2||19991|37+>uv#v=uo;>'67(/>prCD",
"rq$v@+78}:dd}[.)5==;)4<888[<(    7c4^6^47((74^/.(_:|90b0g11|22222||19g0baaeeaab0g9|2}(~5x&&p>/_|g0beeeb1d3___3:|gaffeaaaefhhiihfa0ggggg999999990baaabbbafhiihfffe9_/{ow#pxxpp##pxt******ttpv=o@{j~+)]55@,j6.[:9befinnmmmnnniihhhhhhhiiihhhhhiiha09||2} +>uv#vwww#pxtts$qyBDGIHD%=)c8}3</j>;-uuo>)~^6!)'))),;vsqzCEDBy$#@689b092:_< 4^~6/7[}|0einmnnifeb0gg999gg00bbbb00bbgd</++/<d0fnmmknad7j@uvppw@6_0hihhhiiiiiiiihfeab0g00baefhiinmmmmmiheb9|d}}:21g0baab00gggg00baefhhhfeeab000ggg9|d:}}::dd2|19gg912_cj5wpp#wuo5])^ <4]pqBD",
"st#o'/<3:ddd:_7~,55,~78_8[<(  7777c/6~6/c  c/^^4 8:|g0b0g1|22dd22|119gg0bbbbbb00g9|d3(^]wxxu{.31g0beeeebg9119g0baeeeaaaeefhiiiheb0g99gggg99999g0baaab0baehiihhhiiad7j@uvxttxp###pxt*ssss**x#w-5,j~~j]5;;@]'+4(3d1gbaefhiiiiiihhhhhhiiiihhhhhiihe0911|:(~]-wwu--uw#pxt*$%yACEGEAso+(3}8(/j,@;oo@'6c74~)')j),;v*%zBDDBz%x;+<d|:8(c46+),]]{!^c[:1bfiiiifeab0g91|d:}}3333}}d2d_7^!+/<2bhnmmmne|[/)5=x*x-j(|affhhiiiiihhffeab0000bbaefhinnmmmmnifa092d}}:21g0bbab00gg99g0baefhhhffeab00ggg912d}}}::d22|19gg9|:[4'o#xxpwuo@,!4([c'=$rz",
"u-5{~7_:dd22d}[.~jj~4(88[(   77777.4^66/c((c4^^4 8}290b0g1|22dddd22|19ggg0000gggg91d3<4j>o;,6<2gbbaeeeeeaabaaeeeaaaaaaaefhhhihfeb0ggggggggggggg00bbb000befhhhhhniadcj5=p*$$stpppxt*s$&&&$$*x#=o>)~~!']@;o;5])6.(8}d|9gbafhiiiiiiiiiiiniihhhhhhfeb0g91:<6,ouuo;5;-=wvpxs&rABDDBrx@^[33[7/!']@@@]j/ (.~)'')),;wt&yACCBAq*-j7_876!',@;-=wwu;])^73|0ehihfeaaab92}8(c4/^^/4c <<(.6+~4[|ahnnnmnf9}(^{-x$sv].}9behiiiihffeeaab00000befhinmmmmmmnnhebg9|d::d219g0bbb00g9999gbaefhhhffeab0ggg9912d}}}:dd2|19ggg12}(^,-pttpvu;>'+4<8 +@wxt",
"))+^78}d222||2:8(cc7(<[<( 77777777c4/^/. << 4^^4 8}d19gg911|2d::}}:d2|11199999gg0g1d_<c/~!~4<dgaaaaeeeeeeefffeeaabbbbaeefhhhhfeab0000000000ggggg0000gg0baefhhiiih0}4{-ps%rr%$txxts$&%qqqq%&st#=5{+66+),5-==-5,j64 [_:d1gbehiiiiiiiinnnniihhhfffeeb0g1:<6{;--;@>>@5;-=vx$rzBBAy&w,.838 .^+j',],'+4  4~){'''];wt&rzABBAy$w{.(.!]ouw#x*$&$*xwo,+c_20ehhfaaeea9:[c6j{]>],'j+^44/6~^c_1ahiiinifb9:(~;x%%x5~<d9afiiihfeabb0000gg0bafhimkkkkmmnnifebg9|2ddd2|99g00000g911190aefhhhffeab0g999912d:}::d2|19gg0g1d_7~]=x*tpw-5])~.<8<.!,@@",
"7 ([_:2||||1191|2:}38[< 77c77    77c..c [88(.//47[_:2|19991|2d}388[8_3}:d2|1119g001:8(  ([_d9bfffeeeeeeefffffeab0000baeffhhffeeabbb000000000gggggggg99g0baefhhhha1[~>w*%yAAy%st*s$%qryyyyrq&sxvo,!6^^~)>uvpv=;>'!^c([3d10afhhhiiiinnnnnnihhffffffea09:<^{5o;5],{'',>;u#sqzAAy%t-)7_3[74^~+!)''j~47c/+){{{,>ovt$qyzABBA%#]^.+>=x*$&qyzAzy%spu]+c820ffeaaefe9_c+{5uwvv=-;>'!~~~6/ 31ahhhiihhee0:.>p%q*-).820fiiihea0gggggggg0behimklFlkmnnihea0g9|2222||199g0000g9|||1gbeffhhffeabg9999912d:::d2|19gg00g|:[.!>=x*tpwo@{!^c<__[ .//",
"}::d2||1119gg00bbb923[( 77777  (((  77 <_3_<c/^4c(8_}:d|1991|d}8(7c..c7<_:2||19g001}<77<}1bfhiihfeeeeeefhhhffeab0gg0baefffffeaabbbbbbbbbbb00ggg99999999gg0beffea9}7jop$yACBzqs**$&%ryzzzzyr%$*#->)~^^~j>-#ppvuo>{!^.(8:|gbefhhhhiiinnnniihhfffffffab9d<^'@;5>,'j!!j{>ov*%yzy%*v@+(3_(./^^6~+!!+64cc/+){,,]5u#*&qryABCBrx5+~{u*%ryzABCCCBzr$p-]+c_|beabafha|<6{;vt$&$sx#u5,)!+64(}9ehhhhhhhhihg({v$%*=,6 }gfinifeb0g99999gg0afinklFFFkmniheabg911||2|||119gg000g1|22|90aeffhffeabg9919912d:::d219gg0bbg|}(/j@wx*t#=;]'+/7[_}}33__",
"2222||19g00bbaaeea0|}[( 777  ((<<[[[<<[_:d}[c/^/.7(<[83:|9gg123<.6+j))!^ _d||11g00|_744 }ghnnnihfeeeeefhhihheab00g00baefffffeaabbbbbbbbbbb00gg991111111199gbaab9:<^,=*qzBCCzqs**$&qrzAAAzzrq&sp=@'!~~+)]o=vvv=-;>'!/ 8:1gbaeeeffhhhiiiiihhhfffffffab9d[/)>5@]{)!++!),5=t%zzr$#o{/<38 ./////^66^/.7c/~){,]@owxs%qryzBDDzs-')5pqzBBABCCDDCBzq$pu>!c}9bb0befb:c);#srABAzq$xwo>'!6.<:gfhihhhhhimmb8!-tstw@)/81fnnifeb0g99999gg0afimkFFFlkmiheabg911|||||||119gg000g12dd21gbaefhhfeabg9919112d::d2|19g00bb0|3 ^)5wxtxv-@,j6.(8}d22222",
"dddd22190aeefeeab01d3[<((((((<<[_33333}d2|:[c^66/.c77 <_d900g|376)]5oo5{^<:|||1g0gd<4~~4[|ahhhffeeeeeffhiihfebb0000bbaeefffeaabbbb000000000gg991111111||||1g009d[4j5#$rABCBy%s**$&qrzAAAAzyq&sxw;]'jj){]5-u===uo5])67_2900baaaaeeffhhhhhhhfffffffeabg284)>5@]'j+~~+j{@ux%zz%tu]+c[_[ 4//4..44/4.c7c/~j',>;u#*&qryyACDEB&=>>uszDDCBBBBCCCBAzq$t=>~<d9gg0eeg_^>v$yCGHHECz%two])~.[d0fiihhhhhinna}^>=##wo]+ 2fnnifeb0gggggggg0afimklFFlmnhea0g911||111111199g0000g12::d|9gbefhhffeb09911112d::d2|19g0baa0|_c~{;wpx#=;>'+/7<3:222222",
"333}:d|9behhhfabg1d}_[<<<<<<<[8_}dd2222199d8c^~~6/44.c 8d9bb0|_.!>owpx#o).8:22|99|37~))~7}9baaeeaaaeeffhhhfea00000bbbaaeeffeabbb00000000000g991111||||||22|1gg2_c+]ut%yABBAr&*t*$&qrzAAAAzyr%$tv-5]]]>>@5;o-u==uo@{~7}10bbbbbbbaeefffffffffffffeeaabg|84j]@>,)j+~~+!'>-x%zz&#@j/(8_[74/4.ccc...c77c46+),@owx$qyyyyACDDB&v55v&BEECAAAABBBBBAAy%*u{._2190aa1<!otrCHKLLKHDz&x=5{+4<:0fiihhhhhhniad7j@-=wu;'.:annhfeab0ggggggg0afinklllkmifa0g91||||11111119gg00b0g12:}:d|1gaehhhfeb0g9911|2dddd2|19g0baeb|8.+,;=##w-@{j6.(8}2||2d::",
"888_3}d10ehhfebg12:3_8[[888888_}d|19119g0g28c6~~6^/4.c 8dgbbgd[/';wt&%$p5!c[}d2|2}</),,j482900bbaaaaaeeeeeeab0gg00bbbaaeeeeeabb00000000000gg9911111111||22|191:(^'5v*qzAAAyq$*t*s&qrzABBAAzrq&*pwuooo-oo;;ouwvv=-@{~ :gaabbbbbbaaeffffffffffffeeaabb0|_.j]@>,'j+~6~+j,oxqAz&w,67[__[ .44.......c777./~j{@-wt&ryzzzzBCBzsw5;v&ADDBzyyzABBCCCCCAqx5+ 321gb0d '=$zEJLNNMKICr*wo]j^ }9ehihhhhhhiie|[/)>-wwu]^_ghihfeab000ggggg0afinmklkmnhebg9||222|19999999g00bbbg1d}}}}:210efhhfeb0g9911|2ddd2219g0baeeb|[/j];=vvu;])~47[3d|1|2::}",
"<<<[[_3d9beeabg12:}3_____33333}d|9g0000bb028c^~~6/4.7 [}|gb0|3 ~,-#$rAz&#@j4<}2d3<.!]55{6(}|9g00bbbbb00bbbb0ggggg00bbbaaeeeabb000000000000ggg99991111111||19g137+>-psqyzzyr%stxts&qyzABBBAAyr%$*tpp####vw==vpxpv-@'^<2affaabbbbaefffffeeeeeeeeeeabbb013.j]@@]{)!~66~!{;pqAz$='4<_338(c.444////4.c77c46!'>owt&rzAAAzzzr&p->@u*qzzyrrryABCCDEGGEA$={/<}|g09}.,w&AEIKMNNMKEy*vo@{+.8|bfhhhhhhhiifg} ^'5w#v5!<|bffffeab0000gg00afhnmkkknifa09|22222|19gg999gg00bbbg1d}3___}2gafhffeb0g9911|22dd2|19g0baffb2<^'>ou==o@'+^c<_:|9912:}}",
"   ((<8}2g00g9|2:}3333}}}:::::d|90babbbaa0|8c^~~6/.7<8}29b09d[.!>ux%ADDz&#5j.8:3(4+,;-o]+7_d|19g000gg99999999999g0000bbaaaaab000ggggggggggggggggg9999999999gg|_4';vt$%ryyrq&*xxts&qyzBBCCBBzyq%&&&&$$$s*xxxt*s*#u>j481fiifeeaaaefhhhffeeeaaeeeeabb0bb93c!]55>,'!~^/^~)5pqBA$ujc8}}}_< c4/^6~~~6/.777./~j,;=x$rzAAAzr&*#->{,;wt$&$&&qyABCDEGHIIDrx5j.82gg28^]v&zDGIKMNNLGy*v-5])^(:9aefhhhhhiifb|37~>=pp-'c}9befffaabb00000bafhnmmmmifebg122ddd2|9ggggggg00bbbbg1d}_[<<8}1bfhfeabb0g91||22222|19g0beffb2(~{@ouu-5,j6. 8}21gg12:33",
"77   ([_d1991|2:}333}:ddd22222|1gbaaaaaaa0287^~~6/. 8:|gbb0|3 ^)@=trCHHEz$#@~ 8<4!,5u=u@!c8:2|19ggg9|2dd22||1199ggg000bbaaab00gggggggggggggggggggggggg000000g2<~>=xs&%qqqq&stppxs&qyzBCCCCCAzrrryyyyyrq%&$$&%%$xu>!._9fnnhhfeeefhiihffeaaaaaaeaab00bb9}c!]@5@]{j6/446j@pqBA$u! 3:::38(74^~+!!!+647  7.^!{@upsqyAAzr&xwo>{''];=vpxts&rzBDEGHJKJHA$=]6(d91} +5p%zCDGIKNPMHz*vuo5,+c_|0efhhhhhhhfa0|_4{uxx=]^<d9afhfeaabbb000bafhinmmnheb09|2dddd219g00gggg0bbaab01d}8< 7(820fhfeabb0g91|22222|19g0baefhbd7+];o-o;])~4 [3:|9gg1d}3_",
"    (([_:|991|2:}}}:d2|||||||11g0aaaabbb0g287/6~~6/78dgaeag2876'5w*yDIJIDys={/7/j>;u==->+c8:d2|9gg9|d}33}:d2||1999ggg00bbbbb0ggggggggggggggg00000000000bbb0g1}c)-x$%%%%%%&$*x##x*&qyABCDDDCBAzyzABBAAzyrq%%qrr%*w@j4[|ahiiihhffhiiihfeeabbbbaaab0ggbbg:7+{>@@]{!^.cc/!@pqBA$-+(}dd:}_<746+!j)j!~/c7 7c/~'>-v*&qrrq$x=;],{{,]@5ouw#x$qzBDEHIJKKIC%p;j7}|d[/'-tqABCDGJMNMHz$pwu;]j.8|0afhhhhhhhhfeb2 jopxw@!.820fihfeeaabb00bafhinnnihebg12dddd2|190000gg00bbaaa092}8 c4c<:gehfaabb0g91|2222||19g0baehhb:cj>o-o;@{!/7<_}219g9|:3_8",
"[[[[[[_}21991||2ddd219g9991199g0bbab00ggg1d_(.^+jj+/<20efagd[.+,o#syEIKJHCrx5j~)@=vvw-5'6 _:d2|1991d38[[8_}:2|119999gg00bbb00gg99999999999gg00bbbbbbbbbaaa01:<6@#&ryrq%&&$stp##x*&qyABCDEEDCBAAABBBBAzyyrrryzzr$#;{6 31bfinniiiinnnifeabb000bbb0ggg0b0d(6']>>]'!/7 74+>#qBA$-+<:ddd:3[ .^+j)))j+^4c77c46j];wxs$$*xv-@,{,>5;5@>>@ou#*%zBDGHIJKJHCr*=,/8:_c!>wsyBCCDGILNLHB%t#=o>j.8|0afhhhhhhhhhhfg8~@w#w;{~739fiiffeeaabb0bafhinnnifa0912ddd22|9g0000000bbaaaab9|}87/6/7_9effabbb0g912222||199g0aeehhb:.)@o-o@,)6.(8}d219912}_88",
"}}333}:d|9gg99111119g000g999ggg00b0g911||2:_<7/!{]{+7:0fha9:[.+]-p$yDHJKJGB&w>,5wt*x=5{~c[}d22|199|}8(  <[_}d|1111199g00bbb0gg9999999999999g00bbbbbbbbaaeag2_.)uszCBzq%&$stp#vvp*&qyACDEEEEDCBBBBBBAzyyyryyABBz%xu>j/(}1ahmkmnnnnnnifeab00gg00gg99g0a02[4!',,{)~.(<(c~>#qBA$-+<:2dd:38(c^+j)))j+6/.c7c46j,5uvxx#=o@,')'>-wwu5,{,>;=x&yBDGHIJJIGCy$#@~<_(6,-x%ACDDDEIKLLHCr$xv->j._1befhhhhhhhhhnia}4{o==o>'^<|eiihffeeabbbbafhinnihebg9|2222|119g0000000bbaaeebg|:8c6+~4[|afeabbbb0912222|119g0baefhf0}4'5--;>'+/ 83:2|11|2:388[",
"222222219g000gggggg0000g9919g0000gg1|2d:}3_8[ 4!]5@).}0fha9:<4!>up$yCHJKKJGytuow*%%t=]+.<3d||2|11123(c.c <83d21111119gg00bb0gg99911111111199g0bbbbbbbbaeeb9:<^]vqCGEBr%$stx#vwvp*&qyACDEGGGEDCBBBBBAyyrryyzABCAq*w;{+.[:ghmlkmmmmnnhfea00gg99g999990ab1_c6!)')!^7[8[7~]#qBA$-+<:ddd:}8<c/~!j)jj!~^4.cc.6!{@-wvw-@{j!!),ovxxv;{)){>o#srBDGIIIIGECz%xo!7(4);#srBDDDCDHJKKHDz%spu@j.39affhhhhhhhhinnf27!>o--;>!7dennihhfeabbbbaehiiiihe0g1||22|199gg000000bbaaeeea09d8.+)j^(d0eebbbbb09|222||19gg0baefffg3/{;u-5,j6c<3:22||2d:38[<<",
"|||||119g000000ggg9911|2222|9g00g912:}_[<((<<(.!];5{/3gefb1}(/j>ux$yCGIKLLIC%x#*%yr*-)4<3d|||||111d8 44.7<8}d2|11|1199g00000g991111111111119gg000bbbbbbaab1} ~>prEHGBy%$*xpvw=wpt$qyACDEGHGGEDCCBBAzyyrryyzABBAqsvo]j^731fmllkmmnniheab0g99111111190ab9}(46+!+6.<3387~]#qBA$-~<:d::}38<c/~+!jjj!~6/.cc.6j,5-=w=o])!j'];wxs*#;{!+j{5w*qADGIIIHGDBzq*-'/.+@w*%yABCBBCEIJJHEAr$x=@j.39effhhhhhhhhinmh9[^)>ouu;'4:ainiihfeeab0baehiiiifa091||||19g000000000bbaaefeebg284!{{+7}gaabbbbb09|222|119g0baeeffe9_^,ou-@{!/ 8}d2|2d:3_[<   ",
"22||119gg00000gg91|d}3_88_3d|ggg9|d}_[(c4//c (c+,55{/_9aeb13 ^)@up$rBGILMNLGA%$%yzrt;+ 3d2|||||11|:[c/^47[3:d2||||1199gg000gg91111111111111199gggggggg0bb0|} 6>#rDHEBy%stx#w==w#t$qyACEGHHHGGEDCCBAzzyyyyyzAAAy%*v->'~.[2amllmmniiheab0g9111||||1190aag28 c4//. _::_ 6]#qAA$o~<}:}}3_[(c/6+!!!!++6^4c7.6)>;uww=o@,,>o=#ts$*v;{!+!'>-p&yCGIJIHGDBzq*u,~~,u*%ryyzzzzBDGIIHEBy%*v;).3gfhhhhhhhhhhinnhg}76'5uwu]^3biniiihfeab0baehiiiifa091||11900b00ggg00bbaaeeffea0|84)]]j4_10bbbbbb09|2d2|19gg0baefffa186]-u-@'~.(_d2|2d}_[(7c.44",
"ddd2|19ggg000g912:3[(7cc7 <_d1g9|d}_< .6!j!6c(76{@@'/8|0b0|_7~'@u#sqBEILNPNJEAyzAzqp>/82|||||||11|:[c^^4 _:d22||||1199gg000g99111||||||||||111111111199g0g|}(^,v%BEDBr%stpv=uuw#t$qyBCEGHHHHGEEDCBAAzzyyyyyzzyq$tw-@{!/<dbnkknnihfeab0g911|||2|||190bab1:_[( (<_d|23 6]#%Azso~<}}3_8[< c4^~~+++++~^4c74+,;uwvvv=-o-vt$%%&$tw5{!++j,;v*qAEIJJHGDBy%*=>)';x%yyr%%%%ryBEHHHECzqs#o'.}0hhhhhhhhhhhhiihb2_c~]-v=@~8ghniiihfeab00befhiiifa091119g0baab0gggg0bbaaeffffea1_/'@@{^[2900bbab09|2d2|19g00bafffeb|[6]-=o>j6c[}2||2:_< c4/^66",
"}}:d|19gggg00g1d_<7.^~~~6/.(3|99|:38(c/!{],j/77^)]])^<}|91d[.+'@-vt%AEILNPPLIECBAy&w{c:991|||||11|}<.^^.(3d||2|||111999gg00g99111|||||||||||||||||||||19g92}</{=$zCCAr&sx#w=uuw#t$qzBDEGHHHHGGEDCBAAAAzzzyyyrq%sp=o>{!^ :0immniheab00g911|222222|190baag1d:}33}219|3 ~]v%zzso~<}}_8[< 7.4^6~~~~~~6^/446'5=#pxxp###xsqzzy%*pu@{j++!'@=x&zDHIIHECAy%*w5,>=syAy%s**s&qzCGGGECzqsp-{4}bhihhhhhhhhhhhhfag284{-vv;!(|ahinnifeab00befhhhfebg1119g0baeeb0g9g00baaeefffffe9_/{5;]~(}1g0baab09|2d2|19g00baeeaag2<~]-u;]!/78:2||d}8(c4^6~~+",
"}}:2|9ggggg009d87^+j'{{')!6c8d99|:38<7/j]5@{~..^j,,)6c<3dd}<4+'>;=x$yCHKNPPNKHECzq*-j(20g9111111|2}<c//c[:|1||||1199999g0000g9111||||||||||||||||||22||1912}</'usyBBzq&*x#w=uuw#t&qzBDEGHHHHGGEDCBAAAAAAAzyyrq$t#u;>{!^ }ghnnihea0gg9911||222222|190beebg91|22|9bb1} ~]v&zy*;6<}}_8[( c./^666666^^66~!{;vt$$$s**t*s%zBAr$xwo@,)!++)]ov*qADGGEDCAyqs#-@;v$yAr$xppxs&yBDEECAy%sp-{4}bhihfhhhhhhhhhhfabg:7j;vvo'._1bhnnihfebbbaeffea0g911199g0beeea0ggg0baaaeeffffhfg_^,oo>!c_290baab09|222|19g0bbbb0g9|}(~,;o5{+4(_:||2d}8(7./^666",
":dd|9g0000g0013c!]5;;;5@>,)^(:1912:}_<.!];o>)6^~j{{'!64 [_8 /+']@-v*qAEJMNPNLIEBrsv@~[100g99gg912:3<7cc(_d111||19999919g0bb0g991111|||||||||||||||||22|11123(/'-*rzzr%$*x#w=uuw#*&qzBDEGGHHGGEEDBBAABBBBBAzyrq$two@,'!^ }gfnnifa0911111|||222222||9gbeeeb0g999gbea9} ~]w$yrt56[}}3_[(7.4^6666^^/44^+{@ux&yAzyq%&$&&qyyr&x=;@>]{)++!{5upsqyABBBAAzr&two-vsqr%*pvv#xsqzCDCAyq$*#-{4}bhhfffhhhiiihhfeeeb|<+5wv-]+c_1enmmihfaaaaefe012dd2|19gg0baeeab00baaeeeeeefffhf03^,o-5)4<:10aeab091|22|11g0bb0912d:8 6'>@,j6c<3d2|2:}_[< 7c...",
"22|90baab00bb1[~@wpp#w=u-;]!c31g91||2}(~]o-;,j+!)''''j+^c  c^+){]5up$yCHKMNMKIDz&#o'4_10b00000g|d}8<( (8}|991||19gg911190aab0g99911|||2222|||111111||||11|d_(/'-tqyyq&stp#w===wp*&rzCDEGGGGGEEDCBAAABBCCCBAzyq$x=5]'j~/(}9finifbg|22||||||222222||9gaefeab0000beffg} ~]wsq%x@^[}:}_[(7./^666^/4c7c^';vsyCHHGDAyrqq%%%&spu@,,]>]'!~+)];=#t$%qryzzAzrs#uuvt$&sxvwwv#t&yBBAy%s*x#-{4}0ffeeefhiiiiihfeeea986]uwu5{~7}0nlknihfeeeffb1:_83:|9ggg0baaeaabaaefffeeeefffhh03^]-u;{^ 3|0eea0g911||||190b092}_8[(c^j'{)~47[3d22d:}}33__88[[",
"119gbeeeab0bb|()u*&&sx#vwu5'4_100gg001_/{;-o@,')))'{,,'!^.c4^+j'{>ov*qAEIKLLJHCrtu,~ }10bbbbb0923[<((<[_:|111|19g00g11190aeabgg99911||2222||11199111|||11|:876{ut%rr%s*xp#vw=wvxs%rACDEGGGEEEDDCBAAABCCDCCBAyq$pu@'j+64(}9ahihe012dd2|||||||||||||90afffabb0bbafhfg}7+]w*%&#>^[::}3[(7./^666/4.7(76]w$zGJMMKHDBzyrq&stv-])!),>>{j~~!{>;-w#x*$%rzAAy&xwu=#xtp#w===vp$rAAy%stxpv-{/3geeaaefhiiiiihfeeeeg34{;uu-5{6<9illmihffeffagd8( [329ggg00baaeeeefhhhffeeeeffhh03^]-=o,+c820eea0g9911|||190bgd_(777c.^~!!~^. [3d22d::d2|||2222",
"99g0aefeabbab| {w$rr&stxpwo{/810000aeb:.)@oo;>,{)))',],)+^/^~!j){];=x&yCGIJJIGB%#5j4<:9bbbbb0923<7cc7([_:2|11|19g00g111gbaeab0g99911||2222||119999911|119|}<4!>=t%rq&stxp#vvwv#t$qyACDEGGGGEEDCBAzzABCDDDCBAyq$p-])+~^4(3|beffa012dd2|111||||||||190afhfeabbaaehif9_.!>w*&$v]/[}}38< c.4/^^/4.c  .!;tyEJMPPMJGCAzr%$t#u@)~6+']>{j~6+j{]@;-=vxs&rzAy%twuuwv#vw==uu=#sqzAy&*xp#v-,^81baaeffhiiiiihfeefe0}cj>ouu-@j7|hlknihhfeea0|3(cc(_290000bbaeeeffhiiihfeeeeefhh0_6>uw->!4<d0ffbg999111||1gbb1_c^~~6//^6~6^4c(8}d|22d2|1g000ggg",
"99g0aeffeaaeb2 {w$qr%s*txv-,^810b0behe2 +,5;;5@,'jj){,,'!666+j)'{]5upsqzCGHHGDz$w]~7_2gbaab0923<.^6^/c [3:2|||119gg9111g0aaab0g99911||||||||119999911119g1}7~,ov*%q%&stxp####pxs%rzBCDEGGHHGEDCAzyyzBDDDCBAzyqs#o{!~6^4 _d9baabg12d2|199111111111190ehhhfeaaeefhie1[/'5v*$sw,4[3_[( 7c.....c7  7.6,=$BHKNNNLJGDAyq&*xv-]!/46),]{j~6~+j){,>;-wp*&ryr&twu-u==ww==uu=v*qzAy&*xppv-]6<2gaefhhhiiihhhffefe0d(6'@-==o{.dfmmihffeab01d87.. _2g0000baaeefhhiiniihfeeeeehf0_6@=vu@)^(:geebg911111||10ab2 +,>])+6^66^/.7(8}2|||||1g0bbbbbb",
"99g0baeefeeeb2 )u*&%&$*tx#-,^8|000behe1[/j]@;;5>'j!j){{)!~~+!)'{,>5u#*&rACDDCArtu{^ 3|0aab01d_(4+)')!647<_}d2|111111199g0bbb0gg999111||||||111199991111g01_4';wxs&%%&s*tpp#ppt*&qzABCCDGHIIHGECAyqrzBDDDBAzyr%sv5'~^^^47[}|90b0g1|2|1ggg9911111119gbehihfeeeeffhha2(~,o#*$*={4[8< ccccc7 ((<[< .6);pqDIKLLLJIECAr&stpw-]!/./+'{'j+666~+!){]@o=#*&qq$p=-oo-u==ww=uuv*qzAy%stxp#u>+7310ehiihhhhhfhfffeagd[.+{;=wu]^}aiifeeeabg|d_(./4782gbbbbaaeefhhiinnnihffeeeeffg8~5w#w;'6 }geeb911111||19bfa}/]uwu@)+666^/.7(8}219999g0bbbbb00",
"99gg0baeffeeb2(jops$&$s*t#u]^[|00g0afe9376)]5;;>'!~+j))j!++!j'{,]>;uvt$qyABBAy&po)/<}10ab01:87/j,@55]{j6.(8}d|111|1119gg00000gg991111111111111199999119g01[6>wts&%%%&$stxpppt*$%yzBBBCDGHJJIGECzr%%yADDCAyrrq%*v@j6/^^/c(_:|9g0g1||1g000g99999999g0behihfeeefffhf0:c!@ups$t={.[8(.44.c7([8___[7^j@=szEIJJIHGEDBy%stp#wo]!/c46!jj!+~6^^^~+j']@o=p*&$*#uo;;;ou=ww=--wt%zAzq$*txp=5)/<:9ahiihhhffffhhfeag23(4!>uvw@~8gffaaaabg|:_(c4/4782gbbbaaeeffhhiinnniihffeeafe9[+;#pvo{~739aa09|||||||19aha_+ox*p-,j+~6^/.7(8:|90000bbbbb000g",
"99gg0baeefee02(+5vt$&&&$*pu]6[|g0g0afe0d[.~'>55])~6~+jjj!++!j){,]>;u#t$qyzAAzqsv5j4[:100g|}<.~'@uv#v=-5{!/ 8}2111||199gggg00000g91111111111111119999111gg2(j-t&qqq%%%&$*xpppts&qyABBBBCEHIIIGDBy%&&qzCCBzq%%%&*w@!/4/^/.7<_:|9gg91190bbb0gg999gggg0afhihhffffhffe934)5wxs$tu'.[[ .44c7([_3}3_(4!>ux%AEHHGEDCCBAr&*p#v=o]!/c./~+!!!+~6^^6~+j{]5-vtssxwo5@@5;-=vv=-oup&yzzr%$stxwo,+.[:9afhhhfffffhhfebg|:_ 6,u#v;!<|babbaa01:[ ./^^/7_2gbaaaeeffhhiiinnniihhfeaaea1<jopt#-,+c_1bag1|||||||1gehb8ju*$t=>)!~~^/.7(_:1gbbaaaabb000gg",
"ggg00baaaaab02<~>wt$%rr%$x=>6<2ggggbeeb1}<4+']>{!6/6+jjj!+++!)'{,>;=ps%yABBAy%*w>!c8d1g923 ^)>-#s&q%&spu@j^ _29g91199gggggg0bbb0g111199999991111199991191}.]#%yzyrqqq%&sxp#pt*$%rzAABBCDGHHGECAr&ss%yABzr&$&&&*w>+4.4^^4c [3d199919g0aaab0ggggggg0bafhihhffhhhffb18/{ovt$$*={.88<7c7 <[_}:}_<c~]ux&yBDEDBAzzzzr%sx#w=-5,!/.c./^~!jj!+~~66~!'];uvx*tpu5>]]@5-=vv=o5ov*qyyyq%&st#u5{+.<:9befhhfeefhhfea09|d84'-vvo)c}1g0baag287^~++6/7_|0aaeeffhhhiiiiinnniihfeabab2 )ut*xu>!._1bbg|222||||19ahb8ju*$t=@'!+~^/.7<3d9baeeeeaabbbb00",
"ggg0bbbbbb00g2<6]ux&rzzy%*w@~<29g9gbeeag23(/+''j644^~!j!+~~~+!)'{];=x$rACDDBy&xu]+c8d1123 ^'5w*%zCDEDArsw@j4[dg00g99gggg99g0baabg91199ggg9999991111991||d[6;*zDDBzyrrr%$x#v#x*s&qryzAABCEEEECBzq$**$qzzr%sss&$*=]~.c4^^^4c [}|99999gbaeab000000000bafhhhhhhhiife02<^,o#*&&*={.8_8((<[83}}}_[76'op&yABCBAyq%%qq%$t#w=-;@{!^.c77.^+)'')j!+~~!'>o=#xtxvo>{{,]5-wvvu;@5up$qryyr%$*pw-5,!4[:9bfhhffefhhfea0gg1: j;vv-{/[:10aeag:(^j')j~/ _|0aeeffhhhiiiiiiiinnniheabbgd7{=*$tw@j48|009|222||||19be08!ox*x=@{)!~^4c [}|gaefeeeeaabbbb0",
"|1190bbb00gg92[^,-p&yBCArsv@+(d99990aeeb92_ /~+64cc46+!+~6^6~!j)',5=t%yBDEDBrs#o{~78:223(/)5w*qBGIKKJIDrt-{^<d0ab0gggg99119gbeebg1119gggggg99999111991|d_c)=%CHGDAzyyyq$xvwv#x*s&%qryzAABBBBAyr&*xxs%rr%$*t*$$t=,677./^^^4c(321999g0baeaabb000000bbaefhhhhhiiifa9:(6,-#*&%sw,48}38[88___8[(c^j>wsyABBAyq&s**s$s*pv=-;@]'!647(< 4~){,,{'j!+j{5-w#xxp=5,')',@o=vvu5>>ovt&qyzzr&*x#v=;,+.[d9ehihfeffhfeabbb0|[+@=w-]~c82gaea9}c!,>]'+/ 3|0aeeffhhiiiiiiiiinnnihfa0g13.,vs&*w@)4[20092dd2|||||9bag_~5vxp=;>{)+64c(8:1befffeeaab0gg99",
"33:d1g000ggg9284';#$zCDBysv@+(d19190aefeb9d8 44. <(746~6^//6~!j)){@=x&yBCDCz&x=@)6c[3}_(4!]ux%zDHKLMMKHA$=]~(d0ab0gg991|22|90eebg1119g0000ggg999911991d3 6]pyGIIEBAzyyqspwu=vpxt*s$&%qrrrrrqq%&*xppt$%%$*xx*sstu,^  c/^66^4 8d1gg9g0baeaabbbbbbbbbbaeffffhhiiifb137~,-#*&%$v]48:}3_8<( c./^~j{;#&zBBAyq$*p#pxxxp#wuo5>{)!6/7<8[76j{,]]]{))']5uw###v-@{)j)'];uvvu;>>;=p*%yAAy%stxxpwo,~c_|bhihffffffeaaaeeg_^]-=->j^ }9afe9_4'@;@{+4(3|0aeeffhhiiiiiiiiinnnihfag928^>#$%sv@)4[20012dd2|||||10ag3^]u##vuo@,j~/7<3d9afffeaab0912:}}",
"77(8:|g000g0g|_c!@w$zDECysv@+(:11190aeffeb9:_<(<83_[ c..../6+))))']-#sqyzzy&x=5{!^c([[ 4+,;v*qzCGIJKKJGAs=]6(d0abg9111|d:::|gbab91|1g0bbb000ggg9999gg1:</'o*zGJIGCAzyr&*#uo-uwv#ppxt**s**tttttxp#v#p*ss*txxtssx-{/ (c4^6~6/78d9gggg0baaabb00000000bbaeefffhiiheg28c+,ov*&q$v]/8:d}_<c^+j',]]]@o#$rzzyq&*pv==wvvvw=-;@,'j!~/7[3_<.~),>@5@]]]@;u=wwwuo>{)j!j{@-=wuo5@;-vx&yABy%st*sstv;{6 }0hiiffffffeeaeffb:.)5oo@{!.81ehe98^,o-;,~.<}10aeeffhhhiiiiiiiinnnihfag|}(~5p&%sv@j482gg12d22|111190a0}.);=#xx#=5{+/7[}|0efhfeb0g12}8( 7",
"+~^c[d1g00bb01} 6,u*yDECysv@+ }|1|9gbefffa012:}:d22:38<( 746j'{')){5wxs&%&spu@'!6/.c7c/+{5=psqyABDEGHHDy*u,6<20a091|22d}3_3:|g0g1||1gbbabbb00ggg999g013c!@v&BHJIGCBzrq$xwo55o-u===wwwww==uuuu=====w#ptttxxxt**po'4((74^6~~^c[d9g0g00bbbb00000000000bbaaeeffhiha9:<.+{;wt&q&#>/8d2:_7~'>;u==uoo-v*&qrq&stvu-o--uuuu-5>{)!+~/78}:_ /+'>5oo;55;o-----o5>,'j!+j,;u=u-o;;-=#srABy%*ts&%&tw@)489fnifffffeeeeefha2 ~{@55>{6(|ehe1[~>u=o,~c8:10aaeefffhhiiiiiiiinnihfb9d8c!;x&%*w>!.82gg12d2|1111190a0d ~]-#s&$xu>j/ _d9beffabg9|d3(.^~+",
",{)67_290baab9d[4j5xrCEBr*w>~ }2||1gbefhfeab0g9gg0g912:38<c6j{,{j!)]ovpttx#u@'+6^^///^+'@-vxs%qryyzBDDA%xo'/[20bg1|2d:38<(<83d||2221gbaaaabb00ggg99001_/,utqBGIHECAyq&*#-5>>5;ooo;;;;55>],,]>@5o-u=wv#ppxxxttxv;)4((7./6++6.[d90000000000gggggggggg000bbaefhifb|_ /+{5ux&q&#>^[d|d[/';=#t*tpwuuwp*$$$s*pw-;5555o--o5]'j!+6/78:d}[7^j]5-----o;;555@@@>]{)+~+'>ouuu--oo-w*qAAy&*t$qyr&po,6[1fniffffeeeeeefha184!{>5;>j7dahe1<+5wv-,6 _d10baaaefffhhiiiiiiiiiihfb1}</'-x&&*=]+c_|gg122219999190ab|[4)5#&rr$#5)^ 3|gaeab9|d:}_(4+']]",
"o;>)/<:1gbaabg2_ 6]w&ABz%xu]~ }2||1gbehhffeeeeeeeeeabg9|:_ ^j{,'!+!{@-wvvwu5{!6^6~~~~+j,5u#ts&%%%%qyAAy$v5j48|0bg12d}_[(c44c [83}:21gbeeeaaabb0ggggbb18~@v$yCEGGDBzr&*p=;],,>@55@@>]],{)j!!j',>5;ou==wvpxttttpw5j4(( ./6+!~4<:90bbbbb000gggggggggggggg00baefhf0d[.6j{@up$%$#>^[d|:(~>=xs$$stvuu=#xt**txvuo@>]]>@;o;@]'j+~^4 8:d:_(.+{>;o--o;@>],,,,]>>]'!~~)]5o-uu-o;o=x&yzqsxt$rzz%x-,6<|fnifffffeeaaaefa9}(/!];-;{4}0fa|(j;##u,^(}21gbbaaeeffhhiiiiiiiiihhfa137~,ut&&tu,~7_|gg9|2|19gg99gbab1_c+@v&zz%xo{6 310abg|}8<((7/!];u=",
"vw->!c829baabg|:8c!otqyqs#o,6(}d22|gbehhfffffhhhhfffea0g1d8.+'{)+6~j,@o-uuo@'+6~!)))jj'];uvx*$&&&$&qyyq*=]+c_|0b012:_[ 46+!+~^.7<3d1gaefeeaaabb00ggba1[+;x%zBDDDBzr&*p=;]{'{]@@@>>,{'j!+~6~!',>@5;o-u=v#x**txv->!4 ( c/6!j+/(:90baaab00gg99999999999199g0baefe93 ^!',@-#s&sv]/8d237jops&&$*xwu-uw#pxppvw-;@],,,>@55@]{j+64c<_}:}_<7^!']>55@>{)jjj)',>@@,)++j{>5;o--o;;-#sqq&tppsrAz%xo{^[|eiiffffffeabbaeag2_ 6{;u-]681bb2 )-ppu,4[:|9g0bbaaeffhhhiiiniiihhhha|84j@wt&$x-{6 3|009||19g0ggggbea9} ~]w$ry%x-]~ }9aag287^~66~j>-#t*",
"txvo{^(}10aabg1|d84,=t$sp=5'^(3dd2|9behhfeeffhhhhfffeeaab9:(^!)!~^^~j,>5oo;@{j!){]],{'']5-wpts$$ss$%qq&x-{6 }1ba092}8 4~){]],'j6c[:|0afffeeeaabb000aa9<j-*qzABBAzr&*#u;]'jj',>@@>],'j+~66~+){]@555;o-uwptss*p=;,+4 ( c46!)!^ }10aeeeab0g99111991111|||11g0befa18.+),>5-vtst={48dd_.{=*&&$tpvu-o-=vvvvw=uo5@],{{,]@@>]{)+/c([_3338< c/6+){,{)+^//^~j{>55>{j!j',>@;oo;55owts$*#w#*rAz%#5j._1ehhfffhhfeb0g0bb0928.);w=5!(:99d )uxxu{._219g00bbaeffhhhiinnnihhfhha|<^';v*$spo'^(}10091|1g000000aea9} ~,ut%q$xu>!7}9b0|_c+{],{']-p$qr",
"&$t=>+c82gaa099g92<+@w##=;]j/(3:dd|9bfhhfeeefhhhffffeeeffa|8.~!+6//^+j{>;oo5]{{]@;;@,'',>;uvx*ss**s$&%s#;j4[:9bab92}<c^j,@;o;@]j/<}10afhfffeeeabb0bae9<)usrzAzzyq&*pu5,'!+!),>@@@],'!~6~+!),>@55555;o-wps&$*#-@'~. ( c4~j')~c82gbeffeb0g9111111111|||2|19g0aeb|[4!{]>@owptp-'.8:}[/]vs%&*#=-o;;ou===u-oo;5@]{''{,]>>],)+4(8___8[<((  7.^~!+647  .^+{@;o5]')j)'{]@5;;55o=#xx#=uwt%zy$w]~739ehhffhiihe0g9g0b009d !5ww;).8d2}7'uxx={c}199ggg00bbaaefhhinnnihffhhbd ~]o#*s*v5j4<:9b0g119g0bbbbbaa0|_c~,-#*$*x=5)._|12_7+];-o@@;v$yBC",
"r%s#;'^(:9ba0990bg34'5--;>'+4(_}d2|gbfhhfeeefhhhhffffffhifg376+~6^/^6+)];u=-;@@5o--5]{'',@o=#xttttts$$*w>+7_2gaeag|3<.~'>ouuuo@)/<:9behhhhfffeeabbbee9()w$yAAzyq&sx=5,j+++!),>@@@],'j++j']>55;;;5555;-wx$%%*v;,j^. ( 74~',,j^ _2gafheab0g9111111111||||19g0aeb|84+'{,>5uv#w5!7_:3(^]w*$sp=o;5555;oo;;5@@@@>]{')'{,]]]{)~c[_3_[<((  (<<(c4^^.(8_[ 4~'@;o;>{')))',>55555;-=wwuo;-p$rq*u{/<:gehhffhinhebg99g0bbb|[~@=wo,678}_c{=tt='7:9gggggg9999g0afhinniihfeeag}c!>-#t*xw@!.8dgbbg9990baaaab0923(/!,owpttpwo,^(_8(4!,;=wu;5-p%AEG",
"yr&xu]+c_1bb0990a0d +,>>,)+^.(83:210afhhfeeffhhhhfffffhinhg37^++~6666~)@u#ppv=u===u;]'j)',@ow#ppppptssxu,^<:10aea0|}(4+{@-u=uo>j48|0efiiiihhhffeaaaee9('w&zAAzrq$tvo]j~6~+j',>@@@>]{))'];u==uo;;;;;;o-wt&rqsv5'~/c ((74!,@@]j^7_|bhhfea0gg911||1199911199g0bab137^+j){]5-uo,6(3:_ 6,uptp=o@>>>>>>>>],,,,]]],{'''{,],,'j^78338< 77c7 <[< c.c 8}}8 4~'>;o;>,')))'{]@55@@@5ooo5@>;w*&$p;j.820ehhhhinnifbgggg00bb18^]-uo>)6c<<4{=tt='7:g0000g1|2::d10finniihfeabg284)@uvxx#-,~73|0aa0g9g0baefe01:87/+'>;uv#pp#=@j/./!,5-=ww-5@op%BGH",
"zy%*w5)/[20bg99gb02</!))!6/4c <_:|gbafffffffhhhhhhhhhhhiifg37^+!!!+~~+'5v*$$*xpp#v=;])!!j']5-wvvvv#x**p-'.3|0baeeb1}(4+{@ouu-5,+7}gehinnniiiihffeaafe1({v%zBAzr%sx=5)64/~j',]>@@@>>],,@-#t*xv-o;;oooouv*qyrsw>!^.7 (( 4j>o-;])^ }gfiheaab0g91||19gggggggg00aaagd874^~!),>@]j48}}87^'5u=u;>],,,,{{')jjjj)'{{{')'',,,,{)+4(_}3[ c..4.c (<( 7 [3:}8 /+'>;o;@,{'''',]@@@@@>@@@>,{{>-#ttw>~ 3|0fhihiinnifab0gg00001_4'5oo5]'~. /,=txu'c:gbab092:_[<8}1ainihhhfebg|3 6{5uv##w;'/<}1beeb0g00befheg:<.~j{>5;-u=vppvo,jj,;w#p#v=;],5v&BGH",
"Azr$#o,6(d0b091g0g28.6+~/.7777(8:10aefffffhhhhhhhhhhhhiiie9376!j)))!+!{op&qq%$s*x#=;,j~~+j'>;u====w#xt#;j d0aaeeeb1}<.~'>;oo5])^<2ainnnmmnnniihffeefe1 {v%zBBzy%*#-]+4c/+),]]>>@@@@@@5-p$qq$pu;;;o---=#sqzys=,~4c (<< 4j@u=u;]j/[1eihfeeab091||190bbbb0000baeeb1:_<74^+j'{)67_:3[c^j]5;5>{''''')!+66^^6~!))))))'{,,{)!6.<3}_<7.4///4c7    (83}3<c6j{@;;5@],{{,,]>@@@@@>]],{)j){5=#vo{/<:1bfiiiinnniheab00gggg|3c+,@;o;>)^.^,=txu{c:gaeag2}[ .4.(}9afffefeag2_(/!];u=ww->!.8dgaffa000baefhe18.!{>5;oo;;-=#pp=;]>-ps$sxv-@{'>w&AEG",
"CBz%xu]+ d0b0919gg28c^6/c(<( 7 [:1baefffhhhhhhhhhhhhhiiiie937^!){{{)!j{-x&rrq%$stpw;,j~6~!)]5ouu--uvpxv5+[1aeeeeeb1}<.6j,>@@]'+._9fmmmmmmmmniihhfeefa| {v&zBAzr&tw;{~.c/+{]>>>>@@55;o-v*qzz%xu;5;---u=#srzysu{^c (<[[(4j@uwwu5,~ dbfhffeeabg1221g0aaaaabb0baeea01d3<746+!!~4(_38(.6j,>@]{)jjjj!+6/.ccc./^~+++!!j)'')!~/7[}}3[ .4^^^^/.cc7 ([__[7/!']5;;5@]]]>@555@@@@@@>,{'j!!)>o=u@j.[d9bfiinnnnnihfeab0ggg9|3 ^j,5-uo]+/6,=tx={c}gaa0|3(.6!)j67_290baaag2_7^j,@o-uu-5{~73|0ehfeb0bbaaee0:7+,5o---o55;uvppvuou#sqq&*v->'j,=$AEG",
"EDBr*=>+ dba0999g9d[.^6/7<8< 7 [:9beefffhhhhhhhhhhhhhiinnfg37^!',]]{)),op$%q%&$stpwo]j~~+j',@;oo;;o=##=>68gffeeea01:[7/~j'''j~/(:0ikkmmkkmmniihhffeea27{w&yAAyqspu@)~446j,>>>>>@5;o-=vx&yBA%xu5@5o--uw#sqyr*-)/7(<[88<c+]ou=uo>j.39aeeffeabg1221gbaeeaabbbbaeeebg1:874^6~6^.([8<c/+)]@@]'!~~~~6^4c (<<( c4///^^~+!!+6/.(8}:38(7./6~~66^/4.7 << /!{>5ooo;@>>5ou=uo;55555@>,{)j!),5o;]+c8d9bfhinnnnnihfeab0gg99|}[c6)@-w=@j^6]wtt={c}gab9} ^!,@;5]j/ _d90bg|_c+{@;o----;>)^(:9afhheb0baaaa0|[^{;=w==-o5@5o=###vv#*&rr%*#u@'j,=$AEG",
"IGDysw@+ dbebg99g1:<4~+^7[_[( (8:9beffffhhhhhhhhhhhhhhinnh0} ^!{]@@]{',;vts$ss**txv-]j++!)',>55555;uwvu]^30fheaabg|:8(c4^66^/. _|ankkkkkkkmnihhhhfee0d7{w$rzzr%*v;]j~^^+']>>>]>@5ouwvxsqzBz%p-@>@;o-uwps%r%xoj4 <[8__[76'@ouu-5'^[2gaefffebg1221gbaeeeaabbbbaeeab9d87/^6^/4c ( 746!{@;5>'+6^^/4.7([8_33_[<(  7c./^^^/.7<_}:}38(c/6~+!!+~6^4.cc4+{@o-uu-;@>@-vpx#=o;;ooo;5@]{)j){>5@{~78d10ehiinnnnihfeab0gg91|:_<.+]-vw;'6~]w*t={c}gbgd<^)@-v##=5{~.[d191}(~]o=w=u-o;@,!.[dgehifab0baabg|3cj5wpp#wuo5@@;-wv#px*$%rq&*p=5{),=$AEG",
"IHDzsw@+ dbebg999|3 ^!!6c[_8<((8d9beffffhhhhhhhhhhhhhhinmib:(/!{>55@]{]5u#xttxxttx#->)++!){,]>@@@@5-=w-,/30hhea0g12}_[<(    ([_dgfmkkkkkkkmnihhhhfea9}c{=sqrrq$x=@{!~6~!',]]]]>@;-=vx*$qzAy$#;>]>5o-=vxs&%$#5!.([8_33_(4!,@ouuo]~ }10aeffebg1||1gbeeeeaabbbbaeeeag287/6^/.c77c.4^+)];--5{!^/44.7 <83:d2d:}3__8[(7...c7([_}::}_[ 46+!)))j!~6^//~'@-=wwwuo5>5=xs$t#uo-u==u-o5>{))']>])678:10efiinnnnihfeab0gg91|d:_(^{-##-{+!@v**w{c}9013.j@=ps&$*#-]!.8:2:8.);vppvuo;@])673|bfhifa00baa0|}(6]=x**pwuo5@@5ouw#ts$&%%&$*pw;{),uszDE",
"HGCysw@!7:gb0911|d_c~jj~c83_[<<_dgaeffffhhhhhhhhhhhhhhinmnbd<4+'>5;5>]>5-w##pppxttpu@)++!)'{{,]]>@;-=w-,/30ffebg|d}3_____33}}:29ahmkkkkkkkmnihhhhfa0|84,=*&qq&*#o])+666+j'{,,]>5ouwpts&ryyqsw5,{]@;-wpts$$tw>+c<83}}}3<c6)];uwu@j.8d9beffebg1||1gbeeeeaabbbbaeeea0287/6^.7 7c4/^~!'@-==o>)+6/4.7 <83d|11|2dd:}_[ 7cc7 ([83}}}_[ .^~!)'{'j!+666!,ow#pp#w-5@;wt&%$xw==w##vv=-5,)j){,{j6c<32gafiinnnnihfeab0g991|2d:8.'o##u>j);#ssw,.}9g2[^,ux$qyyqspu]+c[_8(/'o#xpw-;@]'!/(:9ahiifa00baa9:</)op$%$tvuo5@@5;-=#ts$&$ss*tpw;{j{otqAB",
"BAy&x=@j._|991|2d}[.+))~c8}38[832gafffffhhhhhhhhhhhhhhinkna2[.~)]@55@>@;-=wvvv#xt*x=@)+~+jj))){]@;-=vw-,^_gefa0|:_88_}:d2|1111gbfimkkkkkkkmnihhhifb1}(6]=t$&&sxw5{!6///^6+j){]>5o=vpts&qrq&xu>{'{]5u#tssst#-,67[_}:dd}8 /+{5=vwo{^(}|0effea09||1gbaeeeaabbbbaeefe0|87/^/c((7.^~+!j,5=##wo>'j+6/.c <_d|991|2d:}_< c..c7 <8_3__8< c4^+){{{)j!~6~)>u#t*tx#=;5;wt&%&*p#pxt*txpwo])!j'{{j~4 8d9afinnnnniiheab0g991|2|2}7jovp=5,]ux&$v,.319: !5#srzBBzr$x-,~.  c^'5=vwu;@]'!6c820ehiifb0gbab|_.!@wsry%*#uo;555;-=#t*s*txppxpw;{+j>ws%q",
"%&$t#u@)4[:2|2d:}8 /!''+c8}}_8_}|0efffffhhhhhhhhhhhhhhhnkme|8c6j,>55555;-u=www#x*stw5)~6~+++++),5uw##vu]681aeb9d_<([_:|9gbbbbbaehnmkkkmkkmmniiiiif0d[.!@=xss*t#->)~/.c77c.^+),@;-=vpts$&&&*#o]')){@ups$$t#u@)^7[3d2|2:_<.6'5=##u]~c82gehhea091|9gbaeeeaabbbbaeeea0|87/^4 <<74~!!j']owxtpw-5]'j~^/. [}211|2d::38(c4/4.c7([888[(( 7c46j'{{'j!+~+)@wxs$$*xv-5;=x$%&s*t*$&&&$*#->j+!)'')!^.<}9ahinnmnniifeab0gg91||11:(!5w#wo@;vs%&#]43||3c'utqzCDDCAr$po{+^4/6j]5o;5>,'!6.(}1ahiihebgg0a0d(6,-tqAArs#uo;55;o-=vptxpv==v#pw;'66';vt*",
"xxp#w-@'^ _:::}38(c6j''+c8::}33d1befffffhhhhhhhhiihhhhhnkme1_7^!']@55;;o-u===w#xs$*v5)6^6~~6^6!,owpxxp=>~<2g0923<77(_29befhhfffhinmmmmmmmmmnniinnfg37~{;wxttx#=;,!^. <[88[7/!,@;-=vpx*sss*p=5{)!j'@=t&%$x=5{+/ 8}211|d}[7^)5wxxw@j4[dgehhfa09119gbaeeeaabbbbaeeea0|_ 4/c([<7^+j))']-#*s*xv=o@,)!~^.(_d|||dd:}38(c///4.7 (<<<  7 ((7/+){')j!+~!{;v*&%%$*#u;;=ps&&$$$&qrrq&spu]j~~!'''j+^7_|bhinnmnnihfeab0gg91||11d<~>uvwu-=x&q&#>/8d:[/]v$yBDEEECArsv5,j+~+!'{,],{'!64 8dgeinihebg90bg}c);#$yCBy$#uo;;;o-uwv###w-;ouv#w5)//!>-w#",
"##vw=-5{6783338< .^+)')~c8:d:}:29bffffffhhhhhhhhiihhffhnmne13 4~),>@;o--uu===wvt$&s#5j^//66^/^!]-#x*tp=@+ }22:3[ c7<31bfinnniihiinnnnnnnnnnnniinne1[/)>-vxtx#w-@'+/7<83::}[.+{@;-=w#pxxxx#wo>'j+!'@w*qq$#;,j6. 8:|9912:8 /j5vttv;)/(:9ehhfebg119gbaaeeaabbbbaeeea0|_(..7<8<c^!)))']-#s&&stpw-5]{)+^c[}2||22dd}_<7.44.c77 (( 777([8<c6!))j!!++j,-p$%q%&*pu;o=ps&%&&%qryyq&tvo,+^6+j''')!/<d0finmmmnihfeab0gg91119928/{;=wwwpsqr%p@6(_87+5pqACDEEEDBy&pu5]{')))))))j!647[}1bhinihe0g9g018/,ut%ACCy$#uo;;;-uwvvvvwu;55-wv=@j/4+]-wv",
"p###v=o,~78__[(746+j)'j678:dd:d|gaffffffhhhhhhhhhhhhfffinne9}<c^!']@;-uu=====w#t&%$#5!/./^6^^6j>up*s*xw@!c8_8<(7cc7[:9ehnnmniihiiiinniiiiinnnninia2 +]ow#xxpvu5])~4 [3:2|d_7~'>5ou=wvvvvw=-5,)!+!'@wsrrsw>j6/c(8:1gg9|:_(4j5v**#o'^(}9ahhfebg919gbaaeeaabbbbaeeeag|3<7c <[<.6j))jj,op$%q%&st#=o5]'!/ _d|111112:_< 7c777    777([3}3<.6+++++!j'>ut&qq%$*#=o-wx$%%%%%ryyr&tvo]j6//~!){]]{~7}geinmmmnihfeab00g991199|_c!];uvp*%ry%p5+c 7^'-*yBDDDDCBAr&xw-o;5@]{'j!+~^47[32geinnihe0g9992<~@vsrACBrsv-;55;-wv##w=uo;;;-==->!//);vxt",
"tttxpv-]+78_[(c^+j'''j+/ _:dd2|90efhffffhhhhhhhhhhhffefhiie9:87/~),@;-==www==w#*&q&p5+.c46~66+'5wxss*xw5j4  c4/44c(_20finnnihhhhhhhiihhhhiiiininib}.);=#xtx#=o>{!6. 8}2|123 ^j,@;-uuuu---o5]'j++!{5v$rr*u{64c7(8:1g0g1d_(/);#*spo'^ }9afhfebg999gbbaeeaabbbbaeeebg|:8( (<< 4~j)j!!{;#$qryrq&*pvu;>'~c[:|90bbb092}8[<(( 77ccc7 <_d|23(./^66~!),;v*%rr%st#u--vt&qqq%qryr%*v;{!64.4^+j,@5@)4_1ahinmmnihfeab00gg99999|}(/!]-#*&ryy%x;j^/6j@v$zCDCBAAzr%sxvw=w=uo>{)+6/. [329bfinnihebg11|}7jop$rABAq*wo5@5;uvpx#wu-ooo-uuu;,+/~]=*%q",
"&&$s*p=@!c<[ .6!{]],'!6.(_:22|1gbefhffffhhhhhhhhhhhfeeefffagd_(.6j,@ou=wwww==w#*%r%p@~cc46++!j,;vtss*pw5)^.46++647[}1ahiiihhfffffffffffffhhhiiiihg_^]u#tttxvu5,)+^c(_:|11|}(4+']@;;;;5555@>{)!+!j,;#$rqtoj4777(8:100g1d3(/);#ssp-{6 31afhfebg999g0baaeaabbbbaeeabg1d3[<<<(7/+))j++)5vsqryyrq$*xvu5,!4(3|gbefffag|:3_[< c.44.7(8:1gg2_(7./^~j{@-p$qyr&*xvu-uv*&qqq%%qrq$p;'64...4/6j];-o]~(d0ehnmmnihfeab00gggg999|:_(/j5#$qyzy%x-{!!)]-p%zCCAzyq%&stp#v#pp#=;])+^c(8}29behnnnihebg1|d84{u*%yAAy&x=o@>@;u#ttpw-oo-uuu-;@'~^!5xqAC",
"yrq%$tv5)/7c/+)]5;;@{!^c<_:2|1g0afhhhfffhhhhhhhhhhffeaaeeeb923<.6),5-=www==uu=v*%r%p@~77/~!j){>-vt**tpw;{+6~!)j~4(_2geiniihhfeeeeeeeeeeeefffhhffa1[~@vt*s*xv-@{!647[3d|99|:87^+),>@@>>]>>],'j++!'>o#$%&p5~c(  (8:1000123<4j;ps$xu,~731afhfeb0999g0baaeaabbbbaeeabg12}8[<(7.^!))j+~)@wt&%qqq%$*xvu;]j/ _29afiiifb92:3[(746~~^.(_d9bb9:8(c46!'>ovt%yzr&*pw-o-wt&qqqq%q%&t=]~c7c.444^!]-w=5)._|bfimmnihfeab00ggggg9912:_ 6>v$qyyr&xu@,,@owt%zAAyq&$s*xp###pttxv-@'+4 8:290ehinnnihebg123(6>v$rzAzr$pu;@>>5up**xvu--u==-;>{!^^)-sAGH",
"CBAy%s#o{~^6j,5-=w=;,!/7[3d|190aefhhhfffhhhhhhhhhhfeaabbbb09|}[.~'>ouwvw=u-oo-wt%r%p@677/!){]@ouvpxtx#wo>'jj'')~.[:9bfiniihhfeeeeaaaaaaaaaeeeaabgd jops$s*xwo>)+/7<_:2199123[7/~!){{,,,]]],'!++),5up*$*w]^ <( (8:1g0g12}[.!;#s$tu]+c_|bfffeb0g9gg0baaeaabbbaeeeab092:_[(7./~j''j!+)>-#t*****tx#=o@{!^78:|0ehiifa92}8(c/~j')+/ _dgaag23<c/+'>owx$rzAy%*p=o5;u#*&%qq%%$*#;)4  .^^^//+]u##u,6 }1ahnnnihfeab00gggggg91||d84,=*%rr%$xwo;ouvxs%ryr%$*xp#vwwwvpt*t#=5,+.<}|gbehinnnihfeag|:8cjotqABAyqs#u;>]>5up*stpwuu==u;>'!^4^'wqEKL",
"HGEBy$xu>)j'>-w#xx#u>!4 83d|90befhhhhfffhhhhhhhhhffeab00gg91|:[.!,5-wvvwu;555o=x&r%p@67c^j,>;-=wv####vw-5>,,,{j6731behinniihfeeaaabbbbbbbbbbb0gg|3c'-x$&$*xwo]j6.<_:2|19g912}8(c/6+j){,,]],'!+!'@-wptt#o'/(<( (8:|g0g12}8c+5#s$t=>j48|bfffea0gggg0bbaaaabbbaeeeeb09|:3[ c/6+)'')jj),5-=ww==wwwuo5])+/7<3d10affeb1d_<7/~)]>]'678dgaa0|}<c6)]owxsqzBBz%*pu5>>;wxs&%q%$*#u]+. c/++6//+>=xxv5)/<dgfnnnihfeab00ggg0ggg9991:7)-x$&&$st#wwvpts$&&&$*x#wu----u=vptx#wo]!.8|0afhinnnnihfea0|}(^{=$ACCBy%*v-5>]]5up*s*x#www=-@'+/c7/{#yINP",
"KJHDz%tw;]]@-vx*sst=>+.(_}21gbafhhhhhfffhhhhhhhhhffeab091|||2:[4!];uw#v=o@>>>5ux&q&#>67.~'>;uwvvvwwvvvw=-;@>]{!/<d0ehhinnnihffeabbb000000000g91|d84{=t$&$*pw;,!/ 8:2||19ggg9|2}8(c/~!'{]]],'!+j,;=#ppvu>!.(<(7 [}|9gg12:_ ~@vs$tw5'^<2bfffeab0ggg00baaaab0bbaeeea09|:3[ .^~j){{'))){]@@@@@@5;o;@]'j~/c(8:|9baeag|}8 46j,5;5,+c8d9bb0|}<.+{5ups%yBCCAqspu5]]5u#*$%q%spu@)^7 .6jj~/4~]=t*p-,+c_1ennniihfab0gggg0000gg002<+5vtsss*txpxts$&$$stx#wuo;@@@5o-w#pp#wo>!c39ehinnnnnihhffa02_c+@pqCGEBr&tv-5>,]@-vt**xp#vw=o]!/7<(4{#AKPT",
"LLJEAq*#-;5o=pts$$tw>+c[3:290aefhhihhfffhhhhhhhhhffea0g12:::d:[.!,5-wvvu;>]]>5up$q&#>^c4+,5-wv#vw===wvvv=uo5])~c_1ehiiinnniihfeab000gggggggg91|d}<^,=t$&st#=5{+4(32|1119gg000g1d3<7/+){,]],'!+j]-vp#w-5'67<< 7 [}29g912d3(6]wtstv;,~ :gefffeb0ggg00baaaab00baeeaa09|:_<746+j'{{{'')'''{{{{,>@55>,'j~/. 8}290aabg|}[7/+)]5;5,~7_d90001:[.+,;wx$rACDDAr$x=;>>;wxs%qr%*v;{+.  .~jj~4c^,ux*x=5'^[|ennnnihfebg999g00bbbbaa9_^]upt******s$&%&$*x#wu-;@>],]@5ouwvvw=o>!c:binmmmmnnihfffe0d</'o*zEHGCr&tw-5],,]5uvpp##vvv=o]+c<_[.{#zJPT",
"LLJEAqspwu-uw#x*ssxu]6 8}d|gbafhhiihhhhhhhhiiiihhhfeab92}_83}}876)];u==-;>]]>5up$%$v]^c/)>o=v##v=--=w##p#vu5,+4<d0hnniinnnnihfeab0gg99999999912:_ 6,uxss*pv->)6c[}2|11199g00b0g1d_(.6j',]],'!+j>upx#u@{+4 <( 77<321991|d}</,uptxv->!c39efhhfab0ggg0baaab0gg0baaab092:_<c/~!j'{{{{')j!!!j){]>@55@]{)+^. 8}290babg|:8 /+),>@>)^ _d19gg92_c~{;wt&yADEDBy&tvuoowt&qyyy%t=>!/7<(c6!+^7(.)o#xxvo]+ 2enmnnnihe091|190bbaaeff0}.';wpt*s$$$$&%&$*pwu-;5@],{{,>@;o-uuu-;]!7dankkkkmmnihfffe0: +>w&BHIHCy&tw-5]{{{]@;--uu=wvwu>!c83_7)wrHMN",
"LKIEAqst#vw==wvpxt#-{/<3d|90befhhiihhhhhhiiiiiiihhfeab1:8((<_38(4~)];-uo5>>>@;ups&sw]^.6';uwv#vwuo-uvpxxxpw;'^(}9ainniinnnnnihfeb0g991111111112}87~,-pttx#=;,!/ 8}2|||119g00bb09|}[7^!',]],'!+)@wxxvo{+/7(<(7c7<_d|991|2}[4';vpp#=5'/8|bfhhfeb00ggg0baabg99g0baab092}8(c/~!j'{{{{')!~66!']@5;;;5@]{j~4 8:|gbab0g1d_ 4~j'{{)+.<}d|19gg|} 6{5wt&rADEDBy%sxvwvt%zBBBz%xo'6c<[<7/66.<_(~@=#p#=5)cdemkmnnnhe012d|90baeffiia2 +]-vxs$&%%%%&$sxw-;5@@>,{'{,]@55555;;@,+ 2emkkkkkmnihfefeg3.)opqCIJHCy&tv-@]{)jj)'{,>5o=v#w5jc8}}(+-&CIK",
"KJHDz%stx#v=u-uw##w;).[:21g0aefhhiiihhhhhiiiiiihffeab92_ ..c([[(7/~'>;o;5@>@5o=p*$*={/.6{;uwvwwu-oouvpt**xv;jc31bfinniinnnnnnifeb0g91||||||111d3<4!]u#ttxvu5{+4 8}2|||119gg0b00g1d_ /+){,],'j!'5vtxw@!/7(<<(7c7(_d|991|2:8c!>uv#vwo,~(:gafhfeb00ggg0baa0g9990bbbb0923[ ./~!j)'{{{{)!6/6j,5o---o;5@])+4 8:10bab0g923<.6+!!!~/ 8:2||19g1}(^'5=x$rzCDDBy%$txpt&zCEECz&p5j4([8[ 4// _:8/{ow##wo{4:emkmnnnieg|d:210aefhinnf1[/'5=x$%qqq%%&st#u5>>>>],{'{,]>@>>]]>@>{~(2emkkkkkmnihfefeg_/,=*yDIJHCy&tv-@]'j+6^/^~j{@-v#v;)4[}}[^5tyCE",
"JJHDy%stp#wu-;ouwwu@jc8:|90baffhiiiiiiiiihhhhffeabg9|d_ 46~6/c7  c/!{@555@@5;-=#t*po).7/)@o-u--o;;ouvpt**tv5!(2bfhnnniinnnnnnihea0g1||2222|11|:876';wtss*xv-]!/78}2|11199g00bb009|}<.~j',,,{)),ovtx=]67<[[<(7c7<_d|9991|d_ 6{5-=ww->!.8d9beeeb0gg99g0bb09119gbbab09d3<7.^~!j''{{{{'!6^~'5uww=u-o;5>'+/78:10bbbb0g1:[c/6~~^/c<3:2|||1123 6'@ups%rzAAzr%$*xx*%ADEDBy$v>~c<88< ./4(323cj@uv#vu]/}amknnnnheg|d:210afhhinnf93c+]ux&qrrq%&$*xwo@],]]],{{{,]>>],{{,]]'6(2enkkkkkmnihfefe986>v$zDHHGBr$xw-@,'j~/.7746j,;=vw;'/<3}84,v$yz",
"JJGCy$t#v=uo;55ouu->!c8:|90aefhiiinnniiiihhfeab0912:_<7^!)''j+64c7c6)]@5@@5o-=w#p#=>~ [76']>>>>@@5ouw#xt*xv@~[9fiiinninnnnnnnihfa0g1|22222211|}(/j@=t%rrr%*#o{+.<}21999gg00bbbbb09d[c^!){,],,]5u#xp-{/(88[<( 7 [321ggg912}<4+{@ouu-@'6c8:10abb0g999gg00g91190baaab923<746+j)''{,,{{)!+)>u#xp#=u-o5>{!^7[}|g0bbbb092_ 4/^/4c [3d2|11|2}<.+{@-vx*$%qq%&s*xppt&yBCBy%tu,67[[[(74^4 32: ~,;=##=>^3bnmniihfag122|9befhhinifg:(6{-x%ryr%&$stp=;>,,]>>],{{,]>]]{{{,]]'6(2anmkkkkmnihfeea1[~5#$yCEECzqsxwo@]'j+^.77.6!{5-=u5)/ 838c)-xs&",
"JIGBrspw-;5@>>@;--;]+c8:|gbefhhinnnnnnniiheabg9|d}_<746j,>@@>]'+4 7/!{>@@5;-=vvvwu5)._:_7^~+!j){>;-uwvpxxpw>6_0hihiiinnnnnnnnnhfa0g1|22d22211237+]-x%ACDCArsv5)^ 3|9gg0000bbaaaabg2_ /~j){]>5ouvpxv;).[__[<(  (8}|9000gg1d_(4+'>;-o5])6c[:1g000g9119ggg9919gbaeeeb923<746!j)'{{,,,,{''>-ps$*xwu-o5>{!^c<321g0bbab0|}<c.4.c7(83d|1912}[7^j,@ouv#xtttttxp#vvp*%ryr&*v;'^7<<< .^6^7_d:<^)@uvpw@~_0inihhfabg91190beeffhhhegd[4)-t%yyq&$s*x#=;>,,>@@>],,,]>],{'{,]]'6 dbhnmkkmmniheeeb|<!;p$rABBAr&*p=o@]{)!64../~j{>5o;>)^c<_87+>u#p",
"JIGB%two@],,,]>5;o5{~c[:|gaefhiinnmmmmnihea09|d}3[(.^+']5o-u-o@'^7(.~']>@5;uw#vw-@'6(d12_(c.4^+'>ou=wv#pp#=]^3bhihhhiinnnnnnnnifabg9|2dd22|11284)5v$zDGHGEA%x-,~73|g00bbbbbbaaeeeb1}(.6+){]5-w#ppp=@!7_3_8[<<<[3d1g0bb00g|:8 4~']5;;5]'+.[}29ggg91119999119gbeffeb9d3<7/6!j)'{{,,,]]]>ov*%%$tvuo;@]'+/c<_d|g0baaab9:8 7c7 ([83:|9g1:87/+),@5o--u===wwww===wpts$sxvu>)^c ( 746~6c8dd8.!,ovpv5+[9fhhfeab0gggg0baeeeefffeg2_cjotqzy%$*ttx#u;>]>@;;5@>]>>>>],{{,]]'~7}geinmkmnniheaa02 jox&rzzzyq$*p=o5]{'j~^//^~j',]>]{j6. [8(^'@o-",
"JIEA&pu5,'j)',]@55>'678d10efhiinnmmkkmnifag12:38< .^!']5ou=wvw-]~7(c6){]>@;uwvwu5{~c8212}[ c46j,5uwvvv#pp#u]/3biiffhiinnnnnnniifabg9|22222|1928/{-p&ADGHGDA%x-,~73|g000bbbbaaeeffa9:[c/~j{>owpxtpv-,6(}:}_88[8_}290bbbbb092}[7/+'>5o-o5,+.<32900g99999911990aefea01d_<746+j)''{{,]]>@;up$qq$xwo5>,'!64 [3d1g0baaab9d_<  (<[8_}d|112_ 4~j',]>>>>>>@@5;ooooo-=v##v=-5,!^.7  c46~6c8dd3 6'5w#v;!(2beffea00000bbaeeeeeeeeag|3 +;xqyr&*txxx#=;>>@;-u-o55555@>],{,],'~c_|bfinmmnnifeabg:7'u*%yzzyr%$*pw-5>,'j+6//^~+j)''')!6/7<8<.~',]",
"IHEz$vo])+~+j',>@@])^ 329bfhiiinmmkkkknhag|d38< 7.^+']@;-=w#p#=@!c(7^!',]@5-u=u5,+4(_:d}8 .6!'>o=#pxppppp#u]/3bhiffhhiiiiiiiiihfeb091|2222|992[^]ux&yACCAy%*w5'6 3|gggg00bbaaeeffeg28 4~j{5=p*s*p=5)482|2:}333}d|g0baaab0g|:_(c^!'>owvv-]!4<}10bb0g9911119g0aeea092}8<7.^6+j)'{{,]>@;uvx$%%s#-@,)!~/c [3:|9gbbaaa09238<<[88_}:d22d3(4~j'{{,{'')jjjj'{]>>@@5;ooo;@]{)+6/.c7c4^6^c8d2:<4!>u#vo)c}9befea000baaeeeeeeaaaabg|}(~5x%yq$txxxxpwo@@;uv#vwu---o;5>],,,,'~.[:9bfimmnnifeb09}.,w$yAAzzyr%$t#=o@]{j+6/4/^6~~++++~6/c(8[ 46+!",
"IGDy*w5{!6^6!){]>]{!4<}10ehiiiinmmkkkmie0|:_[ c.4^~j,@;ou=w#xxv;)4 7/+j',>@;oo;]!4 [__8<7/+'>o=#x*s*txxxxp=]^_0fhffhhhiiiiiiiihfeb091|222||9g|[6>=x$%qq%$*p=;,!/<}|9999g00baaeeffe0|3(.6j,;v*&&*#o,~ }9gg1|2d:d21gbbaaabbg1d_<746!,-p**pu]!.8|beeab0911119gbaea092:3[( c4/6+!)'{{]>5-=#ts$spu@'+^.7<[_}d|9gbbaaabg12}_88_33}:ddd:3<c6j'{{')j+6^/444^~!)'{,,,,{{')j!++~^/.77./^/7_212_76,-vvo'/[d9beea00baeeffffeeaabb09|:<6@#&q%sx#pxtxv-55-#t*tx#vww=uo5>]],{)+4 _d9ahnmmnifa0g1_/>pqACCBAAyr%sxw-;>{)+^4c..4/////^66^.(8_[(c..",
"HGCrtu>)6/4/~j',]]{+.[d9bfhiiiinmmkkkmia9d3[ .4/^6!']5o--uw#xt#-{^cc4~!){,]@@@]j^ [8[(7.^!{5u#ts$&&$s*tttp=>689efffhhhhhhhhhhhhfeb0g1|||||1gg|86>=x*ss*xvuo@{j6c[:191119g0baaeefhfb1}[c^j]o#s%%*w@j4[20ab0g1|22|90bbaaabbg1d_<7c4~{-t%q$#;{^<2bfhfebg91199gbaebg|:38[< 7c./6+j)'{,>5-w#xttp=5'~4 8}:d2|1g0baaaab0912:3333}:d22d:38 4+)'')!+64c <[[[(c/6+!jj!+~6^^^6~~+~^.77c4/.(3|91:</';wwo,67_2gbabbbbaefhhhfeeabbb09|:[/]w*$sxvw#xtxvu;o=xs$$*x###vwuo5>],{)+^c(320einmnifa092[65tyCDDCCBAzr&*#=o>{j~/c77ccccc7c4^6^. 833_8[[",
"GEBqx-]j^.c46j',]>,!.82gafiiiiinnmkkkmh0|}[ c4^^6~!']5;o--=vxx#-,~4.4^~!j'{{{{j6783_<7/~j{@u#*$&%%&$s*tttxw@+<|beefhhhhhhhhhhhffea0g91||||1g0186]=pxtxpw-5]{j~/ 8d191|11g0baaeefhfb9d87^j]o#s&$x-{6 }9aeabg91||19g0bbbbbb01d_< 7.6{u*qr%tu]+ :0fhfea09119g0baa092}_8[<( 7c4^~!j))',@o=wvvvu5{+4(321911190baeeeab0g12:}}}:d2|||2d38 46!j!+^4c([3:d2d}8(c4^~~^4cccc4/6~+~^. ( cc7[:90g2_cj@u=o]!/ _d9g00baefhhhhhfeaabb0912_.);vp#=-ouw##wu-uvts$stp##pp#vu;@],')!~/c<}1bfinmnhe01:(+oszDEEDCCBAy%sp=o>{j64c 7cccc7 7./^^. 8}:::::",
"EDA%x-]j^.c46!']@5>)/[2gafhiihiinmmkknegd8(c4/^666+),@5;oouw#pv->j6/4//6+!!!!~^c[}}8 4~j,@-wxs&&&&$s*tt**t#;j7:9aehhhhhhhhhhhhffeabg911||11gg18^,-vppp#wo@,'!64(_2191119g0baaeefhfag2_ ^j]ovt*tw@!.8dgba0g91|||19gg000000g1d3[ c4~,u*qr%t=@!c}geffea0g99gg0bbbg1d}3_8[<( 7./6+!!jj',@o--o5>'+4(_290g1||10aeffeaabg9|d}}:d2|19912:_[ .//4c <83d|9ggg|d3[ c.4c7(( 7./6~+~/c<[[((<3|0a01} ~,;-;>)~4 8}290aehiiiiihhfeaab0g9|}(^'@;5>,,>5-uuu=w#x*tpv==vpttpw-5>,'j!+~^78dgahnmmnf0|3cju$AEGEDCCCBzqsp=;>'+^.77c.//4.cc./^/.(8}d2|11",
"DCA%x->j^.c46!{>;o5{^<dgbefhhhhinnmmmia1}<7./^^^^^~!']@55;-uwvw-@{!6/..4/^^^4c 8}d:[c6j,@owpts$$ss*txxx*ssxu{48|0ehihhhhhhhhhhffeab09111119gg|_4';=#pp#wu5]'!6.(32999119g0baaeefhfag|3(/j];uv#w;'/(}|g009|22222|199ggggg0g92}8 .^!]=t%q&x=@j._|0aeea0gggg0000g9|d:33_8[<( c4^~++~~+){]>]{)+^c<_d90092::|gafhfeaab0g|d:}:219g00g12:}_8[[83:d|1g0baea092:_[( (<<< c4^~++64 833__3dgaeag:<^'>55>,)+/c<32gafhinnniiihffeaa0g923(/~!+~^6+),>;uw#pp#vu;@5u#t*t#u;>,)jjjj+/ 3|0fimkkib2[/{=&AEGEDCCCBzqsp=;,)~/.7c4^~~6^444//4c(_}2|9gg",
"DCz%xu>j^.c.6!{@o-o,6<d9baefffhhinnmnhb|_(c4/^^^//^~j{]>@5;-u=u-5]'+/c  ccc7(83:22}<4+'>o=#x*sss*txpppx*$$t=]6(:9ahihhffhhhhhhffeab0g911199gg1_.j@uvpxx#=o>{!^c<329g999g00baaeefhfa0|}<4!,@;--;,~7_d1gg9|d::dd2||199999ggg9|:_(.6)>uxs$sp=5)/<d90babb0000000g91|2::}338[< c4^6~6^/^~!jj!647(8}d10b01:33d9ahhfaaaab012::d|9gbbabg9||||19gbaaeeefhhhhebg1d}_888[(7.^6~+~6.<3dddd29ahhe02[4!,>@>]{)!6.(}1bfhhiiiiiiihhfeeb0g1238(  (( c46)>-vppv=o>'j'5vts*p=o>{)jj)'j6c[:9ahmlki0:(~]v&ADEDCBBBBzqspu5{!64cc./+jjj+6^///.7<_:21g0b",
"CBz%xu>j^c7.^!{@o-;,6<d90baeeefhhiinnhb2_ c4////44/6!){]>@;o----;@,j^7<[<(([3:2||d_(/!{5uvxt*ss*txppppx*$&*v@+7_|0ehhffffhhhhhffeab0g991999g013.j>-vxttp=o>'+^c[}29999gg0bbaaeefhfe01:[.~),>>]{!4<}|19912dddd22|1119199g00g123<c6)>-vxtx#u5{6 3290bb00000b00g91|22d::}38<(7./^^/4cc4/^^47[_}d|1gba01:33d9affa00baab92::d|g0baeabg990afinmkkmmnnnmmnifa012:3__[(c/6~++~^c[:|111gbfiif028c~',]]],{'j~.[d9baaefffhhiihhfea0912:}_88[[<<(c6{ov#vu;]j6^+]=x*t#=o>{)jj'{)+4(3|0eimmh93c!@#&ADDCBAABAy%s#u5{!64.c46!'')j+6^/4. [3:|90aa",
"CBz%xu>j/7(c/+']5;@'^[d900baaeeffhhiifb2_(c.444...4^+){,>@5;o----;>)^ 8_8883:2||d}[7/!{5=pt*****ttxxxxts&&s#5j4[:1beeeffffffffffeaa0g99999g0093.j@u#t**p=;])~4 [}21999gg0bbaaeefhfeb9d_ /+j))j~/ 8:2|111|222||111999999g0b0g1d_7^j,@ou=wwuo]!.[}|9000gg00bb0g9111|||2d}_[(7./^^4c ( 777<8}2|19gbaa01:33d9aeag91gbaag|dd21gbaaeab0g0ahmlQQQFFlkkkkkknifag1d:3_[ .^~+!+~/782900bafinie028c6){,{{{,],'~c8d|19g0baefhiiihebg|d}_[<( 7c7 ( 4j@u=u5,j^c74)o#xpvu;>{j!j'')+/78:1bfiha2<^{op&zBBAzyzzzr&*#u@{!6/.4/~j{{{)!~6^4c [3d|gbee",
"CBz%xu>!4(< 4~),>>,j48d9g00bbaaeffhhifb2_(7ccccccc4^~j',]@5;o--uu-5'^(3:}33:2||d3[(c/+{5wx***ttt******s$%%s#;'^ _d90aeeffffffffeeeab0g999ggbbg}.)5=p*ssp=5{!^c(8}d|199gg0bbaaeefffebg|}[74^^/4c <_}d2|11999999999gg999g0baaa01}(/+'{]>@o-uo@)^ 8d1ggg99g0bb0g9999g9912d38(7.4//. [888883:|19gg0baa01d}:29bag|dd|0aa012d290baaaab00beikFQQFFllkkllllmnhe012:38<746+!!+~/7_|0aefhinniegd8c6j''))',>@>'6 8}::d|1g0afhiiheb1d3[ c4^6~~647 .+,;o5,!^7[8 +>uvw=o5]'j!j)')+^c<32gbea9}7+]ux&yAzyrrrrr%$tvu5{j~^//^+){,{'j+~^4c(83d1gaef",
"CBz%xu]!.[_<c6!)'')67_29gg00bbaaeefhhfb|3< 77   77./~!){]>@;o--u=u;{^<:2d::d22d3[ c4^+'5wx**txxtt*sss$$&%%s#o{~c<3d10beeeeeeeeeeeeab0ggggg0bag}cj5=p*s*pu>)~4 [_:d|19gg00bbaaeefffea01d3[   (<[8_3}:d2190bbbb00000gggg0baeffe028c6!!!!'];--5{~.<}|9g91190bb0gggg0000g12}8< c.4.7<_}}}}:d219gg00baa092dd|gb01:33d9ba09|2|90baabb000beimllllkkkkkllFlknhe012:38(746+!!+~/ _|bfhinmmnha9:8c6!)j!+!{@;;]j/ <[[_3:21gbefhfag|3<746!)'{{)~47c6)]>{!^c[3}</'5--o5>,'j!!j)j+6. [}|9gg|_.j@ux$qyrq%%%%%&*xv-5,j+6^^6+){{{)j+~^4c(8}d10aef",
"CBz%xu]+7_}_ 46+++6.<:1ggg000bbaaeefhfb|3<( (((( 7c46+j',]@5;o-===o{^[d||22222:8(./^~!{;wxttxp#pxt*s$$&%%&s#o{+/7<_d10aeeeeeeeeeeeaab0gggg0bag:7!>-vxtxvo,!^c<_}d2|19g00bbbaaeefffea09|d3___}:d::}}:2|90aeffeaabbb00000befhihe9}(4^^^^~'@oo@{+4(32991||9gbbb0gg0bbbb09|:3[( 777(8}:::}:d219g00baaabg1||90bg2_<<_20ab91|1gbaaabb000bahnmkkkkkkkklFFlknhe01d}_[(746+!!+~/7_|bfinmmmnfb1:[c^+!+6^~'>oo@'~/.c7 ([_}210aeab9d8 46j',]>],j6..^!''j6c(_}:8.!,@5@>]{)j!!jj!+6/c(_:211d8.!>-#*$%%&$$$$$stpw-@,)+~66~+j)))!+~^/4c(83d1gaef",
"CBz&xu]~ }2:87.444c(329000000bbaaaefhfb|3[(((<<<( 7./6+j',>@;o-=w=o,^[d11|222:_<c/~+j'];wpxp#wwv#px*s$&&%&*#o{!6/. 8dgaeeaaeeefffeeab0ggggg0bg:(6'@-wvwu@'+/ 8}d2|19g0bbbbaaaaeeffeabg9|2dd21991|22|190ahnnnihfeeaab00baehinihb2_ ccc46j]55>'+4(3|99|221gbaab000bbb00912:38[<<[83::}_88_}d|90aeeeab09990aag:<77<}9bbg99gbaeaab00gg0behinnmmmmkklFFlknhag|d3_[(7./6~++~^c820fimmmnie0|}[7/~~6/4^!,5;@,j+6^^/4c7(8}29g0g|}<.^!),]>@>]'+^/6+!!647<_33876j{,,,,')!!!!!!+~^.7[3:2|d_76'@uvx*s****s*txv=o@,)!~~~~~~~~6^//44.c([3d|gbee",
"CBy&x-]~(d91:8<((<8}29bbb000bbbbaaefhfb|3[((<[[[<( c./6!){,>5o-===o,^[2991|2:3[74~!){,@ow##v=u-u=w#xts$&&$tv;{!+~6/ 31beaaaeefffffeab00gggg009d[.~)]5;;@,)~.(3d|19g00bbaaaaaaaeeeeeaab0g999g0bb0g119gbehnklkmnihfeeabbbafhinniegd3[( .^!{>>,)~4(3|99|dd|gbaeabbbbb00g91|2d:}}}}:d:}8(77([3d10affeaab000aee937//c8|0b0gg0aefeab0g999gbaehinmmmmkllFlknfag2:38[( c4/^~++6.<dgehnmmifa923[74^^/c7.~']@>,')jj!+~6^47<3:|11d8 /~j{,>>@>]{)+~~~~6/c <888<746+j)'')j!!!!!!+~6/. [_}dd3<4+'@-w#xxttt*txpwuo@,)!++~6^/4.c7777ccc <_:290aa",
"BAy&x-]~(2b01d}}}:21gbeaabbbbbbbaaefhfb|3[((<888[[( c./6!){]@;ou=u;{^829g1|d}_(c^!){]@;-=ww=-;;;ouw#x*s$$sxw5{j!jj+4<dgaabaeeffhffeab00gggggg923(.6!',],'!6.[:1gg00bbaaaaaaaaaaeeeeaabbb00bbaab0g99g0afimlllkmnihffeabaefinnmnhag|:8(c/+){{'j~4(32912:d|gbeeeaabb00gg99111||||||2d3<c//47<3d9befeaabbbafhf98.6~4<dgbb0baeffeab0g9119g0behinmmmkklllmifb92}_8[<( 7c4^~+~4(}1bfnnnhe01d3[ .//.7(7/!',]],{{''))j!~^c(8}dd3<c^+){,]>>>],')!+~^/.7(<<<<( c./6+jjjj!!!!!++++~^.7([__8(c^!,5uw#xtt**tx#wuo@,'j!++6/. <[888< 77 <8}d1gbb",
"Azr$p-]~(|ae01||19g0aefeaabbbbbbaaefhfb|3<(([8___8[< 7./6+j{]@;o-o@)4_|gg9|d}8 46!',>5o-u==-;@@@;ouwpt*ss*x=5{j)'{)67}10bbaeffhhhhfeab00ggggg9|}8 46j'{{)!6c[d90000bbbaaaaaaaaaeeeeeaabbbb00gg91222|1gbehinnnnniihfeaaaehinmmnifag|}[746+!jj!~/78:||d:d|gafffeaab0ggg999gggggg91|:_ /~~6/7<_d90bbbbaaefinf984+!^ :90bbaefhhfeb0g91119g0afhnnmmkklkknheb92:3_[[<<( 746+~/ 3|0finihag|:_< c..c ( .6j'{,,],,{{{{'j+^c [__8 46!){,]]]]],{')!~^/.7 (<((((  c4^~+!!!!!++!jj)j!~^4.ccc4^~)]ow#x*sssss*x#=-5]{)j!+~/c<83}}38(77 ([_:29g0",
"yr%spu]~(|efe0gg00baefffeabbbbbaaaefffb|3<(([__33__8[( c4^~j{]@55@,+c}9bbg1d3[746!']@5o-uu-;5>>>5o-w#xt**tp=@{)',],!4[d90baffhhiihheab0gggg00g1d_(.~){,,{j~c82gbb00000bbbaaaaaaeeeeeabb0gg1|d}3_888_}d21g0befhhhhhfeaaaehnmmmmnhfb9:8(c4/^6+++~4(_:d::d|gafhffeab00ggggg000000g12}[c^!j!~^. 8}219g0befhnnh9[/!j6 }9baaefhihfea0g911119gbehinmmkkkkmiheb9|d:3_88888<c^~64 _2gahiifbg2}8< c..7 ( c^~j'{,,,{{{{,{'j+^.7(( c/6+j)'{,,,,{{')j!~^4c (<<<<<<<(7.4^6+!!!!!j){]],'j!!!j))',@-#t$%%qqqq%&sx#=o@]{')j+^c(83:d:_< 77(<83d|19",
"q%&*#u>+ 2ahfabbbbaeffffeabbbaaaaaeffe02_< ([_3}}}}3_8[( c/~j',],{j^(dgaa01d_<746!',@;oo-oo5>]]>5o-=vpxttx#u@{){>@>'6 329befhhiiiihfab0gggg0b092_(4+{>@@,)~.820b0gg99gg0bbaaaeeeeeeaabg912:3[(7c..c7([83}d21gbeffhfeaaaehnmmmniheb9d3[( 7c46+j!6.<_}}:d10efhhfeabb00ggg00000gg1|d3<.6j))j+647<_:21gbefhnmh9[^jj67}9baaefhiihfab0911119gbefinmmkkmnihea0g9|2:}33}}}_(.^^4 8:1bfiheb9238< cc.c7 7c4^~!){{{'''{,,,'j+6/...4/6~!j))'''''''))j!+^47(<<<[[[[<<(7./6+!!!!j{>;;;@>>@5;ooouwx&rzABBBAAzr%sxvu;@,{')+64 [_:d:3[( 7 (<8}d2|",
"$$st#u@!7:bhheeaabaaeffeaabbbaaaaaaefe02_( ([_}::dd:}}3_[<74~!))j!6c_1bea01d_(c/6+),>5;oo;5@>]]>5ou=v#pxxxvu@{',@55,!4<3|0afffhhiiifeb00gg0baag2_ /j];o;>{+.820b0g91119g0baaeeeeffeab09|2}_<74^6~~~^/.7 <[_}290aeffeaaafhnmmmnifeb92}_88[<7/!''!^c<83:29behhhfeeabb00000000g912d}_(4~j'''j!6/7<_:|gbefimmh9[^jj~7}9baefhiiihfea0g91199gbafhnnmmnihfeab00g91|d::d22:8744. 8}|0fhfe01d3[(7c...cccc.4^~!)'))j)'{,,{'j!~6^//^^6~+!!jj)))))))))!~/c <[88888[[[[(c/~++++)];u==-o-uv#pppxs%zDEGGEEDDBAr&*pwo5],')!647(8}d:3[( 77 ([_}dd",
"**tpvu@jc}0fhffeaaaaeffeabbbbbaaaaaeeagd_( (83:d22222dd:}_[746~~6/c<:gefeb1:8 ./6+){>5;;;55@>>>@;-u=wvv#p#w->'),@;;>'~.<}1baaaaefhhfab00000aee02_ ^)@ouo@,!48|ba0911||19gbaaeeefffea0g12:_[74^~!j)j!~^/4.c [3d10aefeeaafhnmmnihfa09|d:}}}_(/j{,'+/7<_:|gafhihfeeaabbbb0000g9|2:}38 4~j''')!~/. 8}|gbehimkh9[^j)~7}9beefhiiihheabg99999gbafhiiihfeabb00000b0912219g|}<7c7(8}|gefebg|:8<7c4///44..c.4^~!jj!!j){,,,{')j+~~6^^^66~++!!!jjjj)))j~/c(<88__888___8(c/^^^6!,;=vvw=wpt$&&&&qzCGIIHGEEDCAr&*#=o@]{)j+^47<_}dd3[(77c7 <83::",
"xxp#v=5'43gehfffeaaaeffeabbbbbbbbbaaeagd_((<8}d2|199111|2d}[ .44.7<3|bfhe01:[7.^6+j{]@5555@@@@5;-u===wwvvv=;])),@oo;>'~.[d9gg990aefeabb00bbaee0|_ ^'@-u-5,!4[|babg1||2|190baeeffffeb012:38(c/6!j'{{'j+~66^47<3d10afeeaaehinnihfebg91||222}</)]@])~4 8:10ehiihfeeeaaaabbb0g1|d}3_8[ 46!j)j!~^4c(_d10efinkkh9<^j)~7}9befhhiiiihfeb0g999g0baffffeabg99999g0aeabg990bag2_( (<8}29bea0923[ c/^6~66^/.c7c4^~++~~+j'{,,,{')j!+~6^^^^66~~+++++!!jj+64c([8_33___3}}38< 7cc4~{;=##vvp*&ryyyyzBEHHHGEDCBzr%spw-5]'j!~^4c [3:2d3[ cc.c7([3}:",
"###vv=;{/_1affffeaaaeffeabb0bbbbbbbaaagd_<([_:219g0000ggg12}8( (<[32gehhe0|}<74^~+j',>@@@@555;o-u=w=======-5{jj{@o--;>'~7_2|2dd|90aaabbbbbaeee02_ ^'5-=-5,j4[|babg9|222|1g0aeffhhfebg|d}_[(c/6+){,,,')j!!+6/7<329befeaaehiiihfeb09999g99|:<^'@5@,j6c[:9bfhiihfeeeeeeeaabg9|:38[[[< .^~++~6/.7(8}2gafinnkkh1<^j)~7}9aefhhiiihhfea00gggg0beffea0g12dd22190ehhfabbaffa9:_[[8_}290b0g|:_(c46+!j!+~^47  c4^6666~+j'{,,,{{')!+~^^///^^666~~~~~+~6^.7([_333___3}:d:}3__8(4j@=v###x$rABBBBBCEGGEDBAzrq&*pw-5]'!~^/.7([_}d|d3<7.44.c [3}:",
"wwvvvwo,^[|befffeaaaeffeab00000000bbabgd_<<[3d190baaaaabb092}___3}d9bhihe0|3<c/6~+j'{]>>@@5;o-u=wvvw=u-uu-;>'+!'>ouuuo@)^(_3_[83:|9g0baaaaeeeag2_7^'@-u-5,!4[|bea09122221g0befhhhfe092:38< c4^~j',],{'))))!64 [:1befeaaefhhhffabg99g0bb09d<^'@;5>'+4<:9afiiihfeeeefffeabg|d38<(((( c4^^^4.c <83d1behinnkkh1<^jj6 :gaffhhiiihhfeab00g000aefea09|d}33}:210einifeefiif0|:3_33}d1ggg12}[ 4^+j'''j!647(<(7.4///^~!)'{{,,{')j+~^/4444///^^^^^^^^/4c <[_333___3:d2||1||d37+]-wvv#x$yBDDDDDDDDDBAyq%&st#=o@,)!6/.7([8_}d||23(c4//4. [3::",
"wwwvvw-]6<20aefeeaaaeffeab00000000bbabg23[[_}290baeffeeeabg12:::d210ehihag2_(./6~+j){,]]>@5;-=wv##vw=-oooo5,j~~)>ou=w=o]!47 c.c <_:|90aeeeeeeb9:876'@o-o5,!48|bea0g1|222190befhhhfa01d}_8<(7./6!){,,{'''''j+^c<3|0efeeeeeffffea0g990aeea02[/)>55>{!/(:gehinihfeeffffffeb9|:_< 77   7....7 <[83:29befhiimmh1<^jj6 :geffhhiihhhffeabb000baefeb9|d38[[8_}29ainniffinnieg|d::::d|11|2:_<c/~j',,{'j~/7<8[(7c..4/6+j)'{{{''j!~^/4.ccc..444/////44.7 <[8____8_3}d|1g0009d[^{;u=wvx$rBDEEEDDCBAyr%$s*x#=-5]'!6/c [_3}:d|112_ 4^^^4. 8}d2",
"vvv##vu>~(:gbefeaaaaeffeabb00bbbbbbaabg|}_83d1gbaffhhfeab091|2d22|90ehhfag2_ .^6+!j)'{,]>@5ouwv#pp#v=-oo;5>'+^6j];uwvw=;,!~~+++647<32gbefffea0|}<.6)>;o;>{!.8|aeeb09122|1g0aehhiifag|:38[[<(7c46+j)))jj)))j+6. _2gafeeeeeeeeeeabggg0affeb13c+{>>]{j/(:gehiiihffffffhhfeb92}[ c..c77777 (<[_33}d21gbaefhinf1<^jj6 :0effhhhhhhhhfeeabbbbbaefe01d}8<  (<8}|0finihhinmnfag1|22d2222d:3[ .6!),]>]{)+/7[__[( 7c.4^~!j)''')j+~^4.77  77cc........cc7 (<[[88888_}:2|9g000|_.!];-u=#*%yACDDDCAzr%&s*xp#w-;>{)+^. [3:2||19g9d8c^6~^/c(_:2|",
"###pp#u>+ }1baeeaaaaeffeabbbbbbbbbbaaa01:33}290aehhhhfebg91|2222|190aefeb9d_ .^~+!j)'{{,]>5o=v#pxxpv=-o;5@])64/+,5uwvvwu5]{{,],'j~4(31bfhhheb9d_ 4~),@@@]'+.8|affabg9||19g0afhiiifa92}_8[[[<<(7.^~+++++!jj!+6478dgafeeeaaaaaeeab000baeffagd(/!'{{'!/(:9afhiihffffhhhhheb923<74/4.c7 (<[8_}}::d22|19g0behif1<^jj6 d0fhhhhhhhhhhhffeaabbbaefa01d3[ ccc (8:9ahhhffhnnnifabg91|2d:}3_8(c/~j{]>@>,'!/ 8}}_[<( c./6+!jjj!+~^/.7 (<<<((  77ccccc777  ((((<<<[8_3}:2|19gg1} 6)]@;-wp*&rzCDCByq$s*xp#vwuo@]'j~/c<_d|9g00b09d<4~++647<329g",
"ppppp#=@!c3|gbeeaaaaeffeaabbbaaaaaaaeab92::d|gbefhiihfa01|dddd22|190baea01d8 4^~++!j)'{,]>5-=#pxxxp#=-o;5>{!/c.6'@-=v#vw-o;;ooo5]'+4<dgehhhe01:[7/+){]]]{j6c_1affea0g1119gbafhiihfb1d38[[[8888[ c4/^^66~+!!~647[dgaffeeabbbaaaaabbbbaeefeb|_7^+j))!/(}9bfhihhffffhhhiheb9d3<c4//4c7([83}:d2222222||190behe1[^!j^(dbfhhhhhffhhhhhffeaabaeffa0|:_<7.4.c <320effffhinniiheabg12:}_8[< .6!),>@@>,'!/ _::}_8<(7./6~+!++~6/.7 <[8888[[<(( 7777   (((((  ((<[8_3}::d2|9g9d[.~),@;uwpt$rACCzq$*xp#vwwu-;>,)!647[}|gaeeea01}(/+j!64 8:10b",
"txxxx#=@j.[:10aeaaaaefffeaaaaaaaaaeeeebg|2d290aehiiihebg|d:}::d2|190baab01d8 .^6~+!j)'{{,>5o=#pxtxp#w-o5@]{+47c^j];uwvvvw===wwwuo@{~c31bfhfag|}<c^+){,,{)+/ 31afhfebg999g0befiiihe0|:_[<[[88___[(7..4/^6~++~^47[dgaffeeabbbbaaaaaaaaaeeffeg:[c^+jj!^ }10efhhhffffhhhiheb1d3<c4//4c7<83:2||11111|222|1gbefe1[/!!^(2bfhhhhfffhhiihhffeaaaeffa0|:_<7.44.7(_dgaeeeefhinnniifebg|d38[< c/~j',>@@>,'+/(3d2d}_[< c4^~~~~6^4c ([833333__8[<<((((<<[[[[[<<(<<[8_33}:d2|190g2_7^!']5-=vp*%yBBy%*x##vw==-o5]'j~/c(_2gafhhfag2_76!j!6.(_d9ba",
"**ttx#u@)^ 32gbaabaaefffeaaaeeeeeeefffe09||1gbefhiihfe01d}3_33}d|9g0bbbbg1d_(./6~+!j)''{,]@o=vpxxxp#w-o5@]'+4  4+{>;-=wvv##pppp#w-@'^<dgaffag23(.6!){{{)!^.<:9afhfeb0999gbaehiiihag238<((<[8_3_8[( 7c./^~++~^4 8dgaffeeabbbbbaaaaaaaaeefhfb|3<c^!j!^7_2gbefhhhffhhhhihe01d3[ c...c <_}2|199g00g9|22|9gbehe1[/!!^(2bhhhhfffffhiiihhffeaaeffa01d3[ c..c7(_d9baaeefhiinnnnife01d}8[(7.^+){,>>>]{)+4<}2|2:38< c4^6~6^/4c <83}::::}}33_88[[[8__33}}333__33}}:d2|199g0b0|3(/+']5ouw#t&rAAy&*x##vw=u-;@,)+^. 8:1bfinifb1}<.~jj!^c<3|0ae",
"ss*tpvu5'~.[:10bbbaaefffeeeeeffffffhhhfbg9190aefhiihfag|:38[[8_:290babb0g1d_(c/^6~+!j)'{,]@;uv#pxxp#=-o5@]'+4  .6j{>5ouw#ptt**ttpv->+c_2gaab92_(.6!){{{j~4(_2gehhfea099g0bafhiihfa9d_[(  (<[8_3_8[( 7c4^~++~^. _2geffeeabbbbbbbaeeeeeeefhhegd_ /+j!6c8d10afhhhhhffhhhhe01d38< 7777 <_:2199gbaabg1|2|90behe1[/!!^<2ahhhhfeeefhhiiihhfeeeeffa012}8< 777 <_d10baaeffhinnnnnifbg2:_[ c/~!'{,]],{'j6.<:|1|d}_< c4^66^/.7([_3:dd22dd::}}3____3}:d22222222dddd2|9g0bbaaa0|3(4+']5-uw#x$rzzr&*xp#vvwu-;>{!64 [32gahnnie9:87/+jj+/ 8:10ef",
"ss*tpw-5,!/ _2gbbbaaeffffeeefffhhhhhiihebgg0befhhihfeb92}_[<(<[32gbaabb0g1d_<74/6~+!j)'{{,>;uw#ppppv=-o5@]{+/7 c/~j',>;u#x*sssss*xw;'/<}10b01d_ 4~!'{,'!^78:1behhfeb099g0aefhiiheb9d_< 77 (<8_33_8[<(7./~++6/c<320effeeaabbbbbbaefffeeefiifb1}<.~jj~.<}2gbefhhhhfffhhfe01d}_8[<(  ([3:2119gbeee012d21g0efa|[/++/<|ahihffeeeffhiiiihffeeeffa092:38<(((<[3d10baaeefhiinnnnihe01d3[ .^~j'{,,,{'j+^c[:|1|2:_[ c4/^^/.7([_}:d22|||22dd:}}3_3}:d22222|||2d:}}:2190baaabg2_ 4+'];-=w#xs%rrq&*xp##v=uo5])~/7<3d10ehnnhb|_ 46!j!~4(_d9bef",
"ss*x#w-5])~c[:100bbaeffffeeffhhhhhiinnifab0baefhhhhfa092}8<(  <_20eeeab0g1d3<7./^6~!j)''{,>5-=v#pp#v=-;5@>{!/c 74^~!){@-vx*$$$$$st#-,~78d1gg|:8 /~j',,'!4(3|gafhhfebg99gbafhiiife01:8( 77 ([_3}}}3_8< c4^~~^4 [}|0effeeaaabb00baeffffefhiiha9d8c6!j~4(_d10effhhhfffhhfa01d:}}3_[<(<[3d2||190aeb92}3}:210b0|[4~~4[|ehihhfeeeffhiiihhhffffffa012:3_8[[[83:|90baaeffhinnmmmnifb923[ .^+j'{,{{')!~/78d1912:3[(7.4//4c <_}:22|||1|||22d:3_88_33}3______8< 77([3:2|19912}[7/+']5-uwvp*$%%&s*xp#vwu-5>'+/7<3d10afhiifg:<.^+!!+^c<3d90ae",
"**tpv=-5>{!/(}|g00baefffffffhhiiiiinnnnheaaaeefhhhfea092}8< 77(_20fhfea0g123[ c4/6~+!j)'',]5-=v#pp#v=-;55>,j6.77./^~+),;=p*s$$$$$*pu>!4<}2112}87/+){]]{+.[d9behhfea0g99gbefhiihfag|}8( 7 (<83d222d}38< ./^^4c<_:10eeeeeeeaab000befhhfffhiifa9d8c6!j+/7[}|0efffffffffffa012dddd:38[[8}d222221g09d_<(<[_}2992[.66.81eiihhffeeffhhhhhhffffhhfa01d}3____3:d|90baeeffhiinnmmmmnheg|}8 .^+j'{{{')!+64 _2199|d38(7c.44c <83:d2||||1111||d:_[(   ( c.////^6+)''!647<8_33_8< .^+),@o-=v#xt*s**xp#vwuo5>'!^7[3290aeffhfa1_c^+!!+647[}21gba",
"txx#wuo5>,j^7_29g0baeffffffhhiinnnnmmmnihfeeeeffhhfea012}8< 7c 82bhihfabg12}8(7.4^6+!j))'{]5o=w####wuo;55@])+/.c.4/^6+)>-vx*s$$$$*p=@)^78:22d3[c^!',]]{+.820efhhea0g919gbehiiihebg|}[(   ([3d|991|2:38< .44c(8}290aeeaaeeeeab00befhhhhhiiifb9:8c6!j+^c<32gaffffffffffea09|2|||2:3_8_}:d::}}d|12_(c4.c <_d2:[c//739eiihhffffffhhffffffhhhhfag|:}333}:2|90baefffhhinnnmmmkkmifb1:_(.^+j'{{')j+~^.(329g9|d}8< 7c.c7(8_}:d22|||19991|d3[ .4//^6!){,,,]>;-=uo>'+64.c77c.4/6+),>5ouwv##ppppp#vwuo5]'+/78:|gbeffeeeagd</+jj!6/c(83d|9g0",
"p##w=-o5>,)678d1g0baeffffffhiinnnnmmmmmnihffeeeffhfea012}_< cc782binihea092:_< c4/6~+!j)'{]5o=wv##v=-o555@]'!^4.....4^!,;=#t*s$$s*p=5'~4(83}}_(.6j{]>]{+c_1bfhhfebg9119gafhiiiheb92}[(   <8}|gbb0g12:38< 77([3d|9baaaaeeffeab00befhiiiinnie01:[c^+!+6. 8dgaffffffffffea0g1119912:33}:::}___3:d}[c/6^/.7<3:}[7..(}9afhffffffffffeeeeefhhhhfa9d}__3}:|90aeffhhhhiiinnnmmmkkmnfb9d_(c/~j''')j!~64c<}|gg912:_[( 777([_3}dd222||1999|d}[ 46+!j){]5o-uuuw#t**p=;]{j+~~~~~~~+!){]@;-=ww===wvvvwuo@,)+/78:10efhhfeaa01} 6j'j+^.7([_}d|19",
"ww=u-o5@]{j^7_d1g0baeeffffhhiinnmmmmkkmnnihfeeeffhfeb012}_[ c.7[2aimnhfa09|:3[(7./^6~+!j'{]5ouwvvvw=-;5@@>]'j~/4.c77c46'@-vpt*ss*t#=5{!6.7([[<7/+',]],'~731afhhfa0g91190afiiiife092}8( 7 ([}|befebg1d}38[<[83:21gbaaeeeffffeabbaefhiinnnnie0|}[7/~+~^47[:9affffffffffeab0ggg00g12::::d:38[[83}3<c/^^/4c(833[ c7<}10aeeeeffeeeaabbbbaeffffe01:_8_3:29behiiiiiiiiiiiinnnnmmmnfa923<746!)'))j+~^47[:1g0g1|:38[<(((<8_}}:dd22||1991d3[7/+){,]]@ouw###px*$%&sp=o5>,{{{{{')))'{,>5ouuu-oou=wwuo@,)~4 8:1bfhiihfab0g|376j)j647  (<8}d2|",
"ooo;;5>]'j~.(321g0baaeefffhhiinnmmmmkmmmniifeeeefhfea012}_< c.7[2aimnifa09|d38< c4/^6~!j',>5ou=www=uo5@>>],'j+64c (( c/!];=#x***tpvu5,)!~^4.cc.6j{]]]{j^ }1bfhhebg9919gbehinihfa092}8( 7c7(_|ahifa09|d}}333}:2|9gbaeeffhhhfeaaaaehiinnmmnie0|}8 ./66^4c[:9affffffffffeeabb0bbb0912dddd}_<((<_338(7...c7([88[( ([321g0bbaeeeab0ggggg0baaaabg238[8}d10ehnmmmnnnniiihhhhhinnnifb923[ .^+j))j!+6/. 8:10009|d}38[[[[[8_3}}:d2|119g923(.6j{>@5;;-=vpxttt*s&%&$t#wuo;5;;o;5>,{{{,]@;---;;;o-uuo@,j~4 8:|0ehiniheb0g12_7^!j+/c 7c.c [3:d",
">>>>>],'!6. 8:|9g0baaeeeffhhiinnnmmmmmmmmnifeaaefhhfa012}_< cc782aimnifebg1d}_[(7.4/^6+j']>5o-u===u-;@>],{')j+6/c(<[< .~'@-wptttp#w-5]{')j!~^^6!']>]{)~4(}10effa0g99990bfinnihfa092}8< c..7[2binhebg|2dd22||||190baefhhhhhhfeeeefhinnmmmnie0|}8<7.4//4c<}9aefeffffffffeeeeaaab0g91||2d}8(77(83}}_8[<<<<<<<<<<<[8_}:2|9g0baa0g1|||119gg000g|:_<<8}29bfimmkmmmnnihffeeeefhiihe012}8(c/~!jjj!+6/. 8d90b0g12d}3________33}:2|19gg1:<4+']5ouuuu=vpt*****ss$$stx#vw==wv#v=o5>,,,]>5oo;555;o-o@,j6.(_:|gbehiihfa091|d_ /~~^. (c/664 [3}",
")))'{{'!^c(_:21g00bbaaeeffhhiiinnmmmmmmmmnifeaaefhhfa012}8< 7c 82bimnihebg12:3[(7c4//6~j']@5o--uu--;5>,{)j!!!!~/c([8[(c6)];=vpxp#wuo@],]]>]{)!!),>>,'+^c<}|gbaea0g999g0afinnihea09|:_< ./^4(:0inifa09||19ggg91190befhiniihhffeffhhinmmmmnie0|:_8< 7.44.(}1beeeeffhhffffffffeaab0gg91|2}8 cc [3:dddd:3_8[<((<<[[888_3:2190b09|2ddd22|||111|d3[(([}|gafinmkkkmnihfabb00bbaefebg|d}_[ .^+!j!!+6/c(_dgbabg9|2d:}}}33____3}:219gg1d8c+{@o=wvvvvvpxt*********ttxxp#v#pt*tpw-5>,,,]@5;;5@@5;;5]j6.(_d10befhhhfa0g1|2d3(./^47( 4~jj~4 [8",
"6~+!j)!6.<_:|1g00bbbaaaeffhhhiinnmmmmmmmmmihebbafhhfa012}8< 77(_2aimmihfa09|:38< c.4/^~!']>5;oooo;;@]{'j+~6~++~/c([88<7/!,5-w#p#v=-;@>>5;oo5>,,,>>>{j64 [3d1gbbb0g99g0befiiihfeb09|:3[ .^6^73ghnihebg99gbaa09119gbehinmniihffffhhiinmmmmnie0|d}3_8<7.4.(3|0aeeeffhhhfffhhhhfeabbb0g912}[ c.7<_:d|||2d}_[<( (<[[<( (<8}d|9gg1d}333}:::::ddd}_< ([32gbehnmmkmnifeb0g91119g0bb09|d}38(c/~+!!!~64c<32gbab091|2dd::}}3__33}:21g91d_76{5uw#pppppppxtt**s**txxxxxpp##pts$$*#=o@]{{,>@55@@@@5@>'+4(_d9baeffhhhebg1|22d3[ ..c  c^j{{)6. (",
".4/6~+~/ _d19g0bbbbbaaaeffhhhiiinnmmmmmmmmnhebbafhhfa092}_[( 7(_|aimmnihebg1d}_< c.44^6!),]@55;55@>,'!~^4cc4^66/.7(<[<7/+{>o=vvv=uo;55;-=vvwuo55@>,)~47([_}d1g00ggggg0bafhihheabg12d}_(.6+~.81eiihfeb00baeag122|gafimkkmnihhfffhhiinmmmmnie012::}}8(c4. _29baeffhhhhhhhhiihhfeaaab0g12}[ ..c(8}:d22d:}_8<    ( 7.44c([3d|91d38[[8___888_33_[( ([3d10afinmmnifa091|2d::d21991|2d}38<746~+!+~^47[}|gaab0g91|22dd:}}33}}d219g1d_ ^'5=#xxtttxxxppppt*ssstxp###vvww#xs&&sxw-5]{'{]>@@>>>@@>,j^78:1befhhhhhfe092dd2d:_< 777c/!{>>,j64.",
"( 7.^6/c[:10bbaaabbbaaaeeffhhhiinnnmmmmmmmnhebbafhhfa092}_[(  <3|aimkmnhfa012}_[(7..4/6+j',]>@@>>,{j+^.7<[< ./^/4.7 ((74+'];-=w=u-o;;;o=pt*tpv=-;>{!^c(<<[83d19ggg0000baefhhfeb09|2d:3<.~!!/<2bfhihhfeeeeeb92::29ahnkllknihhfffhhiinmmmmnieb9|222d}[7..78:10beffhhhhhhhhiiihffeeeabg92}[ ..c([_3}}}}}3_8<( 77c./6~6/. [3d|2}8(  (<<<(((<[88[( (<_}210afhiihebg12d:}3___3:d222d:}}_[ .^~+++~^. 8}|0aab0g91||22d::}}::d2|9g92_ ^)@=pt****tttx#vwvp*$$stp#vw==u-uwp*$&sxvu;]{'',]>>>>>>>]{!4(3|gahhhhhhhfag|d:d22d}_< c.^+{@;;@{!~6",
"88<7./4 _2gbeeeeabbbaaaeefffhhhiinnnmmmmmmnhebbafhhfa092:_[<(([31enkkmniheb92:3[(7c.4/^~!)',]]]],')+647(8__<7.///4.c  c/+']@o-uu-o;;;;uvt$&&$*pwo>'~47(<((<8}219g00000baefffeabg1|22d:8c~jj6 }1befhhhffeabg|:}}d9aimlFlkmihffffhhiinmmmmnhfbg11191d_ ..7[}|9baffhhhhhhhhiiihhhffeeb09|}[ ..c([8_888____8[( 7c4/6+!!~/c(_:2d3<7cc7   7cc (<[<(((<[_}210beffeb92d}3_8[<<<[_}::::::}_[(c/6~~~6/c(_:10aab0gg91||2dddddd2||11123 /j>-#*s$s*ttttxv=uu#t$&$tpv=u-oo;ouvt$$st#u;]')){,]]>>>]]{)~c[:1behihhfffeb92:::222:_<746!'>;--;]'j!",
"338(c.. _2gbeffeaabbaaaeeffffhhhinnnmmmmmmnhebbafhhfeb9|:38<(([}1enkkkmnhfbg|d38< c..4^6+j)'{{{{')j!+6/. (<(7c.4444.cc.^+),>5ooo;5555;u#*&qq%&*#->'~47((  ([3d|9g0000g0baeeeeabg12222d_76!!6c8:10beffeea0g1d}3}d9eiklFFkmihffffhhiinmmmnihfa0g9g00|3(c.7[}290aeffhhhhhhhiiiihhhffeabg|:8 cc7([888[[[88888[( ./^~!j!+^. 8}dd3(c..cc7c...7(<[<<((<<[_}d|9000g1d}3_88[<(((<[_3}}:::}38(c4^6~6^47<3d10aab00g991||222222|||2d}8 /j];wx*ss*txxttpv-;owxs$st#w=u-o;;ouvxs$sx#u;,)jj',]]]]],{)!^ _2gbehhffeeea092d:d22:_(c^+),@;-uuo@,''",
"}}_(c..7[:|gaeffeabbaaaeeeffffhhiinnnnmmmmihebbafhhfebg|:38[<<8:9enkkkmnifa012}_<(7c../6+!)))))))))'{{')!6^4.c7c..4444^~!){]@555@@>>>@ov*%rrrq$x=@{!^4c777 <_:219gggg9g0baeeea0g1222|23(4~+64 8}21g0bb0g12d}33}2geimlllknihffffhhiinmmmnihfab00bab9}<cc [}|90baefhhhhhhhhiiiihhhhfebg1d_(7c <8__8[[[88____[(c/6~!!!~^. 8:2d3<c.4......c7([88[<<(((<83:d2||2:_[<[[[[<((((<[8_3}::}38<7./^^^/. [3290aabb0gg9911|||1111|d}8 4~)>;=vxtttp###px#=o@5-#t*tpvw==uu---=#x*s*xvu5{j+j',]]],{')!6.<}|gbefeeabbb0g912222d_ /!']5o-u==uo5>,,",
"}38(c44c(_:10effeabbaaaeeeeefffhhiinnnnmmmihebbafhhfebg|:38[<[8:9enkkkmnihe092:3[< 77c4^~!jjj!jj)',@;--o5>{!^c   c.4/6~!j'{,]>>>]],,,]5=x&qryr&tw;,)+6/4.c <_}d|19g9919g0aaeaa0g1222|2:[7/^^/.7<_:2|11|2:}333}d|0eimklkmnihhfffhhiinmmmnihfebbbaeeg:[7c 8:|9g0baefhhhhhhhhhiiiihhfea0923[  ([333_8[[88_3}}3[74^6~~~^4c(_:|2}<7.44444.c7([_3__[<(   (<8_3}}38<  (<[8[<<((<<[_3}}:}38< c4///4c(8}290aaab00ggg99199gg912}[c6j,5-=v#pp#vwuuwv#vu;>>;=pxp#vwwwwwwwwv#x**tpw-@'+~!']>]]{'j+64 8:1gbaabb0gg999999112}</)>o=wvvvw=uo5@>>",
"3_8(c4/.7[3d9affeabbaaaaeeeeeeffhiinnnnmmmihebbafhhfebg|d3_8[[_:9eimkkmnihebg|d}_[(  7./~+!!!!j){]5-vpxx#=o,+.(<( c4^+!j)''{,,,{{'')){>-ps%ryr%*vo>{)!+6/.7<8}d219911|190baeaabg1222|2d_(c4/^^4c(83}::}3_88_}:29bfimkkkmnihffffhhiinnmnnihfeaaaefe0d8 7<_d1gg00aefhhhhhhhhhhiiihhhfeag|:8<([_}:}3_8888_}d2:_(./^^^/4c <321|:8 c44444.7 [_}:}3_[( 7c7 (<[88[(7cc7<8__8[[<<<[83}::}3_[ 7..4.c <_:290aaabb000ggggg0bbg1:876'@o=v#pp#v=uo;o-wvvu;@@o=#p#vwwwv######pxtxpv=o]j~6+']>>,{)!647<329g000g91|2ddd|9gg9|37+>u#xtttpv=-o;5@@",
"88< .44.7<_d9befeabbaaaaeeeeeeefhhiiinnnmmihebbaehhfebg|d}_8883d9eimmmmnihfa012:38[<( c4^~!!jj',@o=#*$&&stv;'^7<<(7.^+jj)))'''')j!!!!)]ovt$qrr%*#-5>,{)+^. <83:2|111||19gbaeeabg1|22|2d3[(c4^6^/c <[[[[[<[8_:290afinmmmnihhffffhhiinnnniihfeeeefhf02_(([}|9ggg0befhhhhhhhhhhhhiihhffeb9d_[[83dd:}3_88_3:|12}<7.444.c7(8}|91d_(7..44.c <83:dd}38< 7c77 ((<<(7.4.7<_33__8[[<[83}::}38[(7cccc7([3:|90aaabbbb000000baa0|3(/j>-w#pxp#v=uo5@5o=vvwuo-=#xxx#vwv#######ppxpv=-@{+^/+']>>,'j~/c(_:1g00gg9|2:38[8}|g0g|3c!5wxs$$st#w-o;5@@",
"<<(7c..c <_d9befeabbaaaaeeeeeeeffhhiiinnmnihebbaefhfebg1d}_8883d9ahnmmmnihfa0g|d}_8[[< c/6+j',@o=#t$%qrrq&t=>+4 <<(c/~!jjjjjjj!+~666+j,5=p*$%%&*#u;5@>,)6. [_3:d21111|190baeeea0g1||22:}8< ./66^4.ccccc7(<8}290afhinnnnnihhffffhhiinnnniihfffeeffe023[<8:1g0000befhhhhhhhhhhhhhhhhhhfag2}88_:222:}3___3d1g1d8(7ccc7 <[_d1g923[(7ccc7 ([_:222:}_[<      ((( 7.4. [3::}}3_8[8_3:::}38[( 77  ([_}d|90aaabbbbbbb00baeagd[.+,ovpxxppvwu-;5@5o=v#pppx*$&&st#vvv##vvwvv##v=-5,j644~)]>>,'!64 8}|gbb091|d}_(c.c(}100137!5wxs&&$*pwuo;5@@",
" 77cccc7([3d9beeeabbaaaaeeeeeeeeffhhiinnmnihebbaefhfebg1d}3_8_3d9bfinnnnihfeb09|d}3_8[< ./~)]5u#*&qryyzyyq$#;'6. <<74^~+!!!!!+~^4../6!{@-wp*$$$t#=-oo;@{~.(8_3}:2|11119g0aeefeeb091|2d}3_[(c4^66^//^^6^47[3d1befhiiinnnihhfffffhhiinnnniihhffffffe0|}883290b000befhhihhhhhffhhhhhhhhheb1:3_}d|1|d:}3__3d90g|3[(  ((<8_}29001:_[((  ((<83d|||d:3_8<<((((((( 7c.c(8:222d:3___3}dd:}_8[<( ((<[83}d|g0aaaaaaaaabbbaefa9}(^)@=pttx#vw=u-o555o=#x*$&qyzAzqsx#vvvww===www=-@,j64c.6),>],'!6.<329bea09|d:_<.~!+4[2g09} +>=p*$&&sxv=-;@>>",
"..ccc7 ([_}2gbeeaabbaaaaeeeeaaeeefhhhiinnnihebbaefffebg1d}3___}d9behinnnihfeabg12:}33_[<74~'@u#sqyAAAzzzyr&tu>j^7(<(c4^6~~~+~~^47( .6!{>;uwpt**x#=uuuu;]+.<8__3:d|11199gbaefffeab09|d:3_8[(7./^^^^6~+!+^c[}|0eiiiiiiiiiihhfffffhhiiinnniihhhhhfffa0|:33:|gbbb0baefhhiiihhfffffhhhiiiiha92}}:2191|d:}33}2gbb1:_[<<[[8_}d1gb09d3_8[[[[[[_}d|1|2:}3__8[[<<<<(( 77 <32111|2:}33}ddd:}_8[<((<[8_3}:21gbaaaaaaaaaaaaaefa93 6';vt*tpvw=uu-o;;;-=vxsqyBDEEDA%*pvww=uu--u==-5,j647 c^!{],{)!^c<}|0efa012:3876),{+7:gbgd<6,ovts&&st#=-5>]]",
"444c7 <[_}d1gaeeabbbbaaaeeeeaaaeeffhhiinnnihebbaefffebg12:33_3}d10efhiiiihffea09|d::}38< 4+{;wt&yABAzrrrrq&tw5{+4 <( c4/^^666^/c([<c6j{]@;-w#xxpv=u=ww->!c[8_8_}d|1999g0baeffffea0g|d}38[<(7c.4//^6+jj!6c8:9ahnmnniiiiihhffffffhhiiinnniihhhhhhfea01d::29baaabbaefhhiiihhffffffhhiiiihe0|d:d1ggg1|d:}}:|gaag2}_8[88_}:290bb92:333__888_}d|11|dd:}33_888[[[<(( (8:|9g91|2d:::222:}_8[<<<[83}}:d21gbaaaaaeeeeeaaeffe9} ^'5wxtt#w=uuuu-o;;o-=#*%zBEGHGBrsx#w=uuuuuuuuo>)6. (( 4~)'{')!^c<3|0efag|d:3[c~{@>).39bg2[4)@up*$$sxv=o5>],",
"^/4c <83:21gbaeeabbbbaaaeeeeaaaeeffhhiinnnihebbaaeeeeb012:}33}:210aehhihhhffeabg1|dd:}_<7/!]-#*&rzzr%$ss$$*xwo>)6c(<( 7c.4////47<8<.~',]]>5o=v#vw=uwvvu>!c[88[83:|99gg0baaefffffebg1d}_[(7777 77.4^~!j!^78d9ahmmmnnnniiihhfffffhhhiiiiiiihhhiihfeb012d2|gbeeaaaeffhiiiihhfffffffhhinnifb12d|90b0g1|2dd210ea0|:3_888_}d|90abg|d::::}38883:211||2d:}}3333333_8[[83d1ggg91|2dd2||2d}_[[<<[8_}:dd2|9gbaeeeeeefeeeeefhf028c+]-vppv=uu===u-o;;5;-v*%yBEGECy&*pv=u==ww==-5,+4 <[[(c/~+jjj+6.(_dgaeag|d:}87+]55'/_1b0|_c+,;wx*stpwuo5>],",
"6^/c(8}d|90baeeeabbbbaaaeeeeaaaeeffhhiinnniheabbaeeeab092:}}}:d210beffhhhffffea09|22d}_<c^j>up*&%q%$t#vv#pp#wu;,!/7(<<<(7c.444. [8(4!,]],{,@o=w=uuuwvvu@!c[8[<<_:|9gg00baeefffffeb012}8(c..c([[<(7.^~+~/ _2gahnmmmmnnniihhhfffffhhhiiiiiihhiiihfeb091||90aeeeeeefhhiiiihhfffeeffhhinnnhb9||1gbab0g91|||9bee01d}_8[8_}21g0bbg|2dd2|2}_[[_}2|111|2d:::::ddd2d:333:29g0gg91||||11|d3_[[<[[_3:d22|190baeeeefffffeeehihegd[4j@uww=uu=www=u-;@],>;=x$rBDDCz%$t#w=wv##v=-@'67[__8[(7./6+!+6/7[}10a092dd:3 ~];;{^_1001}(/j]ovxtx#=-;@>],",
"~6/c(_:|g0aeefeeabbbbaaaeeeeaaaeeffhhiinnniheabbaaaaaa09|d:::d2|9gbaeffffffffeabg1|2d}_(.~'@u#ts$s*pwo;o-=wvvw-@)6c <[[< 7.4/^/c(< ^)]>]{)),@o-----=vv=@!.<< 7 <329000bbaaeefffeea092}8 4^/c<3}}_<74^~64(3|gehnmmmmmnnniihhhffffhhhiiiiihhhiiiifeb0g999gbefffffffhhhiiihhfffeefffhhinnhag1190aaaab0g9190aeeb92:38[[_}21g0b0g122|191d_[[83d|1999|2d:d2||1999|d::2|9g0ggg9911111|d3_[[[[8_}d2||19g0aeefffffhfffefhinhegd<^'5-uuu==wvww=u;>{)),5=p$rABBzr&*pvwvpxx#wo>j/<3}3_88[< 46+!~^. _d90g12d22:(~];;,^8|009d87^)@u#p#w-;5@>]]",
"~6^.(_:|gbefffeebb00bbaaeeeeeeeeeffhhiiiiiifeaabbaaaaabg122222|19g0baeffffffffeb091|d}8 4+'@u#xtttpw-5@5ou=v#v=;{~47 ( 7c4/6++~/c c6'>@]{jj),>555;ouwv=@j4 74^/782g0bbbbaaaaaaaaab092}874^^.<}22:_<c/^^.<}10ehnmkkmmnniiiihhfffffhhhiiiihhhiiiifeb00gggbaefffffffffhhiihhhffffffffhiiiha09990aaeaab0g9g0aeebg1d}8[[_}21g00091221g09238[8}d|9ggg12dd2|9g0bb0g122|19g000ggg99991|d}_8[[8_3:2|119g0befffffhhhhhffhinnnha1_.!];-u=wwwwww=uo@{)){@-v*%yzAzr%$tp#pttt#=;,+c8:d:33333[7^+!+~/c<}1gg122|1d[6]oo]6[|g09|}[c~,;wvv=o;@>]]]",
"~~^47[3d1gbefffeab000bbaefffeeeefffhhiiiihhffeaabbbbaab0g111199ggg0baaeffhhhhfeabg1|d3[7/!{@-w#pppv=o55;uwvpppw;{~4..44/6~!'{,{j^..~'>@]{jjj)'{,]@5-wv=5)^./+j!^(dgbabbbbbbbbbbbbb09|:_ 4^^c[:||2}8 .//c[d9afimkkkmmnniiiiihffffffhhiiiihhhhiiiheabbbbbaefhhhhfffeffhhhhhhhfffffeffhhihe0g9g0bbaaab0gggbeffa092:_88_}219g0g9|2|10b01:3_3:21g0009|dd21gbaeea09|||19gg00000gg991|d}_888__}:2|9g0baeffhhhhhiiihhhhimmnieg}7~{5-=vvvw=uuuu-;@>>5ow#*$qryyyr&stxxttxvu@'67_d2d}}:::_ /+jj!64 _29g9||9g|8^,oo]6[2g0912}<4j@uw=-;5@>],,",
"~~6/c [3d10aeffeab0000baefhhffeffffhhiiihhfffeeabbbbaaab00g00bb00000baeffhiihhfea092:_(.6!{>;-=wvvw=-oouvpxttxvo{~/4^~!j){]5o-o>j6^+']>>,)j!!!!j',@o=w=5'6^+{>,!c}gaabbb000gggg0000g1d3(.^/c[:19123<c44 _20einmkkmmnniiiinihhfffffhhinnihffhiiihfeaaaaaefhiihhfeeaaefhhhhhhhhffeeeeffhfabg9gg00bbbb0gggbeffebg|d388_:219ggg1|||90bb92:}:d|9gbbbg|22|9baeffeb91|||19g0bbb00g9912d}__8__3}d2190beffhhiiiiiiiiiiiinmmnha9}76'@-vpp#=-o--uuu--uwvpt*$&%qryrq&$s**tpwo]j/(}2|d:::dd_ ^!))j!6c[d9g9990b9_^,oo]~<d9g99123 ~,ouuo;@>],,,",
"~~6^4c [}290aefeab00g00aehhhhffffffhhhhhffffffeab00bbaaaabaaeeeab0000baefhiiihfea0923[74~j{]@;-u====u-uvx*ss*xv;'6/^+),]@5o=#pv->j!j{>@>]{)!~66~!']5u=u5{++'@o;{/3gaebb00gg99999g0gg12}<c447[:|991d8 cc(31ahnmkkkmmniiiinnnihfeeffhhinnihffhiiiihfeeeeffhiiiihfeabbaefhhiihhhhfeeaaeffeabgggggg00bb0gggbeffea012}__3:2|19991|||90abg12d2|9g0aabg|221gafhhfebg1|||19gbaaab0g9912d}3__33}:d21gbefhiiiiiiinnnnnnnnmmnheg28c~{5u#tt#=o5;ou=wv#px*ssss$$%qryrq%&$stpw;]j/(}||2d:d2d_7^j'{')+4(}19gg0ae0}/{;o]+ }|99gg92[/'5o-o5@>],,{",
"+~~6^4c(_d10aefeab0ggg0behhhhffeefffhhhffeeffffeb000bbaaaaefhhheab000baefhiiihffeb9d_(.^+j{]@5o-u==uuuw#t$$$*p=5)^4^!,@;-=vxs$*#->,,>@5@>,'j~^^6+),@ou-@'!!,o=u>6_9aebb0gg991119gggg9|:87..7[:|9g9|}<  [:geimkkkkmnniiinnnnihffeffhhinnihfffhiiihffffffhhiiiihfebbbbefhhhiihhhfeaaaaefeab0gggggg0bb0gg0baffea09|:}3}d2|11111||1gbaa091|19g0baeag12210ehiihfbg1||||1gbaeab0gg912d}3333}}:d21gbfhiinnnnnnnnnnnnmnniha9d_ /!,5=p*tp=;@5ouwv#xt*s$$$$s$&qrrrrqq%&stv->)^(}|1|dd22d_76){,,{j^ 329gg0ae0}4'5;]+c8:|9gbb9}c!]5;;5@>],,{",
"+++~6/. 8:10afffeb0g99g0afhhfeeeeeeeffffeeeefhfeab0000bbaaefhiiheabb00baehhhhhffeb1}[c/~!){]@;o-u==uuuwp*&&stv-]!/.^j]5uvp*&qrq$p=o;ooo;@>,)+~6~!){]5;5])!j>uvw@~[9aabb0gg991119ggggg1d_(7c [}21g09d_[[320fimkkkmnnnnnnmmmnihffffffhinihfeefhiiihhfffhhhhhhhhhfab000aefhhhhhhhfeaaaaefeeb00ggggg0bb0000baeeea0g12:::2||1||||119gbaab0999g0baeea012|90ehiiifa091|||1gbaeaa00g912d:}333}}:d21gbfhiinnnnnnnnnnnmmniha9:[7^!{>owx**pu5@5ouwv#pt*s$$$$$$&%qqrrrrrq%$two,~73|91222|d_c+{]>>]'+c8d|99gba0}.j>@]!4(_d1gae0d(6'>5555@>],,",
"!!++~^4 8:10afhfea0g919gbeffeeaaaaaeeeeeaaaefhfeab00ggg00bafhinifeabb00beffhhfffeb|3 46+j){]@;-u===u--=p*&$*#u@)6.c^j];wps%yAAAr$t#vw=uo;@]{)!!!j){,]>]'j+)@=#v;!<|bab00gg999199gg00g923[( ([3d1gb01d33d1bfnmkkmnnnnmmmmmmnnihfffffhiiihfeefhiiihffhhhhhhhhhhhfa0gg0beffhhhhhffeaaaaeffeab00ggg00bbbbbbbbaaab0g1|2d2|11|||||19g0aaaab0gg0bbaefe09||9bfinniha091||19gbaeab00g91|d:}33}}}:d21gbehiiiiiiiiiiinnmniha9:[.~),@;uvx*t#u5@@;u=wv#px*s$&&%%%&&%qryzzzyr&tw5)._|99||||d8.!,@55@,!4<}211g0b9}7+,],)6.(3|0efa184!{>5;;5@],,",
"j!!+~^47[:|gafffeabg91190aeeaabbbbaaaaaaaaaaeffeab0g91199gbefinihfeab00baeefffffe028c^+j)',>5o-u===u--u#t$sx=5{~4 74!,;wt&rzBCCAr&*tpvwuo;@],{'''{{{{')j++)@=pv;j :900000gg9999gg000g9|:_[<<[_:|gaa012210ehnmmmmniinmkkkkmnnihhffffhhihhfeeefhihhffhhhhhffffhffa0gg0baefhhhhhffeaaaaeffeabb000000bbbbbbbbbb000g91|||1111|||19g0baeeab000bbaeffeb911gbfinnihe0911119gbaaab00g91|2d:}}}}::d2|9befhiiiiiiiiiiinmnheg28.+{@;ouw#t*t#u5@@;-u==wvpx*s&%qq%&$&%ryzABBzr$xu,^[2991|11d84j]5;;5])^(3d|19gg1} 6){{'!6c820ehe9376),@;o;@>]]",
"j!!+~^47[}|9baeeeabg1|190aeeabbbbbbbbaabbbbaaaaab0g1||22|190ahiiihfeb000baeeffeeagd[.~j)'{,>5;--uu--oouvx*tvo,!/ <(.~'5=psqyABBzy%$*x#w=-o;5@>]]]],')!+++!'5=vvo'4[d1g0b00ggggggg0000g1d}8[[[832gafa0g90afhnmmmnihinmkllkmnniihhfffhhhhfeaaefhhhhffhhiihffeffffab0g0baeffhhhhfeeabaaffffeabbb00bbbbaaaabb00ggggg999999911|19gbaaeeeabbbbbaeffhfbg19gafinnihe0g91119gbaaab00g9912d::}}:::d2|90efhhiiiiiiiiiinnifb|3 ~{5u=wwvpttxvu5@@@;oo-uw#x*$&qrq%$ss&qyzBBBAy%*v@+(:19999928.!]5;;5>)^ 8:2|9gg1:<4+){{'j^(d0fif0d<4+'>;o;@>]]",
"!!+~6/. [3d1g0baaabg91190aeaabb00bbbbbbbb000000g991|2d::::210afiiihfab00bbaeeeea01}(/+){{,]>@5;;;;;;;o-=#pv->!/7[8[7/!,;=p*$%qrqq&$tpv===uu--o;;5@]{!~66+j{@-=u;{~c[:10bb00ggggg00000g9|:3_8[8_d9ehheabafhinmmmnhhhimklkkmnniiihhfffhhfeaaaeffhhfffhiiihfeeefffeaabbaaeffhhhhfeaabbafhhffeabbbbbbbaaeeea0gg999gggggggg999gg0beeffeeabb0baefhhhfa0gg0afiiiifebg99999g0babb00gg91|2dd:::dd221gbafhhhiiiiiiiiinnieg:<4)5=#pp#pxttxvu;>]]]>@;-=#xs&%qrr%$**$%ryAABAzq$po)c3|99g0g|3c+,@5;5])67[}219gg1:87^+']>,+7:0hnha|_ ^j]5;;@>],",
"++~6/.7([3:2|9g0bbbg91190aeaab000000bb0000gg9911|22d:}3___3:10efiiifeb00bbbaeeab92_7^!',,]]>>@@>>>>@5;ou==-@)^7[_3_<c^!{@-w#xt*sss*xv=uu=wvvw==u-o@{+^4^+',@;o;5]'+.820aab000000000000g12:38[[8:9eiiiffhhinnmmnihffhnkkkmnnniiihhffffffeabbaeffffffhiiihfeeefffffffeaaaefhihhfeabbbafhhhfeeaabbbbaaeffea0g99199gg000ggg00baeffhhffeab00baefhiiheb00bafhhhhfabg9999g00bbbb000gg91|22ddd222|1gbefhhhhhhhhhhhiiihb|_7~>=x**txpxxxpvu;>,')',>;u#t$%qrrq&s*ts&%ryzzzyq&tu{/<:1gbab9} 6']@@>,j6c[321ggg1d3<c6)>5@)430hnieg:[c~{>55>],,",
"~~6^47 <8_}:d|1g0bbg91190aeeab00000000000gg91|22dd:}3__[<<[_d10ehiiheab00bbaeeag|:[c6j{,]]>]],,{{{,]@;ooo;>)678}::}8(c/+),@;-=v#xxpvuoouw#ppp#vw=-5{~.c/!{]>>>>@@>{~ :0aabbbbb000000b0g9|d}_[<8}1eimnnnnnnnnmmnifefhimmmnniinniihffffeeabbbaeffffefhinnifeeeeffhiihfeaaefiihhfeabbbafhiihfeeaaaaaaaefffa0g91119g0bbb000befhhhhhhffeb0g0baehiiiifabbaeffhhfeab0ggggg00bbbb0000gg91||22||||19gbefhhhhhhhhhhhhiifgd</);#s&&stxxxxpvu;>{j++),5uvt$%qqq%&stt*s&%qqrrrq%*w@+c8d10aagd</j{,],'!^c<321g0g12:_(4)@o;,^_ghnifb|3(/j,>>],{{",
"66^4c <[8_3}:d|1gbb0911gbaeeabb0000000000g91|2d:::}}3_8<( ([329behihfabb00baaab923(.~j{,]]],{''))){]@;;5@,)6c8:222:38(746!']@ouwv#v=o55ow#xxxp#vw-5'6c7/!{]],{,>;;@).3gaabbbbbbb0000b00g1|d3[<[}1aimkmmmnnnnmmnhfeefhinniiiinnnihffeeeabb0bbaefeeefhinnifeeeeefhiiifeaaefiihfeabb0bafiiiihffeeaaaaaefffabg99119g0bbb00bafinihfeeeeab0g0bafhhihhfeaaaefffffeab0ggggg00bbb0000000g911|111119g0aefhhhhhhhhhhhhiie937~,ut&q%$txpp#vw-;>'!~~j{@-wx*$&%%&$s*t*ss$&%%qqq%s#o{~c[:10b028.~j''')+^c<32900g9|2:8cj@--]689fiiheg28.~',,{'''",
"^^/. <88__33}:d|g0bg9119befeaabbbbbbb00000g1|d::}}}}338< 7 (8}29bfhhfeabb0bbaa0|}[7/~j'{,,{')j!!!j']5;;@,j6c[:|91|2:3[(c46j{@ou=ww=o@]];=#xxxp#v=o>)/  4!,],)j)>ou-]^_9aeaaaaaabb000000g91238<[3|bhmkkkkmnnnmmnhfeaeeffhhhiinnnihffeeabb000baeeeeeefinnihfeeeeefhhhfeaaefiihfeab00bafinnihhffeeaaaaefffeab0ggggg0bb000behnnhebb0bbb00g0bafffffeeeeeefffffeea00ggggg000000000bb0g9919999ggg0befhhhhhhhhhhhhhhha|84j@w*%rq$tx#vv=uo5>{j++j,@o=vpx**ssss******s$&&%%&sx=5{~.[}|gg|_ /~!!!+~/c<_2900g911|} +>-->~[|afhhfb1}(/!)))jjj",
"//.7(8_33_333}d|90bg9||90effeaaaaaabbbbb00g1|d:::}}}}}_[ 77 <_:|gehhhfeabb0babg2_(c^+j'''')j+~~~!j{>;o;>)6c[:1g0g1|d}_[ .^!{5-===uo@,'{@-vppp#v=-5,!4((4!{,'!~j>uvw5+[|baaaeeeaab0000000g92}8[[320fnmkkkmnnnnnnhfaabbaaeffhinnnihffeabb0000baeeeaaefinnnhfeeaaaeeeeaabaefiihfabb00bafinnnihhffeeaaaeeeeeeaabb000000000bfinie091199ggg00beffeabbbaeffffffeeab00ggggg00000000bbbb0g99gg00000baehhhhhfffffffffhhb2<^{;v*%q%$tpvwu-o;@>{)jj']@;-u=wv#xt*sss*ttt*s$$&&&$*p=;,!4<}|1|}<c/^6~6^47<_2900g99992[6]oo>+(dgefhhe028c^~+++++",
"4.c <_3}}3333}:|9bbg1||90efffeeeeaaabbbbbbg9|dd:::::::38(777([_d9bfhhffeab0bb01:8746+j)))j!+6^^6+){>;o;,+c[:10bb0912d}8<7/+{5-==uo@,)!j]ovpp#v=-5])6c<(4+'{j~^+]=p#-)7:9bbeeeeeabb000000g9|:_[[32geinmkmmnnnnnnhfab0000baehinnniiffeab00gg0baaeaaaafinmnifeeaabbb00000bafhiheab0000afinmnnihhffeeaaaaeeefffeabb0gggg0bafiifb1d}:d|19g0baeeebg99gbefhhhffeeab00gggggg0000000bbbb00gg0bbaabaaefiiihhfffffffffhfbd +]-#s&%&sx#wuo55@>],{'',>55;55;-uw#ts$&s*xxx*s$$$$$s*xv-]!/(32|:8(c.///4.7<3290b0g9001_^,;o]+731behifa9}<c4^^^^^",
"..7([3}}}}}}}}d|gbbg12210afffeeeeeeaabbbbb0g12dddd2222:_[( 7 ([}|0efhhfeab0b0g|}<c/~!j))j!+6^/^6!',@;;@'^(:9beeeb091|d}8(c6)>o--;@,)~6+,ovpp#w-5])+4 <(.~))+/.6]=ttw]^<:10efffeab00000000g1d388329afimmmnninnnnhea0g919gbafhnnnnifeab00ggg00baaaaaafinmnihfeab091||11g0afhhfeab0000afimmmnnihffeeaaaaaefhhhfebb0ggg00bafhfa1}8[83:21gbaeeabg|2210ehhihhfeeab00gggggg0000000bbaab000baeeeeeefhiiihffffffffffff0}cj@up*$&$*x#=o@>]]]],{{,]>@5@@>>@;-=ps&%&stxtt*ssss$&&&spu>j/(3d:_< 7c...c <32900gggbag}4'5;]!.8dgahihe02_(7c.444",
"cc7([3}::dd::d210abg|dd|gafhffffffeeaaaaaab091|||111112:_[(   <_d9afhhhfeb000923(.^~!)))j!+6^^6+j{]>55]j._1bfhhfab0g912}8(4+{>@@]{)~^/~,uptx#u;])~47<[<c6++^c /,w*spo)4<:9ahhffeb00gg0000g1d3883d10ehnmmniinnnihea09|2|1gbehinnnifeab00ggg00baaabbafinmmnhfeb092:33}d1gbehhfeb00g0bahnmmmmniihfeeaaaaeefiiifab0ggg00baaeea9}<7c7<_:|gaefebg|:3}d9ahiiiihfeab00ggggg0000000bbaaabbbbaeefffffhinnihfffffffffefeg3.);=ptsss*xvu5]{'{{,,,,]]>@@@>>]]>@ov*%qq&s*******s$%yzy%t=5)/<3}_[< 7ccc7([32900g9gbeb:cj>5]j/(31bhiifb1:_< 7ccc",
"cc7([_}:d22222|gbaag2::29afhhffffffeeaaaeeab0g99ggg0009|:38< 7 [:1behiiheb00g1d_ .^+j)))j+~~66~!',]>>]'~ :gfhiihfaabb09|:_ 4+)'')!~/..~]=tstv-@'~. [8[<74^^.(<4,w*$*w@)4[|ahhhfeb0ggggg00092}__3d|gbfinnniinnniheag12dd290ehinmniheab0ggggg0baaabbafinmmnifebg|}8<<[3d10afhfab0gg0behnmkmmnnihffeaaaeefhinifb0ggg0bbaaaabgd[c^6/c<32geffe01:_[[3|bhnnnihfeab00000000000000bbaaaabbbaefhhhhhinnnihfeeeeeeeeeee9_/{owpxttttpv->'j!j)'{,]>>>>>>>>],{,@=t%rrq%&$s*ttt*$rBDDAq*w@j.<88[<( 777 <8321gg99gbea27+,>])6c8d0fiihag2}_[<(  ",
"77 <[_}d21111190aea92}}d9bfhhhhhhhffeaaeefeab000baaaaa09|:3[ 7 <}|0ehiihea0g9|:8 4^+j)))!+~~~~+){]>]]{!/[2ahnnnihfeffea01:8 46~~6^4c c~>w*$*v;,!4 8__[< .4. 88.{ws&$x=@jc:0fhffeb0gggg00009|:33}d|90ehiniiinnnihebg|d}}d|0afinmniheab0gggg00baaabbafinmmnifeb92_(7c <3d10aeeb00g00behnmkmmnnihffeeaeeffinniebg99gbbaaabbg|3 ^+!~/ _dgfhhag23[((_20hnmmnifeab000000000000bbbaaeeaaaaefhhihiinnmmihfeeeeeeeeeea9_^,-v#ppppp#wo,j~~+!)',]]]]]]>>@>,)),-x&rrrq&$*txppxsrCGHEBq*=]+. (((( 77 (<8}21gg99gbea|(6'],'+/(}geihfag1d}_8[<<",
"((<[_3:219gggg0befeg2}}d9bfhhhhhhhhffeefffffeaaaeeeeeabg1d3[(7 <}|0ehiihfa09|d3[ .^~!jj!+~666~+){]>]{j6c_9fnmmmnihhiiiha0|:8 c44.c7((7~>vs$tw5'~.(8_8[< 7c7<8[.{=*&&sx=]689efffeb0ggg00000g1d:::2|90ehinniinnniheag|:33:|gafinnnihfabb00gg00baaaaaafhnnnihfa09d8 .4.7([}290000000baehnmmmmnnihffeeeeefhinniebg9g0baaab0g1d8c6jj+/ _20fif01:_< (820hnmmnifabb000000bbbbbbbaaeeeeeeeefhhiiiinnmmmnhfeeeeeeeeeea18^,-v#vvvvvvu5{+^^6+!){,,,,,,]>>>{j!'5w*$&&$stp#wwwvtqBHIHDA%x-,+/.c7777  ([8}21gg99gafe1[/j{{'j~c_1affa09|d:}3___",
"888_}:2|90bb00behheg2}}d9ahiiiiiiihhffffhhhffeeeefeeeb09|:3[( ([}10ehiihfa012}_< c4^~++~6^^//^~j{]>,)+4(:0hmkkkmmnnnmmnfag|}8(   ((<<7~>vs$xu]j6. <[[<<( 7 <[(/{ut$%%$x-j d0eeeab0000bbbb0g9|222|9gafinnnnnnniihfag|:33}|gafhiniihfeaab0000baaeaaaaehiiihfea01d_(c4^^/4 8:|9gg0bbaefhinnnnnihhffeeeefhhiiiheb0g0baaab0g12}[.~!j~4(3|bfha92}8<(<3|bhnmmnheab00000bbbaaaaeeeeffffffffhhiinnnnmmmmnhfeeeeeeeeaeb18^]-wvw=u==uo>)644/6+!j)'''{{,>>]{j+j,;w#pp#v=-o;5;-v$zEHHEBy$#o])!6/4c7 (<[_}29gggg0afeg3c6j'{'j/<20abg1|2:::::::",
"}}::d2190baaaaafiif02::2gehiiiiiiiiihhhhhihhfffffeeab09|d}_[((<_d9befhhhfag|:_[<(7c./^^^/44..46!{]]{j^c82biklllkkmmmmmnheb9d3[<<[[[[<c~>v**po{+^4.c7 ((((  ((76{-ps%rr&#]/_10aeab000bbbb00g99119g0behnmmnnnnniihfag|}__}|gafhiiihhffeeaabbbaaeeeaaaefhhffeab0923<746!j!6c[}21gbaeffhhhhiiiiihfffeefffhhhhhfeabbbaaab0912:_<.6++^78:9affb|:_8[[_:1ainmniheb00g000baeefffffhhhhhhhhhhiiinnnmmmkkmnhfeeeeeeeeaab|[6]-w=uo;ooo5,!^..4^6~~+!!j)',]],'j++j{>@555@],'''{>-p%ADEDCAqs#u5])!64c7(<[_:29g0gg0aff0:<4~){,'~7:9g92d:}}}:d|11",
"22||1190baeeeaehinf0|::2geinnnnnnnniiiiiiiihhhfffeab09|d}_8<<<[3d9befhhhfag|}8[<(( 7c....cc77c/+']]'+4(3|aikllllkmnnnihfeb92}_88888[<c~>wttv5)6^^^/4c (((  7c/+,ov*%zAy*o! }10aaabbbaaa0g11199g00bafhnnnnnniiihhfag|}__}|gaffhhhhhhhffeeabbaeffeeaaaeeeeeabb09|:_(.~){{j6c<3d9befhhhhffhhiihffeeefffhhhhffeeaabbbbbg9|2:38(c/6^.(3|0efegd3888_}2geinmnifab0ggg0baeffhhiiiiiiiiiiiiiinnnmmmkkkkmnhfeeeeeeeeaa0|[6,o=uo5@@55>{!^..4/^^^^6~+j){,,,'j+66~~+++++~6^^6+)>=*qzBCCBy%*p=;>'!^.7(<[_:|90000baffb|_ /j,>]j._||d}__88_:29g0",
"99999gg0aeeeeefhnnhb|dd|0finnnnnnnnnnnnniiiihhhffea0g12:38<((([32gaehhhheag2}8<<<<(( 77777   74+']]'~.<}1aikklkmnihfeabb0g12}_88888[<c~]=pp=>+//^66^4c  ( 7./~)];wt%ACA&v]6(}1beabbaeeb92}}:29g0baefhhiiiiiiiihfebg2}__}|gaffhhhhhhhhhfeaaaaefffeaaaaaaaabbb0g12}87^j{,{j6.(3|0ehiihfeeefhhfeeeeeffhhhhffeaabb0000912:}3_8<7./478d9bffa1:8[[_}d1bfinnihfa00gg00bafhhiinnnnnnnnnnnnnnnmmmkkkkkkmnhfeeeeeeeeaa0|[6,ou-5>]]@@>{j6///^//44/^~!j'{,{'j~^/.c7cc..cc7c./+{;#sqzBBBzq$tvu5,)~/c <83:|g0b00baeeb9:[.!,@@'/[::3[<(<[8}290b",
"000gggg0baeeeefhnnhb1dd|0finnnnnnnnnnnnniiiihhhffeb09|d38<(   <_d9bfhhhhebg2}8[<<<<((   (((((74~',,'~.[:9aimkmmifebg9|||||2:3_88888[<76,-vv-,6.4^~~6/.c7  c/~j,>;=p&zCCr*u,6<2bfeaaeeagd8( [3290bbaaeeeffffhhihfa09d3__}|0affhhhhhhhhhfeaaaaefffeabbbbbbbbbbbb09|:[.~){{')+4<:gahinhfaaaeffeaaaaeffhhhhfeab0g99111|d}_88__8(7c7<32gaffb|}[[83d|gafinihfeab0000baefhinnnnnnnnnnnnnnmmmkkkkllllkmnhffeeeeffeabg2<6,ouo@,{,>5@>{j+~66^/444/6+j)'{{)!~^. <[[<(   77c46j@=x$rzAAzq$t#u;]'+^.7(83d1gbb000baebg2_7+,55{6(__<7cc7([3d90b",
"bbb0ggg0baeeeeehinhb12210finnnnnnnnnnnnniiiihhhfeabg12:_[( 7c7 8:1bfhiihebg|:_8[[<<(((((<<<<(74~),,)~.<}1ahnnihe09|:3___3}}38[<<[[[[<7^{;w=;)/7c/~~~^/4c77.6j,>5ou#$zCCA%x-{4}0ffaaefa1_c^^.<}|9g000000bbaefhhheag1d38_}|0efhhhhhhhhhhfeaaaaeffeabb00g00bbaaeeab01:<.~j{,,'+c_1bhinheabbaeeab00baeffhhfeabg9|22ddd}_[<<[_338<((8:10aee0|3[<83290ehiihhfeab00bbaefhinnnmmnnnnnnnnnmmkklllllllllkniffffffffeabgd<6,;-;>'',@;;5>,'j!~6^444/6~!j''')!~/c(8__[<( 7c..4^!,ovt&ryyr%sxvu;>{!64c(83210bb0g00babg1} ~,;;,~7[(c/^/.7(8:|9g",
"bbb0ggg0baaaaaehiihb12210finnnnnnnnnnnnniiiihhhfeabg12:_[( 7cc [}1bfinnhebg|d}_8[[<<(((<[[[[(74~){{)~.<}1bfffa01d}8< cc ([[<( 7  ((<(7^'5uu@j.( .6~~6^/4../+'>5;ouvsrBDCz&p5~8gffeeffb2(6j)+.[:|9gg991119g0aeffeb9|:_8_}|0ehhhhhhhhhhhfeaaaaeffeab0gg99g0baeefffeb9:<c6)]@>)^<dgeiniebbbbaab0g0baefffffeb09|d:}}}3_[(  <8}}3_883290aeag2_<<8}|gaehhhhfeaabbbaaefhinnnmmmnnnnnnnnnmmkllFFFFFlllknihffffffffabgd<6{;o5]'),@ooo;@]{)!~^/44/^~+j)))j!~/c(8__8<(7c4444/~'@u#*&qq%$*pwu;>{j~^.(8}290bb0gg00bb09d<6,;;]+c 7/~~6/. [3:2|",
"000gggg0baaaaaefiihb9221bfinnnnnnnnnnnnniiiihhhfeabg12:38<(777 [}1bfinniebg|d:3_8[<<<<<[8_8[<74~){{j6c<}|0abg|:8(c4^~+~^4c7c4^^/4c7  c^'5u->+7[<74^6~~6^//6j,@;oo-w*qACCBys=)(|afeeffb:cj]>'6 _d|9912dddd21gaefa092}_8_}|bfhhhhhhhhhhhfeaaaaeffeabg99119g0baeffffe0|}<.!,@@{~7_|bhnifabbbaab0gg0aeffffeab092:3____8< c7 [3}}33}d1gbaab9d8<<8:1befhhhfeaaabaaaefhinnmmmmmnnnnnnnnnmmkllFFFFFlllkmihffffffffebg2[^'@;@]'',@;ooo;@]'!~^44.4^6+!j)jj+6/c<_33_[< c444446j];=p*s$$*x#w-5>{)+^. 8}|gbab0ggg0bbb0|8^{5;]!4c.6+!+64c([3}:",
"1999g00baaeeeeefiihb9||1bfinnnnnnnnnnnnniiiihhhfeeb0g12:3_[<((<_:9bfinniebg12d}3_8[[<[[8_3_8<74~j''!^c[}|gg|:[ /~j{,]],'+6^~!)'j+^/.c.6{5u->+ __<7./6+++~+!']@;;;owt%zBCCA%#,.:gaaehf03/{;o@)4(3219|:3___3:|gaeag1d}_88}|bfhhhhhhhhhhhfeaaaaeffea0g91||19g00baaeab0923(^)]>,j/ 31fmmheaaaaab0gg0beffffeea092}_8888[(7cc7<8_3}:d|gbaabg|}8(<8d9aeffffeaaaaaaeefhiinmmmmmmnnnnnnnnnmmkklllllllllkmihhffffhhfea0|84j]@@],,]>5;;o;5]'!6/...4/6~+!j!!~6/c<_3}3_[(7.44.4^!{@o=vpxxx#v=o5]{)+6.(8:|gbab0g9g0baab9_4)@5,!/./~!j!~^.7([88",
"22|1g0aeeeeeeeehiifb9||9bfinnnnnnnnnnnnniiiihhhffeabbg9|2:3_888}29bfimniebg1|2:}3_8[[88_3}3_<746j))+/7[}|1|}<.~)>;-u=uo@{j!']55>{!~^/^+,;=u>+(}:3[ .6+jj))'{]@555o=x$yACDBrx@^8|0behfg_6>u=o,~c[:192}[<((<8:10abg|d3888}1bfhhhhhhhhhhhfeaaaaeffeb0g1|222|19gg000gg9912_c+',,'+/(danknhfeeeab0gg0befffffea09d38[[88[< ccc ([_}21gbaab0923[(<_dgeffffeaabbaaeefhhinmmmmmmmnnnnnnnnnnmmmkkkklllllkmnhhhhhhhhffeb137~{]>>>>]]]>@5;5]'+^4ccc./^~+++++~^47<_3}}3_[ 7c..4^+),>;-=wvvvwu;@,'j+^.(_:1gbab099g0aaeeg}c!]>,!^/^+jj!+6/.c  (",
"}:d|9befffffeefhiifb9||9bfinnnnnnnnnnnnniiiihhhffeeeaabg9|d:333:|gafimnhe0g91|d:}__88__3::}_<746!jj~4 8:||d8c~'@-vpxxpv->{'];uuo@{j+6~j]-wu@+<d1|:87/+)'{{,,]>>@@;u#sqzBDCz*o! }10ehfg8~5w#=5)^ 3|1d_(7ccc 8dgb092:3888}1bfhhhhhhhhhhhfeaaaaeffeb091|2dd2||119911|19g9d</!){{)+._gimnhfffeab0gg0aefffeeabg1d3[<[888< 7ccc7(8}|gbeeab9|:_[(<_20effeeabbbbaaeffhinnmmmmmmmnnnnnnnnnnnnnmmmkkklllkmnihhhhhhhhfeag:(/!{]>@>],'{]@5@])~/.c77.4^6~~~~~6/47<83}:}38< 7c.4/6!){]>5;-u=uo5>{'j+^.(_d10aab099gbaeffbd ~{,{!6^6+!j!+~6/4.cc",
"33}29behhhhhfffhiifb9||9bfinnnnnnnnnnnnniiiihhhffeefffeb09|d}33:|gafimnhe0g91|2d:}33333}:d}_<746+!!6.<_d||}</j]owpt*tx#u@{{>-wwu;]'j++)>-w=@~[|0g|}<4~j',,]],,]]>5-vt&rACCA$={/<dgehfg8+5vpvo,+._21d874/^/.(}10g12:38[8}1bfhhhhhhhhhhhfeaaaaeffeb0912dddd222|||222|900|_76!',,)6<|ahfeeeeeab000baeeeeab0g12}8<<<888[( 7c..7<}10effe01d38<<[3|0effeaabbbbaeffhiinmmmmmmmmnnnnnnnnnnnnnnmmmkkklkkmnihhhhhhhhffe028c6!',]]{)!j']5@])~/.c7c./^66666^^4.7<83}:::38<(7c.4^~+j)',]@;oo;@,'j!~/c<_d10bab09g0befhfb2(^j')!~66+!!!+~6^^/44",
"8_3d9bfhiiihhffhhhfb9||9behinnnnnnnnnnnniiiihhhfffffhhfa092}_[832gafinnha0g991|2d:}}}}}:dd:_<c4^~+~/7[}2||}(/j]ow#xtxpvo]'']o=w=o>,)jj'@uv=@~89aag28c^!){,],{'{{]@owxsqzCDA%#@!c_1aihg8+5vx#=@'^<21:[.^~~~^c829912:38[8}1bfhhhhhhhhhhhfeaaaaeffeb0g1|2ddddddddddd2|9001}(4~),],+c}90b00bbaaabbbaeeeab0912:38[((<8__8[( c44c(31bfhheg2}_[[[8}1befeaabb0bbaefhhinnmmmmmmmnnnnnnnnnnnnmmmkkkkkkkkkmniihhhhhhhhhfa9:[c/~!))!6^6j,@@])~^4...4/^666^//4.c ([_}:dd:38<(7c./^6~+!j']@55@]'j!~^47<3d1gbab0gg0affhfb2[4~!!+~66~~~~~~~66^^^",
"883d1bfhinnihhhhhhfb9||9behinnnnnnnnnnnniiiihhhffffhhhfa01d_<((8:9afinifa0g9991|2dd::::d2d}8(c4^6~^. _:21|}(/j]5uwv#vwu@{!!{5-u-;@]{)){5=v=>6_0hfb13(46j',,{'))'{>;u#t&yBCBqtu,6<2aihg8~@wppwo]+ d1:<46!jj+4<:11|d:38[8}|bfhhhhhhhhhhhfeaaaaeffea0g9|22ddd:::::dd2|9gg1:87^j,>])/<}2||19g00baaeeeea0g12:38[<( (<8_3_8[(c4/. 31bfhha9:_[[[83d9beeaabb00bbaffhiinnnmmmmnnnnnnnnnnnnnnmmmmkkkkkkkmmniiiiiiiiihhhe01:8(c4^^4c7.~{>@])+^/44//^66^^/4..c7 ([83:d2d:38< 7c.44/^6+j',]],'j+6^4c [3:|gbab0ggbefhfe0287/~~~~~6^^^66~~~6666",
"883:10ehnnnnihhhhheb9119behinnnnnnnnnnnniiiihhhfffffhheag|:8(77<}9afiihfbgg99991||222dd22d}8 ./^6^/c<3d11|}(/!{@;-uuu-5,j66j]5oo5@]{'',5=v=>^3aniegd87/~j'{'j!!j',@owpsqzBBy$#;).}0hfg86>=pp#u5jc:|}(/+j''j^ 321|d:3888}|bfhhhhhhhhhhhfeaaaaeffea0g91|22dd:::}::d2|19g123<.+{>>{+.([8_3:d|1g0aaab0g1|d}_[(  7  <[_33_8<74/4 _|bfhha1}[<<83:|gbaaab0000baefhiinnnnnnnnnnnnnnnnnnnniiihhhhinnmmmmnniiiiiiiiiiiihe092}8<( <[[ ^)]>]'+6^^^^66~6^/4.c7  (<[83:2|2d:38< 77cc.4^6+j'{{'j+6/4c <83:|90bb000behheb9d_(c/6~+~6^44/^6~~~666",
"8_3:|gafinmnnihhhheb9119behiinnnnnnnnnnniiiihhhfffeffeabg|:8(7 [:9afiihebgg9ggg9911||2222d}[ ./^^/. 8:219|}(/!{>5;;o;5>'~//~)]@@@>],'',5=vu]^}emnfb|}[7/+j))j++!j']5-vt&yAAy%tw>6[|ae9_^]=#ppwo'.}|} ^+){{)~c_d||d:388_}|0ehhhhhhhhhhhfeaaaaeffeab0g91||2dd:::::d2|1999|:876'>@])~^4.c7([_}d|9g912d:}_8[( 7777 (<88__8[ .4. _|0ehfb2_( (8}21gbaab00000baefhiinnnnnnnnnnnnnnnnnnihfebg99gbefhnnmnniiiiiiiiiiiiihebg12}3_3}3</j]>,)+666~~~~~6^4.7 ((<<<[83:2||2d}_[(    7c4^~!j))j+6/.7 <[_3:290bb000afhfag|:_< .^+!!~/.c./6666666",
"3}:d|90ehnmmniihhfeb9119behiinnnnnnnnnnniiiihhhfeeaabb0g91d3[(<_dgafhhfebgggggggg9911|||2d3<74^^^4c(_d199|}(^j{]>@@@>]{j64.^+){,]],{'){@uw-,/:fkmhag2}<c^+jj!!++!j']5u#*%yzzr&t-'c3909_^]u#xpv-,432} ^!'{,'+c8:222:3_8_}|0ehhhhhhhhhhhfeaaaaeffeab0gg911||22ddd::d2|9gg9|}</j]@@],')j!+6/. [_::}_[<<<<((   7777  (<[88[(7c7<3|0efe0:[7c 8:|g0bbb0ggg00bafhiiinniiiiiiiinnnnnnniheb92}__3d9bfimkkmmnnnnnnnnnnnnihfabg12ddd}<4j,]{j~^6~+!!++6^4c (<[[[[[83:2|||2:38[<<<<(c/6+!jj!+6/.7(<8_3}:21gbb00bafhe01d3_[(c^!))+^c7c4^66^^//",
"ddd2|19bfimmnniihfeb9119befiinnnnnnnnnnniiiihhffeab0g99991|:3__:|0efffeabggggg0000gg911|2d3<c/^^/47<329gg|} ^j{,]]],,{)+^.c./~!j'{{')j'>ouo{4:fkkifag|3<.6+!!!!+++!']5upsqyzzy&#@~(:91_/,-vxx#u]^_d3 ^!'{,'+.[:222d}_8_}|0efhhhhhhhhhhfeaaaaeffeab00gg999111||2d:::21g0g9d8.+{>5;;;;5@]{)!64 <[(7.44.c7  (( 77ccc77(<[[<((<8}|gbea9}(..78d90bb00gggg00befhinniiiiiiiiiiinnnnnnheb9d[744c<}|geimmmnnnnnnnnnnmmnnifea0g1|2d3</!{,'!6^6+j))j!~^47([8__88883:2|||2d}_88888<c/~+!!+~6/.7([8333}:21g0bbbbeffa9d388[<c6j{{j^7 7./^^/4..",
"||||2|10einmmniihfebg11gbefhinnnnnnnnnnniiiihhfeab0g1|||1112d::29beffeeab0ggg000bb00g91|2:3<c/^^/. [:|g0g1}(/!'{{''')j!6/c77c4/~!j)jjj'>;-;'4:ainihfag2_ 46+!jj!+~~!'];wx$qzAAr*u'/[d|34{-vpxp=>6[:_7^!){{'+.[}d22d}3__:|0effhhhhhhhhhfeaaaaeeeeabb00gggggg999|2:}:21g0g1d8.+{@ouwvwwu-;>{j~/cc46+++6/4c <<< 7c..4.c (<<<[83:|9bab13 447_2gbb00g9999g0befhiiiiiiihhhhhhiinnnnifa9d[.+''j6c<}|0affffhhhiiiiiiniifabg912d}_<c6),]{!~6+){{{')!~/c <8_3__8_}d2|||2d:}3_33_[7/~!!+~6/.7([83}}}}:21g0bbbbaea0|}8<<[<c6)],)^7( c4/4.c77",
"11||||1gahnmmnnihfebg99gbafhiinnnnnnnnniiiiihhfeabg9|222|||2dd21gaefeeabb00000bbbbb0g991|d3<c4//.7(_d90b01:<4~!jj!!!++~^4c   7c/6+!!!j']5;@'/_9afhhheb1}[c/~!))j+~~+j{@-vt$rABz&#5j._d3.'ovpxxw@~(38c6!)'')~.<3d222:3_3:|0aefffffhhhhhfeaaaaeeeabb00gggggggggg1|d}:d1gg1d_ ^j];=vpxx#v=-5]'!6//~!'')!~/. [8[<(7.4/^/4c7 ([8}d|90ab13 .. 31bab0g99119g0baefhiiiiiihhhhhhhinnmmie02_c!>-uo@'+/ 8:2|19g0baaaaeeffe092:}_8< c46j,>@]{jj',>@@>,{j+^. [_33__3}d2||||2d:}}}:}8 /~++~6/4c <[_}}::::21g00b00b0g1:8( (<(c6)],)^7<(7...7 ((",
"||||||90einmmnnihfeb0gggbaefhinnnnnnnniiiiihhhfea0g1|dd:ddd:::d|gaeeeaabb00bbbbaaab00g9912:8 .4.7(8}|gbab92_ 4^66666^^/4c7    7c4^6+j){>55>'^(}10efhfb9d_(.6!'')j++!j']@-wx&rAzq*w@+ }3.';wptxv5!7[(.~!)))!6c<3:d22d}3}d10baaaaeeffhhhhfeabaaaab00gggggggg000g9|d::219|:87^j>ow#x**tpv=o@,)+666!']],'!6. 8_3_[(c/6~~~6^47(83d|9bab9}<cc<}9bab0g9111199g0befhhiiiiihhfffhinnmmia9} ~>w*$sxv-@)~.7<[_}d|1999g0bbg23<7./6~!j',@;--o5>>5o-uu-o5>{j~4 [_3333}:2||111|d::ddd3<.^~6^/.c7 <[_3}}::d21g0b00g912}8(cc7  c6j{{j^ << 777(<[[",
"222||1gbfinmmnnihfeab000bbaehinnnnnnniiiiihhhhfea0g12d:}}33333}29beeabbbbbbbaaaaaab00gg991d3<777([3d10aab01:8(7c.......c77     77./~j{]>@@]'+.(3|0aea012}[7^!'{{'jjjj'{]@owt&yyr&t=,/_3c);wptx#;)4 7/+jjj!+/c<_:d22d:::21gbbbbbaaefhhhhfeabbaab0g9991999ggg000g1|2d21|:8c6)@-vx*ssstpw-5,)+~66+),>@>{j~4 8}::}8 4~!j))j~/7<_d|gbabgd8((8dgaabg911||||19g0baehiinniihfeefhinmmib284'=$zCCAr&x=@{!~/. [_3}}}:2||:87/+j{]@5;ou=wvvvw==wv####v=-;>{+4 8_333}:d2|9g912dd2|2:874//4c77 (<[8_3}}:d|9g000g9|:3[ .4/.c7c^!))+/ <[<((<[8__",
"dd2|190afinmmnnihffeabbbbbaefinnnnnniiiiihhhhhfeabg1|d:}__88883d10aaabbbbbaaeeeeabb00gggg9|:8<(<83:|9baaabg1d3_[<(   77       ((( .6j,>@@>]{j~4(3|gg9|2:38 /!',,{''''''{{];w*%rrq&x;~[_7j5=#tt#-{^c.^+jj!+647<_}d222ddd|1g00000baeffhhhfeabbbbb0g91111199gg000g91|2||d_7~{5up*$&&$sx#u;])~^/^6+']@5@,)+/ _d|12}<4~){,],)~4 8}290abg2388}|beebg91|||2|||19g0afhinniiheeeehinmmhg} +5xzGKKJHDy$pu5]'!6/.7777 <[[(.6j{@;uwv#pxt***txxxtt****tx#w-@{~.([_33}::21g009|22|1123<7cc7  (((<<[8_3}:2|9g00g9|:_<7./^^/.c./~!+647<[[[8__3}}",
"dd2|90behinmmnnihhfeeaabbbbafinnnnnniiiihhhhhhfeab0912d}3_88[8_:10bab000bbaaeeeeabb00ggggg1d388_3d|90baeaabg12d}388[<<<<((((((<[[<7^)]@@@>],')+4(3::}_888[ 4+){,,,,,{{{''{>-ps%qr%t-!(_7!@u#ttpu,~446+!!+6/. <_}d2||222|90000000baefhhhfeabbbbbg911111199gg000gg91|2:_ 6'5=p*&%%&$*xv-@{+/..4^~),@@@]'!/ _d1g9d[.+',>@>,j6.(_:|g00g|:3}d9afea0g91||2222||1g0afiiiihfeeaefhhiie18/{u&DLPOPMJEA%t#=o@,'j!!jj!+~6~+),>;uvpts$&%%%&&$ss$$&&&&$stpv-@'~4 <83}}:d1gbbg1|2|991:_<  ((<<(((<[[8_}:d|9g0g9|d_<74^6~~^/../^~~^47 <8_3}}:::",
"|||9gbafhnnmmnnihhffeeabbbbafhinnnniiiiihhhhhhffeabg912d:33_883:|gbb00000bbaeeeeabb00gggg912:33}d|9g0baaaaabg9|2:}3__888[[[[[[[8_8 ^)]@5@>]]],'+4 <(7..c7 c4~!'{]]>>>],{)),;wxs&%&to!(_7+>-vx*x=>!^/6~+~6^4c <_}d||||2|1gbbbb00baeeffhfeabbbbbb0g91199gggg000000g9|d_(/)5wxs&%q%&stpwo>)6.  7.^+',]],'!^78d900|8.+']@55]'+^c<_:|9gg12dd10ehfabgg91||22222|1gbefhhhhffeeaeeeffb:7!5pyHNTUUONKGBr&*pv=-o;o-uu-;5@>]]@;uvxs&ryzzyyq%&&&%qqqq%&$tpwo>'+/7<_3}:d10aa09||1gg92}8[<[[[<<((<<[8_3:d|1gg9|d3[74^~+++~^/4//^^^/.7(83:dddd2",
"199g0aefinnmmnniihffeeabbbbafhinniiiiiiihhhhhhhfeeab0g9|2d:}3_3:|g000ggg00bbaeeeabb00ggg9912ddd219g0bbbaaaab0g912d::}333_______338 ^)]55@>>@@@>'+^4^~!!~^444^~!',>5555@,'){@-#xsssp;! 8 ~,owx*tw5)6^^66^^/.c [_}d|11|||90aeeaaaaaeeffffeabbbbab0g99gg000000000000g|}<4!@=x$%qqq%$*xvu;]j/ [8< .^+){{{'j6.[:1bb1_c+']@55>,)~/c<_:2191||1gahihfab0g91|22dd22|90beefffffeeabbbaa9_/,=$BJPUVVUONKHDAr%$*txxts$$s*x#=;@>@o=psqzBCCBAzq%&%qrrrrq%&st#w-@,!/ [_3:d10aeb9||1g0012}3_88[<<(((<<[83}d2199|2}8 .^~+!!!~6^/44/////47[}d2||||",
"000baefhinnmmmnnihhffeaabbbafhiiiiiiiiiihhhhhhhfffeabb0g91|d}33:|900gggggg0baaeaabb00gg991|||||1g0bbbbbbaaaab0g91|22d:::::::::}:}_ ^)]55@>@5;;5>'!+!'{{)!6^/4/6j{>5ooo;>{)'];=vpxxw@+ 8 ^'5=x*tv;'+^^^//44c7([_:2111|||9befffeeeeeeffffeabbbaaab0gg00bbbbbb0000bbg28c+,-p$qrrq%&sx#=-5,+.[3}38(c^+j'{{)+4(3|0b1_.+']@55@]'j~^. 8}d|111gbfinifeab0g91|22dd2|190baeeffffea0gg00|<+;xrDKPUVVUTPMKHECzyq%%%rzAAAzr&xu5>>5-v*%zCDDDCAr%&%qryyyrq%$*x#wu5{+.(83}29beebg1|9gbbg12:}_8[[<(((<<[8_}:2|112:_<c/~!!!!!~6^/4.../66^c[:|111||",
"aaaeefhhiinnmmnniihffeeabbbaehiiiiiiiiiihhhhhhhhfffeeabb0g12:33:29ggg9999gg0baeaabb00gg911111190baaaabbbaeeaab0gg911|222222222dd:_(^)]55@>@5;o;@,')'{,,'j+6/.c4~)]@;ooo@,'',@o=v##=>~ 8(/j>up*t#o,!6/44...c <83:2111|||9bfhhhffffeefffeeabbbaaaab00bbaeaabbbb0bbbgd<^'5w*%ryrq&st#w-;>'67_d2d}8(.^+){,{j^78d9g|8.!{]@55@>,'j+647[}219g0ahnmnheabb0g91|22d22|1g0bbaefffeag91gg2 )u$AGLPTUUTOPMKIGDBzyrrrzBCDDCBysvo>>@owx&yACDDCAr&$&%qryyrq%$*tx#w->j/ [_:29beebg1190bab09|d}_[<<((<<[[83}:2|||d3[ .6+!j!++6^/4c77c/~+~4<:1g9911",
"ffffhhhiiinnmmmnnihhffeabbbaehhiiiiiiiihhhhhhhhhhfffeaaab092:33}d19gg99999g0baaaabb00gg911199g0baefeaabaaeeeaaabb0gg911111111||2d3(/)]@5@>>@5;;@>,{'')))j!~/c  4~),@;oo5>,{,>5ouww-]~(8<.~{ovtt#-])~/.cccc7(<83:2|1||2|gbfiiihfffffffffeabbbaeeabbbbaeeeaabbbbbab9}c!>up$qrrr%$*pw-;>,j/(}|912}87/~),>]'~.<32|:</j,>@55@],{{')!^78:|9gbfimmnheabbb0g91|22222|19g0baefhebg1|99:c,#qCILNOOPPNMKIHDBzrq%%qyABCDDCz&xu5@@;uv*&rzBBAy%s*s$%qqrrq%$*txpv=5{~.<_:|gaeebg1190aeea092}_[<<((<[[8_3}d2||2:_<7/~!jj+~^/4.7 ((7/+j!^(:900ggg",
"hhhiiiiiiinnnmmnniihhfeabbbaefhhhhhhhhhhhhhhhhhhhhffeeaaabg|}__3d|99g9999990baaaabb00gg99999g0baffffeaaaeeeeeeeeaab00g999999991|23(/j]@@>]]]>@@@>],'!~~~!!+^7[[(.6j{@;o;@],,]@5ouu;,6(_8 ^j@=px#->'+^.7 77 <[_}:2|||22|9bfiiihhhffffhffeabbaaeeeabbaeeeeeaabbbbab1_/'ovt&qrq%$*xv-;>,)~.[d90092_(4~'>55]j/78}:_76']>@@@>],,]>>,j/(}21gbfimmifabbbbb0g991|222||19g0aefheb9|211}.>xyEJLMMMLKJIHECAyq&$ss$&qyzBBBz%tw-;55ouvxs&ryy%stxx*s$%qqq&$*txp#w;,!/ 8:10afebg119befffe0|:_[<((<<[8_3}:d2||2}8(c/+jj!~/4c7(<[88(/!')6 :gbb00g",
"nnnnnniiiiinnmmmnniihfeabbbaefhhhhhhhhhhhhhhhhhhhhffeaaaeag|}_83:|19ggg9999gbaaaabb00gg9999g0baefhhffeeeefffffffffeab000000000g12}</j]@@],,,,]]>>>,j6../~!+^ _}3[7/!,@55@],,,]>5;o5'^<3_<.+]-#pvu@{!^c (  (<83:d222222|9bfiiihhhhhhhhhfeaabaeeeeaaaaeeeeeaaaaabab|[6]up*&%%%$*xvu;>{)+^7_2gbb0|3(4+{@;;>'6. [8(4+{]@@>>],,]@;o5,~7_d|90eimmieb00bbbbb0g91|222||1g0beffeb922||3/5*AHJKKKJIHEDCBzr&stxppxts&%rzzy%*#uo5@@5o=vt$%%$tp##xts$%%%&s*xxp#wo>)678d9befebg11gbehiiha9:_[<((<[83}::d22||d}8(c/~!!+^. ([8_}}3<4!{'~7:gaab00",
"mmmnnnnniiinnmmmmnnihhfeabbaefhhhhhhhhhhhhhhhhhhhhffeaaeea0|:__3:|19gggg999gbaaaabb00ggg9gg0baefhhhhfffffffhhhhhhhfeabbbbbbbbbg9|}</j,>>,{''{{,]>]{!/7 .6++/(}22}87^j{]]],{{''{]@@]j4<3}87^{ow#vu5,j^c (( (<83:dd222d2|9bfiiihhhhhhhhhfeaaaaefffeeaaeeeaaaaaaaaab|[6>=x*$$$s*xvu;>{j+^.<}1baa0|3 /!{@;;>'+/.77.6j,>>>>],{{,@ou->!c8}d29bfnnhe0g0baaaaabg9||22||190baefe0922||_^;sBHJKJIHGDCBAzr%stp#vwv#x*s%rrr&*#=o@>]]@;-vts$*x#v#px*$&%%&$*txxpw-@'~.[:9beeebg99gbehnmnfgd_[<<<[8_}:dd22|||d}8<7/6++6. [_3}:22:84!{'+7:gaabbb",
"mmmmmnnniiinmmmmmmniihfeabbaeffhhhhhhhhhhhhhhhhhhhffeaaeea01:3_3:|1gg0gg999gbaaaabb00ggggg00aefffhhhhhhhhhhhhiiiihhfeaabbaaaab09|}<4!,]]{)))''{,,,'+4(<7/66.<:|1|:8 /+jjjjjj!jj',,'+.[}}_(/)5=vw-5]j6c (( (<83:dd222dd|9bfhihhffhhhhhhfeaaaaefhffeeaaaaaaaaaeeaea186]=pt***xpwu;>'j~^. 8dgaeb9d[c6j,>5@]'!~^^^~!',]]]],{'){@-=u@j.[_3}d9ainha0ggbaeefeabg1|||||190baeea09|2|2_^;sBHJJIHEDCAAzyr&sx#w===wvpts&%&sxvu;>,{{,>;=p*s*x#v#pt*$%qq%&s*txpv-5{+4<:9beeebg99gbfimkmh0238[<[[_3:d222||||2:3[(./6^4 [3:2|1912_c+''+7}9bbbbb",
"mmmmmnnniinnmkkkmmnnihfeabbaeffffffffffhhhhhhhhhhhffeaaeea01d}3}d|9g000gg99gbaaaabb00ggggg0baefffffhhhhhhhhiiiiiiihfeaaaaaaaab09|}<4!{,{)!!j)'{{{'j6.(<7.//7[:1991d_<c4/^^666~~!jj!^78}:3<.j>-==-5])6. (  (<83}:d222d2|9behhhfffffhhhhfeaaaefhhhffeab000baaeeeefeg_/,-vpxxpv=o5]'!6/. [}1bea0|3 /!',]]]{)!!!!j)'{{,,],{'jj)>o=u@j.<[[[_dgfhfbg9gbefhhhfa091|||19g0baaaa091||d[6osBGIHGEDCBAzzyq&*pv=u--uwvpx*s*t#=-@,)jj',@-vx*txp#pxts&%qrq%$s*xpvu5,!/(}10aeebg99gafimkkib|}_8[883:d2|||||11|d:_[ c.. [}219g0001}7~))~731g000b",
"mmmmnnnniinnmkkkkmmnnihfaabaefffffffffffhhhhhhhhhhhfeeaeeab92::d219g0bb0ggg0baeaabb00gggg00baeffffffhiiiiiiiiiiiiihfeaaaaaaaab09|}<4+'{'j~~+j''')j+^.  7..c _d1g0092}_<(7c..44/^6~^.(_}:3[.!>ouu-5])~47    ([_}:d2|222|90efhffefffffhhfeaaaefhiihfeb0g9g0baeeefhf0}4';=vvw=-;>{)+64c([32gaeb9d8c~){,{{')jjj)'{{{{{{,,,{)!+j,;u-@j.(( 7(_|bfeb99gbehiiihebg911119g0bbbbb0g9|2:<+o$BGHHEDCBAzzyrq$*pwu-oo-u=v#ppp#wu;>'!+!j{>owpxxxppxt*s&%qqq%$s*xpw-5,j^ _2gbaebg990afimlkia1:3___3}d||1|||1111|2:38< ([}|90baaaag: ^jj67_29gg00",
"nnnnnnniiinnmkkkkmmnnihfeabaeeffffffffffhhhhhhhhhhhffeeeeeag1222|9g0baab0gg0baeaabb00ggggg0baefffeffhinniiiiiiiiiihfeaabbbbaab09|}[.+)')+6^~!)))!+6/4.cc..7<3290bb01d}8<( 7777c.4/47<_}}_<.!]ouu-;>'+/c7777(<83}d|||22|90efffeeeeeeeffeeabaehiiiife09111gbaeeffhhb:cj@o--o5>,'!~^47(8}d9bee01}<4+',{')j!!jj){{,{{'{{,,{)+6+'@o;]+. 74^4 }gee099gafinnnifbg99999g0bbbbb000g1237ju&CGHHEDCAzyrq%&*pvuo;555o-u=wvvwuo5,j~6~j{>;=vpp###pt*s$&&%&$s*tp#=-5,j6c[:10aea0gg0ahnkllne92:}33}:2|11|||199991|d}_8_}29baeeeee0d</+!6c8:|19gg",
"iiiiiiiiiinnmklkkmmnnihfebbaaeefffffffffhhhhhhhhhhhhhfffffebg9119g0baeeab000baeaabb00ggggg0baffffeffhinnnnniiiiihhfeabbbbbbbbbg9|}[.~)'j6/4^+jj!~^//^^^/4.7[}|gbabg|}8< 777 (<<(7cc [___[ /j>-==-;>'+^.cccc7 <8}d191|||90afffeeeaaaaaaaabbaehinnihag12d|90aefffhf0:7+,@@>,{)!~^/.7(8}290aeag|3(/!',{)!+++!jj)''''''{,],)+66j,@>'6c74+j!/[1aebgg0ahinmnifbg99ggg0bbbb0000b01d84'w%DIIHGDCAyr%&stpw-;@>]]>@5o-u==u-;@{!6^~j,>;u=wvvvv#xt******ttxp#wuo@,)~4(_dgaeabgg0ehnmlkmf012d:::d2|1||||19g00gg1|d:d|9baeeeeee02[4~+6c<3d|199",
"hhhiiiiiiinnmklkkmmmnnifabbbaeeeeeffffffhhhhhhhhhiiiiihhhhfeb00gg00beffeab0baaeaabb00gg999gbafhffeefhiinnnniiiihhffeab00000000g12}[.~j)+^.c46++~^44/6++~^47[}10aa01:[7.444c [_38<  (<88[(c6'5u==-;>{!6/4...c7 [3290g9|190aefffeabb00bbbbbbbehinnnha92:}d|gbeffffe0d 6){'j+6/4.c7 (83d10aeeb9d_ /+'{'j+~~~+++!!!jj)',]>]'+^^~j''+/7c6'],+7dbebggbeinmmnifbgggg0bbbbb00gg0b01}(6]prGJKIGECzr%$tpwuo5>,{''{,>5;-uu-o5>'+//~)]@;o-uuuu=v#xxxp#vvvvvw=uo5>{j+/c<}1afeb00behnmkkmha091|222||||22|190baabb0999gbaeeeaaaa02[.6~^.(83d|11",
"hhhhhhhiiinmkklkkmmmnnifabbbaeeeeeeeffffhhhhhhhhhiiiinniiihfeeab000beffeabbbaaeaabb00gg999g0afhhffffhhiiiiiiihhhffeab00gggg00g912}[c6!!~47 c/6~^4c./+jj!~/7[:10bbg287/6~6/.(_:d}8<((<[<(74~{5uw=-;@,j~^/4..cc <32gb0g1190aefffeab0ggg00000behinmnha9d3_}210aefffagd<4~!~/c ((((<[8_:|90bb092}[7/+)'j+6666~~66^6~!j',>@>'+/4/6~~/c7.+]5@'4}gab00afimmmnhebggg0baaaab0g9g0ab137+5tzHKLJHECzq$t#=o@>,')j!!)',>5;o-o;5])~4/~'>5;;;;;oo-=v##vwu-------o;@]'j+64 _|bffa00behnmkkmifabg91||||||22|1gbaefffeaaaaeeeaabbaa0|_7/6^47(8}2|1",
"ffhhhhiiiinmkklkkmmmnnifeabaaeeeeaeeefffffffffhhhhhinnnnnihhfeab0ggbaffeeaaaaeeaabbb000gg9gbehiihffffhhhhhhhhhfffeab00ggggggg91|2}[7^++^c<< ./^4c 7/~j)j~/c<}|g0g|}(4~++~/c<}212}8[<<<<(74~'@-==-;@,)+^/.cc77([3|0abg9190baeefeab0gggggg00behnmmmia9:_8_}21gaeffag287//. 8333___33}d21991|d}8(c/~jj!~^/^^66^/4/6+j{]@@>'~477c..c  4j>;;{^8|000behnmmmnhebgg0baaaaab0g990ab1_.jo*AHLLKIGCy&*#u;>,')j+~~+!){]@5;oo;@])644~'>555@@@5;o-=ww=uo;55555555>,'j+~/c[dbfhebbafinmkkmnhfab0g9111||22|1gbaffhhhhffffeeaabbba013(.///.7<3d19",
"hhhhiiiinnmmklllkkmmnniheeaeefeeaaaaeffffffffffffffhinnnnihfea0g919gbaeeeaaaaaaaaabbbbb00g0afinnihhfffffffffffffeeabb0gggggg991|d}874^^.(8_[ c.c ( .6+!!~^.(_219|:87^+!+6. 8:191d3_[[<(( c^j];-u-o5]'+^47 (<<[_:10abg999g0baeeeeabb0gggg0baehnmmmnegd388_3:|0effe0|}< 7(_:22d::::ddd::}}338< c4^~++~^444/^^/4.4^+){]@5>'67<8[[<<(7/j]55{6<:1g0afimkmnihebgg0baaaabbg9990ab|84'-*AHLMLJGBrsp=;>{'j!+~66~!',>@555;5@])6..6)]@@>]]]>@5;o-u--o;5>],]>@@]{)!+~^.<:0fheaaehnmkkkmiheaab00g991||2|1g0aefhhiiihhfeeaabbaab9d8 c4^^478290",
"hhhiinnnmmmkklllkkmmnnihffeffffebbbbefffeeeeeeeeeeefhnnnnihebg91|221gbaaaaaaaaaaaaaaeeeabbbehnmmmnihfeaaaaaaeeeeeaab00ggggg991|2:38(c4. 8}:3[(  (<(74^6~~6/7[:22:_(.6!!~/ [}2191|:}_[<((<(.~'@;---;>'+/c(8_3}}:|90bbg999gg0baefffeab0ggg0bafhnmkknfg238[<<8:1afheb9d388_:|991|||||2:_[<(( 7c./^^666/4.c.4//4..4^+){>55@'^(3d2d:_[7/!,>>'67_d10ehnmkmnifa0gg0baaaab0g9990b02[/{-sAHKLLJHBqtwo>,)j!+~666~j{]@@@@@55@])6..^j{]],{{,]>@@55;o-u-5]')',>>,'j+~~^.(}gehfeefinmkkkmifeaaaabb0g91|||190baeffhhihhfeaaaaaaaag|:8(.^~6.820a",
"iiiinnmmmmmkklllkkmmniihhffhhhfeb00bafffeaaaaaaabbaefinnnifa09|2d:d21gbaaaeeaaaaaaaefffeaaafimkkkmnheabb00bbaeeaab0g911111111|2d:38< 77<32|d}8[[[[< 7./^~~6.(_}3_<7/~!!6c[3d199912:_[( (<< /j,@;--o@{+/7[}d2||19gbb0g9999g0baefhhhfa0999gbafhnmkknf023[(77 8d0fhfag|:}3:|9ggg999g923<7.444/^^66^^/4.777c.444.c4^+),>5;@)/[2gb09d87/!']]'+/ 8dgehnmkmnhea0ggg0babb00g9990bgd<^{-*zGKLLKHB%pu5]{)!++~666+),@555@@555>'~4.^+'{{'''{,]>>]]>;-u-5,j+j',,{)+~66^4(}9afhfhinmmkkknheabaaeeab0g91||19g0baaefhhhfeaaaaaaeeabg|:[c6++4[|bf",
"iiinnnmmmmmmkkkkkkmmniihhffhhhfeb00beffeabbbbbb0000aehiiiifag12d}}}d|g0aaeeeeaaaaaaefhhfeaafinmkkmnheab0000baaabg9|2d:}}::d2222d}38<( (8:191d}__88[<(7./6+~^c([[< c/~!+^7_d|99gg91d3< 7 (< 4+']5o--5{+4 _:|999g0bbb00gg99gg0aefhhhfbg1|1gbafinmmmiegd_(c4/4(}gehfag|:}3:|g0bb000092_(.^666~~~6^/4c7 (<( c...cc.^+),>5;@)4_1eiie9}(4+']],'!^7820fimmnifebg999g0bb000g999g0gd</'otyGJLKJGA&pu5]{)!++~~~+j{>5;;55@5;;@{+/./+j'')))',]],{{,@ou-@{+~+j'{)!~666^.(}9afhhinnmmkkknheabaeffeabg911119g00baefhhhfeaaaaaeeeeabg|376!+/<|af",
"nnnnnnnnniinnmmkkkkmnihhfffffffeb0baehhea00g00gg99g0afhiiifag12:}3}d|gbaaeeeeaaaaaaefhhfabaehimmmmnheab000baeea01d}_[<(<[8_}:22d}_8[<([3d9g9|d:}3_8[<(c/~!!+^4c7 7c/6+~4(321ggggg1d_(7.c77c4~j{@ou-5{+4 _d19g00bbabb00gggg0baefhhhe012d290afinnmnhb1}[7/~+6c81affag23883d9baeaaa09d87/6~++++~6/.7(<888[< 7cc77./+){>5;>)4_9fmkib|876'>555>'~c31bhinnifa091119gg000ggggg009d8.j5xyEJKJIEA%two@,'j!+~~+j',@o--o;;ooo5,!^4/~!jjjj)'{,,{')']5o;>)~6~+jj!+6^^^/.(}1ahiinnnnmmkmnheaaaeffeab0g91119g00baaehhhfeaaaaaeeeeab01} ^++/<2be",
"nnnnnnnihhhhinmmkkmmnihfeeeeffeeabbefhhebgg99999111gbafhihfa09|d}33:|gbaeeeeeeaabbaefffeabbaehinnniheabbbbbaeeb1:_<7.///4c [3:d:}_8[<<[3290g12d::}3_[(7/~j)j!~^4.cc4^6^.<}|9g000g1d_ .//44//6+)>ouu;,+4 8:|9g0baaaaabb00000baeffhfa9d}}:|gafinnnhegd8 4~j)!/<20eeb1}< 7<3|0afffa01:[c/~+jj!+6/. <_3}}}38<  7 7c/~j{>55>)4_9fmlmh0d<^'5-==u;,6(:9ahinhfa09|2|119gggggggg0092_ ~>#rEIJIGCzqspwo@,)!++!j',@;-uuu--uuuo>)6/^6+!!!!j)'{{'jjj{]@@,j~^^~++~6^^//4c<}1bfinmmnnnnmmnifaaeffffab0g91199g00baaefhhfeaaaaaaeeaab09:(4~~4[2ga",
"mmmmmnnihfffhinmmmmnnihfeaaaeeeaaaaefhhebg999911|2|1gbefhhfeb9|d}33:|gbaeeeeeeaabbbaeffab00bafhhiihfeaabbbaaea9:[c^+j)')j+^c(_}}3_8[<<8}2g0091|2d:}38<7/~j)')j+64cc.4/47[:|gg000g1d874^6666^^6!,;uu;,+4 8}21g0baeeeeaabbbbbbaeeffe0|}_83d90ehiihe0|}<c^!','~7}10bg287447[dgahihag23<c^~!))j+^. [3:2||2d}8<((  c46!']@5>)4_1enmmne18^{ow#ppw;)4[dgahhhebg1222|1199gg00000092}[4{w%CGHECAzr&sp=;>{)!!j{]@;-u=======uo@'+^^6~++!!j)''')!+!j{,,'!~^^^^^^^////.7<}|0fimkmniinmmnifeaeffffab0g9919gg0bbaefhhhfeeaaaaaaaaab09d<.^^.[d9g",
"kkmmmmnihffhhinnmmnnihfeeaaaeeeaaaaefffa0g99991|222|90aefhfebg1d}33:|gaeeeeeeeeabbbaefea0gg0beffffffeaaabbbbb9:(^j,@;oo;5]{+/ [8888[[[_}|gbb091||2d}_[ 46!)'')j~/c77c.c(_d1gg000g1:[c/~~~~6^//~{5uu;,+4 8}d|90baefffeeaaaaaaaeeeeag23[<8}|gafihfb9d_ 4~),],j4[:||2}(4664(}1bfiha9d_(.6+j'')+^c<_d|9gg9|d38[<( c4^+),@@>)/[20fiiie18^,-vx*tpu]~7_2gaeeebg1222||199g00bbbb0g1237!o*yCCBAzzyr%*#u5]')){]5ou=wwww====u-@{!6^^66~++!j)))!+6~+j''j+6^44...44//4.7<_d9ahnkknninnmnifeeeffffeabgg999g00baaefhhhhfeaaaaaaaabbb9d8c//c<}21",
"llllllkmniiinnnnnniihhfeeaaeeeeeeeeefffeb0gggg912dd21gbafffea012}33:|0aeeeeefeeabbbbeeea0gg0baeeeeeeeaaab0gg1:(6,-vptttxpv-@)6. <[[8883:10aabgg91|2d}_(c^+j)))!~/c   (<_:|9ggggg91:[c^~++~6/.c^)@-u;{~. [3d|90baefffffeeeaaaeeeeeb9:8( <_:|0ehfag23[7/~)]>>'~c<_3_[c^++^7_2gehhb1:[74~!)'{)+/ 8:|gbbb0g|:38[<(7.^~j{>@>)^<:1baea02<~]u#t**x=@j/(32gbaab091|||199gg0bbaaab0g1d8/,wsqrrryzAAy%two@]{,>;u=vvvvvw=uuuuo@{!~^^^^6~+!jjjj+6//6+!j!~6/.7  7c4444.c [}2geimkmnnnnnnifeeeffffeab0g99gg0bbaaefhhhhfeeaabbbbbbbbg2_ 44c<3:d",
"FFFFFFlkkmmmmmmniihhfffeeeeeeeeaabbbaaabb000b0g12::d|9gbefffa092}33:|0aeeeefffeabbbbaeeb0gggbbaaabbaaaab0g1|d8/,=*%ryyyrq&tw;'~47([88_}d9baaab0gg912:3[ 46+!!!+647(<[83:|9gg99111|}<.6++~6/. (.!>o-5{~.([3:|1gbaffhhhhffeeeeeeeea01}[ 7 [3d1bee0|}8(c/~)]@>,j647  7/~!!6.<}1bfe0|3<c^+j'{{'+4<329beffeb92:38[< c/6!']@]'6 _d1999237!@=pt*txw;{+4(3290bbbg99199ggg0bbaaeeeab09:(+>=p*$&qzBCBy$p=;@>@;uvpppp#v=u---o;>{j~^/44/6~+!!!+6/..4^~+~6^4c([[(7.4444c7([320hmkmmnnnnihfeeeffffeab0gggg0bbaaeffhhhhffeaabbbbbbbbg|3(c.c(8_3",
"mmmmmmmnnnnmmkmnihfeeeeeeeeaabg9122222||119g00g12:::21g0afffab92:33:|gaeeeeffffeabbbaeab0g9g0000ggg0baab09|d3 +;trCEEEEDCAq*w@'~. [8_3:|gbeeaab00g912:_(c/6~~~6^47([_}d|9g0g91|||2}<.6~~6^. [8 6,;;@'6.([3:21gbafhhiihhhffeeeeeea01}<7cc [32gab9:8< c46j,>@]{j+6/4/6!jj~4(_2gaag2_(.6!){{{)~.[:10afhhhe01d}38<(74^+),>]'~.<_}:d:3<4j@=#xttpwo])6.<3290bb0gggggg00bbaaeefffeeb937+,;=ps%zDEEA%tvuooo=#xttxp#wuo;;;5@]{j~^4..4^6~++~6/.7 c4^66^/. [__[ c4444.c7 [}1eimkmmmnnihfeeffhffeabb0gg00baaeefhhiihhfeabbbbbbbbbg|3<7cc <[[",
"aaabbbbbbaehnmmnhfeeeeefffa092}_< 777 (<[83:|19|d:::2|90aeffebg|:33:|gbaeefffhfeabbbaaabg99999911|190aab09|d3 !osAEHHHHGECz&#o,+/7[_3}d1gaeeeaabb0g9|d3[ ./^66^/4c [_:29g00g1|2||23<.6~6^.7[3}[/)>@]j^c(83:21g0aehiiiiihhfffeeeaa0|}<7..7([}|gg23<7cc4^!']>],{'j+~~+!j!~4 8:1009:8 46!){{{)6c829behinifag|d}_[< c/6j{],'+/7([88[(c6'@uvpxxpw-@{!^c<321g00gggg000bbaaeeffhhhhfb|376'@=x&zDGGCq*#wwwv#x**tx#wu;@>>>>>,'j~^.c7c4^6666^.7(< c4///4. 8}}_<7.44444.c _20hnmmmmnihhfffffhffeaab0000baaeeffhhiihhfeabb00bbbbbg|}[ 777 ((",
"ddd:}}}:d|90einifeaaaaefhfb1}[c^+){{')j!~^.(8:22d::dd|1gbeeeabg|:}}:|gbaeeffhhffeaaaaab091||||2d::d|gbaabg1|:<~;*zDGGGGGECz&po,!/7<_}:290affeaaabb0g12:8(c4///^//4c 8}21g00g1|222d3(.^6^. [3d23c+{,'!/7<83d2190aehiinniihfffeeeea01}[7c..c 8:||}[7..cc46!',]]>],{)jj!!~^47[3299|}[7/~j)'')!^ 3|gaehiniha012:38[(7.^+){,'!6/.cccc.^+'@-=vpp#wu5]'+/7<321ggggg000bbaaaeeefhiiiifb1}(^';#$yDHGCrsxpxt**ss*x#=o5],{{,,,')!~/c  7./^^^/47([[< c.444c(_::3[ c..44//4c<}9aimkkmnihffffffhhfeeabb00bbaeeffhhhiihhffab0000bbb0g1:8( 77777",
"(( 7ccc7([32gehheabbbaafhfg:(/!];uww=u-;@,)6c<3:::dd221g0aeeabg|d}}d|90beefhhhhfeeaaaabg1|2dd:}3_8_:10aab0992_/>pqACCCCCCBy$#o,!^7<_}d1gbeffeeaabb0g9|d_<7c.44/^^^/c(_:|9gg91|222:3(./^4 8}299d(^!)!647<_}d|190befiinnnihhffeeeeab9:8(c.44.(_::8 4/4c77.^+){>@5@>,{)!~^4c <_d||d3<c/+j'')j~4(}|gbefiiihe09|d}38< c4~j'''j+~666666+j{>5-=v##wu;>,)+/7[}2|1199g00bbaaaaaefhinnnifa9} +>w*yCGGCrst*$&%%&st#=;>{)!!!))))j+647(( c44/4.c [8_8< 7c..c(_::38(7cc.4/^^47_20fnmkmnihffffffhhffeaabbbbaaeeffhhiiiihhfab0000bbb0g1d_< 7c...",
"^6~+j)j!~/c[dgefebbbbbaeeb2[/)@=ps$&$*tpvu;,+.(_}:d222|90aeaa0g|d::d21gbafhhhhhfffeeea092:}3_8[<( <_20aeab009:c'=sryzzzzzyqsv;,!^c<_:290aeffeaabbb00g123[ 7cc.4/6~6/7<_:|1991|22d:_(.//c[}|gb0|_c^~6/. [_:2|19gbafhinnnihfffeeeeebg23<7./^/c<88(.^6/c(( c/~)]5;;5>,)+/.c7 <_:22}8(.^!)')j+^c[:1gbafhiiheb912:}_8< .^+j))jj!!!!!jjj){,>5-=vvwu;@]{j~4 8}:dd2|19g0baaaaaaefhiiniihe18^,utqBEGBr$*$%ryr%sxw;])+6^^6+!j!+~^. <<(7c..c7 <8_3_8<(7cc7(8}:}_<( 7c4/66/c[:9ahmkmnhffffffhhhffeeabbbbaeeffhhhiiiihhfeb0000bbb0g1d38(7.4//",
"'{,>;oo;@,j/<20eabbbbbbb0|_4)5=t&rzzyq%$sxvo,+4(_:2||||90aaab09|2::d2|90afhhhhhhhhffeag|:_<( 7c444c<:9aeab0b02(j-t&qqqrrrq&tw5{!^c<_:|gbefffeabbbb0009|:8< 777./^~6^. [_:21111||2:_(c447_20aea9:<c44.7([3d|11190afhinnnihfffeeeeeag|}[ .^66/c  .^+~^c<[[<7/+{>555>,j6. ((<[_:d:3<7/~j)')!6478:1gbafhhhfebg1|d:3_[(746+jjjjj))''''''{,]>;-=w=-;@]{)!^.([888_3:2190baabbbbaefhhiiih0}.)o#&ADDBq$s$qyyq$tvo>)~^4.4^~+!!~6/c([[< 7cc7 <[_3}3_8[(7cc [3}}_8[( 7.4^^/c<}|0fimnihfffffhhhhffeeaaaaaaeeffhhiiiiiihfeb0g00bbb0g12}_<7./^6",
";ouvxss*xw;'/_1baaaaabg92_c!@wt&yABBAzyrq%s#-,+.<}2||||90baabg9|2d:dd21gafhhhffhhhhhfa9:8 ./6~++!+^c_1bab0gbb|<!op$&%&%%%%$x=5{!^c(_d10aefffabb000000g1d3[<(( 7./^6^/.7<_:219g912:_(c44 31afhe02_< 77 (8}211119gbefinnnihffeeeeffeb1d_(c^~~~^//~!jj6.<_3_[ /!{]]],'+/7<88_3}dd}8 46+)'')+^.(_:1gbaffhffa0g1|2d:38< ./~+!jj))'{{{{{{{{{]@o-u-o5@]{)!~/c7cc.c <_:|9bab0ggg00baefffeg}c!@w*rBCzq$s$%qq$tvo>'+^.cc./~!!+~^47([8[( 7 (<[8_3}}}38<7cc7(8_333_8<(7c44.7<3d9bfiihhffhhhhhhhffeeaaaaaeeffhhhiiiiiiifeb0g00bb00g1|d38 .^6~",
"v#t&yBCBy&xoj7:gaeefeb9d8c+>w*%yACCCBAzAAzr$#o,~73|11|190bab0g1|2d::dd|9bfhhhffhiiiifa13 /~j){,,,{j/<20a0gg001[+;#s$$$$$&$*pu@{!^.(_d10afhfea000000bb092}_[[[<(7c4/^^^4c<_:|g00g|:_(.4. 39ehifa9d3[<((<8:|99111g0afhinnihfeeefffffag23[7/~+!++!)'{)+.<3::}8 /+j)))!6c<_}::d22d}[c^+j'{'j~/c<_:|gbeffffeb091||2d}38(74^6~+!j)'{,,,,,{''{>5ooo5@],')!+6^^6~+~^.(8:|g00g911||190bb092_c~,op&yzy%s*s$$sxw;]'+^4ccc.^+!j!~/. <88[<( (<88__3}}::3[ c.c <[_}::38[(    ([_:|gafhhffhhiiihhhffeeeeaeeefffhhiiiiiiiiheb0gg0bb00g1|2:8 46++",
"s$qAGJKJGB%#>/_1befhfb|_c+]ut%zBCDDCBAABCCAq*w5j._|991190bab091|2dd:::21bfiihffhinnnha|8c~),>55;5>{~ dgb099g0|[~5vtss**ss*xv->'+^.(_d10efhfeb0gg000bbbg1d}__88[< 7./^6647[32gaa01:_(.4.(}9ehhfa01d38<(<8:19911190afhiiiihfeefffhhhe01:8 46!j)'',]]{+4<}2||d_(./6~~^.(_:2||11|d3(4~j'{,{j~47<_:|gbefffeabg911|2d:}_[ c4^6~+!j'{{,,,,{''',>555@],{)j!+++!j'{'!^c<_d|91|2d}}3}d|99|:_(.6)@wt%q%$*tttx#=;,)+^4.ccc46!j)!64c([8_8[<<<8_33333:dd}8(c..c <_}22d}_8[[[[88_}d9beffffhiiiiihhffeeeeeeeefffhhiiiiiiniheb0gg0bbb0g1|d}87/~!j",
"qrAEKNNMJEyt;+(:9afih0d ~,-p&yBCDDDCBAABCCAr$#o'4_1g91190bab0911|2dd::d1bfiihffhnnnnha|_c~)];-uu-5,+7:gbg99gg|[6>=pttxxttxp=;,j~/c(_:10afffeb0gg00baaa092:}33__8[(7.^66/.(8:1ba01:8 .4.(}9ehhfabg|:_(  [}|9g911g0afhiiiihfffffhhihfb923<c^+j){,]>]{!4<}|gg923[ c..c 8:21ggg91d87^j',,,{j~4 [3d1gafhhfeab09911|2d}38< c4/^~+!j''{,,,{')'{]>>>],')j!+!j'{,]],)~. 83}::3_[<( ([}dd}[ ./~j]o#*ss*tp#vwu;]'!6^4.cc.46!))!647<8_3_8[[8_}}}33}:22d_<7c.c <_:|1|d}333333__}d1gbeeefhiiniiihffeeeeeeeeeeffhhiiiiiniheb0g0bbbb0g12}8 4~j'{",
"ABDIMPONJEy*-)4820fih03/{-p$rzBCDDCBBAzAAAyq$pu,/_10g1190bbb0g991|2d::d1bfinihhinnnnha9}(/j]owvv=o]!7}gb099gg|8^,ow####pp#v-@'+^47<_:|gbeffeb0gg0baaeeag1d:}}}3_8[(74^^^4c(_d9g9|}8 ./4(}9effabbg1d8 .. _29gg9g0befhhiiihfffhhhiiihe01:8 46+j'{]]]{+4[:1baag|:38[<[_:|90babg|:[.+']>],{j~47[3d10ehiihfea0g991|2d:3_[( c./^6~+!)'{,,{''''{,,,{')!~~~j{>@55>,)6c(<[<<( 7./6~^.(__<c^~+!){@-v#pp#vwuo5]{)!~6^/4..46j''!6. [_}}}_8_3}:d:}}}:2|2}8(777(<_d191|d:::::}}3}d|g0baefhiinnniihfeeeeeeaaaaeefhhhiiiiiheb000baaabg|}<c/+),]>",
"EEHKMPPMICr*u,~ }9eih9[+;x&rzABCCCBBAzyyrq%$*pu,^_10g9990bbbb00g91|2d:21bhnnniiinnniheg2_76,-vp#wo]!7}9b0g9gg|84)@-=wwvvvv=;,j64c <_:290aefeb000bbaeffeb9|d:::}}3_[(7.4/4.7<321|d}8 ./4 39aeab00g1:<.^^.<:1g00bbaefhhiiihhhhhiiinihfag|}[746+j'{,,'+.[d9ahheb9|2ddd21gbaeeag|3(^j]@@>,'j~47[}2gafinnihfea0g91|2d:}38[< 7.4/^6~+j'{,{{''''{{')j!~^/6)>;-o;>{!/7((7.4/^6+j'{'+4(<c6j''''{]@;-u===-5>,{')j!+~6/4./~j''!6c(8}:d:}33}d22d:}}d|1|d3[<((<83d1991|2222dd:}:d|90baaefiinnnnihfeaaaaaabbbaaeffhiiiiiheab0bbaaaag28c6j{>5;;",
"HHIKMNNKGBq*=@j4[20fe| {w&yABBBBBBBAzyq%$s*tx#u]6[|g91990bbbbb00g91|2d29bhnnnniiiiiihebg28.)ovp#=;,+7}100ggg9|_c+,5ou==ww=-@'~/c7([_}d1gbeeab000baefhhfag122dd::}}_[(7c.44. 8:dd:_[ ./.(39aab0ggg1}(/~+/ 3|g0baeeffhhiiiiiiiiinnnnihfb923<746+j'{')~c8dgeimnhebb000baeehhhag2_76'>5@>,'!647[}|0einmmnihfea0g912d:}3_8[< 7c.44/6+)'{{{''))))j!+~^446)@-=-;])~.((746+!j){]@5>'6.c^j,>],{'''{]@;oo5]{))''')j!~^/4/~j''!^7<_:2|2d::d|112d::d|112}_8[[8_}29gg911||||2ddd219g0baefhinnnnnhfeaaaaabb00bbaefhhiiihfeabbbaaeeagd</j,@;-uu",
"IIJLMMMJGBrsv;{6(:9bg}4>xrBDCCCCCCBAyq&st#vvvw-]~ }2||1g0baabb00gg91|2|9bfinnnniiiihhfabg:(+@=vw-@'673|g0gggg|376)]5ou==u-;]j^.7 ([_}d|gbeeab000baefhhfa091||22dd:}_[( c..c 83:}38(74/.(}9aeb0ggg1} ^!!67_290aeffffhhiiiiiiinnnnnniihe01:_(c/~!j))!6c8dgfnkkmnihhhhhhhiinieg2_76'>@@]'j~^c(_d9bfnmkkmihhfeb091|d:}3_8[<( 7ccc./6!'{{''))jj!!+~6/..^)@-uo@{!^c  .6!'{,]>5;;5,!^/+{>5@]{)j++!']55>,'))'{{')j+6/4/~j')+/ [}d|||2d2|199|d::d|112d}3_8_3:|900g9911||||||119g00baefhinnnnifeeaaaabb00bbaefhhiihhfeaabaaeeeag:(^)>;-=wv",
"IIJKLLKJGCz&xu]+c_2|d<~;*zDEEDDDEDCAr%sxwu--uu;]!4(_:290baeabggg9991111gbfhiiiiiiihhhfeab|8/'5o;>'+/(3219gg0g1}(/!,@ou==uo@{+47((<[_}d|gaffebggg0baefffeabg911|2d:}38[<(   <_3}_[(7.44.<:0ffa000g1} 6jj~c8d10beeffffhhiiiinnnnnnnnnihfb92}[ .^~!jj+^7_2gfnlllkmmmmmmnnnnmiegd87^j,],{j+^. 8}|0eimkkkmnihfea0g1|d:}3_8[<( 77777.^+j''))jj!++~~6^/446j];;@{!64cc.^!',>@5;;;5>{j~~)]5;@]{j~^/^+']>>],{,,,,')!+6//^~!)j~4(_}2|11|||19g912::d|112d}33__}d1gbb0g911||1199ggggg00baefhiinnihfeeeeaabbbbaeefhhhihhfeaabaaeaab9:(/j];uv#p",
"HIIIJJJIHEBr*w@j4<3}8cj-$AEHHGGGHGDAr$xwo@>>555]'+/78:10aeea0911199999g0befhhiiiihhhhfeeag: 6)''j~/c<_:219g009d[.+{@-=w=-;])6c(<<<[83d|gaffa0999g0baeeffeeabg91|2d:33_88888_3}38(7.4/4c[2bhifa0009} 6jj~.[:|gbaeeeffhhiiiinnnnnnnnniifag|:_<c4^~!!~/ _2genkllllllllkmmmmmnfgd_ /+)')!~/.(8}|gahnkkkkmnihhfebg1|d:3_8[<((      c4~!j)j!!++~~6^^^//^~j{],'+/...4^+),>5o-o;@]{)j!j{>5;@]'!6.7c/!{]>@@@>>],'j+~6^/^~!j!6c<3:2|111119ggg12::d2||2d:}333}290aabg91|||1g0bbb000ggg0befhiiiihfffeeeaaaaaeeffhhhhhhfeaabaaaab01:<.+{5u#xt",
"GGGHHHHIHGDz$#o{~c(<76,=&BGIIIIIIHEAq*vo>{'{]>@>],)6c8d9baebg1|||199g00bbaeehhiiihhhfffee0|_ 4//.7 <[83:21900g28c~'@uwvw-5,!/7<[<<<[_}d|900g122|9g0baaeefffeb0912d:}}}}}}::dd:3[7./^/478|annhabb09} 6jj+4<}290baeeeffhhiinnnnnnnnnniihe01d3[ c/6~~64 _2geiklllllllllkkkkknfgd_(.6+!+6/c(8:|gafnmkkkmniihhhea09|d:3_8<((    ((( .^+!!!+~~66^^///^^6+!jj!~47 c46+){>5o-u-5]')j)',>5;5@]'+/7<<c6j{>5;;;@>,'!~6^^^6~+!~/78}d2||119gg00g12::d2222d:}333:29beab091|||90aeeeab0g99g0baehhiihhfffffeeeeeffhhhhhhhhfeaabaaaabg|:87^)@=p*s",
"EEEEEEGGHGDA%x=@'~/4/!>v%CHIJJJJJIEA%x=5{j!){>5;oo@{~c8:1g0g9||||19g0bbbbbaefhiihhhhffffeag23[<<[8888883:21g00|_7~'5=##w-@'+4([8[<<<<[8_3}}}333:29g0bbaefffeabg91|2dddd2|11|2d3<c/^^^478|ennheabb9} 6j)+4(3d|90baeefffhhinnnnnnnnnniiheb9|:_<7./^6^.(32geiklFFFFFFFlllkkknegd8(c/^6^4c [}|gafinmmmmniihhhhfa09|d:3_8<<(((((<<<(c/6~~~66^^//4..4^~+!!+~647  c/~!',@5o--o@,)j){>@5;;;@,)+4(__<.6j,@;o;5>,)!6^^^66~+~64(_:d22|19g0bbb012d::d22dd:}}3}:|gaeea0g1||1gbfhhfea0g999g0bafhhihhhhhfffffffhhhhhhhhhhfeaabaaeabg1d_(4j5v*%q",
"CCCCCCDEEEDAqs#u;]'j!)@#qDHJJJJJJIEA&p->)++j,5-w##v-]+.(_d|11||1119g0bbbbbbaehhhhhhhffffffag2:}}::}38[[83:29b01_7~{;wpxv->)6c<__8<(7c..44..c7 <_:|9000baaeeeab00g9111119g00g123<.^66^4782aiiheabb9} 6j)+/ 8}21g0baeeeffhiinnnnnnnnnnihfa012}8(7.///c(3dgeikFFFFFQQQFFlllkne9:8(c.444c <3d9bfhinnniihhffhiiheb9|2:3_8[<<<<<<[[[(74^66^//44..c77c/+jj!~^4c7 7./~j']@5;;;5]'j){@o-u--;@,)~.[}:3<.6),@;5@>,)+6/^^6~~~6/c<3:ddd2190baab092d::d22dd:}}}}:|gaffab091110ehnihfabg999gg0befhhiiihhhhhhhhhiiiihhhhhhfeaabaaeeabg|:8cj;xqzB",
"AAAAABBCCCBzr&*pvuo>{{@#qDIJJJJJJIEz$#o,j++)>owxs$spu]j^c<3:2119999g00b000baefhhhhhhfffhhhebg1||1|2}8<(<83:10b1_c+,o#tt#-]j/ 833_< .^+j)'')j+^.(_d1ggg00bbbbbbbbbbb000baaeabg|}<.^66^478d0fffabb09} 6j)!^7[3:|9gbaaeeefhhinnnnnnnnnniifebg|d38(7.4.7<_d9ailFFFFQQQQQQFllkia1}[ 7ccc7 <8}|0ehiiiihffeeeehiihfbg12:}3_8[[[[[[[8[< c4//44..c77(<<7/!''j64c77c.4^~!']@5@@>,{)){>owvv=-;@,j6c8d|23<c6),>@>]{)+^/^6~+~6^4 [}ddd:d|gbeeea09|d::ddddd::}}}:|gaffeabg99gbfnmmiheb0g9999g0aefhiiiiihhhhiiiiniihhhhhhfeaaaaeeeeeb92_cj-sAEG",
"yyyyzzzAAAzyq%$s*xv->,5#qEIJJIIIHGCysw5{!~+'@=psqrr$p->'+4 8}299999gg000g00befhhhhhhfffhhhheb0gg0g1:8(  <[32g018.j>up*t#-]!/(_::3<7^!{]5;;;@,)~.(3d|19gggg00bbaaaeeeeeefffea01:<c^66^47[:1baabbb01} 6j)!^c<8}d|90baaaaefhinnnnnnnnnniihfa09|:3[(7cc7<_:1ailFFFFQQQQQQFFlkia|3[  7  (<83d9afiiiihfeeaaaefinifag12d:}3__88888888[(7c..c77  (<[88(/j{{j6c  c4/^6~!),>>],')))'];=pxpwu;>{j^7_2992}<.~){,],{j~/4^~++~6/c(_:dd::d|gafffebg|d::ddddddd:}:d|gafffeab0g0ahmkmnhfab0g99990bafhiiiiiiiiiiinnnnihhffhhfeaaaaeefffe01}7)=&CIJ",
"qrrrryyrrrqq%%&&$stw;>;prDIIIGGGEDAqtu@'+~+'5=x$qyyqs#u;])6c[:|9999ggggggg0bafhhhhhhfffhhhhfeabaabg23<(  ([}|92<^'5=p*t#-]!4(3dd3[c6)>;uwvwu;])~4(_:219999gg00baaeeeffffhhfeb9d87/^^/.7<3d19ggggg|376)'j6.([3:21g0baaaafhinnnnnnnnnnnihfea092:_[(77 <8}|bilFFFFFQQQRQQFlmhb|}[<(<[88_3:10finnnihfeeaaeehinnha09|2d:}}333333__8[<( 7  ((<<[[8_8 ^),,j^ <(c/^66~+j{,,{)jjj',@-vxtpw-@,)~4 32991d_ /~j)'')+6/4^~!!+^47<3:2d:}:|gehhhebg12dddddd22dd::d|gaffffeabbaeimkmnhfea0gg999g0aefhinniiiinnnnnnnihfffhhfeaaaaeefhhfb1}7)=%DJK",
"%%%qqqq%&$sss$$&&$*#-;-xrDHHEDCBBArs#o]j~6~'@up*&qrq&sxvu5,+c8d199gg999999gbafhhhhhhfffffffeeaaeea01:_< c.7[}2}7+,owxtt#->j/(3d2}8c~{;u#xtx#=o>'+/7[}29gg999ggg00bbaaaaeeeeeag2_ .///.c [_}d2|1912_c~)'j~. <83:|9gbbbbaehinnnnnnnnnnniihfebg12}_<   ([320ilFFFFFFQQQQQFknfb1:_8_3}::d21geikkkmmnhhffffhinmniebg9|2dddd::::}33_8[<((<<[[8_____[76']]j4<_[ 4^6~+!j)))j!!j),@o=#xx#u5])+/c<3d|1|d3<c/6~++~6/4/6+jj+^. [3d2d:}:|0eiihfa01|2ddd222||2dd21gaefffffeeehimmmnihfea0g91990befhinnninnnnnnnniihffffhfeaabaaeefhe0|3c)=&CHI",
"&&&%%%%$tpppxt*s$$sp=-=trCEEBzyrq%$x=@{!6^~)>-wp*$&%%%&stv-]~7_d19g991111190afhihhhhfffeeeaaabaaeeag|:8 .//7[3[4)@uvpxxv-@)6 3d2:87+,ovx*$st#=o@,j6c[:1gg99999999ggggg00baaaab1}[7.44.cc ([_}d2||d8c~'{)~47([_}d190000behinmnnnnnnnnnniihfabg1d38<( (<8dghkFFlllFFQQQQlmifb92:::2|19990aikFFFlkmnniiiinmmkmifa0g91||||||22d:3_88[[[88_33}}3_[(4+{>]!._:3(.^~+!!!++~~~+j{>;uvpxpwo])~/7<_}:dd:}_[(7c.4444../6!)j+^c(8}d2d}}:|0fiiifa09122222||11|22|1gbeffhhhhhhinnnnihhffea09119gbaehiinnnnnnnnnniihfffffhfeaabaaaeffeg28.)uszDE",
"$$$&%%$*#w==vpx*ss*xw=v*qBCBy%$$s*pw;,)+6^~j]5-wvpt$%rrr%sp-,678:2111|||||9gafhiihhhfffeabbbbbbaefea0|}(466/7<7~,o=#pp#w-5{~7_2|d_7+]-#t$&&sxv=o5])67_2191111|||1111199gg00babgd8(7c.....c7(83:dd}[.+'{)~47(<83:|9ggg0bafinmnnnnnnnnnniihfea09|:_[(  ([}9fmllllllFFQQFlmheb91||1gbaaaaehmlQQQFllkkmmmmkkkkmnhea0gg99999911|d}3_____33}:ddd}_<7/!{],+7}|:[c/6+!!~^//^6!)]5-=v##v-@'~4 [_}}}}3_88[[<<((  77./~!))+^7<_}ddd}3:|0finifebg1||22||19991||9gbaehiinnnnnnniiihhhffebg119gbaefhiinnnnnnniihhffffffhfeaabbaaaeeb9:</'-tqzA",
"$&&&&$sxw-o-=vpxt*tpvv#*qzzy%stppv=o>'!~66~j{>5;-=#t&ryyr%s#o,+4(_:22|||22|gbfiiihhhffeaab0000baefffagd[.6~64./j>-wvvww=-;]!._21237~]u#*$&&st#=-o5,!/(_:22|||||||111199999gbaag2_< 7cc.444.7(83}}3<4!{{)+/c <[_}219ggg0afinmmnnnnnnnnnniihfeb01d38< 77(_|ankkkklllFFFFknfa0g9990afhhfefimlFFllkkkkkkkllllkknifeab00000000g9|d}}33}}::d2|||d_(c^!'{)6(292_ .^~~~^4c./~j{>;uwvvwu;,!/7<_}}}3_8[<<<[88888[<(746!))+/7[_:dd:}3}20finifeb091||||1g00g91990bafhinmmmmmniihhhhhhfebg119g0aefhiinnnnniiihhffeeeffhfeaabbaaaee0|376{op$%q",
"%%%&$st#=-o-uwv#pppp##x*&qq&*pvw=-;>'!~66~+!j'{]>5u#*&qrrr%sp=5{~c[}2|1122|9bfinihhhffeab00000baefhhfa1_ /666~!,;uwwu---u-5'/821|} ~]-#ts$$*pwu-o;@{+/7<_}d|1199999gggg99190ba023< 77cc4///.7<[__8(/!{,'+/c (<8}d19999gbfinmmnnnnnnnnniiihfea09|:_[ c.7[:0fnmkklllllFlkiebg99g0afinihffhinmmnnnmmkkllllllkmnihfeaaabbbbbbb09|dd::dd22|119123(.^+!j+.8101}<7./^^4c7c/+']5ou===uo>)6.(83}}}_8<(  (<[__33_8< .^!jj+4 [3}:d:}3}2geiiiheabg91||190bbb0ggg0aefinmkkkkmnihhhhhhhfebg111g0baefhiinnniihhffeeeefffhffaabaaaeea028.+,ovx*s",
"rrq%$*xv=-o-uwwwwwwv#xt*s$st#=-o;5]'!6^^~++++++!),@u#*$%rrrq%spu]+.<}|1|d:d10finihhhffeab0000bbaefhihfgd[c/6!),@-==uo55ouuo,^[291:(6,owpt*tpw-;;;;5>{!6.(8}219g0000bbb0g911gbbg2_< 777c./^^/c ([[[ ^j{,'+4c (<[3d|9999gbeinmmnnnnnnnniiiihffebg1d3[ .4. 31ahnmklkkkllkmha0999g0afinifeaaefffffhinmmkllllkkmnihhfffeeaaaeeea091|222||119ggg|3(./^6^.(:gbgd_< 7cc7  c^j,@;oo--o;>{+/7<83}}3_[(7c.c <8_3}}38<7/~!!~4 83}::}33}2gehiihfeb0g9111gbaeab00bbaehinmkkkkmihhhffffffa0g119g0baeffhinniihfeeaaaeeeffhffaabaaeeeag:(^)>o=vpp",
"zzr%st#w=u-u=w=u-o-=#x***txv=o5@],'j~^/6+!!~^//^~j,5u#t$%ryzzy%tu]+.<_}}_8_d9einihhhffeabb000baaefhiiha1}<c6j,@ou==o@]]5-=-]6<291:<^{;=#xxpv-5@@5;;5>{j6.<3d|90bbaaeeea09||90bgd8(777 7./^^/.c (<<7^j,,)~47 (([_:|191190einmmnnnnnnniiiihhffea092}8 4//c[d9ahmklkkkkkknfb911190afhhfa0gg00bbbbaehimmkklkkmmniihhhhffeeeffhfebg9911199gg0b01}<c.4.7<3|ba0|:_[<(((( .~'>5;;;55@]{!^c([__33_8[ c44.7([_3::}38(.^++6.([_3}}333}29afhhhfeab0g9990aeffeaaaaefhnmmkkmmnihfffffffea0g119g0baeefhiiiihfeabbbbaaeefffeaaaaeeea0137~{@ou=ww",
"BAy%spv=uuu=ww=-;@5-vx**tp#=o@],')j+6^^~!j!~/cc.^!'>owp*&qyAAAy$#o]j~/....7[d0fiihhhhfeeabbbbaaefhinnnf0|3 ^j,5-=w=o>{{>ouo]6<d99d[/';=#pxpwo@>>5;;;@]'+4(3:d2190baefheb91190b9:[7..c77c4^^/4c7(<(7^j{,)~47 (([_:|111190einmmnnnnnnniiiihhhffebg|:_ 4^^4 _2geikkkmmmkmiag|22|190aeebg1|||1199g0afhnmkkkkmmnniiiiiihhfffhiiifeb0gg99gg0bbab9:[ 7 (8}2gaeb92:3_[<<(74+{@;;5@>],'!64 <8__33__[(c.4.c <83:dd:3[7466/. <8__3___}d9behhhhfeb00gggbehhhfeeeeffhnmmmnniihfffffffeeabg99g0bbaaeefhihhfab0gggg0bbaeeeeabaaeea09d[4!]5-u=wv",
"DCAq*vu--u=wvvw-5]>;=ptttpvu;>{)j!++~~+!jj!6477.^!{>o=#t$%ryzzy&tvuo5@>,{)+.8|ahiiiihffeabbbaaeffhinmnhagd[.+{@-=vw-@,{]5o5{^<d9g|8/';=#xxpv-@>>@5;5@>{+.<3}}3}d|gbehhfag99gba9}(4//.c7c.4/4.c7(<<7^!{{j6. ((<[_:|991190eimmmnnnnnnniiihhhhhhfab923(466^.(_20hmlkmmmmnhb12::d2|9g0g12:}}}:d2|1gbefinmmmmmnniiiiiiihhhfhinnnifeab0gg00baaeag23[<[3:|gaeebg|d}3_[(7.^!{>@@@],'j+647<8____3338< 7cc7 <83}ddd:3<74/4.7 <[8888_3:|gafhhhfeab000bafiiihfffeefhinnnhffffffeeeeeeeeb00g00baaaeeffhfeab091||119g00bbbbbbaeab9d876)>;uw#pp",
"EDAqt=ooou=v#pv-@{{@-vpxxpvu5]'j++++!j))))!6.7746j,@o=vx*$%qqqq&stxxxxp#=o]!c}gefhhhhffeaaaaeffhhhinmmifb13 6)>o=vvu5]{,>>,j4[:1g1_4';wpt*t#u5>>@@5@@]'~c8}3[(([}29beffa0ggbea937^~6/.ccc...c7 <[[ /!''j^c(<<<[3d|991190eimmmnnnnnnniiihhhhhhhfa0|}(46~6^.(31emkkmnmmifg2}333}:2|1|:_[[[8_3:d|90afhinmmnniiiiiiiiihhhhiinmmnhfeab000baaeea01d}3}21gaeffag12:}_[ ./~j{]>],{)!~^.7<8_____3}}3_[((   ([_}:d22:_< cc.cc7 <[[[8_}290efhiheabbbaefinnniihfeefhiniheabaaeeeeaaeeeeaabbbaaaaaaeeffeabg9|2ddd22|19g00bbbaeagd87/!{@owptss",
"EDA%p-55ouwvppv->')];=#pxp#=5,)!+++j'{,{'j+^.77/+']5o=vpt*s$$$$sss$&qrq&*vo{^<d900baeeeeeaaefhhhiiinmmniegd<4!,;=##wo@],,{)~c[:1g93.)5=pt*tp=;@>>@@>],)6783[744c<3d10aab0ggbee9_.~!+^.c777777 ([88<4+))!^7(<<<83d19999gbfimmmnnnnnnniiihhfhhiiheb1:<.6++~^c[2ankkmnnnia9d_8[8_3}::}_<   ([_3:21gbehiinnniiiiiiiiihhhhiinmkkmihfabbbbaeeeeebg122|9bafhhfa01|d}_<746!)'{{{')!~/c <8333___3}::}38[<((([83:2||2d38(7c...7 (<<[_}d|gbfhiheaaaaefhinmmnihhfeefhiifa000baeaaaaaeeeeeeeeeeeaaaaeeeabg9|2:}}}::d2|19g0bbaa0|_c6j{]5u#t&%q",
"DCz&#o@@;-=v##wo]jj{5uv#ppvu5]')jj)',]],'!~/c7c/+']5ouw#pxttttt**s&qzAzr$xu>!.<_3}:|9baeeeefhhiiiiinmmnnhb|8c~{5=#p#=;@]{)+/7[}|g9:7!>-vxttp=o5@@>>],'j^7<[7^+!~4 8}2199999bea18.~!+^.7 ((((((<8__[.~))!/7(<<[83d19999gbfimmmnnnnnniiiihhfhhinifa9d[c6+!+~/ }0hmmnnnifb|}[<(<[[8___[ 7c7(<83:21gbefhiiniiiiiiiiiihhiiinmkkkmnifeaabaeffffea0g99gbefhiihe09|d:_<7/~!)''')j!~/. [83}}}3__}:ddd:}_8<<<[83:2191|d}8<7.4.c7 (<[83:290ehiheaaaefhinnnnniihfffhiihebgggbaaaaaaaeefffffffeeeaaaaaab0912d}333}}:d2|9g00bab9}c+,5;;o=psqyy",
"BArsw5]>5-=wwwu5{!!'@-wvvvwu;>],,,,>@@>,j~/.7 c/~),@;-=wv######pxts&rzyqspu@'+^4447<}1beeffhiiiiiinnnnnnie1376'5=pxpvu;>{j6. 8:|g9d(^'@uvpx#=o;5@@>,'j+^.7.6j,,'!^. [_}:d21gbb18.6+6/7(<[[[[[[8_}3[c~j)!^c(<<[83d19999gbfimmnniiiiiiiiihfffhiiihagd8c^~!!+6c_9fnmnnniegd_( 7 ((<[[<( 77 ([_3:21gbafhiiiiiiiiiiiiiiiiinnmkllkmihfeeeefhhffeab000befiinihe09|2:3[7/~!j))jj+~^.7<83}::}333}d222d:}_[<<[_}:219g912:8(7....c7([83:d1gahiheaaefhhiiiiiiihhhhhiiiifa0g00baaaaaaeeeffffffffeeaaaaabg9|2:}3333}:d2|1900bb02<+@wp#w=wx$rzA",
"yr&xu@]>5-uu-o5])+!'@o====u-;555555;;5>{+/c ( 746!']5o-u==ww===wwvp*&%%$xw-5]{''{'j^(:gaffhiiinnnnnnniiiie9} ^)5wxttpvu5,!^c(_:|992_c6'@-v#v=o;55@>{j+6//^~)>;;5])+^47([_}d1gg|8c^6/c([8_33____}::876j)!^c (<[8}d19g99gbeinnniiiiiiiiiihfffhiiiheg287/~!j!~.[|bhnnniha9:[7c.c77     77 ([83:2|90bafhhiiiiiiiiiiiiiinnnmkkllkmnihffffhhhhfeeab0baehinnnheb9|2:3[746+!jj!+~^4c([_}::::}3}:d2||2d:38[[8_}d|9g0009|}8(7c...7 <83}d|9bfhheaaefhhhhhhhhhhhiinnnihfab000bbbaaaaeeefffhhhffeeaaabb0g1|2:}}33}}:d2|1900bbg:.]#&q&tvvt&yAB",
"%&*#->,>5o-o;@,'!+!'>o---o;;;;oo---o;5])6.(<<(7.^+),>5o-----------=#t**xv-;5@@5;oo5'/81bfhiinnnnnnniiiiiieg}(^)5wx*s*pwo]j^c<_:|19|:[c6'@-==uo;;5@]'!^//6!'>o==u;>{j+^4c([3:2|d874/. [3}:::}}3}:dd_76!j!6.7(<[8}d19g99gbehnniihhhhhiiihhffffhhhfe0|_ 46+jj+/<:geinnif0|3(.4/4...ccc77 ([83:d|1g0baefhiiinnnnnnnnnnnnnmmklllkmnniihhiiiihfeeabbbafhinnnieb9|2:3[ 4^~++++~^/. <_3::d::}}}:2||||2:}_88_3:2|90bbabg2}[(7.4.c <83}:290effeeaeffhhfffffffhhiiihfeab0gggg00baaeaeeeffhhhhffeaabbb091|2d:}}}}::d2|190b0093^;sACz$p#t&yBB",
"$stvo>,>;--;@,'!++!'>;o;5@>@5;oo---o5>{+/ [8[< c/~!']@;;;;;;;;;;;;-=#xpv=o55;o-w##w5! dgefinnnnnnnniiiiiifg} ^';vts$st#u>j^7<_:21912}[c~{5ooo;;;5@])~44^+'>o=vvw-;>,'!~/. <83}3<c44c(_:d222d:::d223 ^!j!647 ([8}21gggggbehiihhffffhhhhhhfeeffhffe0|3(.^+jj!^ 3|bhnniegd87/^6^////4.c ([_3:2|1g0baaefhhiinnnnnnnnnnmmmmkkllllkmnnnnnnnnnifeeaaaaefhinmnieb912d}8(c/6~~~6^/.7(83:ddddd:::d2|11|2d:3__3}d21g0beeeb923[ c..c <8_3}d1gaefeeeefffffeeeeeeeeeeb0g9111|||19g0aeeeeeeffhhhhffeaabb0g91|2d::::::dd2|1g0bbb9_6-%DGB&pvx$rzA",
"$stvo>]@ouu;>'!+++j{>55@]{'{]@5;;;5@,'+^c<8__8<7.^+']@555@@@@55555ouw##wuo;;o-wp*st={4_10ehinnnnnnniiiinnhg}7~{ov*$&$sx=@)^c<_:21991|:[4!{>@@@@55@,j^cc^)];uwvvwuo5>,'j+6/c (<(7./47[}2|11||ddd2|2}(/+!+6/c7(<8}21gggg0befhhffeeeeffhhhffeeeeffea01}[7/~j)j6c[dgeinhb1}(.6++~66666/. [_}d219g00baaeffhinnmmmmmmmmmmmkkkllFFlkkmmmmmmmmniheeaaaeehinnmniebg1|2:_<74/^6^^/.c [_}d22222ddd2|1111|2d}33}:2|9gbafhheb1d3[ c.7([8_3}d|9baeeeefffffeeaaaabb0g92:}3_33}}:d21gbaeeeeeffhhhhffeaabb00g91|2dd::::dd2|1g0bbbg36-%DGB&#=#*%ry",
"&$tvo>]5-==o]j~~+!){>@@,)++!){]]>],'!64c([_33_8(c/~),>@@>>]>>@@@55o-=ww=-o;;ouvt&q&p@6<d9bfinnnnnnniiiinmhg_.!]-p*&%&$tw5'6c<_:2|1999|3(/!',,]>>>>{!47c6{5uwvvvwu-;5>,')!~^/4..4/^478d1ggg912dd21|:<.6++6/.c <8}21g00g0beffffeaaaaeeffffeeeeeeeeab9d8 46j))+4(3|bhif02_7^+jj!+~++~64 8}2|9g00bbbaaeefhinmmkkkkkkkkkkkklllFFllkkkkkkkkkmiheeaaaefhinmmniebg1|2d}8 c4///4.c <83:2||||22d22|19991|2::}:d|190befiihe01d_<77 ([8_3}:21gbaeefffffeeaaab0g9|d}8< 77 (<[8_}290aeeeefffffffffeaaabb0g91||2dddddd22|1g0baa0:/o$BDzsw-=ps&%",
"$$tv-@>5uw=;,!66+j',>>]'+/4/~j)'))!~/c <[8_3}}_[74~j,>@>],,,]>@@55;-u==u-;;;ouv*qyqto!73|0ehinnnnnnniinmmh98/'5=xs&%%&*v;'6.(8}2|19gg9d87^+j)'{,],'~. 7~,o=vvww=u-o5@],')!+~6^^^66/7829000g1|22|11d8c^~~6^4c <8}29g0000beefeeaabbaaeeffeeaaaaaaaab923<c6!))!^c[:gfieg:[c6j))j!+!!!~4(321g0bbaaaaaaeefhinmkkllkkkkkkllllllFFllllllllllkmiheaaaeehinnmmnhebg91|2:_< c....c ([_:2|1111||22|199g991|2dd2|19gbaehinihe01:8( (<[8__3}d|90aeffffeeeeaabbg92:_<74^6^/4.c <8}|gbeeffffffffffeeaaabb00g91||22dddd2|19gbaafa2.@*zBrtu;-wxt*",
"s*xwo@>5-=u5{+^6!){]>>,j^7 746+++~^47([[[[83}:}8 46j{>>>,{{{,]]>@@5;o--o;5555o=t%rqto!c_2gehiinnnnnnnnnmkh1<~,ovt$%%%&*v;'~.(8}d2|199123<c/6+!j'''j6c(c+>uvvvw=uu-;5>]{'j!+~66^6664 _|gbb0g9|22|112_ 4^^^/4.7<8}290000bbaeeeabbbbbbaeeeeeaaabbbaabg|}[7^!))j~4 31eha9}<4+)'')!!!!!~4<}1gbaeeeaaaaaeefhinmklllllllllllllllllllllllFFFllmiheaaeefhinmmmnhebg991|2}8( 7cc7 ([83d2199911|||19gggg991|22|19g0befhinnifag238<<[[88_3}d21gbeffffeeeaaab0g|:_<c/~!j!+~^/.7(_:10aefffffffffeeaaabbbb00g91||22ddd2|190baefe|7]xqy%x-5;uv#p",
"xpvu;>]@;o;>)6^~j{]>@>,!4(8[ .4//4.c <[<<<<_}d:_(.6j{]>],'''{,,]]>>@@555@@>>>@ov*&s#5+7_2gehiinnnnnnnnnkkf27j5=p*&%%&$tw5'~.(8}d22|||2d}8<7./^~+!!+/7(.!@uvvw=u--o;@,'j!+~6^^//^^^4 _|gbb0g9|22|1123<7.///4c <8}2900bbbaaaaabbb00bbbaaeeaaabb0bbabg|:8 /+j)j+^c[2beb1}(4+'{')!++++6c[d9beffffeeeaaeefhinmkllllllllllkkkkkllllllllFFFllmiheaeefhinmmmmnheb0g999|:3[<(   (<83}d|1999911119g0000gg911119g0baefhinnihe01d388[[88_3}:2|90affffeeeeaab0923<c/~j'{')!+~^4c<32gbefhhhffeeeeaabbbbbbbb0g91|22ddd2|190befhh9({v&q$p-55ouu=",
"w=uo@],]>@>{!66+),>@@>,!.[338( 7777 ((( 77(8}2d3(.6j{]>]{'))''{{{{{,,]]]],,{{{>ovp#u,6 3|0ehinnnnnnnmmmkma:4{-#*$&%%&sp=@'6.(83:dddd:}33_8[( c4/^6^47 4j@=vv=-ooo;5]'!~^/44....4//.(3|gbb0g9|22|19|:8(7c.4.c <8}290bbbbaaaabbb0000bbbaaaaaab000bbbg1:_(4~j))!~4(:ga0|3(/!'{'j+~~~6/7_|0efhhhffeeeeeefhinmkklllkllkkkkkkkkkkkkklllllllkmifeeeffhimmkkmnheb0gggg92:_8<<(<<8_3:2|999999119g0bbbb00g999g0bbaefhiiiihfeb9|:}_8[[8_3}:d|1gaefffeeeeaabg1d8 4~j',],{)j!+647[:|0ehiihfeeeaabbb0bbbaaabb091|2ddd2|9g0aefiig[ju*$*#-;55;;;",
"oo;5>],,]],'!~~!']@55@]!4[}:38[<((    7ccc7[}22}<.6!',],{)jjj))jjjj)))))'')j!!)];--@)/(3|0fiinnnnnnmmmnmi0_^]=xs&%%&$t#u@)6.(83}}}3_8888_33_[< 7c..c77/)5=vw=o;;;5>{!64c77   77.44c(32g0b0g9|22|1912}8< 7cc7 <8}290bbbaaabbbb000000bbbbaaaab0000bb01d_(.6!))j!^7310g23(/+'{)!6^//4c<}1bfhiihhffeeeeffhiinmkkkkkkkkkkkmmmmmmmmkkklllllkmifeeefhinmkkkmnifa0g000g1d}_8[[[[_3}d21999999999g0baabb000g00baeffhhiiihfeabg12:}_8[883}:d21gbefffeeaabb09|}[c^+){]]]{')j!+^.(_d9ahnihfeaabb00000bbaaeeabg9|2ddd2|9gbafhnib_+;#txv-;@>>>]",
";;5@>>]>>>]{)!!),>5;o;>)/<3:}_8[<( 77c....7<}22}[c^+){{{)j!!++++~~~~~~+++!++~~+']@@,!/ _|0finnnnnnnnnniie1[~@v*$&%&&st#->j^c(833_8[<((([_}:}3_[<(   7.6{;=vwuo555@]'+/c  (((( 7c44.(_2g0b0091|||191|d}_[(777(<8}290baaaaabbbb0000000bbbbaaab0000bbg1d3<c^+j))j~.82g923(4+)'j~/4.c7(8dgehiiiihfffeefffhhinmmkkkkkkmmmmmnnniinmmkkkkkkkmnifeefhinmkklkknifa000babg|d}3_888_3:d|199999999g0baeeaabbbbbaaeffhiiiiihfab091|d}_8[883}}:2|9befffeaab0g1|d_(.^+j'{,{')jj!+647[}|0fiiheabb00ggggg0bbaeeea0g9|222|190befhnnb3^>=#v=o5>],{{",
"o;;;555;;o;@]{{,]@5o--;,~7[__8[< 7c.44444.7[}22}[ 46!)))j+~~66^//44444//^^^^^^~!',,'+/7820hnnnnnnnnniifagd !;#*$&&&$stv->j^7[_3_< 7c.c7(8}::}}3__8<(74+,owvwuo55@>,)~4c    (( 7./^4782gbbbb09111999112:3[(  (<8}290baaaaabbbbbbbbbb000bbaaab00g000g1d3[7/~!))j+4<:1123<.~jj+^. ((<8:|0ehiiiihffffffffhhinnmmmmmmmmmnnniihhhiinmmmmmmmmnifeefhimkllllkmifab0baea092d}3___3}:d|19999999ggbaefffeeeaaaeefhhiinnnihebg91|2d}_8[8_3}}:d|9behhfea0g1|d}3[ c/6~+!!!++~~~~6/. 8:9eiifab00gg99119gg0baeeab0g91|||9g0aefhnia:4';uuo@],''))",
"uu-----uwwwuo@>>@5;-==-@)/7<<<( c4/^^^^/4c(8}dd}8(c/6+!!+6^/4.c7  ((  77cc..4/6+)'')+^c[d0hnmnnnnniihebg2_.)o#*$&&$$st#-]!/ 833[74^^^/.7[3}::::::}_<c^j]owvwu;5@@>,j~4c7777   74^6^c[2gbaaab0g999999g91d3[<<<[8}290aaeeaabbbbbbbbbbb000baaab00g000g1d3[746+j))!/ 32|2}[c^++64 [_3}d|gafhiiiihfffffffhhhiinnnnnnnnnnniiihffffhinnniinnnihfeffinmklFFlkmifabbaefebg12:}3__3}:d|19999999g0beffffffeeeffhhiinnnmnnhag1|2d:}3_888_3}::d|9befhfabg1d}38<(7c.444//4444/^^^/4c(3|bfheb0gg911|||119g0baeeeab091119g0aehhiibdc!>55>,')jjj!",
"www===w#xtx#=-;55;ouv#wo,+/c777./^6~~~6/.7<8}::}_< ./6~~6^4.c (<88_88[[<<( c4^6+j)')!~4(:0immnnnnniheb923(^{o#ts$$$sst#-]!4(_}3(4~!!+6/c(83}::d222}[c~)@-wvwu;5@>]{j64ccccc77 c46~6.[dgaeeeea00g999g0bg|:38[<[83d90aeeeeaabbbbaaaabb000bbaab00g000g1d}8 .^~!))!^7_:22:_ 466/78}d2|90befhhiihhffffhhhhhhiiiiiiiiiiiiiiihfeeefhiiihhhhiiihfefhinklFFFlkmnfebbafhfe09|d:}333}:d|1999199gg0baefeeaaeeffhhiinnnnmnifb12:}3__8888_33}::d|90aeeabg|d}_[( 77777  (((( 7c4////. 820efa0g991||2222|19gbaeffeeb0g9gg0bafhhihbd ~{]]{)j!!!!!",
"ppp#vwvx*sst#uo;;ouwpxp=5'~/4../^~++!+~^. [_3}}3_[(c4^^^/4.7([8_3}}}3_88[< c4^~!)''')!67}0immnnnnnhe01d3<.+,-#t*ssss*t#-]+4(_}_76j''j+647<_3}:2|91d[.~'@-wvwu;@>]{)+^4ccccc7  746+6.[20effffeabg919gbabg2:38[[83d10beefeeabbbbbbbbbb0000baab000000g12}8(c/6+j)!6c[}dd:3(.//c<}29g0baeffhhhhhhhhhhhhhhhhiiiiiiiiiiiiiihhfeeeefhhhhffhhiihfefhimklFFFFlmnheaaefihfa09|d:}}}:d2|199999gg0bbbbb0g99gbafhiinnnnnnihag2}_[<((<[8_33}}::d|1gbb0g1|:38[(77c77 (<[[[[[<(7c44//47[dgaebg991||22dd22|1g0aefhhfeb0gg00bafhhheg: 6){{)!++!!jj",
"ss*x#v#xs&&*#=-o-uwp*s*#-])~^//^6++!!!~^c(8_3}3_8< c4/^/4.7([_3}}::}}3_[< c4^~!)'{,,,'!._gikmnnnnifb1d_(c6j>-vpt*****t#-]+.(_3[.!{]]{j+^c([_}:21gg28.+{5uwvw-;@]{'j~/.77777 (< .^~6.82bfhhhhfea0911gbea01d}3_8_}d1gbefffeaabbbbbbbbb00000bbb000000g12:_[ ./~!j!6c[3:dd}[7.. _d9baeffffffhhhhhhhhiiiiiiiiiiihhhhiiiiiiihhfeeffhhfffffhiihfeefinklFFFFlknifeefhiihebg1|2dddd2|19gg99gg0bb0g912:}}d10efinnnniihfag|}8(c4/4c(83}}}}:d2|1191|2:3_[<( 7cc7 (<<<<<<<<( c.444.7[:9bb0g911||2dddd2|190aehhhhfab000baefhffb937~',{j+~+j)''",
"q%&*p##t$%%sp=--uw#*&%&tw5,j+666~+!!!!~/c<8333_8[(7c4///.c <83:::}}33_[< c4^~!){]>@@@])^[9hmmiinniegd_(.6!{@-w#pxtt**x#-]+4(88(^)>5@]'!647<83:2900|8c+{5-wv=-5>,'j+^47    (<[[<7/^^c8|bfhiiihfe091190aab9|d}3__}d1gbefhffeabb0000bbb000000000bbbb0g9|d38(74^+!+^c<_:dd}8(7 [}1behiiihfffffffhhhiinnnniiiihhhhhhhiiiiiiiihhhhhhffeeefhiiheeefhnmlFFFFlkmihffhinihfabg91||||119gggggg0babg12}8< (8:1behinnihfebg|:8(c^+!+^78}:}}}:d2|||2d}_[<((  7cc77 (((  77  77cc....7[:900g911||22d::dd|1g0afhiihfebbbbaaefffag28.!{]{j+~!){,,",
"yrq$tppt&q%sp=--=#x$%rq$#->{j+~~++!!!+~/7[_333_8<(7.4//4c <83:dd:}33_[(7.^~!){]>5;oo;5,~(1hmmiiinha|3(.6!']5-=v#pxtttx#-]+4 <<c~,5o;>{j~/. [_}29001_c~'@-=wuo@,'j~^4c (<<<[8__8 ./47_1ahiiiiihe09||10babg1|d}33}d|9befhhhfea0ggg000bbb000gg00bbbbb09|d}_[(c/6+~^c<_}:d:_[(<_dgehnnnnihffffffhhiinnnnnniiihhhhfhhiinnnnniiiihhffeeeefhhheabbafimklFFFlkmnihhiinnihfab0g99999g0000ggg0bab92}8 ./478d9bfiiifa0g1d}8<7/+){'+.[}::}}:2||2d}3[( 77777777  (((7c.44..cc......7[}1gg911|||2dd::dd|1gbefhiihfeabbaaefffe01}</j]>,)+~!),]]",
"zyr&*xts%qq$p=uuwpt&qyr&x=;]'!+++!!!!+64 [3333_8<( c.44c7([3:2||2:}_8<7.^+j{]@;-u===u;]+(|hmmihihfg:[.6!']@;-uwv#pxttx#u>j^c 74!]o-o@,)+647<8}29bb9} ^j];uu-5]'j~^4c <[[[88_3}_(./4 31ahiiiiihfb9||1gbab0g12:33}d|9behiihheabgggg00bbbbb0000bbaabb0g12:38<74^~6/c(83:::38[8}|bfnmmmnihfeeeefhiinnmmmnnniihhhfffhiinnnnnnnniihffeeeeeffeb911gahnkllFllkmmniinnmnnihfeb000000bbb0g999gbb09d3<c^~64 _2gehhfb92:38<(7.^!',{!.8:d:}}d2||2:38(7...cc7  ((<<( c4/^^//44444//4c<329g911|||2d:::d2|1gbefhiihfeabbaeefffb9d8c~'>>,)~~+){,]",
"yrr%$s$&qrq$xvwwvp*$qrr&two@{)!!!jj!+6/c(83}}3__8[( 7cc7([_:219912:3[ .^!']5-=vpxxx#wo]+(|fmmihhfb1_7^!',>5;-u=wv#pxttp=@'~/.4^)>o-o@,)!6/c(8}29bagd<4+'>;;5]'!6/.7([88____3}}_(c/4 31afhhhiiifb9||1gbbbb092:33}d1gbfinnihfeb0gg00bbaaaab00bbaaaab0g9|d}_[ c/66/c(8_}}}388_:1ahnmkmnihfeeeefhinnmmmmmnniihhffffhiinnniinnnnihhfffeeeea01d::|geimkkllkkkmmnnnmmmnnihfeaaaaaaaaa0g12|1g001:_(4~!!6.<3|bffb|}8< c...4^+'{'+.8:d:}}d21|2}_[ c4/4.7 <[888[(7./6~~66^^^6666^478d199111||2d:::d2|9gbefhhhhfabbbaeffhe02_ /!,>>,j6^6+j)'",
"qqq%%%qqrrq&*p#v#xt$%qq&tvu5]'jjjjj!~^. [_}:}}33__8<(  <83:21g000923<c^+']5u#ts$&&$t#-]+(|fmmihfag:<4+',]@5;-u==wv#pttpw;,j~66+'@o-o@,'!~/. [329aeb|_ /!{]>,)+^47([8_33333}}::_(c/4 31affffhihfbg1|1g0bab0g|:}3:21gafimmniheab000bbaaeeeaaaaaaaaab00g1|d38(c4^^4c([_3}3388_:1ahnmmmnihfeeeefhinmmkkkmnniihhffffhiinniiinnnnihhffffea09|}8[[}|bhnmmkkkkkkmmmmmmmmnnihhffffhfffa012::21gg|:8 4~jj+^c[:gaa1}<c/6~~6/4/~j)j67_:d:}:d|1|2}_<7.//4c <83::38(746+!!++++++!!!!64(}2199911|2d:::d2190befhhhfeabbbaefffe9}(4~']@>,!^4/^~~~",
"$$&%qyyyyrq&*x###pxs&%%&*pwo>{)jj)j+^47<8}:::::::}}_8[[83:21gbaaa0|3(4~),5-vt$%rrr%s#-]~(2aiihebg2_c~),>@@5;o-u==wvpxtxv-@{)!!j,@oo;@,'j~^. [329afa9:[7^!)'j+/c [_3}::::::::d:3(./47_1beeeefhhfag119g0baabg1d}}:210ahnmmmnhfabb00bbaefffeeeeaaaabbb0g91d}_<7.//47([8_33___3d9ahnnmnnihfeeeefhinmkkkkmnniihhffffhhiniiiiinnnihffeea09|:_(c.c(}9einnmmkkkkkkkkkkkmmmnniiiinniihe0|:3_}299|:8 4+j)j~4 _|00d<.6!)')!6/4^~+~/ _:d:::d|||d}8<7.//.7(8}2||:_(c/~+!j!!!j))''{'j6c8:|99991|2dddd2|190aeffhffab00baefffa|8.~),>@>{!/.c.444",
"xt*&qyzzyr%$tpvvv#p*&qq%$t#u5,)jjj+647<83:dddddd22d:}33}d|9gbaefeb|3 ^!{>;=p*&qryr%*v;{6(:0efa09d_ ^j,@5555;oo-uu=w#xtt#=o@,{'{]@;o5>,'j+^47<3d9affb|}[c^~+6/7(83:222222ddd22d3<./47_|0abbbefffa0999gbbaaa092::d210ahnkkmihfab00bbbaefffffeeaabbbbb00g92:_< .44.7([8_33___}d9bfinnnihffeeeefhinmkkkkmnniihhffeffhiniiiiinnnifeab092}[ 46!j+/(dgehinmkkkklkkkkkkkmmmmmnmmmkmnheg238[_d11|:_(4~j)j+^.[d91376j{]],'+/44/^/c<3:d:::d2|2d}8< c4.c(8329g9d_(c/~+!jjj)'{,]]>]{!/(_d|9g91|222222|1g0aeffffeab00baefff0d(6']@5@]'+/c77777",
"wvp*%yzzyq$t#wu-u=vt&ryyq$tvo>'j!+647[3:d222222|199|2dd2190befffa028c6j{@o=#t$&%%&spu@)^ 3|g0g1:87/!,5;;5@@55;oo-u=#xttxv=o5>]]>@;;@>,'j+6/c<_d9afheg23<c4/.7[_:21999911|||||2}<c//782g00g0beffa0g9g0baaeabg12d2|1gbfnmmnifeb0000bbaefffffeeabbbbbbbb09|:_[ c..c ([8_33333}29behiiiihffeeeefhinmkkkkmnniihhffeffhiniiiiiinihebg92}[7^!'>55>)/[2gehnmkllllkkkkkkkkkkkkkkkllknha9:8<(8}21|d3<.6j))!64(3d:</!{>55@,!^.ccc7(83:::::d222:}_[(777(8}290bg2_(c/6+!!jj){]>5;;;@{+.(3d19991|||||119g0aeffffea000baeefeg3.)@oo;@,)~4c  (((",
"5o=p$ryyr%sp=o5@5owt%zAAzr$x=@{j+64 [}2|1111||190bb0g999gbaefhfeb9:[.~),@;uvpt***t#=5{!/7[}d22}[c^!,5o-o;@>>@55;o-=vxt*tx#w-;@>@@5@>]{'j!~/c(_:1bfifa923[  (83d|90bbbb0g99191|:[c//7829g9190beeab0g0baeeeea0g11||19bfimnifea0ggg0bbaeefffeeabb0000bbbbg|:_[(7cc7 <[8_33}}}:29befhhihhffeeeefhinmkkkkmnniihhffeffhiniiiiiiihebg|:_(4+{5-w##=5j._|0enkllllkkkkkkkkkkkkklllFlknfb1}[  <32||2}[7^+jj!~/7[3876'>5oo;]j^c (<[8_3}}:::dddd:}_8[<(<8:|90abgd_(c4^6~+!j',>5ou=u-@'6c<}29g9111999999g0aeffffea0gg0aeefa186]uw=o>{j64c ((<<",
"{,5wt%rrq%spu@],]5ux%ACDBzqsv;]j~47[}|9gg9991990aefeabbbaefhhhfa0|3(4~),>;-=wv#vv=-5,j~/c <8_8<c6j,5-u=-;>]]]>@5;ouvpt**tx#wu;5@@@>],{)j!~^. 8:1bfiheb92388_}21gbaefeeab0gggg1d[c//c8d191||90aeab00baeeeeeab0gg11|10ehniheabgg9g0bbaeeeeeeeab0gg99g0bb01d3[( 77 ([8_3}}}::2|90aefhhhhffeeeefhinmkkkkmnniihhffeffhinniiiiihebg|:8 4!,ovx*ssx=]6 31bhnkkllkkmmkkkkklllllFFFFknf0|3<77(_d|1|d_ 4~!!!~^.([<.+{@;--;>j^7<_3:}}33}::dddd::}33_8_3:10aeeb9d8(c./^6~+!',@ou=vv=o]j^78d19999gg00gg9g0beffffeb0gg0aeeeb2(j;#xv-])+^4c7 (<<",
"+j,o#s%rrq&t=5],]@utqBDEDBy$pu@'~.(3290b0gg99g0behhhfeeeffhhiifag23(4~j{]@;o-uu-o5>{j~^///4.cc4~)]5ou==-5],{{,]>5;uwpt***tx#=-;5@>],{')j!~^. 8:|0fhifa01d:}:d|90befhhhfeab0009d87//c[:|1|2|10aeaabbbaeffeeaaab0g1|1gahiifeab0ggg0baaeeeeeeab091|dd2|gb09d38<(  (<8_3}}::d2|1g0aeffhhffffeeffhinmkkkkmnniihhffeffhinnnniihfbg|}8 4+{;wxs&%&*v5j4<}1bfnmkkkmmmmmkkklllFFFFFlkie0|3<  <321912}<.6+!+~647( 4+{>5oo5]j/7[}2|2:333}:ddd::::}}}}:d10ehhfa9d_(7c.4/^~+),@ouwvvw-5{!4(32199g00bb0g9g0beeffeeb0gg0baabg:c'ut*p-,!6/4.7 (<<",
"/^j>ux$rzAz&pu5@@;=trBEEDBy%tv;,+.<}29000gggg00aehhhfffffhhhihfb923(.6!){]>@555>]{)!~^^6+!!!+!j{>;-===uo@,')''{]@;-=#pt***tpw-;5>],{'')j!+64 8}|0efhfa09|ddd2|1g0aehiiiheabbbg287//c[:||2d21gbaaabbaeefeeeaaaabg911gbfhhfeaabbbbaaeeeeeeeea09|d}8[8}|g092}_[<((<8_}}::d2|19g0baeffhhffffeeffhinmkkkkmnniihhffeffhinmmmnihe0|}[7/+'@u#*$&&$tv;{~.[}1beinmmnnmmmmkkllFFFFFFknhag|}8<<8:|ggg1:[c^~++~64c 74~j{]@@>{+/ 8:|1|:333}dddd::ddd222|10ehiihagd_< 77c.4^~j{>;-=wwwu;>'~c8:|9g0babb0g99gbaeeeeabg990bab0|_4]vs$xo'6/44.c7   ",
"7.6'5w*rCEEA&p=oouv*rBDECByqspu>!.<}21gggggg00baefffffffffhhhheb9d3<c^~!)'{,]],'j+6^//6+',]>]]@;-=www=-5]'jjj)',>5o=v#xtt*tpw-;@>,{'')jj!+64 8}|gaeeea09|2ddd2|190afinniheaabg287//c[:||2d2|gbaaaaaaeffeeaaaeea0911gbeffeeaaaaaeeeefffefeebg1d3<7.c<}90g|:3_[[[83}:dd22|1g00baaeffhhffffeeffhinmkkkkmnniihhffeffhinmkkmif01:[7/+'>owxs$$st#=;])6c<}|0ehinnnnnnmmkllFFFFFlmifbg|:3__}2g0bbg287/6~~6^4.7c.^~!)'{'j64 8d19|d}33:dddddd22|199g0ahinihag23[((  7c4^+),@;-u==uo5]j/(3290baab0g91190aeeeea0g99gbb09d<6@p$&x;!4cc...cc77",
"< 4+,-xqDIJEyspw=w#srBCCBAyq$tw5)4[}2|9999gg0bbaaeeeeeeefffhhfa01d_(c^~!j)'{,,{j~^4.4/~)];----u=v##v=-;>{j!++!){]5ouwvpxttxpw-;@],{'))jj!+64 8}29baaab0912dd::d2|90ehmmnheaaa0|874/c[:||2d2|gbaaaaaeeeeeaaaaeea0g1190aaab000baeefffffffffebg|:87^~6.8|0012:3_88_}dd222|1g0baaeeffhhhffffeeffhinmkkkkmnniihhffeffhinmkknf01}[7/+'>o=#tss*x#wuo@,)~.(32gafhhiiiinmmklFFFFlknhebg12d:d|9baea0|3(4^66^^4.c7c.4/6~++6/c(_d19|d}3}:d22dd2|1900baehinnihag|}8[<<<< 7.^+),>5;o---o@{~c[}|g0bb0g91|19gbaeeab0911g00g|3 +;x&&p5~7(7..4....",
"<(c^)@v%DKLHB&t#vvpsqzBBAyr%$tv;)4[:2|9999gg0baaaaaaaeeeffffhfag|}8 46+j)'{]>>]'!^/44^!{5uvvvvv#pp#wu;@,)+~~~!j{]@;-=v#pxtx#w-;@]{'))jj!!+64 8}290babb0912d:}3}:21gahnmnheeaa0|_74/c[:||2221gbaaaaaeeeeaabbaeeeb0999g009|22|1g0befffhffffebg|}<4!''~ dg0g|d:333}:d2222|9gbeeefffhhhhhffeeeefhinmkkkkmnniihhffeffhinmmnf023<c^!{@owpts$$*xvwu-o5]'+/ 8d9bafhhhiinmkllFFlkmnhebg91||1gbefffa9:<c4////4.c7   7c4//4.7<_d19|d}}}:d2222|1g0aeefhinnnihe01d3_8__8[(7.^+){]>@5ooo5,j/78:|9911||22|1gbaaaabg9119001d[.)ot&&#>^<[(c.44444",
"( c/+,u$CJLICq*pvv#t&ryyrq%$sxw5j.8d|9gg999gbaaabbbbaaeeeffhhfa92_(.6j',]>5;--o5,j+66+)>-vxxxxxxppv=o@,)+6^^~+j']@;-=v#pxxp#=-;@]{'))j!!+~^. 8}21gbaab09|d:3___3:29bfnmnheaaa0|_ 447[:|1|2|1gbaaaaaaeeeab00aeffeb0gg99|:_[[83d|gbefhhhhhhfa01:(6{@@)4}gb09|d:}}}:ddddd21gaeffhhhiiihhffeeeefhinmkkkkmnniihhffeffhiinif0d[c/~j{@-vxs$&&$sx#vwwwuo@,j6c[:|gaefhhiinmkllllkmiheb0gggg0befhhhe02_(7.444.c (<[8[< 7c7 ([3d|1|d:}::d2||19gbaefhhiiiiiiifag|:}}}}3_8< .^~!){,>@;;5]'+/7[3:d:}}:d2|9g0baab0g1||9gg|3 ^{-t$sv,.8_[7.44///",
"7c.4^j;*AIKHCqsxvwvp*&%%&$s*tp=@!c_d1g0gg99gbaaab00bbaeeeffhhfb9:[7^!{>5;-uvpxpwo>{)j),5wx*ss**tp#=o@{j~^44/6!){,>5-=v#pxxpv=-;@],'))j!++6/.(8}21gbaaa09|d}_8[[8}d10einifaaaa013 .478d|11|190baaaaaaaaab0g0befhfeb0g92}[74/.7[3d10ehhiiihfeb9: +@--]689bbg9|2d::::::::d|gbehhiiinniihffeeeefhinmkkkkmnniihhffeffhiihfb2[.+){]@ovt$%qq%&stxpppp#wu;>)6c[}|gaeffhinnmkllkmnihfeabbbbaefhiiifb1:8< c..c ([_3}}_[<((<[_}d||2d:::d22|19gbaefhiiiiihhiihfb9|ddddd:}38(74^~!j',>@@>,)+/c<[8[[[_}d|9g0baab0g1||1g928c+]uxst='73}8 c.4///",
"4444/~]#rEHEA%*pv==vptt*txxppv->!c8:|9gg999gbaaab000baaeeffhihb1}<c6)]5o-=vxs$$t#u5>,,>ov*$&$s*t#w-5,j~/.c./~!){,>5-=v#ppp#v=o5@],')jj!+~6/c(_:21gbaeebg|:38<(<[3:|gehiheabbab13(.. 8d19999g0baabbbaaab0g9g0efhhea0g1d8c6j)j~/7<}|gafiiiihea0d j;ww5+[1aabg9|2d:::}}33:29behiinnnnnihffeeeefhinmkkkkmnniihhffeffhhfeb1_.!,@;;o=psqrrrq&$*txtt*tx#=o>)^7[}|g0bbaehinmkkkmnihffeeeeeffhiinnie0|}_< 77 ([_}d22:3888__3:d222ddddd2|190baefhhhhhhffhhinhe091|||||2d:3[(c4^~!),]>],{j~/c77c.c(8}21g0bbbb091||199d</)@=ptpoj(:d_(7.4//^",
"^^/4.^'u$ACBr$xv=---=wvvvwwww=o>j/ [3d2||11gbaaab000baaeeffhiha1:[c6j,@;-=vt$%%$t#u;>]@-#s&&&$*xvu;])+^.77c/~j',]>5o=vpppp#wuo5@],')j!+~6^47<_:21gbaeeag2}_[((([_:|gahihebbbab13(c. _d9gg9gg0bbbbbbbaab0g990aeffea0g1:</)>55>{j^c[:1bfiiiheeb2(j;vv;!<1aeab09|2d:}33__}d10afhinmmnnihffeaaefhinmkkkkmnniihhfffffhheb1} ~]o====wx$qrrq%&s*tt*s$s*xvu5{+4 8}2||190ahnmmmmnihhfffffffhhinnnmnhag2:_<( (<83:|99|d}33}}::dd22222222|9gbaeffhhhhfffffhinifa0gg999991|d}_< c/6!){,,{')!6//^6~64 8:|90bbb0g9|2|191} 6{5=#pv5+<d23< c4//^",
"~6^4..+@#$%&*pwuo55555;;;;o--uo5,j647<8}:21g0aeaabbbbaaaeffhihegd_(46j',>;ups%q%st#u5>5ups&&$st#=o>{!64c  c/+',]]>5o=v#ppp#wuo5>]{')j!~6^/. [3:|9gbefheg2}8[((([_:|gehihebbba01}(cc(_29g0gg00bbb000bbbb091190baab0gg9:(+>u##v=o>j/ 3|bhihfefa1[+5ww5+[1aeeabg9|d:3__8_3:|gbehinnnniihfeeaaaehinmkkkmmnniihhffffhhfa9:<^{o#xpvwvp*&%%&$s*ttts$&&st#u;,j6. [8__3}2geinnnnihhfhhhhhhhhiinnmmmifb92}_[<<[_}d1gg9|d::ddddddd222222||90aeeeeeeeeeeeefhinnifabb000000g12:_[ ./6!j))jj!+~6~j'{'!/ _d1gbab0g9|||1g1}7+];=vvu]6822}[ c.4//",
"++6/cc/)5=vv=-;5>],{{''''{,>5oo;@]'j647<_:|90aeeeaaabaaaeffhiie0|}8(c46+j{@=x$%%&sxwo@5ups$$stpw-@,j~/.7  c^j{]>>>@o=v#ppp#wuo5>]{)j!+~6/4c [3d|90afiif02}8<((<[3d|0ehiheabbb01}<77<3|g000000000gg00bbbg91119g0gg99g9d jox$%%$*v;{6 39ehfeefeg_6>uu>~[1afeea0g1d}38888_}210afhiiiiihffeaaaaehinmmmmmmnniihhffffhhf0d[4j5#*$sxvwvxt**ttxxxxts&%%$tvu5])+^4c777 <3|bhiniihhfffhiihhhhiinmmkmnieb92}_888_}d100g1|222|22ddd22|||||19baeeeaabbbaaaefhinnihfeaabbaaabg12}_<7./6~+~6666~+j,@;5]!4(3|gbab091|||9g13.j>o==u;'4_||}8(7c.44",
"!!~/c7c^j,>>>],{')j+~6^^^~!']@5;5@>{j~/7[}290aeffeeaaaaaeffhiifb92:38< 7.6)5wt$&&$tv-@@-#*$s*xvu5,)+^4c7  .6),>>>>@;uw#pp##wuo5>,')!+~6^4.7(8}d1gbahnnf0|}8[<<<83d10ehihfabbb01}[  <}10bbb000gggggg0bbbg9|||1999111gg2 )usrzAAr$#o{^<2bffeeff03/{;;,^89affeeb012}_8[[8_}d|gbefhhhhhffeeaaaaehinmmmmmnnniihhhfffhhe937~]=t%q&tv=wv#pp#####px*&%&sxw-5]'j+6^/^^^.(}9ehiihhffffhiiihhhhinmkkkmnheb12}3__3}d10b091|||||22dd2|111||1gbefeab00000baefhinnniihfeeeeeeabg1d3[(7.4//4.c./6!'>ouu5{678dgaabg911||1128/'5-u-o>jc3||:8< 7c..",
"!!~^.77.^~!!jjj!+~6/.7 ( 746j{]>>>]{j~/7[3290aefffeeaabaaefhhhfbg|2d:}38<c6{;wx*sstv-@@-vts*t#=o>'!6/.7 ( .6),>>]]>5-wv###vwuo5>,'j!~6^/4c <_}21gbehnnhb|:_8[[8_}210ehihfaabb01}[((8:9baab00g999999g0bbg91||11111|1gg2()usrACDBrsv;).3gaeeeffb}4'@@'/_9effffab9|:38888_}d|90aefffffffeeaabaehinnmmmmnnniihhhfffhha|[/';#$qr%tv===wvvvvvvv#pts$$*#=o@],')!!!!j!~.[2bfhhihhffhhiiihhhiinmkkkkmihag|d:}33}290bbg91111|2ddd2|1111190affea00gggg0baefhinnnnnihfffhhfebg|:3[(7ccc7 ( .^+'@-=u;,+.[dgaeb0991||2d3(6{5oo;@{~ :11d3[< 7cc",
"++~^4ccc.4/^666^/4c <_3}3_[ 46+!jj!+6/c(8}290aeffffeabbaaeefffeb9|2ddd:}_<c~{5uvpxpwo@@ovxttpvu5,j~/.7 (( .6j,]],{]@o=wvvvw=uo5>,'j+~^/4.7 [_:290behnnha92:33_3}d|90ehihfeaab01:8<<_2gaeab0g9111119g0bb091111999111gg|<+;p&yBDCAq*w>6[|beeehhb:.)>>)43gehhhfeag1d}___3}:2190baeeeeeeeeeaabaehinnmmnnnniiihhhhffhhbd +>ux$qq&tv=u=wwvv###v##ptttpw-;5>],,{''{,{)6 }9ahinihhfhhiiihhhinmmkkkmmihe09|d:}}:|9bab0911||22ddd22|111190ehhfab0g99g0baefhinmmmmnniiiiihfeb9|:38<(  ([[<74~)];-o5,!4<:gefa0g99|2:_(.+,@;5>{!4[d992}_[<(  ",
"~66^/44.....444.7 <8}d|1112}8< 7ccc7 ([83:290aeffffeabbbaaaeeeag12ddddd:}_<c6j,;uwwu;>@owpxp#w-@{!^4c ((( .^!',{''{];-=ww==u-o5>{)!~6/4.c7([3d|90afhinhag|d:}}::2|90ehihfeeab01:_[8}|befa0g91|22||190bb0g9199ggg999gg|[^,ux&yBBAy&xoj d0aefhhb:cj]]j.}0fhhhhfeb92:}}}::2|1g0baaaaaaaeeeaabaehinnnnnnnniiihhhhhfhf0}.';vt$%%$xv===wvv#pp##vvvvvw=-o;5@@@>>>>@@@,!4820fimmnhhhhiiihhiinmmmkkmnifebg12dddd|gbab091|22dddddd2||119gbfiiheb0g999g0aefhinmmkkmmnnnnnihfa09|:}_[[[[__8(c^+']@@]'+/(:gfheb0g9|:8 4~),@@>{j67_|gg|d}388[[",
"^^^^^^^/.ccccc7(<8}d|90baea091222ddd::::d2|90aefffeeaabbbbaaeabg|d:::ddd:}_[ .~'>o-;@]>;=vp#vuo>'+^.7((<( c^+j))j!j{@;-uuu--o;5]{)!~^/.c7 <8}d1gbafhihe01d:}33}:d|90afihhfeabg1d38_:9ahfa0g1|2dd22|9g0b0g99gg0000ggg92_c+]-p&rzAzrs={.}9aehihb:cj]]jc}0fhhhhhebg12ddd22|19g0bbbbbbbaaeeaabaefinnnnnnniiihhhhhhfhfg_^]ups$&$*pw===wv#pppp#vw=u-o;;555555555;ooo5{~731aimkmiihhhhhiiinnmmmmmnihfabg91|22|1gbabg9|2d::::dd222|1190afiihea0g999g0aefhinmkkkkmmnmmnniheag12d}__8_33_<746!){{')+/ }gfhfb0g1d_ /+){]>]{j6.<}1009|d:}333",
"///6~~~^4c    ([_:21gbehinnihffffeabg91|||190baeeeeeaaabbaaaaabg|2d::ddd2dd:3[7^)]>],{,5-wvv=-5])~/.7((( 7./6+++66~j,@;ooooo;5@]{j+6^4.c7(<_}210aefhfe023[(   ([3d10afiihfeabg1d}_3dgehhe09|2d::d2|19000gggg0bbb00gg923(4!]ux$qyzy&#>/_|behihb:c!,,!c:0fhhhhhfa09|22||19gg000bbbbbbbaaaaaaaefiinnnniiiiihhhhhhfhe9[~@vt$&&$t#w=u=wv#ppp#v=u-o5@@>>>@5;;oo-u===-@)^ 31enkmnniiiiiiiinnnmmmmniheab0g91||190bb0912d::}::d222|119gbefiiheab0ggg0baehinnmmmmmnninnmnnhfa09|d:}333}3_<74^~!j)jj+^ 39efa09|d_(4~),]>],)+/78dgbb091|2ddd",
"44/6+!+6/c ((<[_:290afhnmklkmmmmmmnheb0g999g0baaeeeeeaaaaaaeeea09|2dddd2||||2:87^+jjjj{>o=wwuo@,j~/.7   7c.4///4.c46j{]>@555@@],'j+6/4c7 ([_:|9befhfeg28c^+!!+6.(3|gahiihfea0g1d}3}2gfihe09|2::::d2|19gggg00bbbbb00g12}8 /!>ups%ry%p@6<dgahniadc!,,jc}0fhhhhhfebg91199gg00bb00000bbbaaaaaaaefhiiiiiiiiihhhhhhhffa|<!;ps&%&$t#wuu=wwv###v=uo;5@>],,,]@5;-u=wv#vwo>)^ }ghmkmmnniiiinnnnnnnnnihfeab0gg9119g0bbg12d:}}}:dd2|119g0baeffffeab0000baefinnmmmnihhffhnmmnifag12d:}}}}}38(c/6~+!!!!~^7_10b092}8 4~),>@@]{j6.<3|0aeab0g9111",
"../6!jj+/c (<<83d10aehimkklkmmmmkkmifab00gg000bbaaeeeeeeeeeeffebg1|2ddd|19g912}8(c4/^~j];u==-;>{j~^4cc7c..4.cc7(<<(.^!){]>>>>],{)!+6/.c7 ([3:|gafhhe0|8.!,@55@,!4[dgahiiheab0g12:}}|0fihe09|d::::dd2|199g00bbbbbbb0912:}8(4!]-v*%q&p;+731bhnnad7!,]j.}0fhhhhhfeab0gg00bbbaabb000bbbaaaaaaaaefhiiiiiihhhhhhhhhhffa|(j-t&%%&$t#=u-u==wwww=-;55@>],{''{]@;-=v#pxp#wo>)^<2aimkkkmninnnnnnnnnniiheabbb00g9990babg|d}}33}:d2|19g0baeeeeeaaaaabbbaefhinmmmmnhfebbbehmmnieb92:}3}}}}3_[ 4^~++!!!+~^7829g123[7/+)]@55@]{!^7[:10effeeabbbb",
"c./~j')!^c(<<[8}29befhnmmkkmnnnnmmnifeabbbb0000bbaaeeeffffffhhebg12dddd|9000912:38< c/+{@-u-o@]{j+6/4...444c7(<[8[<746!){,,,,{')j!~^/.c7 <83d10ehiha137+>uv##w-]~(:9ahiifeab0912:}:|0fhha09|2:::::dd2||9g0bbbaaabb0912d::_(4+,;#s&$p;j.820fnne27!,]j.}geffhhffeeabbbbaaaeeaab000bbaaaaaaaaaefhhhhhhhhhhhhhhhhhfeb2 )ut&qq&$t#=---u====u-;5@>>>]{)jj){>5-w#pxxxp#=o>j._9eimkkmnnnnnnnnnnnniifeabbbb00ggg0bab92:}33}}:2|19g0baeeeeab0bbaaaaeefhinmkkmnhea09990einifb92}888_3}}3_<7/~+!!!+++~/7[:2|d3[c^!']@555@]{!/78:1behhhhhhfff",
"c./~j''!^c(<<<8}2gbehinnmkkmmnnnmmnifeeaaaab00g0bbaeefffhhhiihe0|d}}}:d|gbab091|2:3[ .~)>;o;5>,')!~6/4..44.c (( 7c4/6+!j)'{{{')j!+~^4c7 (<8}29bfinfg:(^,up*s*xw5!7}9afihfab0g912:::|0ehfa0912d:::::ddd2190bbaaaaab09|2dd2d3<.+,-p**#o'^(}gfnme27!,]j.3gaeefeeeeaaaaeeeefffea0gg0baaaaaaaaaaefhhhhhhhhhhhhhhhhhfeb2 )-t&%%&sxvuoo-uuuuu-o;@>]],{)!++j']5-=#pxxxp#vu;{6(:9aimkmmnnnmnnnnnnnnihfeaabbbb000baab9|:}}}::d|19g0bbaaeabg99g0aaeffhinnmkkknhebg12d21befa0|:_<  ([_3338<c^+!!!+++~6/7[}::3<7^j{>@@@@@>]'!/78:|0ehinnnnnii",
"cc4~j')+/7(<(<[329befhinmkkkmmmnnnihfeeeeeab0gg00baeffhiiinnnia1}8[[83:|0effa0g12:3[ .6j,@5@>,{'')j+64.ccccccc46!){{{'')))))))jj+~6/.c (<[_:|gaimna|[4);#s%%&*#;)c31behheab0g912d:d|gafea0g1|2dd::::::d|9gbbaaaaab09|ddd22:3<.+>uppvo,+c_1emmf27!,,j.39aaaaaabbaeeffffffffea0g9gbaaeeaaaaaaeffhhhhhhhhhhhhhhhhfeb2(!;ps$$stpw-ooo-uu---o;5>]{)j+6^6+),@ouwv#####v=o]!4<}1ahnmmmmnnnnmmmmmmnifeeaaaaabbbaeebg12ddd22|19g00bbb00g9|||1gaefhhinmmkkkmie092:3_3d1009d3<7.//. <8_3_<c^+!j!!+~6^47[_3_<c^!,@55@],,,{'!^c<329bfinmmmmnn",
"cc46!)j+47<<((<_d9baefhnmkllkkmmnihfeeaeeeab0ggg0baefhiinmmkmi0:<c.c 8}|0fhhfbg|d38(7.^!',],{')'{{'j~/c7   c46!,;u=uo5>,'jjjjjj!+6^4c7(<[83d10enknb}c!>w*%rr%*#;)._|0affeb0gg912d:d|gbaab0g911|2d:::}:d21g0baaaaab09|d:dd2d:3<4)5uw=o>)/[|enmf| +,,j.39bbb000g0baffhhfhhhfebg99g0aeeeeeaaaaeffhhhhhhhhhhhhhhhhffa|[~@wxt*txvuo;;o-----ooo;@,)!6/44/~),>5ou==wwww=uo@'~.<:9ahnnmmnnnmmkkkkkmnihfeeeeaaaaeeeabg111199g000b000g91|2d:d|gbehhiinmkkkmnfb92}_[<[_d||:8 .^+!+64 <8__[7/~!j!!+~^/c [_8<7/!{@oo5]'jj)')!^. 8:|0ahnmmmmnn",
"cc4^+!!6. <<( (8:10aeefimklllkmnihfeaaaaeeeb0ggg0baefhinmkkkne1[4+!~4(320ehhe01d3[(7c./~j''')jj'{,,)~/c(<< .6j]-#t*tpw-@,'jjjj!+~^/.7 <[8_}29bfnki9[6,-x&yzy%*v;).82gaeeab0g91|2ddd|90bbb00gg91|2d:}}}:d1g0bbaaaab092d:::dd2d}(^{5--o@{~ danmf| +{{!c3100g991190afhhhhhhhfeb91190aefeeeaaaeeffhhhhhhhhhhhhhhhhffa18^,ow#pp#wuo;o-uuu--oooo5]j64c77.6!{]@5;o-------;@,)6c820einmmnnnmkkllllkmnihffffeeeefffeab0g00bbbaaabb0g1|2:}33}d9behhinmmkkmnheg2}_<   <_}3[7/~j'{'!6.([__8 46+!!+~6/.7([8[ 4~)>ou-5{+66+jj+647<3d9bfinmmnnn",
"c.4^6~~/7<[[<(<_d9baeefhnklllkmiheabbbbbaeab0ggg0bbefhinkkmnfg34)>@,+c8d9beag|:_(7c...4^~!j!++!){],)~47([<7/!,ov*%q%sxvu;>,')j!~6/.c <[8_3:|gafnne27j;vsqzzy%tw5j.82gaeea0gg91|2ddd|90bbb0000g912d:}}}}d|9g0bbaaaa092:}}}:d|12_c!,5oo;>!c:bine|(~'{+c}1g91|2dd210ehhhhffffa09||90afffeeeaaeeffhhhhhhhhhhhhhhhhffe93.)@-=wvw=u-o-u==u--o---;])6.7((7/+),>@555555;;;5@]'!/(}1bfimmninmklFFFFlkmnihhhhffffffffeaaaaeefffeeab0g12:}3__3:|gafhinmmkmnifb1d3[(777 <[<7/+){,],)~47<8_8(c/6~~~6^4c <88<7/+'@ou-@)^.46+!+6/c(8:10ehnmnnii",
"..4//^/c(8__8[8}|0aeeeehnmklkmnheb0ggg0bbaab00gg00baehinmmifg:7);vv-,^(}|99|:_<74^^/.77./6~~~~+j'{{j6c <<(.~{;wt&ryyq&sxv=o@,)!6/4c <[83}:210afhh0_^]wt%yzzr$xu>+73|behfa0g9911|2d2|9g0bb00000g1|d:}}}}d21g00bbaab012:}33}:299:(6'>;-o5'43ghie|(6)'~7}19|d:}33}2gafhhffffebg|2210efffeeeeeeefffffffffhhhhhhhhhffeg: ~{@o-u=====wvvvwu---uuo>'~4 <[<c^!',>@@@>]]]>>>],{j^7_2gehnnniinklFFFFlkmniiiihhhhhhhhffeeffhhiihhfeabg12:3_88_}d10aehinmmnifbg2}_<( 777  c/+){]]],)+^c(8__[ c4////4c ([8_[7/+'>o-o]!47c46~~6/. [}2gahnnniih",
"444..c7(83}}33}29affeeefinmkmniebg9199g00bbb000000baefhnnnf0d<~5p&&x;!c8:d:3<c46+!+^. <(7./^^6~!)'j~47<<(c^)@ups%rzzzyr%$t#u@'!64c <[_3}:d|90aeea|(!ox&rzzy%*vo,~ 31bfifa0g9911|222|9g00bbbbb0g9|2::}}}d219g00baab012}3___}29g2[4!,5-u;{/_9eha|(^jj6 :11d3_[[[8}1bfhfeeeea092dd|0efhfeeeeeeeeffffffffffhhhhhhhhhf02[4!{>;-u=wv#pxxpv=---uu-5,!^c<__(.6!']>@>,''''{{{{'j6c[:1bfiniiinmllFFFlkmnniiiinniiihhhfffhinnmnnihfea012:3_8[8_:210behinnifag1d38<(  7c.4^+),]>]]{)!647<_3_[< 7ccc7 (<8__8 4~j,@;5{~c( c/^^^/47<329ahinihhf",
"/44c7([_}ddddd21bfhfeaaefinnnifag1||119gg00bbb0000baefhiih02[/{w&zz$='4<__8(.6+j'')~.<88< c4/^~+!!+^c(<<7/+,ovxs%qyzAAAzr%s#o,!^.7([_3}d2|1gbaab93.,wsrzzyq$x=5'67_2gafebg99111|22|19g0bbbbbb0g9|2d:}}::2|19g00bab01d}_88_3d9g|8c+{5-=-]6[|aeb2<^!!^(:1|:8<(  (_20effeaabbg1d:d|gehhfeeeeeeeeeeeeeefffffhhhhhhhhfb1_76j,@ouw#pxt**x#=-oo-u-;>'+4 8_[ 4~j,>>]{)j!jj))')!6.<}|0ehiihinmklFFFlkniiinnnnnnniihhhhhinmkkmmnihfa09|:}_888_}d|90afhiifa012:_8<<(( c46+){]>>],')!6/c(8_33_8[<( ((<[8338(c^+']>])^7<(74/^^/47<_d9bfiihffe",
"//.7(83:2|||||1gafhfa00bafhhihfbg1|||199gg00bbbb00bbaefhha1_.j;xrBB%w{^7<<(c^+){,,'~c[338< c4^6~~~^. [[ .~)@u#ts$&qryzAAzr&xu]j6.7<83}d2|190ba09d<6@p%zzyq$tv-@{!/7[:|g0g99111|||2|1900bbbbbb0g9|2d:::::d2|19g0bbb01d}_8883d1g|_7~'5uwu>+(d0a02</++/<d123[ c.c7[dgefeabb0g9|d::|gehhfeeeeeeeeeeeeeeeefffhhhhhhhhha9}(4+{@-=#xt*ss*t#=o5;;oo;@]'+4 <<(7/+',],'j!!!!jjjj+^c<329behhhinmmklllknihhhinmmmmmnihhhhhinmkkkmnihfeb9|d}3____}:21gbefffeb9|d}_8[<<( ./~!){,]],{'j+~/. <83}}}38[<<<[[8_3_<746!'{'+4 <(74/^^/47<_d1bfhhfeee",
"//. [}d|119999gbeffa0919gbaeffebg1||199gggg00bbbbbbbaaeeeg}7!@wsrAz$=,~.77c/~j',],'+c8::3[(7./^^/4. <8<c6j];uvpxtt*$&qryyr&t=@)~47<_}d2|19gbabg28.)-*rAzr$t#u;@]{)+/7[}d|1911||||||1g0bbbbb00gg1|2dd::::dd2|190bbb01d}_88_3d19|_76'5uw=5! :9b02[4~~4[d1d_(7.44c<}9aeeab0g912:}:|gehhfeeeeeeeeeeeeeeeefffhhhhhhhhheg:[.+{;=#xt*ss*tpw-@]]>@@5;;5])647((7/!{],{'))jjjjj!~/7<3d1gbeffhinnmkkkmifeefimkkkkmniihhhhinmkkmmnihfabg|2d:}}}}::2|gbaeeebg12:3_88[[< .^+!)''{{')j!+~^4c7(83::}38[[[[[8__8[(c46+!+^c(< ./^^^/.7<_:10ehhfeaa",
"/4c(_d19gggggg0aefe09222|9gbaeeb09199ggg99gg0bbbbbbbaaaab|[6]=x$qr%t-,+/444^+j',,,'~c_::38(7.//4.7 <88(4!,5o=wvvwwv#x*s&%%$t=5{+/c<_}d|19g0bab1} 6]w$zAy&tvu;5@@55@{!/ 8}2111|||2|190baaabb0gg91|22dd::::dd219g0bb01d}____}d112_76'5uvw;jc_|gg2[.66.[21d8 ./^/.(}9aeab0gg9|d:}:2gafhfeeeeeeeeaaaaaeeeeffhhhhhhhihegd[.!]-#t*sss*txvu5,'))',@o==-@{!/ [[c6),]]],,{')j!~^. [3:21gbafhiiinnmnifa00ahnkllkkmnihhffhinmmmnihfea0g1|22222ddd21g0baab092d}33_88[< .^~!!!!!jjj!+~6^/4.7<_}::3_8[[[[[888[<(7.4^/. ((c/6~~^/. <_:10effeabb",
"4.7<}|gbb00bbbbaeeb92:}:d21gbaea0gggg00gg99g0bbbbbbbbbb0gd jox$%%$*v;{!6///6+!)'{{)67_:}_< ./^^4c <8_8 ^)>ou=ww=-oo-=vpts$sx=;,j6.(8}219gg0ba0284j5p%zArsv-5>>@o=vw-@)6c[}2|||22||1g0aeeabb0g911|22dddd::::2|1g0bb01d}3_33:2|1d876)@uvw;'/<:1928.66c821d87./^^4(31beab0g91|d:}:|gafffeeeeeeeaaaaaaaaeeffhhiihhhhheg:</j@wxs$$s*txv=;])+~6~j]-w#v=;]!c8_(/!']>@@>]{)!~^47<_}:d2|gbehhiiiinifb9||gaimllkkmnihffffhinnnihheab0g91119991|||1g0bbb09|d:}333_8[< .^6~~~66~+++~66^^//. [3::}_88[[<<[[[[8[[( 77 (< .6+!+6/. <_:|gaeeab00",
"c7(_dgaeeaaaaaaaabg|:3_33:d1gaeab0000b00g99g0bbbbbbbbb0g|34,ws%%$t#u5{j~^//^6~+j))!/ _}_(c/6~++6/. <[[76'@-=wvw=o555ouw#x*t#=;])~4 8}29g00baa0d(6,-tqzz%x->,{,@up**x=5'~c8:2222||19gbeeeeab0g911|222ddd::::d219g0bg1d}33}}:2||d_ /j>-wwo,~c8d128.6^c8|9d87./^/.(}9beab0g91|d::d|gaeffeeeeeeaaaabbaaaaeefhiiiihhhfa1_7~{o#*$&$*tpvuo>'!6/.4~{;=##v=;{^([<.6j,>55@]{j+^47(83}:::d|gafhiiiiiha9:33d9eimkkmmnihhfffhinnnihfeab0gg99g000g9119g000g912:}33}}3_[< c/^6^^//^6~~6^^////47<_}}}33_8[[<<<[8_3_8[<<<<< 4~jjj+^47<_}290bb0ggg",
"<[8:1bfhhfffffeabg1d}_8883}29beeabbbbbb0g99g00bbb0bbab09d[6@p&q%s#=o@,)+^4cc.4/6~~6.<33<.~j'{,{'j~^.  c~'@-w#ppvuo;;o-=v#ppw-5,)+/7<}2900bbee0:cj@w*qyrsw>)!j{@wsqr%tw5'678}d2||19g0aeffeeab0g91||222dd::}:d2|9g00g12:}}:dd2|2:3<.~,o=w-@'673228.66.8|92_ c444c<:9baab0g91|2dd2|gbeeeeeeeeeaabbbbbbbaaefhiiiihhfegd</)@=ps$$*x#w-5]'!6/c774!]o=vvvu@j/7 c/~'>;;5])+647(83::}3_3d9bfhiiinif0d[ 7[:geinnnniihhhhhiinniihfeabb00000bbb0gg9g000g91|d}333}}}_8< c.///444/^^6^//4444.7<83}::}3_8[<<<[83}:}_8[[[< 4~j')j+^. [3d|99g9991",
"}}d10finnniiihfa012:_8[[[83:10aeeaaaaab0ggggg000000baag|3 +;x%r%t=o5>]'!/7(<<( c.4. 8}8c+{@;;;;5>{)~/.4~'@-vx**xvu---u=wvvwu;>,)+^.(_290bbaeeg34'o#sqr%xo)6^6)@#%ACA%tw5)^ 8}d|19g0beffffeea0g991|222dd::}:d2|19g0g12d::d22||2d}8 /)@u=uo>)^<dd8.~6.8|g|_(7cc7(8d9baab0g91||22|1g0aaaaaeeeaabb00000bbaefhiinihfeb1_c!]-vtss*xv=o@{)!~^47((7/!,5-w#v->j6.cc/!]5;@,j647<8}d2d}_[8}|0ehiinnnf9_c664<d0ehiiniiiiiiinnnniihfeaabbbbbbaaabb00000g91|d:}333}}}38<( cc....44////4....cc <[_}:dd:3_8[<<[8}dd:}_888< /+)'{'j+^c<_}d2||||||",
"11gbfimkkmmmmnhag|:38[<(<<8}|0aeeaaaaabb0ggggggggg0baagd[4)-tqr$po@]]]{!4(_}:}38(  [3}<^{;=wvvw=-;>)~/46j]ov*&&sxv========uo5]{)!~/78d10baeffg_^]=x$%%sv>~.c/j5xrDGEA%t=>!/ 8:|9g0beefhhhffab0g91||22dd::}::2|19ggg1|ddd22||22d:3[c!]o==uo>!7}d[.~~.81g|3<   ([32gbaaab0g91|||19g0bbaaaeeeaab00gg000baefhiinnifagd<^'5=#t**t#=o>'!6^//47(<(74~'@uvv=o])6c 76{@5>'+/7<_}d||2}8<<_20ehinnmne|(6)'+.82gafhiiiiinnnnmmniihfeeaaaaaaaaeeaaabbb0g9|2d}}33}:::3_[<(  77c..4444.c777   (<[8}d||2:38[<<[_}22d:3__8[ /+){,{'j~4 [_}::dd222",
"bbafhnmkkkkkknhb9d}_[<( (<[}|0aeeeaaaabb00gggggggg0bab13 6,u*%%*w@,{,,'+.[:|||2}_[<83_ +@=pt*ttpvu;,!^4^+{5wt&%$t#w======u-;@]{'j+^c<}|gbaehfg_6@wt$&$x-'/ 7/);tzGIHDz&p-,+4<3|90baefhhhhhfeabg911|22dd:::::d2|99gg1|2dd2||22dd::_ 6{;uww=;'43:[.~~.8101}[((<[_:|gbaaab0g9111119g00bbaaaeeabb0gggg00baefhiinnifb1} 6,;=#xxx#w-5,!^444//.7((( .~{;=vwu5,+.<(4j]>,j6.(8}2199|}8<<_dgeinnmkmedcj>@,+7_d9bfhiinnnnmmmmnnihfeeaaaaeeeeeeeeaabb0g1|d:}}}}:ddd}38[[<<( 77c....c7((<<<<<<[8}211|d}_8[<[_:2|2d}33_[ 4+){,,{)+/7<8_3}:dd22",
"fffhinmmkkkkkmhb1:_[<(   ([}|0eeeaaaaabb000000gggggbab|[4)@=t$sp-,))'{)~7_29g91d388__[.)ops&%&&stvu>j^44^j]ux&%$t#w======u-o5],')!~4 _d90efihg8~5#*sstv5j.(76{-sAHKJHCy$#o{~7_290aefhhhiihheab0g91||22d::::dd2|19991|2dd222ddd:dd3(^'@-w#vu]^8:8.~~._101}[(([83d1gbaaab0g9111199g00bbaaaeeab00ggggg0baaefhinnieg28c~{5uwvvvw=o@{+4c./^6^4c7(<(.+,;u=u-@)4[876)')+/c<3d1g0g1:_<<_20einmmkma}/]-u;,~78dgehinnnmmmmmmmnihffeeeeeeeeeeeeeaab0g91|2d::::d2|2d}3___88[( 7cccc ([88888888_:29912:38[[83d|1|2:}3_8 4~){,,{'!^c <[8_}:d22",
"iiiiiiinnmmkknf0|}8<( 77 ([}|0eeeabbbbbb0000000g99g0a0d +]owptp=@)++j)!^ }|g0g12}_888(^,=*%ryyq%sp=@)^c7.6);#s&$t#w=uuu===u-5>,{')+^c[}|0ehnig8+;#*st#u]~c .+>w$BIKKJGCrsv5)/[d9baefhhiiiihfab0g91||22dd:::d22|199912dddddd::::dd}[4j>-wppw@~[}8.66c_101}[(<[_}21gbaaaa0g911199gg00bbaaaeeab00ggggg0baaefhinnie9:<.~'>5o-----o@{~.7.^~++~^47[8<.+{@ouuo{^[3[.6+~647<}|gbbb9d3[8320fimmklka3~5vpw;'67_|bhinmmmmmmmmmniihffeeeeeeeeeeeaabb0g91|22ddd2|191|2:}}}}3_[<( 77 (83}}}33___3d|9g12:}_8883d|112d:}38(4~j{,,{'!647 ([83:2||",
"nnniihhiinmmmnf0|}8<( 77 ([}|0aeabbbbbbb0000000gg9900934';=v##=;{+66+j+/(}1gg912}_[[<c+@#$rzzzy%$x=@)/7( .+]=x**xvwuu--u===-;@],{'!6.(_dgahnig8+;#ttp=5'6cc/)5v&BHKKKIEBqt=>~ :90afhhhiiiihfab0g911||22dd::d2||1991|2d:::::}}}:dd:[.!]owxt#;+(3[c^^c3901}[<<83:290baeeabg911199gg00bbaaaeeab00ggggg0baaeefhnnne13(.6j{]>>@@;;;@'~.7.6j)))!6.[}}[.~'@-=-]6<}3<c444.7[}10aaag|}__}|bfimkkFka_+optpu>j/<d0finmmmnnmmmmmnihhfeeeeeeeeeeaaab00g911|||||19g0g91222dd:}_8[(( ([3:ddd::}}}:21gg9|d:3___}d|11|2d:}_(.6j'{{{'!~/.7 ([3:|19",
"mmnnihhiinnnnif0|:_[<(   ([32gbbb0000bbb0000bb00g99g92[6>uv#v=o>j6/6+j+/ 32191|d}_[(7/j;#$ryyrq&*#u>!4([[ /';vpp#v=u-ooo-uuo;@>],{j+/7[:9ahnhg8+5vxpwo>)6.4~';v$zEIKKJHEA%xo)c310aefhhhhihhfab0g991|||2ddddd2||1191|2d::}}}}}}}dd:8c+,;wxtpoj _[c^/73901}[<[_}d|gbaeeeabg911199gg00bbaaaeeab00ggggg0bbaeefhinia|_ .^~!j))'{]@5>)6c74+',],'!/<:2}[.~,;u-]~(}}_<(7cc [:10aea0|:33:1bfimkkFka_+;ptx=5'6(d0finmmmnnnmmmmnnihffeeeeeeeeeaaab00gg9991199g0bbb0g1111|2d}3_[[<[_}2||22dd::d|9g0g12d}3_3}d|111|2d:_<c6!)'{''j+6/.c [_d1gg",
"mmmnniiiinnnihe01d}3_8[<(([_d1g0gggg00b00000bbb00g91|37j;#xpw-@{+^/6!)j6c8:222d:38(74~{o#s&%&$*xvu5'6c[_387~,o=www=-o5@5;;;;5@>]]{)!^c<3|bfifg86>=vw-@,j~^6!{5w*qBEIJKJHDz$w,/82gbeffffhhhfeab0gg911||22dddd2||19911|2d:}}3333}:dd_7~{5=px#o)c[<c44(}9g|}[<[_:210aefffebg911199gg00bbaaaeeab00ggggg0bbaaeefinia|_(c44//^6~!',],!/77^)>55@])6(}||}[.j>;;,~ _}}3_<(  [}10aeeb1d}}d1bfimmklke}^>w##u5{6 d0hnnmmnnnnmmmmmnihhfeeeeeeeeeeaabbb000000000baeeea0gg9g91|d:}3___}d|111||22d21900g9|2d}3}:219911|2d3[c^!)'''')!+6/.7<329bb",
"mmmmnnnnnniihfa0912d:}38<<<8:|19999g00b00gg0bbbbbg9|:</,=t*xw;,j6//~j{'!/(8}::}}_[ .6)]ovxttpv=-;>'+4(8}:3[.+,@ou=u-5>]]]>>>>>>>],'j64 _20efe9_/{;u-5,'j++!),@up$rBEIJKJHCrx5~<d90aeeeeffffeab00gg911||22ddd2||19991|2d:}33333}:dd_76'@u#x#o'4((c.c<}9g|}[<[_:|9behiihebg911199gg00bbaaaeeab00ggggg00bbaaefhiia|_(77 (( 7.^+j')~. c~{;--o@,+73|9|}<^'>>{~c[3:d:_[(([}|gbeeb9d}}d9bfinmklkfd.';uuo@'6(dbhnnnnniinnmmmmnnihffeeeeeeeeeaaaaaaaaaaaaeeeffffeab0000g9|2d::}:d2|11111||||1g0b0g9|2:}:d2199991|d}87/+j)''')j!+647<3|0ef",
"mmmmmmmmmnihfeab0gg91|d38<<8}d|11119g000gggg0baab01d8c!5#s$tw5{+^//~),{j6c<8____8<7/+{>o=v#wu;>,'j~4 [3:dd3<.~)>;-uo@]{''{{,,]]]],{)~/7[:9bab1_4)>5@,'jjj))',>;=x$rBGIKKJGBs-! }1gbaaaaaeffeabb0gg9911||2dd22||199991|2d}33___3:dd_ ^)>-vpv-,~.c..c<:1923[[83:|gafiiihfbg111199gg00bbaaaeeab00ggggg00bbaaaehiha|_<(<_}}38(c/~!+^7(c+]-==u;]!c3|0013c+'{)~.(_d||:8<<8}29baea92::29bfinmmkkf| +,@5@])^(2bhiiniiiiinmmmmmnihffeeeeeeeeeeeeeeeeefffhhhhhhhffaabbabbg9||2222||119999111190bbb0g1|d::d|19ggg912:8 /~!))''')j!~/7<}|bfi",
"mmmmkkkkmmnhfaabbabbbg1d_[[83d2|||19g00g91190baaa0|3 ^{-x$&*w@'+^//~j{{j6. <<<[[[<7/!{@o=wwu5,)!~^.7<_:2||d3<c6)>o-;@]{))jj)'{,,],{)+^.<}|g0g2_c+{]{)!+!)'{{{,@owx&yDHKLLJD%=j7}|90b000baeeeaab00gg9911|2222||199ggg91|d:33___3}dd_ ^j]ow##u@)~^^/c<}|123[[83:|9bfhiihebg1||199gg00bbaaaeeab00ggggg00bbbaaefhfb2_<<8:|1|:_<c/6^.(<7+>uvw=;]!c31be02</!j!~478d992}8[_}210aeag2::29bfinnmkkh9[/j{],{j/<2bfhhhhhhhiinmmmmnihhffeeeeeeeeeeeefffhhhiiiiiiihhfeaaaeeabg911111111199gg991990bbb0g912dd2|19g00g9|d_ 46!j))''')!~/7[}1ahn",
"mmmkkklllkmifaaaeffffa0|}88_}d2||19g00091||1g0aea02[4j>=t&&*w5{!6//6+jj+^.7 77 (<< 4+'>o=ww-@{!6/.7<8}d|1112:8c~{@;;@],'j+++!j){,,{'!64 _d11|:8c6j)j+66+){{{{{,@-v*qBGJLMLHrw)7}|9gg919g0baaaabb00gg991||222|119gg0gg912:}3___3}d:_ ^j]ow#pw-@,)!64(32|d3[[83:210afffea091||1199g00bbaaaeeab00ggggg00bbbaaaefe02_<<_d90g|:8(c.. [8 +>uvwu5,+7}9efe9_c6++~/c[dg09d3_3}21gaeag|d:29behinmkkhg3c~j))j+4<dgaeeffffhhinmmmmnnihffeeeeeeeeeefffhhhiiinnnniihffeaaeeeeb0911111111199ggg9999g0bb00g1|222|19g0b0g1d3(.6+!j))))j!64 8:9ahn",
"mmmkkkllllknfeaefhiiiha9d3_3}d2|119g00g12dd210bee0: ~,o#*&&tw5,j6/4/^66^4c7c.4.7(<(c6j];=vvu@'+^47(83:219ggg1d[4j]@55@]{j~666~+j'{{'j~/7[}22:3[c^~+~^4/~j{{{))']5up$zDILNMIzv)7}|191|22|90baaaabb0gg9911||||119g00000g9|d:}3___}::_ /j,;w#xpv=o@{!^78:2:3[[8_}d|90baabbg9||||199g00bbaaaeeab00ggggg00bbbaaaaab9d8<<_dg0g1d3[ 77<_3(~>uww-@'6 :gfifg:(4^66^.<:ga0|:}}:d|gbeag|dd29behinmkmi0} /~++~^c[d90bbaaeeffinnmmmniihffeeeeeeeeefffhhiiiiinnniihffeaaaeefea0911111111199ggg9999g00000g91|||19g0bbb0923<c^~!jjjjj!~^.(_d9ahi",
"iinnnmmkllknheefhinmmieg2}33}d2||19gg09|:}}d|gbaa934';wxs$sxw;])~/.....c777.4//. <<74+'@uvvu@'+/c [_}d|9g00bbg: 6']@55>,j~^///6+)'{'j+^c<3:}38(c/^6/.c.^!'{'j!j'>ov*qBGKNNJz#) }2222:}:d|g0baaaab00gg991|||119g00bbbb0g12d}3___3:}_ /!,;=#xtxpv-@'~.<3:}_[[8_3:d|19gggg91||||199g00bbaaaeeab00ggggg00bbbaaaab01:8<<_dg0g1d38(  [33(~>uw=o>)^(d0fifb2874^^^.(:0ea92ddd2|9beag|dd290ehinmkmi0:<.^66^47[:|9gg000bbaefhiiiihhffeeeeeeeeeefffhhiiiiiiiiihffeaaaaeefeb0911111|||19gggg99199g00000g1|||19g0baa092}<c/~+!jj!!+647<3d9bef",
"eeeeeffhinnifeefinmmmifg2}33}:ddd2|119|d3__}290b0|[~>wxsss*p=5,j647 (((<<( c/^^. <[(c^!]o==o]j6. [_}d|9g0bafhe18.+{>@5@])~^444/~j''')!64(8338< c4^/. < 4~)')!+!)];=x&zDILMIzvj }:}}3___}21g0baabb00gg9911||19g00baaaab09|d:}3__3}}_(4+{@uvxt**xw;{+.(_}}_[[[833}::d2||||2222|119g00bbaaaeeab00ggggg00bbaaabb09|}8<<_dg0g|:3< c7(8_ +>uw=o>'6(:gfiha13<74//.<:0fe09|222|9baag|dd290ehinmkmi0:<./^/4c [3:2|1111199g0baaeeeaaaaaaeeeeeeefffhhhhhhhhhhhffeaabbbaefebg1||||||||19g00g99199gg00b0g911119g0aeabg|}[7/6++!!+~6/. 8}290aa",
"ggg99990befffffhinnnnheg2}__33}}}}}:d2d}8[[3d1g09:7'ut$&$*pwo>{+/7<[8____8[ .//.7<[<(c^)];;>'6. [3:2190bbaehnh0: ^!{>55]'!6^/4/~!)'')!~4 [_8[(7./^/c<_8 ^!jj!+!)]5upsqAGJKHr=!(3_[[<<<[_:|9gbbabbb0gg9911|119g0baaeeeabg12d}3__3}}_(.6)]o=#t*stv;{+4(833_[[[8___88_3}:dddd22|119g00bbaaaeaab00ggggg00bbaaab0g1d38<[32g092}[74^^. <c!5=vvu5{~731ahhegd_<7.4c<dbhha091||1gbaag|dd210ehimkkmhg} /66/.7 <83:d22dd:::d2|1199ggg00baaaeeeeefffffffffffeeeeeaabbbbaeea09|2dddd2|19gg00gg91199gg0bb0911199gbaeeag|:[746~+++~^/. <_}21900",
"22dd:::2|90beffhhiiiheb1:38888888[8_3338<(<8:|1128/>p%rq$xw-5,j6.<_}::ddd:3<7.4.7([[[<7^j{,)~.(8}d190baaeefimna|8c6)]@5>{)+6^^^~!)'')j~/7<8[< c4^6^78dd8c6++++!'];uvt$rCGHD%-~<8<7cc7 (83d|9g00bb00gg9911|19g0baaeeeeea09|2:3__3}3_<c^!{@-wp**tv;{~4 [__8[[[[8[<(((<[_3}::d2|119g00bbaaaaaab0gggggg00bbaaab09|:38[[329g1d_ 4~jj~4c/);vp#=;]!4[20ehfb1:8(7c782bhifb0g9990baag|dd210ehnmklmh9_c6+~^.7 (<8_3}}3_[[[8_33}:d2||190bbaaaeeeeeeeeeeeaaaaaaaaabbbbbbaabg12:}}}:d219g0bb0g991199g0bb0g9999g0beffa01:874^~~~6^4c <83:d|111",
"33__8883}21gbafffffeab92}8[[[[[<(((<[8[< 7 [3d2d_7!-syAy$#-5]'+/ _:222|||2:_(c.c7([_3387^++6.<_:|90beefffhhnmnf9:<4+{>@>,'j+6^6~!j))j!~/c<[[(7.^~~67319:(466~~!'>;uwpt&yCDAs;6<[74^/4.7(83:2|119ggggg9911119gbaaeefffeabg1|d}333}}_[74~)];uvxtxw5'6. <888[[[[<( c..c ([83}:2||19g00bbaaaaaab00ggggg00bbaaab012:38[8321123<.~),,)~^~{ovp#w-@)^(}9ahhag2}8( (_|ainheab0ggbaeag|dd29behnkklmf184+j+^.7   (<[88<(7777 (<[_3}:d2|9g0bbaaaeeeeeeaaabbbbbbbbbbbbbbbaa092:}333}:21g0bbb0gg99999g0bb0g9999g0beffe01:8 4^666^/. <83}:d2222",
"[[[<<<<[_}:290baeaabg12}_[<<<<<(    ((( ccc(8}3876,w&ABysvo>{j~.<3d2222|1|d3< c7 ([3:d}[74/.(_d|gbafhiiiiinmkmhb|_76)]@>]'j+6^^6~!!!!+647(<<(74^+!~c_90|_74/^6!'>;-=wp*%zByt@^<(.6+~6/.7([8_33}:2|19999111190baeefffffea0g1|d:}::}3[ 46j{>;uv#w-]!^. ([[[<<<<( c4//4.c <83}d2|99g00bbaaaaabb00ggg000bbaeeea092:3_883d22}[7/j,@@,)+!{;=ww=o@'6 3|bfhe01d3[<[}1einnhfeabbaeea01221gbfinmkkmf1[/!j+^c7 7cc7   c.////4c7(<8_3}:d|19gg00bbaaeeeeaabbbbbbbbbabbbbbbbg1d}3___3:21g0bbbb0gg9999g0bb00gggg00aeffeb9d8 4^66^/.7([_3::ddddd",
"(((((<<[[8_}d|1g00g12:38<(((<[[<( 7   7c44.7<8<c~{oxqAAr*=5]'!6.<3dd:}}:22d3[(  (<8}d2d_<77(8:|9behinnmmmmmklkie9:</j,>>,'j~^44/6~+~~6/. (<< c46!j+48109:8 c4^+']5o-uwp$rzqx>/( /!)j!~^4.7  7 (<_}d|1199119g0aeefffhhffeabg91|222d}[ 46!',>5;o5])647 (((((((  c./^^^/4.7(83:2|9g00bbaaaaabbb00000bbaaeefhhfa012:3__3}}3[ 4~'>;;@{)j{>5ooo5>)^ 3|0efe012}_8_:9fnmmnihfeeeffebg11gbehinmmmne1[4+!~/c 7c44444/^6~+~~6/.7([88_3}:2||119g0baaeeeeaabbbbbaaaaaaaaab09|d}3__3}:21900bbbbb00ggg00bb0000000bafffeb9d8 4^^^/4.7([_3}:::}}}",
"77 (<<[[<<<8_}d|191d38<  7 (<[[[<( 77cc4///c((c~{ovsqzy%x=5,'!6c<3:}_[[_}::3[(((<8_:2|2}8(([3d1gafinmmkkkklllknf028.!{]]{)!64cc./^^^/.c7(<<( c/~j)!/<dgg|:_<c/~)]@;oo-vt%r%#>/ c~){{)!~6^//^66^47[3:219999g0baefffhhhhffeeab0g991|:8746+j)'{{')+^.7        77c.4^6~~~6^47(8}d|900bbaaaabbbb0000bbaaeeffhiihebg12}3___8<746j,5oo;>{))''{]>>,j^ _2gaea012:33}20fmkkkmnihhhhhfeb00behinnnnnie18.~+647 7./6~~+!!j))jj+~/c([[[[8_3}:dd2|19gbaefffeeaaaaaeeeffffeabg12:3333}:d219g00bbaaabb0000bbbb0bbbbaefffab9d8 4/^^/4c ([_3}}}}}33",
"cc7(<88[<( (<8_}2|2}[ 7ccc7(<888[<( 7c./^^/.7 /);#*%rrq$pu@,)!^c<3}_[( <_}}3[<(<8_}d2|2}_[[8}d1gbefhinmmkllllknhb1_c~',,'j+^.  7c44.c (<[[<(7./+)'j6 }10g1d_(4~j,@55;o=p$%$v]/ .+{],{)j!++!j)')+^c(8:|99ggg0aeffhhhhhhhhhfffeaab09d87/6+!!++6^4.7   7cccccccc.4/6~+!j!+647<_d|g0bbaaaaabbb00bbbbbbaaaeefhhhebg1d}_[[<(746!']5oo;@,'j+~~!'{'!^78d9babg|2:}}d1bhmllllkmniiiiifeaafhnmmniiiha1_c^~^4c7.^~!j)''{{{{{')!6. <[[<[8_3}}}}:d|1gbefhhffeeeeeffffhhhfebg12:333}:d2|199g0baaeeeaabbbbbbbbaaaaeeffeab9d_ .///4.7 ([8_3}}3333",
"cc7(8__8<    ([_}::_<7c..c7([___8[( 7.4/^^/c 7^,=*%rrq&*#-@,)!^c<3}_<  (83}38<<[_}:d2|2}_[[83d|19g0baefhimmkkknha137~){{'j~/c(<(7c.c <[888[(746!'{'~7310ab9:[c6j{>@555-#*$*={4 4!,>>,')))'{,]>]{j~/ _d1gg00baffhhhhhhhhhiiiihhfeag2_746666^4c7(((( 7.4//4....4/6+j){,,'j6.(8:|g0baaeeaabbb0bbbb00ggggg0baaa092:3[( 77c4^~j']5;o;@]'!6446!))+^c<}|0b09|2d:d29aiklFFFlkmnnnnihfffinmkmnhhffb1_7^66/4/6+j'{,,]]]]],{'j~/c (<<[8_333333}d21gafhhffffffffffhhiihebg12:}3}::d2|119g0baeffffeeaabbaaaaaaeeeeeaa09d_(.444.c7 <[8_3}333__",
"c7 <_}}_[( 77 ([_338(7ccc7(<8_3_8[<(7c.444.7( 6>#&yzr%$xwo@,'!6c<3}_[  <_}}38<<83:d2||d38<<[_:dddd22|9gbehinmmnha1376){{'j~/7<[< 777([8_3_8(c/~){,'+c_1bee028c^!{]@@@5owx*x-)c(4!]@@]{{{,]>@5;;5>,j^(}10bbaeefhhhhhhhhhiinnnnihfe0|_ 4//4.7 (<<<(7c4^~~~^/444/^+j{]@;;@,j/7[}|9baeefeeaabbbbbbbg1|2dddd21112}8<7.4////^6+j',>@@@>,'!^4./~!!+64 8d90g12ddd2|gaikFFQFlkmnnnnniihinmkkmihffeb|_7/~+++!)',]>>>>>>>>]]{'!64c (<[_3333_88_3:210afffeeffffffffhiiifa09|d:}}:d22||199g0aefhhhfffeeeeeeeeeaaaaabb092_(c..c7 ((<[8_3}333__",
"7 (8}dd}8< 777 ([88[ 7c7 (<8_333_8[( 7cc.c7<8<^@xrAAr&*#=o@,'!6.<3:}8<<83::38[[83d2||2:_<77([3}38[[8_}:290afiiifb1376j'{)!~47[8[( 7 <[83}}_(.6!']]{+._|bffb2_7/+']@@55owpxv5!7<.!]@@],,,>@5oo--u-o>j._10aaeffhhhhhhhhhhiinnnnnihfb13(c.c <[[[<( c4^~!j)!+6^///6!{>;-=wu5{~c<3290aefffeeabbbbaa01d38[[<[83}38(c/6+!!+~66~+!j'{,,,,{)!644/6+++~^.<}1gg12d:d21geikFFFFlmnninnnninnmklkmifeea0|_ /~j){,>@555@@@@@@@>],'j+^4c([_3:::38[[[8_}210aeeeeffffffefhiiihea012d::dd22||119g0befhiiiihhffffffeeaabbb00g923< 77 ((<<[[8_3}3333_",
" (<_d||d3[( 777 <[[<(   <[8_3}}3_8[<(  77 (838/5tzCBr$xvu;>,'!6.[}d:3883:dd}_[[_:2|1|2}[744. [[< c.cc <83d|gaffe0|376j'')!~4 [_8<(((<[_}dd3(4+',>>,!._|0aag2_ /+),>@5;o=vv=>~([c!]@@],,]@;o-uu=wvw-]6[20aefhhhhhhhhhhhhinnnnnniifa9:[77 [33_[ c4/6+j',{'!~^///~)];uv#pv-]+.(_:|gaefhffeaabbaab9d8 c4444c(<<746!){,,'j!+++!!j)))'')j+6^//^6~++~/7_|g9|d::d210eikFFFFkmiiiinnnnnmkllknheaabg2_ /+),>5;ooo;5@@@@@@>],')!~^.(83:d2d}8<<<<8_:|gbaaaeeffffeeefhiiihebg12ddd222|||19g0befhiiiiiiihhhffeaabb000gg92}8(  (<[[[[88_3}}3333",
"<<8}299|}8<(   (<[[<(((<[_3}:::}3_8[<<(((<[3:_/@*zCAqspw-5>,)!6c[:22:33:d|2:3883d|91|:_7^++6477c/~+++~^4c(8}|0bbg23 ^!)))!~4 83_8<<<[83:22} ^j,>@>,!.8d199|:8 4~),>@5;ou==o,^<8c+,>>],,>5ouuuu=vppw5! :9behiiiihhhhhhhhinmmmnniihegd8(([3::_(./6+!){]>]{j~/44/~)>o=#xx#u]!4 [3d10aeffeeaaaaaa028.~!)))!64cc46j',>@@]{)!!!!!!!!jjjj!+6^///^6+!!~.[d992d::d|90fnkFFFFknihiinnnmmmkllmifab0g1d8 /+),@;oooo;5@>>>>>],{'j!~^.(_}2||2}_<((<[_}290baaeffhhffeffhiniife09|2222222||19g0baefhhiiiiihhhffeaabb00ggg9|:_[<<[888888_33}}}}33",
"[8_:1001:_[<((<[888[<<<[_}:dddd:}3_88[[[[8_:d34>xrAz%t#=o@]{)+^78:||2::d|1|d}33:|9g92}(/j,,'+^/6!',]]],{j+/ _29g923 /+jjj!64 83}3_88__}d||}7~{>@@>{+.[}d:}38[ .6j{]@5;o-u-5'/<87~']],{,>;-uu--uvpt#-'4820ahiiiihhhhhhhiinmmmmnnihf0|}8[_:d}[c6+j'{,>@5@,j64cc.6j>o=vppvo,+47([3d10aeeeeeaaaab93.j>;oo5>{+^/^!',@;;;@]')jjjjj!!!!!!+~6^/44/^+j)!^(:112:::2|9bfnklFFFknihhinnmmmkkkkmha0g99|:87/~j{]@55;5@>],,,,,{')j!+~^c(_:2112:_[<<<[_:|gbaaeefhhihhffhinnnnifbg1|||||222|119g0baeefffffffffffeeabbb000g91d3888_33__88_33}}}}}}",
"8_}2gaa9d38[88__333_8[[_}:22222d:}33_____33d23.]#%yr&xvu;@,'!~4 _d11|22|111|d:d29009d_c+];o@{!!),@;-uuu-5>'67_21123<.6+!!+64(_}::}}33}:21|3c!]555>{+.<__[(  ( c^!']@5;o--o@)/<[76){{''{>;-u-;5o=ptxu]6 }1bhiiihhhhhhhhiinmmmmnniifb9d}3}d:_ ^j{,]>@5;;@{!/7  c/!];uwvwu5{~4c7 <_:1gbbbaaaaaab|<~@wpxpvu5'+6~j{>5o--;>,'')))jj!!+++~6^^/4../+){'~73||2::d21gafnklFFlknhhhinnmmkkkkmifb91||d}[746!){,]]>]],{'''))j!+~~6^47<3d|11|d38[[[_3d1gbaeefhhiiihhhinnmmnihe0911||||222|19g00bbbbbaaaaeeeeeeeaaabbb00g12:333}}}33___3}}}::::",
"3}:1beeg23__3}::dd:}_8_3:2|11||2:}}}}}}}}}}dd_.,v$q%spw-;>{)+^.(329991119991|2|90b09:[4);=w-@{'{@o=v#pp#w-@)/<}2|2}[c^~+++6.(_:dddd:::d|913.j>;;5]'+4 ( c44.7 74~),>5;ooo;>)^7 .6j)))j']5oo;@>@-#txw@!.[d0fiihhhhhhhhhiinmmmmnniihag1d:::}[.+{>5;;;oo;@{~c([< 4+,5-uu-;>)~//44. 8}2|19g0bbbbg:7'=*%%&spu>j++),>5o--;@]{'''))j!+~~6^^^/4.cc4~',{!c_2|2::d|90ahnklFFlknhhhinnmmmmmmnhag|2dd}_<746~!j)''{''))j!!+~6^////4c 8}219912}_88_3:29baeeeffhiiihhhiinnmmnifbg9911||222|19gg0000ggg00bbaaaaeeeeaaabbb09|2:}::d:}3___3}}:::dd",
"}:29aff02}_3:2||||2:}33:219991|2d:::ddddd:}}3<^]vs%&*#=o5]{j~/c<329gg999gg991190aeb1:<^{ov#=5,',@-=#xttx#wo,~ 3d22:8 4^~~~6.(_:22|22dd21913.j>5;@]'!^..4^~6/c  .6j{]@5;oo;@,!6/^~!j!!!j{>55@,{]ovxxw;'6 }gfiihhhhhhhhhiinmmmnniiiheb9|dd}_ ^)>;o---oo5])^ 8__<c~'@;oo;@])!~~~+~^. [_}d219ggg134]#%yzr&tw5'!!j{]@;--;@,{''')j!+~6^//444.c  .~']]j4_2|2dd2|90ehnklFFFknihhinnnnnnnnhe01d:}3_8(c/^~++!jjjjj!+~6^/4.c77777 [3d|9999|:}33}:21gaeeeeeeffffeeffhiinnnifabgg911|2d2|19gggg999999gg0bbaaaeeeeeaaabb09|2ddd2d:}3333}}::ddd",
"d2|gehf02}3}21gggg1|d::d|9ggg91|2ddd2|||2:3_<.!5#$%$tvu;@,'!~/7[}29g0gggggg999gbeeb1} 6,-v#=5{){>;-w#xxx#=o,~7_d22:_(c4^~~^.(_:2||1||2|9g9}7+,@@>]{)!~~+!j!^.((7/+){>5;o--o5>{'jj!++~~+j',,{'),5=#pwo]j481eiihhhhhhhhhiinmmmniiiihebg12:3<c~{5ouuu-o5>'~c[}:}8 ^)]@55@>,{))'{{{)!6/c([3:2|||28^@xrAAr&tw5{j!!j']@;;@]{)jjj!+~6/4.ccc..c7((c~{>])482||22|1gbehnklFFFkniiiinnniiihhfb9d}_88[<7./6~++!!!!!+~6^4c (<[88888_3d|1gggg12d:dd|1gbeffeaaaabbbbbbaefhinnihea0gg91|2dd219gg9911|||19gg0bbaaeeeeeeeeaabg1|22222d:}333}}:dd22",
"||10ehf02}3:|gbaab09|dd21g000g91|22|19912:_<c6{-x$%$xwo5>,)!647[}2900000ggg99g0aefb|3 6,owvu>)!j']5-=vvvw-5{6 _:22d3[ ./66^4 _:2|1111|1g09: 6']>],,{'')'''j6.(< .^+']@;-uu=uuo5>{!~6^^^6+!j!!j'@-wvwu5{6(2ahihfhhhhhhhiinmmniihhhheag1d3[7/j];-==u-;>{!/(3d2:_(/!{]>>]],,,]>@55@>,'!^. [_3}:}<~;tyAAr$x=5,j+~+!),>@]{j!+++~6/4.7 (( 7c7 <<7~{>>)/821|||190afimklFFFkmniinniihffeeag|}8[<<( c4^6~+!!!++~6^/. [_}:dddddd2|19g000091|||190befffab0gg99111190bafhiiifeb0g91|ddd2|99911||222|19g00baaeefffeeffeabg1||||2d:}3333}:d222",
"11gbfhfg2}3d1befhfa01|2|90bb00g1|2|19gg9|:87^j>=t$&spu;>]{)!647[}290bbb0gg99gg0affb|_76{;==;,!~~!',@;-uu-;>)^ _:222:_<74^664 8}d|111119g0gd(^),]]]]]]],,,'j6.([< 46j{>;-uwv###wo]j6/4444//^6~!)];u=wuo>!7dbhhfffhhhhhhhinnnnihhhhfeag|:_(.~'>ou==uo@,j^7[:22:8(4+',,,,,,]>@5o-uuu-;>{!647(<[[7!o*yBAqsp=;]'!~^6+){,'j+~66^^4.7(<[8[<(  ([[76{@>)/8d11119gbafimklFFFlmnnnnnihfeabb01d_<  77c./^6~+!!++~6/4c 8}|9ggggggg00000bbbb0g99g0bafhhhebg91|2d:}}:d|90afhiihfab0912d::2|9991|22dd2|19g00baaeeffffffhhfa091111|2d}}333}:d2||",
"9g0afheg2}}d9ahiihfbg119gbaab0g91||9g00g|:[c~'@=xssxwo@],{)!647<3290bbb0gg99gg0aee0|_ ^'@oo@'~^^6!),>5;o;5])^ _:2||d38(./66478}d2|1199g0bgd(6)]@5555@>],{)!^7<88<7/+'>5ou=vpxx#-]!^.cc777c./6+)]5-u==-5).}0fhffhhhhhhhhinnnihfffffebg|:8 /+{5-==u-;>'+/7[3}38(c^+)'{'''{,>@5o-=v#p#w-5]'+64cc/)u$ACAqspw-5])+^^6!))j!~6^^/4c <[8_3_[< (<8_(6{@>'/[d1999g0befimklFFFlkmnnnnifab00g92}[ cc..4/^6~~+++~6^4.7(8}|0aeaaaaaaaabbbbaaabb00baefhihfa012:}_8[<<[83d|gafiiifea0g12d::d|1991|22222|19g0bbaaeeeffffhhihebg9911|2d:}}33}:d2||",
"gg0afhegd}}d9ahnniha09190aaabb0911190bbg|:[.~{@uvppv-@,{{')!~/c(_d1gbbbbg99999gbaa02_ /!,@@,!^44^~!',>@55@]j^ 8:2112:_<c/66/7[_}:d2|9g0aa0d +,5ouu-o5>,'j+^.(8__8<c6)]5;ou=vpx#-]+4c   (( c46!']@o-==u;'43gfhffhhhhhhhhinnnihfefffebg|}[7^!,;u==-;@,)~/. ((7.^~!j'''))))'{,]@;u#*&%&sxvu5,)+6+,w%CECr$x#w-;])+66~+++~6^^/4.7<8_3}}38<(([33<^'@@'^[d9ggg0baehimklFFFlkmmmnnhebg991|d_(c44///^66~~+~~6/.c <_}|gafeabbbaaab000baeeeaaaefhhiihe01d}8<(7c44.7(_:|0einihfebg12d::d21911|||||19g0bbaaaaeeeeeefhiiifa0g991|2d:}}33}:d|11",
"00befhegd}3d9ahinnhe0g9gbaeaab0g911g0bbg1:[.~'>;u==o@,'''')j+^. 8d1gbaabg9111990bbg23(.~){{j~4c.4^~j',]>@>,j^ 8:|1912}[7/66/c<83}}d21g0efb:cj5uv##vu5,)+64c([_3}38 /j]@5;;-=#pvo,~. (<<<< c/~j']@;ou==o{/_9efffhhhhhhhhinnnifeeeeea0923<c^j];u=u;@,'j+6/44/6!)'{{'')jj!!!!j)']o#&zBBAy%s#u5,)'@prEHDz&txpv=;])+66666666^/4c([3}::}38<(<8::8/'@@{^[d9g00baaehimklFFFFlkmmniha09|||2}[74/^^^^6~~~~~6^4c <83d|gbefebggg0000gggbaeffeeefhhiiifag23[(c4^~+++6. 8:9ahnnihebg92d}}:2111111119g0baeeeeeeaaaaaefhinifa0g991|2d:}}33}:2|11",
"0bbeffa9d}}d1bfinniebgg0baeeab0g999gbbbg1:[c~),@5;5>{)jj)''j+64 8:1gbaabg911111g00923<c/~!!~/c7c./6+j){,]]{!/ 8:|9g9|:_ 466/c(8_33}d1gbefb}.'ovpttp=5'+/c <8_3}::3<4!,>@@@5-=w=5'^7<[[[[<(7/~j',>5;-==o,^81affhhhhhhhhhiinihfeaaaa0g|:_(.6)]ou=-@,)j++~~~~!),>>>,{')j!+~~66~+)@#%BGHGEBy$xw;>]otzGIGA%sttx#u5,j~^/4/^6^^4.7<_}dd:}38<<[3d2_4)>@{6<:1g0baaefhimklFFFFlkmmnifbg122d:3<74^6666~~~~6^/4c [_:290aefea09199ggg99g0afhhhfffhhhhfe01:8(c/6+j'{'j6.(3|0fhhhfabg9|d:}:2|111119g0baeffffeeeaaaaaaehinnheb0g911|2d:}}}}d2119",
"00baefa92}}d1bfinnifbgg0beeeeab0ggg0bab01d8c6j{]]]]{)!!j'{')!64 8:1gbbabg9111|1999|d_<7./66/.7 7c4/6~!j)''j~4(_d1g0g923(.^^47<8__3}d|gbefb}4{-vxttpu>j^c([8___3}d:8c+']>]]@;-uo>j4 [8888[< 46!){,>5ouuo,^[|befhhhhhhhhhiiiihfeaab09|d3[74~)];--;])+~~++++!j{>@5@]{)jj!+~6^^^6!]w&BGHIHDAq*#u;;=sAHJGA%s**tpwo>'+^.c.4//4.7(8}d22d:}_8[8:|1}cj]>'6 3290aeeefhnmkllFFllkmniheb9|2dd}_<74/^666666^^/.c [_:29befffea0999gggggg0behhihhhfffeabg12}8(.^+j',],'!^c[:9beaab0g91|d::d2|111119gbaeeffffeeabbbbbaehinnheb0g991|2dd::::d|199",
"gg0baeb92::29bfinnifbgg0beeeeeabbbbaefeb92_ /+){{{{'j!!)',{)+^c<3d1gbbbb0g9111111|2}8(7c.44.7   7c./^66~++64 8}|90b0g|:[744. [_33}}d|90efb}.';w#p#w;{~. <[88[[83dd376),]]]>@55>'~c<888888[(746+j'{]5o-;,6<dgafhiihhhhhhhiihhfeabg12:_< .^~),@;;>'+6^6~~++!j{]@@>,')jj!!+~66^^+,u*rBDEECz%*p=--v$BHIGA%s**tpvu5,j^c 7c..7 <_}d|1||2d}33}|ggd ~{,'~c[}|gaeffhinmmkkllkkmnihfa0g1|d:}_[(7.4/////44.c7([_}290afhhhfeb000bbbbbbbafhiiiihfab0912d}38(c^+j{,]]{j~/ _29g9111111|22222||||1190bbaaeeeaaab0000baehinnheb0ggg91||22dd2|1999",
"9gg0ba092dd29behinifbgg0baeffeeeeaeeffeb923(4~!)''')j!j){],)~4 8}290bbbb0g9911||2d}_[(7cccc7     7cc..444.c(8}290bab01d_(7c [3}::::d|9gbe0:cj@-=w=o>j/ <<<<(((<_:d}(/!',]]>>],'+4(8_8888888<7./6+j{>;o5{6 }1bfiiihhhhhhhhhhhfea012}8(74/6+j{]@>{!^//^66~~+!),]],')j!jjj!!!+~~+'5v*%yzAzr&t#w==p%BHIEA%sttxpvuo>)6c(<( (<83:2|1991|22d2|gbb|<^j')~4 8d9aefhhinnmmmkkkmmnhfab0g912:}_8[<(7c.4.c7  (<[_}d1gbehhhhhffeeefffffeffhiiiiife09|d}3__3_[7/~j',,,{)!6.<}d2d:::d2||||||||||||19g0bbbbbbbb000gg0baefinnheb0000gg911|||11999g",
"999g0b09|22|9befiiifb0g0baefffffeeaab0g12:8 .6+j)'')jj)',],)6c<3d|g0bbb0g911|22d:3_[( 777  ((((((       (<83:290baaa09|}8<([_:ddddd2|19ba0:7!>;--o5{+.(<( 77cc [}d:[.~){,]],'j~/ [_3_888_33_[(7./~j,@5@{~7_2gehiihhhhhhhhffffebg|:_<c4^6~!j'{,{j64c.4/^^^6~!){{'j!++!jjjjjj!++)];wps&q%&*x#vw#tqCHHDz&*txp#vw-5{~c<[[[83:219ggg9911119gafe9_.~!!+6.(}1afhhiinnnnmmmmmnifeb00g912}3__33_< ccc (<[[8_}d|9gbefhhhhhiiiinnniiiiiiiiiiheb9|:38[[8_38 46!)'{{{'j~4 8338[[8_}:2|1111|||||19g0000ggg000gggg0baefiniheb00bbb0g999999ggggg",
"99g0bbbg1||190behihfab00baeffhfea09|:3_8[( ./6+!))')))'{]]{j^ 8:21g0bb0g12d::}3_8[<( 77 (<<<<<<<<<<<<[[8_3:d|9gbaeeabg1d388_}d222d22|190bg:7!>;-u-;,!47 7c.4//.(32d87^!'{,,'j~/7[3:}388_}:::}_[(c4~)]@>{~c[:1bfhhhffffffffffffag|}8 ./6~+!j)))j~/c 7c.4444/6+!j!~666~+!jjjj!!!j'];u#ts$stp##px$yDHHCy$tpppp#v=o]+.<_33}d|9g0000g9999g0behfg} /~++~^7_1ahiiinnnnnnnnnnnhfa0ggg9|:38[83}38 c.c <[88_3}d|9gbaeffhhinmmmkkmmmmmnnniihfag|d38<(([_3_(.6+j)''')j~/7<[< cc7([_}d|9911||||119gggggggggggggg0baefinihebbbbbb0gg9ggg000000",
"g00baaabg91119gbefhfeaaaaeefhhfag|}[7/6666~~~+!jj)'''{{,,,'+4<32190bbbg1d38[[<<(  77777 <[8888888888__3}:d|19gbbaeeab09|d}}:d2222222|190bg}cj@uw#v=;{~/.4/^666/7_223(4~j'{{j~/7<3d2d:33}d2222d}_<7/+']]'+4 _2gefffffffffffffffag|}8 .^~+!!jjj!+^. (( 77777c4/66^/444/^6~+!!!!!!)']5u#t*txp#ptsqAEHGBqt##pxttx#=@j4<3:d|1900bbb0g9119gbaffe0d8746++6.8|ahinnnnnnnnnnnniheb0991|d3[(([_}3[74/4c (<[8_}d219g0baefhinmkkkkkkkkmmmniheag1d}_[(  <83_(.^+!j)))j!~/c((74^6^/.7[32199991111199ggg0000000000bbaehinnheabbbbb0g999gg0bbaaa",
"bbaeefeab091111gbeffffeeeeffhhe0|3(/j,>>>,,')jjj)''{,,],,'j^78d|9g0bab9d_(7c...4444..c ([_3333333333}}:d2|19g0baaaaab0g91|222222222||19bag}.';wx**tw5'+66~~+!!6c_21:[c^+j))+^c(_d1912d:d|199912:3[7^j{{'!^c[}10aeeeeeeeeeeffffa01:_(c/6+!jj!!~^47<[[[<<<[<< 7ccc7  77.4/6~+!!!!jj'];=pxxpppt$%yCGHEA$pwvptss*xv;'/<3d|9g00bbaabg1||1gbaefe0|}[7/+!+4[|einnmnnniiiiiiiihebg91|d}[ cc(83_<.^6^4c7(<[83:d|199gbaefinmkkkkkkkkkkmmifag12:38<(  <8_8(.^~+!!!!+~^47 746!jj!~^c<}29gg0g9111199g00bb0000bbbbbaefinnheabbbb0g91119g0bafff",
"aeeffhhfeb09|||90affhhhffeefhfb1}(/)@uwwuo;>,{')''{,]]],'j~4(}29g0bba0|3(./666~~~66/4c <83}:::::::::dd2|19gg0baaaaaabb00gg91||22222|19gbag34{-ps&%&t=>'j!!!j)j+.8|92_ 46+!!~4 8}|g0g1|2|1gg00g9|d3(4+)')!6.(_d1g000bbbbaaeefffe09d3[74^~+!!+~^4c([8___3333_8[<<[[88[[( c4^6~+!!!+!'@uvppppx*&rADGHEz*w-=p*$$$*#-,6 _290bb00bbbbg|22|90aeea0923<4~j!/[|enmmmmniiiiiiiiihebg1|2:_(c447<_8 46+~^.c (<83}d2|1190bafhinmkkkkkkkkkkmie012:38[<(  <8_8(c/6~++~~6^4.77c^!'{,{)!^78:|g0b0g911199g0baabbbbaabb0gg0aeeeabbbbb0g91119g0aehii",
"aaeefhhfeabg1||10aefhhhhfeeefa9:<4!>u#xx#=-5>,''{,,]]],'j~/78d10bbbb09d[c6+!jjjjj!+6/. <_}:d22222222||19gg0bbaaaaaaaaabbbb0g9||222||19gae0}4{-ps%q%*v;]')jj)))+4[29|3<c/~+~^.(_d10b091|1g0bbab0g|:87^!jj+647[3d222|19g0baeffhfeb92}8(c4^~++6^.c <8_3}:::dd:}3333}}}}3_[(7./^~++~~~j]owppppts%yBEHHEytuoups$$st#-]+.[:1bbb000bb09|dd|90aaaabg9d_c~j!/<|fnmmmmniiiiiiiiifebg1|d}8 .//.(88 46~6/c (<8_}:2|119g0bafhinmmkkkkkkkkkmia92:3_8[(( (<88[(c/^666^^/4.c7c46j{]]]{)~4(_d10bb0g91119gbaaaaaaaaa09|d::d2|9gbaaaab09119g0bafhin",
"bbbaeeffeea091190aefffffeeaaag28.+,o#t*t#=o5],{,]>>>]{'!~47[}|gbaab01d_7^!)'{{{{{')+^. [3:2|||11111199g00baaeeeeeeeaaaaaeaa0g1||||||190ae0}4{-#*&%&*#-@,')jj))+4[d1|}[ 4^~~/c<3d1g0g9119g0baeea01d_ 46~~~^/c([__88_}:21gbefhhhebg|d3[ c4/^^4c ([8_3}:d22222d:::d2222d}38[(7./^6^^^!,owppxx*$%yBDHHEyt-;-#*$s*pw->)67_20bb0g00g9|d::29baaab0001}76j!^<1fmmmmnniiiiiiiihfebg12d}8 4^^. [[(.^^4c([_3}:d|19gg00baefhinmmkkkkkkklkmhb1:388[<((((<88[(74////44.cc77c46j',]],'!^c<3290bb0g9919gbaeeeeaeeb9d_( 7 ([3|0efffea0ggg0baefhii",
"ggg0bbaeeeab0gg0beeffeeeeabbg|376{5wxsst#u;>,{{]>@@>,)+^. [}2gbeeab9d_(4+),]]>>>]]{j~4 [3d|9999999gg00bbaeefffffeeeeeeeefeeb0911|||19g0afb:.';wxs$st#u;]{j!!jj+4<:||:8(./66/7[3d|9g91|11g0aeffe01d3<74/^^/4.7   7c7(8}290efhhhfa012:_[( ccc7([__33}:d2||||22dd2|1991|d:}3_[ c4/44/+{;wpxxt*$%rzDGHEyt-5-vt*tpw-;@,j^(:1g0gg999|2:}:29baabb0bbg:(^!!/<1fnmmnniihhhhhiihfebg1|d}8 4^^4 [[(7..7[3d22||9g0baaeeeeffhinmmkkkkklllkmf02}8[[<<<((<[888<7.44..c77  77./6!)'{,{'j~/7[}|gbbb0g999gbaeeeeeea0|87^~++~/ 39eiiihfabbaaeffffff",
"1199g0baaeeaabbaaeeeeaaabbg92}(/)@-#tssxwo>,''{,@5@]'+/c(_:|9baefag23<.6j{]>@@@@@>,)+47[}29gg000000bbaaeffhhhhffffffffffffeabg911|119gbefbdcj5uvpxxpwu;>'j++!+6.[:|2:_<74^^47[3:2|11|||1g0beffeb92}8(7c.444..../^6^4 8}|0ehiihfa09|d:38[<(<[_}::}}::d2|||222dd2|1991|2ddd:38(7ccc4~'5=#xxt*s$%yBGHEyt-5ovxtpwo555@,!.8219991|2d:}3}29baab00ba02</++/[1ennnniihhhhhhhhhfabg1|d}8 .^^47<<( 7 [}|9gggg0baefhhhhfffhinmmkkkkllllknfgd3[[<<<<<<<[888< 7cc77 (((( 7./6+!)''''j+64 _d90bab0g99gbaeeeeaab9} 6),>>]'6(2ainnnifeaefhhffeee",
"1199gg0befffeeaeeeeeabb009|d_(4!]owp***#u5,')j){]>]'+/7[3d|gbaeeeb1:[7/+),>@@@@@@>]'+/7[}|g0bbbbbbbaaeefhhiihhhhhfffffffhffeb0g91119g0behad7!>o=wvwwuo5]'!~~~~^78d||d3[ .//. [_}d2||22|190beffeb9|:38< 7c..44/^+j)j+4 _dgahihfea0g1|2:}3___}:222d::d22|22dd:::dd2|||2ddd22d38<   c^)@uv#ppxt*$qAEHEy*u;owppv-5>@5;@'^(}211|2:33__3}29baab0baeb|[4~~4[|aiiiiihhhhhhhhhffa0g1|2:_(./^/c ( 77(8d9bbb000baefhhhhhffhinmmkkkkllkkkne9d_[[<[[[[[[88_8[( 7  (<<[[<(7.4^6+!j)))j+6/7[:|gbaab0gggbaaaab009284j>;-u-5'4_9einnieaaafhhhfeee",
"gggg00bafhhhhffffffeab0g9|:8 /!,;=#xxxpwo>'j+++!j)j~4 8}290aeeeab9d_ 4~!'{]>>>>>>>,)+/c[}10babbaaaaaeefhhiiiiihhhhhhhhhhhffeab0g9119g0afha2 +]5o-oo;5>]'j~6^^/.(3|992:_<7.4c [83}:ddd22190befffa012:3_[<( c.4^+),>]'+.<}1ahihfea0g91||2dd:d2|11|2ddd222d:}}33333}}}}33}:d2d:3_[[< 4!,;-==wvvpt$yDGEzswo-=vvu;>]>;o5,+c[}2|2:_<<<[_}29baaabbefa1_c^^.8|bfhhhhhhhhhhhhffea091||d3<c/^^4.cccc [:100g999gg0aefhhfffhinmmkkkkkkkkmia9d_8[[[[[8888__8[<(((<[[888[< c4/6~++!!!+~6/c<3290bab0gg0baab0g1|23 6{;=#ppw5j7}9ehifbgg0afhhhfff",
"bbbbbbbefhiihhffffeeabg12}[7^j,5uvpp#v=o@,)+6/44/4.7[3d1gbefffab923<.6+j)'{,,,,],,{)+^c<}10aaaaaaaaeeffhiiniiiiihhhhhhhhhffeab0g999g0bafhe2(~{@@@>],{'j!~6//4c 8d90g1d3[ cc7 <[_3}}:dd2|9gbafffebg12d}_8[(7./6j,5oo>)^ _|bfhfeab0gg9911111199gg9|22d2dd}3_88[[[[<<<<<[8_}ddd:}3_8(c6)]@;;o--=vtqBGEA$v--u=uo@,,>;-o>)^ 8:2d_(cc7<_:|9baaaaaefe93 447820aefffffffffffffeb0911|2}[c/^6^^///4c(3d11|22222|90beeeefhinmmkkkkkkkmnha9d3_8888________8[<<[[88___8[(7.4^66~~~~66^47<_:|gbabb00bbabg12d}_<4j>u#tsst=]6(:9afa9|21gaffhhhh",
"aaabb00baeeeeaaabb00g9|d3<c6j];uvpp#w-;>,)+64c (<8_}21gbefhhhfb923<c/~!j))))'''''')j+^.(}1baaaaaaaaaeffhiiniiiiiiiihhhhhfffeaab0g99g0bafhe|(6{]],')j+~6^//4.7([}1bab92:_<    (<[83}}:d2|9gbaefffabg|d38[( c4^+)>-==;,~c820fhfab00gggggggggg000g91|22dd}38<(((  77cc7 (<83}:dd:}38<7/+',]]>@5;up&AEEA&#=---o5]{,>;-o@{~.<3d:[c^^4 _:|gbaaeeefheg:<c. 8d90aeeffffffffffeabg91112}[c/6~~~~~6^47[3::}33___3:290baefhinmmkkkkkkmnifb92}3__333333333__88888__333_[( c./^^^^^^^//.7(8}21gbbbbbbab01d38[(.6{;wt$%q&po)4[20ag2}}:|gbaeffh",
"eab0g111111111|||22d:}_<74~)];uw###w-@]'j+647(83:21g0aefiinihe023(c/6+!!!!!!!jjjjj!+~64(31baaabbbaaaeefhhiiiiiiiiiiihhhhfffeeab0gggg0behie|(6']]{)!~^/4.cc7 <832gefag|d38[<(((<[8_}:dd|190beffffeb9d_< c4/^6~!'@uww-]!4<dgefeb00ggggggg000b000g991|2d:}_< 77cc..444.7(<83}::}3_8< c/~j'{{,]@;u#$yCCy$p=-o;5>,{,>;--5,!/ _:}</++^78d1g0aaeefhhf0:[7c 8}|90aefffffffffeea0g111|2}<c^+!jjj!+~^. <8[<( 777 <_:|90befinmmkkkkkkmihe092:}}}}}}}:}}}}33____333}}}38<(7c.4///////4.7([3:21g0bbbaabg2_<7./6j>-#*&rrq*=]+73101:8[8}d|90bae",
"bb012:33__88888[[<<<( c/+),@o=wvvv=o@{j+6^47<_:290aefhhinmnnha13(46~~~~~~~~~~~~~~~~~~64 3|0aabbbbbbaaeefhhiiiiiiiiiihhffhffeabb0ggg0baehie|(~{>>]{j+^.7 (<[8_}d9bfhe01d:3_8[<<<[_3:d2|190baefhhfeb|_ /~j)'')jj{@-ww-]!4<:9aea00gggggggg00000gg99911|2:38(7.444////4c <83}::38<(7c./6+j)'{,]5o=psqzyq*#uo5@],,,]@;-o5,j^ _:} 6j)~c8d1g0beefhiif0d8 7 <_:|gbeeffffffffeea091||2d3(4~j)''')j!~^.c7c./^6~~647[}210afinmkkkkkkmnheb09|2ddddddddd::}}}}333}}}}}}3_[<(7cc.4444//4.c <83:2190baeeb1}(46+!),;=p*&rrqsv5'/[292_(  <8_:219g",
"0g1d3[(7c......44//^^6+']5o=w##vwuo@{!6/4c [_:|90afhhiinmmnihb2[4+jj+6^^^^^^^^^^^^^666/7_|0bb000000bbaaefhhhiiiiiiiihfffhhfeab0gggg0baehie|(~,@5@]{!^c([_3}:d210ehheg12dd:}_[<<83:d2|190baefhhhheg:(6)]5oo;@,'{>o=uo]!/(}1bab0ggg999999gggg9911199912:3[ c4/^6666^47<_}ddd}8(c4/^6~+!j)'{,@o=#xs&%%sxvu;>,{{,]>5;oo@,j67_d}7+{{!.829g0befhhiif0d8 c7([3d10aefeeeeeeeeea09|22d:87^!'{,,,{'j!~^^^6+j){,,{j^7[}29behnmkkkkkkmnfa0g91|||2222||22d:::::::}}}}}}3_8[<( 7cc.44///4c <[_3}d|gbeffa|84+'{,>5-wx*&qr%sp-]~(d1d[7.4.c <_}d2",
"912}[7./6~++++++!!jjj',@o=vpxxpv=o@{!64c ([3:|90afhiiinnmmnif0: ~'{'!^4..444444444/^66/7_|0bb00gg000bbaeefhhhiiinnihhfffhhfea00gggg0baehie| +]5o;5])67[3:d|1190afihag12222d38[[8}d|19g0baefhhhhhe93.j@-w##v-@{'];--5,!/(310b0gg9999999999991|||19991|:3[7./6~~~~6^4 8:21|2}<c^~+!!jjj)'',]5-vx*sss*x#=-5]''',>@;oo;@,j67_d3c!,])482g00bafhinnh028 cc7(8}|0aeeeeeeeeeeeb01|dd:3[.~),]>>>,{)j!+~+j',>@;;5,!/ 8:10ehnmkkkkkkmifbg999911111111||2ddddddd:::}}}}3_88[<( c.4//^/4.7([88_}29behha2(6'>@5;-=#x*$%%%sx=@!7}2}<.^66^4c(833",
"91d_(./~!j))))))''{{{]@o=#xt*txvu5])~47(<83:290afhinnnnnmmnifg}c!,]{!^.cccccccccc.4/66^78|0b0gggggg00bbaeffhhiiinnihffffhhheb0ggggg0baehif| +];--;@'678:219g00aehihag1||112:_[[8}219gg0aefhhiihhe9_/{ovxt*xw5,']5-o5,!/(3|000g9999991119991||22|9gg9|:3<74^~++++~^4 _d1992}(4~!)))))))'{,>;u#tss*tx#v=o@,))',>5;o;5@,j67_d3cj]>)/8|g00bafinnnhb28 cc7 <32gaeeeeeeeeeeebg12d::3<.+']>@@@],')j!!j',>5ouuo@'6c[}|0ehimkkkkkkmiebg9999g99999991|22ddd2ddd:::}}}33_88[<(7.4/^^^/.7(<[[83d9bfihad +,5o--=w#x*$&%&sxw;)c32}(/6~+~647<8_",
"1|d_ .^+j)''''''{{,,,>5-vpt***xvu5,j6. <[_3d|gbehinnnnnmmmnifg}.j]>,!/.77ccccccccc./66^c82gb0gggggg00bbaeffhhiiinnihffffhhheb0ggggg0baehif2 !>;--o@'678:|9g0bbafiihag1||11|:_[[_}219g0baefhiiihhe98^,-#tsstv;,']5oo5,!/ 3|g00g9999991111991|222|9gg9|:3<74^~++++~^4 _29g9|}(4+j)''''))'{,>;=p*ss*xp#w=o@{)j',@5;o;5>,j67_d3.j>>'/8|g00bafinnnhb28 ccc <32gaeeeeeeeeeeebg12d:}_<4+']@@5@>,')jjj){]@;-==-5{~.<3|gahimkkkkkkmieb9999gggg999991|22dd222dd:::}}}33__8[<(7c4/^^^/.7(<[[83d1bfiiad7+];--u=v#x*$&%&sxw;).3d3 /~+++6/c([8"};
