/* XPM */
static char *_65ae594458645ebae33274d3ae491bdG0xNjj9ilIvi5cWk[] = {
/* columns rows colors chars-per-pixel */
"32 32 2 1 ",
"  c black",
". c white",
/* pixels */
"                                ",
"..............    ..............",
"............. .  . .............",
"............ .    . ............",
"........... . .  . . ...........",
".......... . .    . . ..........",
"......... . . .  . . . .........",
"........ . . .    . . . ........",
"        . . . .  . . . .        ",
"         . . .    . . .         ",
"          . . .  . . .          ",
"           . .    . .           ",
"            . .  . .            ",
"             .    .             ",
"              .  .              ",
"                                ",
"                                ",
"  ............................  ",
" . .......................... . ",
"  . ........................ .  ",
" . . ...................... . . ",
"  . . .................... . .  ",
" . . . .................. . . . ",
"  . . . ................ . . .  ",
" . . . .                . . . . ",
"  . . .                  . . .  ",
" . . .                    . . . ",
"  . .                      . .  ",
" . .                        . . ",
"  .                          .  ",
" .                            . ",
"                                "
};
