/* XPM */
static char *_6d9fc9ebc9840fea9190f432dbea27ebhhzDjjuqBFtncLN[] = {
/* columns rows colors chars-per-pixel */
"32 32 2 1 ",
"  c black",
". c white",
/* pixels */
"                                ",
"  ............    ............  ",
" ..............  .............. ",
" . .......... .  . .......... . ",
" .. ........  .  .. ........  . ",
" . . ......   .  . . ......   . ",
" .. . ....    .  .. . ....    . ",
" . . . ..     .  . . . ..     . ",
" .. . ...     .  .. . ...     . ",
" . . ..  .    .  . . ..  .    . ",
" .. ..    .   .  .. ..    .   . ",
" . ..      .  .  . ..      .  . ",
" ...        . .  ...        . . ",
" ..          ..  ..          .. ",
"  ............    ............  ",
"                                ",
"                                ",
"  ............    ............  ",
" ..............  .............. ",
" . .......... .  . .......... . ",
" .. ........  .  .. ........  . ",
" . . ......   .  . . ......   . ",
" .. . ....    .  .. . ....    . ",
" . . . ..     .  . . . ..     . ",
" .. . ...     .  .. . ...     . ",
" . . ..  .    .  . . ..  .    . ",
" .. ..    .   .  .. ..    .   . ",
" . ..      .  .  . ..      .  . ",
" ...        . .  ...        . . ",
" ..          ..  ..          .. ",
"  ............    ............  ",
"                                "
};
