/* XPM */
static char *_73613a113a44d6ffa395711903ba5acn1gxqsQ5xNBiexEE[] = {
/* columns rows colors chars-per-pixel */
"32 32 2 1 ",
"  c black",
". c white",
/* pixels */
"                                ",
"  .............   ............. ",
" . ........... . . ........... .",
" .. ......... .  .. ......... . ",
" ...         . . ...         . .",
" ... .......  .  ... . . . .  . ",
" ... ....... . . ...  . . .  . .",
" ... .......  .  ... . . . .  . ",
" ... ....... . . ...  . . .  . .",
" ... .......  .  ... . . . .  . ",
" ... ....... . . ...  . . .  . .",
" ... .......  .  ... . . . .  . ",
" ...         . . ...         . .",
" ..           .  ..           . ",
" .             . .             .",
"                                ",
"                                ",
"  .............   ............. ",
" . ........... . . ........... .",
" .. ......... .  .. ......... . ",
" ...         . . ...         . .",
" ... . . . .  .  ... .......  . ",
" ...  . . .  . . ... ....... . .",
" ... . . . .  .  ... .......  . ",
" ...  . . .  . . ... ....... . .",
" ... . . . .  .  ... .......  . ",
" ...  . . .  . . ... ....... . .",
" ... . . . .  .  ... .......  . ",
" ...         . . ...         . .",
" ..           .  ..           . ",
" .             . .             .",
"                                "
};
