/* XPM */
static char *a022e416514646b78864cdbe2e55b0d7lShiTzG07Q9SmXE9[] = {
/* columns rows colors chars-per-pixel */
"32 32 2 1 ",
"  c black",
". c white",
/* pixels */
"                                ",
".. .... ....    .... ....... ...",
".............  .................",
".............  .................",
".............  .................",
".............  .................",
".............   ................",
".............  .................",
".............  .................",
"............   .................",
".............   ................",
".............  .................",
".............  .................",
".............  .................",
"..... ......    ... ....... ....",
"                                ",
"                                ",
"  .... ....... ...... .... ...  ",
" .............................. ",
" .............................. ",
" .............................. ",
"  ............................. ",
" .............................  ",
" .............................. ",
" .............................. ",
" .............................. ",
"  ............................. ",
" .............................. ",
" .............................. ",
" .............................. ",
"  ...... ......... ..... .....  ",
"                                "
};
