/* XPM */
static char * moine_xpm[] = {
"128 128 9 1",
" 	c #0000FF",
".	c #351F0C",
"+	c #FFE5C5",
"@	c #FFFFFF",
"#	c #5F3B1C",
"$	c #533317",
"%	c #FAF6E1",
"&	c #E8E2C7",
"*	c #1B1816",
"                                                                                                                                ",
"                                                                                                                                ",
"                                                                                                                                ",
"                                                                                                                                ",
"                                                                                                                                ",
"                                                                                                                                ",
"                                                                                                                                ",
"                                                                                                                                ",
"                                                                                                                                ",
"                                                                                                                                ",
"                                                                                                                                ",
"                                                                                                                                ",
"                                                                                                                                ",
"                                                                                                                                ",
"                                                      ....++@@@@@@++@@++....                                                    ",
"                                                      ....++@@@@@@++@@++....                                                    ",
"                                                    ....++++++++++++++++++....                                                  ",
"                                                    ....++++++++++++++++++....                                                  ",
"                                                  ....++++++++++++++++++++++....                                                ",
"                                                  ....++++++++++++++++++++++....                                                ",
"                                                ....++......++++++++......++++....                                              ",
"                                                ....++......++++++++......++++....                                              ",
"                                                ..++++++@@....++++....@@++++++++..                                              ",
"                                                ..++++++@@....++++....@@++++++++..                                              ",
"                                                ..++++++@@##++++++++##@@++++++++..                                              ",
"                                                ..++++++@@##++++++++##@@++++++++..                                              ",
"                                                ++++++++@@##++++++++##@@++++++++++                                              ",
"                                                ++++++++@@##++++++++##@@++++++++++                                              ",
"                                                ++++++++++++++++++++++++++++++++++                                              ",
"                                                ++++++++++++++++++++++++++++++++++                                              ",
"                                                ++++++++++++++++++++++++++++++++++                                              ",
"                                                ++++++++++++++++++++++++++++++++++                                              ",
"                                                ..++++++++++++++++++++++++++++++..                                              ",
"                                                ..++++++++++++++++++++++++++++++..                                              ",
"                                                ..++++++++++........++++++++++++..                                              ",
"                                                ..++++++++++........++++++++++++..                                              ",
"                                                ..++++++++..++++++++..++++++++++..                                              ",
"                                                ..++++++++..++++++++..++++++++++..                                              ",
"                                                ..++++++++++++++++++++++++++++++..                                              ",
"                                                ..++++++++++++++++++++++++++++++..                                              ",
"                                                ....++++++++++++++++++++++++++....                                              ",
"                                                ....++++++++++++++++++++++++++....                                              ",
"                                                ......++++++........++++++++......                                              ",
"                                                ......++++++........++++++++......                                              ",
"                                                ........++++++....++++++++........                                              ",
"                                                ........++++++....++++++++........                                              ",
"                                              ..............++++++++++..............                                            ",
"                                              ..............++++++++++..............                                            ",
"                                              ..$$$$$$$$$$$$++++++++++$$$$$$$$$$$$..                                            ",
"                                              ..$$$$$$$$$$$$++++++++++$$$$$$$$$$$$..                                            ",
"                                            $$$$$$####$$####++++++++++####$$####$$$$$$                                          ",
"                                            $$$$$$####$$####++++++++++####$$####$$$$$$                                          ",
"                                          $$$$########$$######++++++######$$########$$$$                                        ",
"                                          $$$$########$$######++++++######$$########$$$$                                        ",
"                                        $$$$##########$$######++++++####$$############$$$$                                      ",
"                                        $$$$##########$$######++++++####$$############$$$$                                      ",
"                                        $$##############$$##############$$##############$$                                      ",
"                                        $$##############$$##############$$##############$$                                      ",
"                                        $$################$$$$$$$$$$$$$$################$$                                      ",
"                                        $$################$$$$$$$$$$$$$$################$$                                      ",
"                                        $$####################$$##$$####################$$                                      ",
"                                        $$####################$$##$$####################$$                                      ",
"                                        $$######$$############$$##$$############$$######$$                                      ",
"                                        $$######$$############$$##$$############$$######$$                                      ",
"                                        $$######$$############$$##$$############$$######$$                                      ",
"                                        $$######$$############$$##$$############$$######$$                                      ",
"                                        $$######$$############$$##$$############$$######$$                                      ",
"                                        $$######$$############$$##$$############$$######$$                                      ",
"                                        $$######$$############$$##$$############$$######$$                                      ",
"                                        $$######$$############$$##$$############$$######$$                                      ",
"                                        $$######$$############$$##$$############$$######$$                                      ",
"                                        $$######$$############$$##$$############$$######$$                                      ",
"                                        $$######$$############$$##$$############$$######$$                                      ",
"                                        $$######$$############$$##$$############$$######$$                                      ",
"                                        $$######$$$$##########$$##$$##########$$$$######$$                                      ",
"                                        $$######$$$$##########$$##$$##########$$$$######$$                                      ",
"                                        $$########$$##########$$##$$##########$$########$$                                      ",
"                                        $$########$$##########$$##$$##########$$########$$                                      ",
"                                        $$$$######$$$$####################$$$$$$######$$$$                                      ",
"                                        $$$$######$$$$####################$$$$$$######$$$$                                      ",
"                                          $$########$$####################$$##########$$                                        ",
"                                          $$########$$####################$$##########$$                                        ",
"                                          $$########$$$$################$$$$##########$$                                        ",
"                                          $$########$$$$################$$$$##########$$                                        ",
"                                          $$$$$$######$$++++++####++++++$$######$$$$$$$$                                        ",
"                                          $$$$$$######$$++++++####++++++$$######$$$$$$$$                                        ",
"                                              $$$$$$####++++++####++++++####$$$$$$$$                                            ",
"                                              $$$$$$####++++++####++++++####$$$$$$$$                                            ",
"                                              $$##$$$$##++++++####++++++##$$$$####$$                                            ",
"                                              $$##$$$$##++++++####++++++##$$$$####$$                                            ",
"                                              $$####$$$$$$$$########$$$$$$$$######$$                                            ",
"                                              $$####$$$$$$$$########$$$$$$$$######$$                                            ",
"                                              %%&&%%%%&&%%%%&&%%%%&&%%%%&&%%%%&&&&&&                                            ",
"                                              %%&&%%%%&&%%%%&&%%%%&&%%%%&&%%%%&&&&&&                                            ",
"                                              &&%%%%&&%%%%&&%%%%&&%%%%&&%%%%&&%%&&&&                                            ",
"                                              &&%%%%&&%%%%&&%%%%&&%%%%&&%%%%&&%%&&&&                                            ",
"                                              $$$$$$$$$$$$$$$$$$$$$$$$$$$$$$$$$$&&%%                                            ",
"                                              $$$$$$$$$$$$$$$$$$$$$$$$$$$$$$$$$$&&%%                                            ",
"                                              $$################################&&%%                                            ",
"                                              $$################################&&%%                                            ",
"                                              $$################################&&%%                                            ",
"                                              $$################################&&%%                                            ",
"                                              $$################################&&%%                                            ",
"                                              $$################################&&%%                                            ",
"                                              $$##################################%%                                            ",
"                                              $$##################################%%                                            ",
"                                              $$##################################$$                                            ",
"                                              $$##################################$$                                            ",
"                                              $$##################################$$                                            ",
"                                              $$##################################$$                                            ",
"                                              $$########$$############$$##########$$                                            ",
"                                              $$########$$############$$##########$$                                            ",
"                                              $$########$$############$$########$$$$                                            ",
"                                              $$########$$############$$########$$$$                                            ",
"                                              $$########$$############$$########$$$$                                            ",
"                                              $$########$$############$$########$$$$                                            ",
"                                              $$######$$$$##########$$$$########$$$$                                            ",
"                                              $$######$$$$##########$$$$########$$$$                                            ",
"                                              $$$$####$$$$$$########$$$$$$######$$$$                                            ",
"                                              $$$$####$$$$$$########$$$$$$######$$$$                                            ",
"                                              $$$$$$$$$$$$$$$$$$$$$$$$$$$$$$$$$$$$$$                                            ",
"                                              $$$$$$$$$$$$$$$$$$$$$$$$$$$$$$$$$$$$$$                                            ",
"                                                  ********            ********                                                  ",
"                                                  ********            ********                                                  ",
"                                            **************            **************                                            ",
"                                            **************            **************                                            ",
"                                        ******************            ******************                                        ",
"                                        ******************            ******************                                        "};
