/* XPM */
static char * ceiling_xpm[] = {
"64 64 1162 2",
"  	c #07081B",
". 	c #060A3A",
"+ 	c #0B073D",
"@ 	c #070853",
"# 	c #070866",
"$ 	c #090775",
"% 	c #040969",
"& 	c #070852",
"* 	c #0A0653",
"= 	c #0C062E",
"- 	c #070A15",
"; 	c #070A13",
"> 	c #08070C",
", 	c #080808",
"' 	c #111111",
") 	c #1B1B1B",
"! 	c #080710",
"~ 	c #1C1E25",
"{ 	c #050909",
"] 	c #0B0B0B",
"^ 	c #0D0508",
"/ 	c #080809",
"( 	c #0D0D0F",
"_ 	c #0B0B0C",
": 	c #080610",
"< 	c #111122",
"[ 	c #050810",
"} 	c #070725",
"| 	c #050940",
"1 	c #06092F",
"2 	c #0B0919",
"3 	c #0C0C0C",
"4 	c #080905",
"5 	c #09082A",
"6 	c #070629",
"7 	c #0C0714",
"8 	c #070722",
"9 	c #09082D",
"0 	c #070754",
"a 	c #070865",
"b 	c #060971",
"c 	c #090669",
"d 	c #04075B",
"e 	c #080743",
"f 	c #070919",
"g 	c #0F0E13",
"h 	c #100F13",
"i 	c #080711",
"j 	c #070627",
"k 	c #050811",
"l 	c #121211",
"m 	c #07092A",
"n 	c #0A071B",
"o 	c #0A0813",
"p 	c #08070F",
"q 	c #070A14",
"r 	c #07062A",
"s 	c #05093F",
"t 	c #090636",
"u 	c #101234",
"v 	c #0A0818",
"w 	c #080613",
"x 	c #0A071A",
"y 	c #05090C",
"z 	c #05080D",
"A 	c #07081E",
"B 	c #09082B",
"C 	c #030936",
"D 	c #111053",
"E 	c #060864",
"F 	c #0A0569",
"G 	c #04075F",
"H 	c #080939",
"I 	c #0A071D",
"J 	c #08070D",
"K 	c #050713",
"L 	c #0A0912",
"M 	c #131313",
"N 	c #080805",
"O 	c #0A0815",
"P 	c #070624",
"Q 	c #070724",
"R 	c #070917",
"S 	c #05080E",
"T 	c #070821",
"U 	c #09072F",
"V 	c #0B073A",
"W 	c #0A071E",
"X 	c #080904",
"Y 	c #070916",
"Z 	c #07081D",
"` 	c #0B0837",
" .	c #090731",
"..	c #060931",
"+.	c #040828",
"@.	c #13132F",
"#.	c #0E0C1C",
"$.	c #080937",
"%.	c #060833",
"&.	c #0A0622",
"*.	c #0B060D",
"=.	c #060942",
"-.	c #07094C",
";.	c #080840",
">.	c #070864",
",.	c #0A0761",
"'.	c #080851",
").	c #0B0728",
"!.	c #07081C",
"~.	c #080806",
"{.	c #07081F",
"].	c #080A47",
"^.	c #090632",
"/.	c #08070E",
"(.	c #070918",
"_.	c #09072C",
":.	c #0B063F",
"<.	c #080906",
"[.	c #0C0825",
"}.	c #0C0821",
"|.	c #06092E",
"1.	c #06092C",
"2.	c #0A071C",
"3.	c #0C062D",
"4.	c #08083D",
"5.	c #0A0750",
"6.	c #0E0639",
"7.	c #08083B",
"8.	c #080744",
"9.	c #070A4A",
"0.	c #060831",
"a.	c #06082F",
"b.	c #121212",
"c.	c #080516",
"d.	c #050814",
"e.	c #0B063E",
"f.	c #07091A",
"g.	c #131317",
"h.	c #0A060D",
"i.	c #171734",
"j.	c #07091B",
"k.	c #060845",
"l.	c #070820",
"m.	c #0E101C",
"n.	c #151515",
"o.	c #0F0F0F",
"p.	c #06082E",
"q.	c #090827",
"r.	c #080A35",
"s.	c #040954",
"t.	c #060960",
"u.	c #0A0849",
"v.	c #080A36",
"w.	c #080949",
"x.	c #080646",
"y.	c #090924",
"z.	c #050908",
"A.	c #0A0911",
"B.	c #070720",
"C.	c #070625",
"D.	c #090922",
"E.	c #0D0C11",
"F.	c #060940",
"G.	c #07084F",
"H.	c #050848",
"I.	c #070756",
"J.	c #1E1E1E",
"K.	c #04091C",
"L.	c #1D1C35",
"M.	c #09072E",
"N.	c #070626",
"O.	c #0D0738",
"P.	c #0C0856",
"Q.	c #0A0A53",
"R.	c #070A45",
"S.	c #0B0835",
"T.	c #0B0642",
"U.	c #060830",
"V.	c #0A0817",
"W.	c #191919",
"X.	c #1E1B2D",
"Y.	c #020A44",
"Z.	c #040A4C",
"`.	c #060832",
" +	c #040838",
".+	c #0A0848",
"++	c #08093A",
"@+	c #07095D",
"#+	c #0A074D",
"$+	c #0C0B5B",
"%+	c #070A44",
"&+	c #0B0834",
"*+	c #040826",
"=+	c #0A090F",
"-+	c #23242E",
";+	c #07081A",
">+	c #070721",
",+	c #0D0B1F",
"'+	c #080A33",
")+	c #090621",
"!+	c #0A0511",
"~+	c #080741",
"{+	c #0A074F",
"]+	c #0C094F",
"^+	c #0A074E",
"/+	c #0B0838",
"(+	c #0A0719",
"_+	c #0B0708",
":+	c #060908",
"<+	c #0B073C",
"[+	c #040922",
"}+	c #09082C",
"|+	c #090633",
"1+	c #1A1A1A",
"2+	c #070819",
"3+	c #050A3C",
"4+	c #0A0946",
"5+	c #0A074C",
"6+	c #0C0A30",
"7+	c #20141F",
"8+	c #17101B",
"9+	c #0A0816",
"0+	c #04091E",
"a+	c #0B073B",
"b+	c #06092A",
"c+	c #0A0624",
"d+	c #060843",
"e+	c #060842",
"f+	c #080614",
"g+	c #0B0836",
"h+	c #090A52",
"i+	c #0D0749",
"j+	c #080A34",
"k+	c #040823",
"l+	c #110E23",
"m+	c #0E0E0E",
"n+	c #0D0D0D",
"o+	c #291B21",
"p+	c #1D0517",
"q+	c #150722",
"r+	c #0D0821",
"s+	c #0D0728",
"t+	c #18063F",
"u+	c #1E0A38",
"v+	c #180B3E",
"w+	c #060734",
"x+	c #0B0944",
"y+	c #0A0812",
"z+	c #08080B",
"A+	c #0B1023",
"B+	c #0B073F",
"C+	c #09085D",
"D+	c #070851",
"E+	c #0A0623",
"F+	c #101010",
"G+	c #161616",
"H+	c #15070D",
"I+	c #491B48",
"J+	c #4A2057",
"K+	c #1B093E",
"L+	c #1E093D",
"M+	c #35084A",
"N+	c #350D51",
"O+	c #190B3F",
"P+	c #060732",
"Q+	c #0A0945",
"R+	c #080549",
"S+	c #06092D",
"T+	c #080611",
"U+	c #110E1F",
"V+	c #0D0D0E",
"W+	c #0A0814",
"X+	c #15141E",
"Y+	c #46486C",
"Z+	c #040A2C",
"`+	c #05074A",
" @	c #060974",
".@	c #07065A",
"+@	c #06080E",
"@@	c #0E112D",
"#@	c #080615",
"$@	c #222129",
"%@	c #302E39",
"&@	c #212121",
"*@	c #100804",
"=@	c #14090D",
"-@	c #1A0713",
";@	c #28062F",
">@	c #290843",
",@	c #330956",
"'@	c #380752",
")@	c #3B0855",
"!@	c #360756",
"~@	c #100732",
"{@	c #090631",
"]@	c #08083E",
"^@	c #0A0525",
"/@	c #121627",
"(@	c #151418",
"_@	c #080902",
":@	c #0F0E19",
"<@	c #080A17",
"[@	c #050715",
"}@	c #161723",
"|@	c #04091F",
"1@	c #07062D",
"2@	c #0B0933",
"3@	c #070757",
"4@	c #06076C",
"5@	c #050844",
"6@	c #090A20",
"7@	c #040825",
"8@	c #090808",
"9@	c #1A060E",
"0@	c #320D22",
"a@	c #1B080E",
"b@	c #140811",
"c@	c #0B0716",
"d@	c #150930",
"e@	c #32094A",
"f@	c #1F0934",
"g@	c #240948",
"h@	c #0D0629",
"i@	c #050714",
"j@	c #060738",
"k@	c #0A061E",
"l@	c #06082D",
"m@	c #0A0819",
"n@	c #0A071F",
"o@	c #07094B",
"p@	c #0C0A32",
"q@	c #060847",
"r@	c #080746",
"s@	c #0C065E",
"t@	c #070628",
"u@	c #161918",
"v@	c #0B0608",
"w@	c #24071A",
"x@	c #3D0830",
"y@	c #380927",
"z@	c #290924",
"A@	c #160723",
"B@	c #160731",
"C@	c #10082A",
"D@	c #2C0944",
"E@	c #2A0741",
"F@	c #1A0D29",
"G@	c #0D0825",
"H@	c #080519",
"I@	c #101127",
"J@	c #0B0839",
"K@	c #060835",
"L@	c #13141F",
"M@	c #0A0913",
"N@	c #09061F",
"O@	c #060735",
"P@	c #0B0931",
"Q@	c #060A39",
"R@	c #08084F",
"S@	c #090634",
"T@	c #0B0644",
"U@	c #08073F",
"V@	c #080740",
"W@	c #19191A",
"X@	c #240812",
"Y@	c #510940",
"Z@	c #5E0C55",
"`@	c #420739",
" #	c #310733",
".#	c #31083C",
"+#	c #210736",
"@#	c #290639",
"##	c #200836",
"$#	c #130B2C",
"%#	c #09070D",
"&#	c #08080A",
"*#	c #080712",
"=#	c #040B16",
"-#	c #040824",
";#	c #060941",
">#	c #080A49",
",#	c #0A0621",
"'#	c #040822",
")#	c #090829",
"!#	c #08093B",
"~#	c #050B48",
"{#	c #060A2B",
"]#	c #060A29",
"^#	c #07082F",
"/#	c #0E104C",
"(#	c #090730",
"_#	c #0B0932",
":#	c #0C0C54",
"<#	c #0A0B4C",
"[#	c #08094B",
"}#	c #080938",
"|#	c #060A28",
"1#	c #15090E",
"2#	c #15090D",
"3#	c #17080F",
"4#	c #3B0924",
"5#	c #550B4A",
"6#	c #5C0853",
"7#	c #40063E",
"8#	c #190620",
"9#	c #2F093E",
"0#	c #2D0836",
"a#	c #32083D",
"b#	c #24093A",
"c#	c #0A0620",
"d#	c #0F0D1E",
"e#	c #08072F",
"f#	c #040A31",
"g#	c #080841",
"h#	c #070723",
"i#	c #08082B",
"j#	c #0C062B",
"k#	c #040921",
"l#	c #070C4E",
"m#	c #040729",
"n#	c #0E0508",
"o#	c #13090D",
"p#	c #300B18",
"q#	c #440C2F",
"r#	c #40072C",
"s#	c #410833",
"t#	c #40083A",
"u#	c #4D0957",
"v#	c #450A59",
"w#	c #300842",
"x#	c #290F38",
"y#	c #110817",
"z#	c #2A0832",
"A#	c #2D0943",
"B#	c #130F26",
"C#	c #070728",
"D#	c #08083F",
"E#	c #050A3B",
"F#	c #07094D",
"G#	c #060B55",
"H#	c #08080C",
"I#	c #0B0833",
"J#	c #0B062C",
"K#	c #0A0846",
"L#	c #10143E",
"M#	c #080517",
"N#	c #16080D",
"O#	c #110A0C",
"P#	c #270915",
"Q#	c #350620",
"R#	c #2D0923",
"S#	c #2B072B",
"T#	c #2A083E",
"U#	c #2F074F",
"V#	c #35085B",
"W#	c #280747",
"X#	c #290C3C",
"Y#	c #341141",
"Z#	c #330941",
"`#	c #200632",
" $	c #070A17",
".$	c #0D1014",
"+$	c #070729",
"@$	c #0C0532",
"#$	c #070C3E",
"$$	c #080B43",
"%$	c #0E0735",
"&$	c #08083C",
"*$	c #0A052A",
"=$	c #0F0D1C",
"-$	c #0A081A",
";$	c #151419",
">$	c #110D28",
",$	c #0C0727",
"'$	c #0A0528",
")$	c #0D0744",
"!$	c #0A060C",
"~$	c #1C1014",
"{$	c #220D14",
"]$	c #180A0E",
"^$	c #14080E",
"/$	c #3A0734",
"($	c #410743",
"_$	c #2F0843",
":$	c #130838",
"<$	c #150A48",
"[$	c #170750",
"}$	c #220855",
"|$	c #3F0B63",
"1$	c #420853",
"2$	c #340742",
"3$	c #0E081D",
"4$	c #0A061F",
"5$	c #161426",
"6$	c #0A0835",
"7$	c #0C0826",
"8$	c #0A0A3D",
"9$	c #080935",
"0$	c #060A2C",
"a$	c #080B31",
"b$	c #0F0C27",
"c$	c #08083A",
"d$	c #080742",
"e$	c #090925",
"f$	c #1B1941",
"g$	c #17161D",
"h$	c #0A061D",
"i$	c #0D0A19",
"j$	c #0A0805",
"k$	c #280C1A",
"l$	c #3B0A2E",
"m$	c #400E40",
"n$	c #3C064C",
"o$	c #3F0F62",
"p$	c #300D54",
"q$	c #190944",
"r$	c #190951",
"s$	c #190651",
"t$	c #3E0863",
"u$	c #4A065D",
"v$	c #3E094B",
"w$	c #0F081F",
"x$	c #09071C",
"y$	c #060834",
"z$	c #151227",
"A$	c #0B0930",
"B$	c #0A0944",
"C$	c #090A55",
"D$	c #090956",
"E$	c #0F094A",
"F$	c #0D0B32",
"G$	c #090C4A",
"H$	c #060B35",
"I$	c #151143",
"J$	c #121119",
"K$	c #0B0817",
"L$	c #1E0925",
"M$	c #10070B",
"N$	c #290B19",
"O$	c #3F0627",
"P$	c #490737",
"Q$	c #3F0A46",
"R$	c #4C1D5C",
"S$	c #502466",
"T$	c #462664",
"U$	c #45256A",
"V$	c #371663",
"W$	c #160841",
"X$	c #2D0A46",
"Y$	c #4A0756",
"Z$	c #3E094A",
"`$	c #230737",
" %	c #110631",
".%	c #06093E",
"+%	c #0B114D",
"@%	c #0E122D",
"#%	c #0E0637",
"$%	c #0C0851",
"%%	c #0D0840",
"&%	c #0A0C36",
"*%	c #0C0A4B",
"=%	c #0F0947",
"-%	c #0F0C3A",
";%	c #0F0C3C",
">%	c #0F0D35",
",%	c #0F0D34",
"'%	c #0C0F47",
")%	c #090B4D",
"!%	c #3F3B6A",
"~%	c #0C0A2F",
"{%	c #110D3F",
"]%	c #150815",
"^%	c #24081B",
"/%	c #120706",
"(%	c #110706",
"_%	c #220814",
":%	c #450735",
"<%	c #420831",
"[%	c #38053C",
"}%	c #3F104B",
"|%	c #3D2053",
"1%	c #7D7092",
"2%	c #543B71",
"3%	c #3E1964",
"4%	c #1E093F",
"5%	c #240835",
"6%	c #470A51",
"7%	c #340736",
"8%	c #240637",
"9%	c #070732",
"0%	c #0E0D47",
"a%	c #0F0E36",
"b%	c #050941",
"c%	c #0B0943",
"d%	c #0F0C3D",
"e%	c #181737",
"f%	c #090828",
"g%	c #0D0A39",
"h%	c #0D0B33",
"i%	c #0D0A3A",
"j%	c #0A0C4A",
"k%	c #0F0B41",
"l%	c #0D093E",
"m%	c #0A0941",
"n%	c #0C0E35",
"o%	c #0F0D31",
"p%	c #0D093D",
"q%	c #04072A",
"r%	c #0D0A0C",
"s%	c #1B0810",
"t%	c #1A0812",
"u%	c #2F0A1B",
"v%	c #2D0A20",
"w%	c #3D092B",
"x%	c #36062B",
"y%	c #200826",
"z%	c #1B0923",
"A%	c #2A1641",
"B%	c #644C81",
"C%	c #52326A",
"D%	c #3A0E53",
"E%	c #33073F",
"F%	c #2C0936",
"G%	c #3A073B",
"H%	c #2E073B",
"I%	c #0B0828",
"J%	c #080730",
"K%	c #100F46",
"L%	c #06073A",
"M%	c #0E0E57",
"N%	c #050A3D",
"O%	c #120E40",
"P%	c #0B0A28",
"Q%	c #0B0A2A",
"R%	c #0D0841",
"S%	c #0B0962",
"T%	c #0B0A5F",
"U%	c #0A0B3A",
"V%	c #0D0A36",
"W%	c #080B2D",
"X%	c #0B060C",
"Y%	c #080612",
"Z%	c #19090E",
"`%	c #160710",
" &	c #34142A",
".&	c #2F081E",
"+&	c #380829",
"@&	c #200719",
"#&	c #160E20",
"$&	c #060810",
"%&	c #1F0A34",
"&&	c #4B1D62",
"*&	c #4B1757",
"=&	c #37083E",
"-&	c #4B0A4E",
";&	c #490845",
">&	c #410749",
",&	c #300748",
"'&	c #100947",
")&	c #0A0751",
"!&	c #070755",
"~&	c #080754",
"{&	c #08065B",
"]&	c #070850",
"^&	c #050846",
"/&	c #363470",
"(&	c #0D0B4A",
"_&	c #06092B",
":&	c #0C0822",
"<&	c #0F0F2D",
"[&	c #0C0963",
"}&	c #0A0959",
"|&	c #0A0A3F",
"1&	c #0C0C3F",
"2&	c #0E082D",
"3&	c #0A0718",
"4&	c #0B0A0A",
"5&	c #16080A",
"6&	c #2C0815",
"7&	c #270A1C",
"8&	c #0E080B",
"9&	c #17111B",
"0&	c #0B0609",
"a&	c #100624",
"b&	c #310D46",
"c&	c #430843",
"d&	c #35082E",
"e&	c #47083B",
"f&	c #48073B",
"g&	c #30083D",
"h&	c #1B0A4B",
"i&	c #05075E",
"j&	c #070861",
"k&	c #11075F",
"l&	c #0C065D",
"m&	c #06074A",
"n&	c #080637",
"o&	c #100D54",
"p&	c #0C0B15",
"q&	c #0B0A2E",
"r&	c #0A0A52",
"s&	c #0C094E",
"t&	c #171717",
"u&	c #11060A",
"v&	c #260812",
"w&	c #0F080B",
"x&	c #050812",
"y&	c #251437",
"z&	c #39073A",
"A&	c #340825",
"B&	c #2B081C",
"C&	c #350735",
"D&	c #280940",
"E&	c #0D0746",
"F&	c #09085C",
"G&	c #0B0651",
"H&	c #1E055E",
"I&	c #28095F",
"J&	c #1D0753",
"K&	c #08084D",
"L&	c #090923",
"M&	c #0B0A2D",
"N&	c #050C42",
"O&	c #0A0942",
"P&	c #0C0823",
"Q&	c #141221",
"R&	c #10070A",
"S&	c #15080C",
"T&	c #1A0738",
"U&	c #3C0844",
"V&	c #3D0538",
"W&	c #230918",
"X&	c #320633",
"Y&	c #19083B",
"Z&	c #0E0946",
"`&	c #240962",
" *	c #3F0762",
".*	c #380A55",
"+*	c #2C0848",
"@*	c #210855",
"#*	c #0F092A",
"$*	c #090926",
"%*	c #07091C",
"&*	c #080753",
"**	c #090639",
"=*	c #090620",
"-*	c #1A1B46",
";*	c #0F0D4D",
">*	c #0C0852",
",*	c #18171F",
"'*	c #0B0F2B",
")*	c #100735",
"!*	c #2B063C",
"~*	c #3E0F41",
"{*	c #26091D",
"]*	c #260631",
"^*	c #140942",
"/*	c #06093D",
"(*	c #2B0959",
"_*	c #4D0763",
":*	c #430653",
"<*	c #26083A",
"[*	c #25084D",
"}*	c #0B0945",
"|*	c #0B090F",
"1*	c #4F3D56",
"2*	c #0B071B",
"3*	c #0A074B",
"4*	c #0A072E",
"5*	c #1E1E48",
"6*	c #0D0D44",
"7*	c #0A0B4A",
"8*	c #0C0842",
"9*	c #080A30",
"0*	c #060A26",
"a*	c #120F23",
"b*	c #050822",
"c*	c #0C0724",
"d*	c #1C0B32",
"e*	c #150625",
"f*	c #0D0727",
"g*	c #1F0959",
"h*	c #120952",
"i*	c #1E0450",
"j*	c #330953",
"k*	c #340A45",
"l*	c #290733",
"m*	c #200D32",
"n*	c #130B38",
"o*	c #0A073C",
"p*	c #08082D",
"q*	c #0B0B0E",
"r*	c #080C26",
"s*	c #080948",
"t*	c #0D0920",
"u*	c #070726",
"v*	c #0A0B20",
"w*	c #0C092F",
"x*	c #29065E",
"y*	c #26075E",
"z*	c #1D084B",
"A*	c #250741",
"B*	c #10081B",
"C*	c #0D0715",
"D*	c #11072A",
"E*	c #0B0737",
"F*	c #070831",
"G*	c #070A12",
"H*	c #0B0916",
"I*	c #040B17",
"J*	c #05090A",
"K*	c #080A32",
"L*	c #050C40",
"M*	c #060A27",
"N*	c #2C2C2C",
"O*	c #505050",
"P*	c #0C0835",
"Q*	c #180750",
"R*	c #250956",
"S*	c #1B0842",
"T*	c #130832",
"U*	c #130833",
"V*	c #070830",
"W*	c #040A1B",
"X*	c #101027",
"Y*	c #0D0F20",
"Z*	c #050813",
"`*	c #090817",
" =	c #1F1F1F",
".=	c #4D4D4D",
"+=	c #1A1827",
"@=	c #090825",
"#=	c #060736",
"$=	c #0C0739",
"%=	c #130843",
"&=	c #18073B",
"*=	c #0E0734",
"==	c #0C0713",
"-=	c #242429",
";=	c #080708",
">=	c #0A0D5E",
",=	c #0F103C",
"'=	c #171637",
")=	c #0C073C",
"!=	c #110858",
"~=	c #0D0852",
"{=	c #250B49",
"]=	c #1A073C",
"^=	c #100932",
"/=	c #030838",
"(=	c #100F17",
"_=	c #0F0E16",
":=	c #120F2D",
"<=	c #252525",
"[=	c #0E0E28",
"}=	c #07052C",
"|=	c #120846",
"1=	c #12074D",
"2=	c #230D44",
"3=	c #3E1157",
"4=	c #421957",
"5=	c #180628",
"6=	c #111018",
"7=	c #1A191D",
"8=	c #08070B",
"9=	c #040727",
"0=	c #111319",
"a=	c #060639",
"b=	c #0E082E",
"c=	c #0F0A27",
"d=	c #2F1542",
"e=	c #65496D",
"f=	c #4D224E",
"g=	c #220A2D",
"h=	c #3D3A50",
"i=	c #1C1A28",
"j=	c #080807",
"k=	c #343146",
"l=	c #0F0E17",
"m=	c #0B0739",
"n=	c #08071F",
"o=	c #1E0A3A",
"p=	c #2A1735",
"q=	c #65486A",
"r=	c #3A1440",
"s=	c #0F0819",
"t=	c #17151F",
"u=	c #0C0A13",
"v=	c #0C0C0D",
"w=	c #333045",
"x=	c #0F0D17",
"y=	c #09072D",
"z=	c #131233",
"A=	c #0B0738",
"B=	c #1B063B",
"C=	c #13051E",
"D=	c #200923",
"E=	c #1B0824",
"F=	c #120824",
"G=	c #2F2C3F",
"H=	c #1C192C",
"I=	c #3F3B4F",
"J=	c #202020",
"K=	c #101011",
"L=	c #191B22",
"M=	c #1A1B2E",
"N=	c #080936",
"O=	c #16132A",
"P=	c #0A084A",
"Q=	c #050857",
"R=	c #180834",
"S=	c #2A0A36",
"T=	c #1F0923",
"U=	c #160725",
"V=	c #240A47",
"W=	c #07082E",
"X=	c #0C0B14",
"Y=	c #4C495A",
"Z=	c #110F1A",
"`=	c #23212D",
" -	c #070824",
".-	c #0E0731",
"+-	c #0F0730",
"@-	c #15081F",
"#-	c #130815",
"$-	c #0B0813",
"%-	c #0A064F",
"&-	c #0D0822",
"*-	c #19072E",
"=-	c #12082B",
"--	c #0A0717",
";-	c #080928",
">-	c #1D1D1D",
",-	c #08081E",
"'-	c #2B294B",
")-	c #3F3C50",
"!-	c #242424",
"~-	c #050716",
"{-	c #140833",
"]-	c #1D0B3E",
"^-	c #20092F",
"/-	c #1A091D",
"(-	c #321C36",
"_-	c #1B0627",
":-	c #050842",
"<-	c #0C0746",
"[-	c #0B060A",
"}-	c #0F0F11",
"|-	c #0A090E",
"1-	c #333333",
"2-	c #323232",
"3-	c #1F1C2B",
"4-	c #040A1C",
"5-	c #0A0926",
"6-	c #190833",
"7-	c #0E070F",
"8-	c #1D0E21",
"9-	c #0F0A25",
"0-	c #0C0C28",
"a-	c #0A0544",
"b-	c #080A48",
"c-	c #16172C",
"d-	c #060733",
"e-	c #0C0F2E",
"f-	c #0B0915",
"g-	c #060B36",
"h-	c #090826",
"i-	c #1A1A1B",
"j-	c #121226",
"k-	c #0B0E14",
"l-	c #131121",
"m-	c #070915",
"n-	c #0B050E",
"o-	c #0B060E",
"p-	c #110C14",
"q-	c #11131B",
"r-	c #0C0B2D",
"s-	c #101231",
"t-	c #090624",
"u-	c #030934",
"v-	c #0F0721",
"w-	c #11072F",
"x-	c #0A0847",
"y-	c #0B0B3E",
"z-	c #040952",
"A-	c #030932",
"B-	c #060A2A",
"C-	c #090635",
"D-	c #0E0E0F",
"E-	c #111017",
"F-	c #0A060E",
"G-	c #070727",
"H-	c #141318",
"I-	c #080518",
"J-	c #05080C",
"K-	c #0C0A2C",
"L-	c #130F3F",
"M-	c #06062C",
"N-	c #070854",
"O-	c #070A47",
"P-	c #07071F",
"Q-	c #2E2C3B",
"R-	c #403E48",
"S-	c #3D3857",
"T-	c #0B0C20",
"U-	c #090A1B",
"V-	c #100C3F",
"W-	c #090A22",
"X-	c #0A0645",
"Y-	c #080732",
"Z-	c #0E0B3C",
"`-	c #161933",
" ;	c #0E0D14",
".;	c #191B21",
"+;	c #22203D",
"@;	c #060A36",
"#;	c #090927",
"$;	c #0C0820",
"%;	c #0C052E",
"&;	c #0F0A46",
"*;	c #0E0C12",
"=;	c #09071B",
"-;	c #080745",
";;	c #05075A",
">;	c #0E0D15",
",;	c #4E4A62",
"';	c #131539",
");	c #0A0B39",
"!;	c #100A2F",
"~;	c #120B37",
"{;	c #0E0A37",
"];	c #0A0914",
"^;	c #0A0524",
"/;	c #101111",
"(;	c #05090D",
"_;	c #140D3A",
":;	c #1C0D34",
"<;	c #130D30",
"[;	c #090A1F",
"};	c #0A0650",
"|;	c #0C0660",
"1;	c #0A0558",
"2;	c #110E20",
"3;	c #0D0E1C",
"4;	c #121034",
"5;	c #080B0F",
"6;	c #0D0F1A",
"7;	c #141734",
"8;	c #171034",
"9;	c #1A0C32",
"0;	c #0C0920",
"a;	c #080B30",
"b;	c #0B0A29",
"c;	c #060739",
"d;	c #0F0F23",
"e;	c #0F1020",
"f;	c #0B0A13",
"g;	c #131327",
"h;	c #181818",
"i;	c #0A0D16",
"j;	c #090A21",
"k;	c #08073E",
"l;	c #0B060B",
"m;	c #040728",
"n;	c #040835",
"o;	c #0B0F13",
"p;	c #0A084B",
"q;	c #0A0A20",
"r;	c #0A0922",
"s;	c #0B0543",
"t;	c #0B0709",
"u;	c #05080F",
"v;	c #0A0706",
"w;	c #0B0912",
"x;	c #120F1F",
"y;	c #131231",
"z;	c #050618",
"A;	c #060A25",
"B;	c #040821",
"C;	c #090818",
"D;	c #0B0B28",
"E;	c #14124E",
"F;	c #060749",
"G;	c #0E0E26",
"H;	c #080616",
"I;	c #191C32",
"J;	c #18181E",
"K;	c #060B3A",
"L;	c #090831",
"M;	c #080B40",
"N;	c #10113B",
"O;	c #060930",
"P;	c #110E22",
"Q;	c #101014",
"R;	c #111014",
"S;	c #050749",
"T;	c #070753",
"U;	c #10132E",
"V;	c #050843",
"W;	c #050A3E",
"X;	c #090928",
"Y;	c #4C4C7C",
"Z;	c #100F14",
"`;	c #131312",
" >	c #0B0A0E",
".>	c #0A0A0A",
"+>	c #0C061C",
"@>	c #0B073E",
"#>	c #0A0512",
"$>	c #07062C",
"%>	c #0D0D3E",
"&>	c #090C30",
"*>	c #0C0E39",
"=>	c #201F23",
"->	c #08060F",
";>	c #050617",
">>	c #080853",
",>	c #08093F",
"'>	c #080757",
")>	c #08094A",
"!>	c #07094F",
"~>	c #05093E",
"{>	c #161423",
"]>	c #0F1010",
"^>	c #040A4B",
"/>	c #08093D",
"(>	c #0A0B35",
"_>	c #100D3D",
":>	c #0A0D49",
"<>	c #0D0F4D",
"[>	c #090A2A",
"}>	c #0A0A0B",
"|>	c #0C0C0B",
"1>	c #171618",
"2>	c #0B0512",
"3>	c #080648",
"4>	c #09082F",
"5>	c #04072B",
"6>	c #0C0B10",
"7>	c #141414",
"8>	c #1B1C1B",
"9>	c #08084E",
"0>	c #0A085D",
"a>	c #050845",
"b>	c #090B36",
"c>	c #0D0C15",
"d>	c #111015",
"e>	c #030943",
"f>	c #0C074A",
"g>	c #0A085A",
"h>	c #0A0640",
"i>	c #0B0641",
"j>	c #040933",
"k>	c #0A0720",
"l>	c #070759",
"m>	c #060878",
"n>	c #050748",
"o>	c #05074B",
"p>	c #14161E",
"q>	c #0B0913",
"r>	c #121021",
"s>	c #141638",
"  . + @ # $ % & * = - ; > > > > , ' ) , , , , ! ~ { ] , ^ / ( ! / , > > _ : : / < [ } | 1 2 , , , , , 3 3 , , , , , 4 > , / 5 6 ",
"7 8 9 0 a a b c d e 5 f > g h > , 3 , , , , , i j k , l / m n o / , > > , p ! / q r s t u v , , , , , 3 3 , , , , , > w / x   y ",
"z A B C D E c F G H I J K K L , , , , , M , N O P Q R S T U 5 V W X , , > > Y Z `  ...+.@.[ , , , , , , , , , ] , , / ! #.$.%.&.",
"*.=.-.Q ;.>.,.'.;.).J J !.!.! , , , , , ] , ~.w A A R {.].].^.} /.4 , , > > (._.:.6 <.J [ { , , , , , , , , , , , , / [.}.|.1.2.",
"3.4.5.6.7.8.9.:.0.a.  k O J , , b., , , , , p : c.! k d.e.U Q f., , > g.h.6 i.j.k.9 z A l.m.> X , , n., , , o., , , /.p.q.A A A ",
"r.s.t.u.v.1.T w.x.$.y.z.> 4 , , , , , , , , , , A./ [ B.C.C.  D., , E.> Y F.G.H.I.6 {.A j.S > X J., , , , , , , , , J K.L.M.N.P ",
"O.P.Q.w.R.S.6 T.U.V.! / , , , W., , , , , , , , > > X.J A Q J J , , z Z   Q 4.Y.Z.`. +Q p , , , , , , , , , ] , , , , ! V.H .+++",
"@+#+$+Q.%+S.B &+*+> / L , , , , , , , , , , , , > > > > R A I =+, , -+Y ;+>+,+'+1.)+  !+p , , , , , , , ) , , , , , , L /.1 ~+{+",
"]+8.P.^+/+M.8 f.(+, , , , , , , , , , , , , , , , , _+:+J *+<+B [+/ S A !.}+y.}+|+Q > > 1+, , , , , , , , , , , , , 4 w 2+;+}+3+",
"4+5+e 7.N.6+k { , , , 1+o., , , , , , , , , , , , , 7+8+9+0+<+a+b+c+A {.V _.^.}+d+e+f+N , , , , , , , , , 3 , , , , > > [ >+g+R.",
"h+i+j+k+l+V./ m+, , , , , , , , , , n+n+, , , , , , o+p+q+r+s+t+u+v+}+  w+%.1.x+%.2.y+, , , , , , , , W.3 , > 4 > > z+A+!.B B+C+",
"D+/+E+! N J , , , , , F+, o., , , n+, , , , G+, , , H+I+J+K+L+M+N+O+5 6 P+j+Q+R+S+T+U+! , , n., , , , V+, / W+> O X+W+Y+Z+`+I. @",
".@|+!.+@> @@#@$@%@] 3 , , &@, , , M , M , , , , *@=@-@;@>@,@'@)@!@~@Y {.{@}+~+{+]@^@/@V.(@> , , , , _@:@<@y [@}@J |@1@Q 2@3@E 4@",
"5@9 6@y J 7@V.$@%@, , , , , , , , ' , , , , 8@9@0@a@b@c@d@,@e@f@g@h@i@z >+r 7.x.j@k@l@m@> > / , , / i i C.A C.(.n@a.o@R.p@q@r@s@",
"t@;+J N p ! , , , , , , , , , , , , , , u@v@w@x@y@z@A@B@C@D@E@F@G@H@J J I@J@{@<+K@W+5 ^.U R L@z M@w S+N@4.O@P@Q@` ` w.R@S@T@U@V@",
"k [ O > , W@, , , , , n., , , , , , , , z.X@Y@Z@`@ #.#+#@###$#%#&#*#=#-#;#>#B 8 ,#'#6 } U C.)#Z b+!#~#{#]#^#U /#(#_#:#<#-.[#}#|#",
"o x T+/ , , , ] , , , , , , , , , , 1#2#3#4#5#6#7#8#9#0#a#b#c#d#v S+e#f#{+g#h#}+}+i#v.j#;+>+l.Z k#`.:.N.(+M@9+n@8 B 4+l#5+5+(#R ",
"m#U.,#/ , , , , , , , , F+, , , n#o#p#q#r#s#t#u#v#w#x#y#z#A#s+B#W -#C#].D#a.;+|+E#F#G#4.Z 2@f P H#W M.(.p / 9+J !.I#J#e K#K#` (#",
"L#{.M#, , , , , , , , , , , _+_+N#O#P#Q#R#S#T#U#V#W#X#Y#Z#`#k  $-#v .$+$]@p.@$~+#$-.G.$$%$&$7.7.*$=$U P@c#-$J ;$>$7.r.,$'$]@&+)$",
"R !$/ , , , , , , , b., / , :+~${$]$^$/$($_$:$<$[$}$|$1$2$3$D.8 S+/.S i@c#4$5$S+6$S.J@)#7$8$9$e H 0$| G.D#$.a$|@b$c$d$&.M@+.e$f$",
"> N , , , , , g$, , , ! h$i$, 8@j$k$l$m$n$o$p$q$r$s$t$u$v$w${.{.x$y$k#i C.f z$H U@U@S.I#A$` 7.B$u.u.C$D$E$F$/+G$H$}+S.6 A I$!.^.",
"O > , , , , , p A.J$p / K$L$M$n#N$O$P$Q$R$S$T$U$V$W$X$Y$Z$`$ %.%K@+%@%M@} N.#%4.V@$%)$&+` %%8$&%H *%=%-%;%>%,%'%)%g+I#!%~%{%|+}+",
"O > , , , , , , > > , , ]%^%/%(%_%:%<%[%}%|%1%2%3%4%5%6%7%8%9%0%a%b%x.c%d%A h#h#e%<+a+}+f%A$g%h%i%j%k%l%m%n%o%p%.+}#j+E+A {.q%k#",
"> 4 , , , , , , X X , , r%s%t%u%v%w%x%y%z%A%B%C%D%E%F%G%H%I%%.0.J%G.K%L%M%F#N%3+<+O%B ;+6@P%Q%P@R%S%T%-..+U%V%&+}#}#W%x X%X%/ Y%",
", , , , , , , , , , , , , Z%`% &.&+&@&#&$&%&&&*&=&-&;&>&,&'&)&g#q@!&4.4.~&{&]&^&/&(&_&:&  2+Y <&g+C+[&}&#+|&1&&%'+2&B.f / , , 3&",
", , , , , , , , , , 3 , , 4&`%5&6&7&8&9&0&a&b&c&d&e&f&g&h&{&i&j&k&k&l&5+k.m&2@n&o&V@_&p&k 8 {.A q&R.r&}&#+s&B$8$!#&.f [ , , , , ",
", , , , , , t&3 , , , , , , , u&v&w&, , _+x&y&z&A&B&C&D&E&F&G&H&I&J&k&K&5+8.++0.d$v./.V.L&M&S.S.` U H N&.+*%u.O&c$P&/ , , , , , ",
", , , , , , , , , , , Q&/ , , R&S&v@, , _+8 T&U&V&W&X&Y&Z&F&`& *.*+*@*K&5+e [.2.n H#> #*$*%*d+&***A =*$.-*;*>*.+++&./ , , , , ] ",
", , , , , ] , , , , , ,*h > , , ] , , , ! '*)*!*~*{*]*^*/*K&(*_*:*<*[*}*5@d+k+T+L , |*1*2*7@3*5+U.k@4*M.5*6*7*8*9*0*2.4 , , , , ",
", , , , , , , b., , , p > > , , , , , / a*-#b*c*d*e*f*g*h*i*j*k*l*m*n*}*o*p*b+n / ! J > q*r*&$&$$.V.C.t ]@U%s*2@t*9+O > , , , , ",
", , , , , , , , , , , , , , > > , , , , y u*N.v*6@A w*x*y*z*A*B*C*D*E*M.F*b+k#z+(.G*H*2.J J I*1 }+J*>+}+K*L*Q+4.M*> , , , , N*O*",
", , , , , , , , , , , , , , > > , , , / z i@R S Z M.P*Q*R*S*T*U*R i@R {.V*W*|@(+X*{ J #@2.J > f+2+Y*5 Z*`*H #+d$|@N , , , ,  =.=",
", , , , , , , , , , , , , , , , , , , +=@=f B E&~+#=)#$=%=&=*=j+>+==/ ! 9+> ! : (+, , / 3&-=;=: ! y+V.J /.g#>=,=(+n+, , , , , , ",
", , , , , , , , , , , , , , , , , , / / A '=)=!=~=.+:.{=]=^=n 1./=  (=, N > , , , , , , A./ , _=, / > ~.&.]@&$:=, , , , , , <=, ",
", , , , , , , , , , z i@L / - 8 [=J*3&! i@}=|=1=&$B$2=3=4=5=P&%.E#  6=, , , , , n+n+7=8=, , , , , p O -#O@9=T+_ 4 4 &@] , , , , ",
", , , , , , , , , , i@Z :&&#B. .6 x&T+/ 0=[@%.a=b=c=d=e=f=g=2.1.>+!+_=, , , , , , , > > , n+, ] , : f+-#a.p.T+/ h=i=j=n., , , , ",
", , , , / k=l=, , , > J G*{ (.A h#5 x , / i /+m=n=o=p=q=r=s=>+f.y+, , , 4 4 ' , , , , , , M , , , ! B.>+  Z*! , t=u=, , , , , , ",
", , ] , v=w=x=, , / 9+#@>+j.C.y=z=8 / &#*#I '.& A=B=C=D=E=F=>+;+L _ G=, H=I=J=, , , , , , , , K=p , q B.B.f / ! , , 3 , , , , , ",
", , , , , , , , L=M=Z Z N=*+x W+x O=/.]#U@x.P=Q=U@R=S=T=U=V=W=#@/ X=Y=/ Z=`=, , , , , , , , , , {. -M@T+/ ! L ! , , , , , , , , ",
", , , , , , ] / ;+N.S Z .-+-@-#-$-(+f+1 x.%-5.@$c#&-*-=---;-|.V., p / / , , , >-, , , , , , , / ,-'-)-, ! (+3&/ , , !-<=, , , , ",
", , , , , , / W*U.f+~-{-]-^-/-(-_-$- $:--.<-R@9 0&[-R i@'#0.[+}-|-> , 3 , , , , , W., , , , , , h.l.{.G*Z Z / , , , 1-2-, , , , ",
", , , 3&3-/ / +.4-&#5-T*6-L$7-8-9-[.0-& F&a-b-c-j.j.z {.d-`.e-f-> > , , , , , , , , , , , , , / u*g-Q h-A Z i-, , , , , , , , , ",
", ! j-k-Y%l-m-S 9+w *.n-o y+o-p-q-r-p.a.]@9$D#s-t-a=8 B }#O@M.Z / m+, , , , , , , , , o., , , p T u-q%x (+! , , , ' , , , , , , ",
", L A z / ,#P y 4 V.Z A Y%M@v-w-8 2+V.V.v.5+x-a.y-z-3+A-B-]#C-N.(+, , , , 3 , , >-, n+D-, , , E-F-G-_&x : / , , , t&, , , , , , ",
", / H-> R Z I-/ J-Y L&5 5 K-M.N.5 ;+! / 5 L-c#7@M-N-G.O-:.M.p.p.|@N , , , , , , , , > > X X , / O w k P-(+, , , , , , , , , , , ",
", Q-R-S-M.$*&#/ Y T-U-L&B V-e.f%k B.T+, l.W-f+0.X-[#Y-Z-E*g+l@p.`-> , , n., , , , W.>  ;> > T+: Y%O .;[ / , , , , , , , , , , , ",
"{ [ z +;@;#;p / Y Y $;%;'+7.&;}+L ! *;> Z )#=;-;;;-;w+w+2.T+V.0.x >;1+, , , ] , , , / ,;q k ';_&/ / O > , , , , , , , , , , , p ",
"Z 8 Y !.A F-L / R f%););!;~;{;M&(+/ J k@B B 4.s.E ]@}.p , ];^;0.T+/ , , , , /;/ , , / ! [ >+2.9+3&, 4 > , , , , , , , , , , , p ",
">+  J J (;f%U A !.M.j+_;:;<;6@[;v M*f%M./+;#};|;1;~+`.2;3;4;0.b+L , , , , , 5;h#y+, > J k y.A (#1./ , , , , ,  =, ] , , , , p A.",
"[ f.> > y f.f (.6;(.7;8;9;<;[;[;0;a;A$b;J@R@c;P=.+V@q%Y%d;e;x Y%f;, , , , / g;Y L , J W 5 r N.t 1./ h;, , , , , , , , , , , , (+",
"> 9+/ ! !.i;[@A V.m@++b=w*j;; (.z+W%V%a+k;U@^.|+h#l;0&_+k (.; ;+f _+, , , , R Z B.x&W*m;*+]@n;(./ , , , , , , , , , , , / p / L ",
"> ~., *#(#;+o;} 1 0.p;3.q;6@f.r;[.j+a+s;.+b+^.x&[ t;[ 8 5 ; [ 5 j.t;, , , , u;Q >+x&/ / 9+c#f v;, , , , , , , , , , , , w;x;y+/ ",
";+; > 9+x / ] Y%`.d$D#m@J k@0*V.e$a+U@u.m&Q y;  [ x&z;8 |.A;f.}+7@> , , , , p ! ! p > > ! , , , , G+, , , , , , , , , , h.(;&.W+",
"5 Z*w I L p p &#B;y$S+C;7@|#S+4$D;<+E;{+F;^.8 >+[ G;z;[ J H;x&q I;p , , , , , , , , > ;$J;, , , , , , , , , , , 3 , , , (.K;e 7@",
"`.Y%; f%/.:&L;C-!.A 4.S+|@1 A=/+M;k.N;5+e 0%O;h$T+! ! ! A.A.> P;M#/ Q;R;, , , , , , , , , , , , , , n., , , , , , , > > 5 S;T;& ",
"7.n G*;+U;|#V;W;x&h#c#p J /.)#A=(#X;S+y$7.Y;M*f+, , , / p J;Z;> , `; >> , , , , , , , ) , , , , , , , , G+, , , .>, > > +>9 + @>",
"^+c+> /.Q S G;x&#>8 W+n $>a+n j#C.A %>&>V.*>7@v , , > =>p ->, , , , , , , , , J=, , , , , 1+, , , , , , , , , , , , , , , M#y.{@",
"H I O f+Z Y ;>;+t >>,>%.& V;&$7.u*z w Y%/.0+-#V., , > 8=, , , , , , , , , b., , , , , , , , , , , , , , , , A.p , , , , , , q 8 ",
"k#n 3.4.%.2.W+I V 3@'>)>!>~>B B x , J /.{>/ ! / , , , , , , , , , , , , t&, , ] , , , , , ]>; [ J J , _@, , , , , , , , , , m-Y ",
": 1.8.z-^>K@/>(>_>:><>)>[>q.;+f / }>J J , / p , , , , , , , , M , , , , ' , , , , , ' 3 , F+k >+|.|@! , , 1+, , t&, , |>1>x P i@",
"2>$>V@3>~&~&& 4>^.|+-;#+5>(+/ , 6>> , , ] , , , , , , 7>, , , , , ' , , , , , , , , , , 8>W*>+  (.Q )#[ , , , , , , , , p O@N.Y ",
"<+V;~+H 9>0>a>!.Q ^.O@]@b>c>, , d>> , , , , , , , , b., , , , n., , , , , , , , , , , W@: `.} { z u;; { , , , , , , , , V.1 A A ",
"&$e>{+j@f>g>h>i>j>B I 2.k>4 N > , , , , , , , , , , b., , , , , , , , , , W.n+, X X { [ x B;i , > > , , , , , , , ' , , 4$O@1.j#",
"E+&$x.d$l>m>l>n>o>>+/ , 4 /.9+> , 1+3 , ] n+, , , , , , 3 , , , , , , , , 7>, , > > p>}+`.x q>, X X , , , , , , , , , , r>s>%.T+"};
