/* XPM */
static char * floor_xpm[] = {
"64 64 1903 2",
"  	c #0F2111",
". 	c #142D14",
"+ 	c #0E270E",
"@ 	c #0B1D0C",
"# 	c #101E0D",
"$ 	c #0F200E",
"% 	c #0E220E",
"& 	c #0C210D",
"* 	c #0F1F0C",
"= 	c #11200D",
"- 	c #12210E",
"; 	c #12220F",
"> 	c #0C200E",
", 	c #0B1F0C",
"' 	c #0D1F0C",
") 	c #0D1C0B",
"! 	c #0D1D0B",
"~ 	c #0E1F0D",
"{ 	c #091A08",
"] 	c #081907",
"^ 	c #0B180D",
"/ 	c #081306",
"( 	c #091906",
"_ 	c #0D250E",
": 	c #122413",
"< 	c #0E220F",
"[ 	c #0F260F",
"} 	c #122A12",
"| 	c #152F14",
"1 	c #102A0F",
"2 	c #173116",
"3 	c #1C361B",
"4 	c #122F11",
"5 	c #1A3C1D",
"6 	c #17391A",
"7 	c #193819",
"8 	c #132E13",
"9 	c #081C09",
"0 	c #132814",
"a 	c #183218",
"b 	c #122814",
"c 	c #0E230F",
"d 	c #112612",
"e 	c #142611",
"f 	c #112910",
"g 	c #133013",
"h 	c #204322",
"i 	c #20431F",
"j 	c #163416",
"k 	c #203F1F",
"l 	c #224721",
"m 	c #1B3C1B",
"n 	c #1C3D1D",
"o 	c #1A3A1A",
"p 	c #214121",
"q 	c #224423",
"r 	c #1E401F",
"s 	c #193B1A",
"t 	c #1C3E1D",
"u 	c #1D4321",
"v 	c #19391B",
"w 	c #0F250D",
"x 	c #0D1C08",
"y 	c #0B1E0C",
"z 	c #102811",
"A 	c #172F19",
"B 	c #11220E",
"C 	c #162914",
"D 	c #152A14",
"E 	c #132A13",
"F 	c #0F2711",
"G 	c #102812",
"H 	c #122914",
"I 	c #112813",
"J 	c #0F2411",
"K 	c #0D210E",
"L 	c #0E200D",
"M 	c #0E1E0C",
"N 	c #122311",
"O 	c #10210F",
"P 	c #0C1D0C",
"Q 	c #0A1A0C",
"R 	c #0C1909",
"S 	c #071504",
"T 	c #142515",
"U 	c #0F2310",
"V 	c #112811",
"W 	c #173018",
"X 	c #122C11",
"Y 	c #163015",
"Z 	c #193318",
"` 	c #183217",
" .	c #153315",
"..	c #1C3E1E",
"+.	c #193B1C",
"@.	c #1A381A",
"#.	c #153214",
"$.	c #09200A",
"%.	c #172D18",
"&.	c #173316",
"*.	c #132B14",
"=.	c #142B14",
"-.	c #172C16",
";.	c #1A3219",
">.	c #143114",
",.	c #163616",
"'.	c #1E411D",
").	c #132E12",
"!.	c #122D11",
"~.	c #163816",
"{.	c #193E19",
"].	c #1C401C",
"^.	c #193D19",
"/.	c #193E1A",
"(.	c #183A19",
"_.	c #173918",
":.	c #153717",
"<.	c #1E3C1F",
"[.	c #1C341B",
"}.	c #10220D",
"|.	c #0E260F",
"1.	c #0E210F",
"2.	c #162A17",
"3.	c #19301A",
"4.	c #0E230B",
"5.	c #162C13",
"6.	c #162E15",
"7.	c #132C16",
"8.	c #112A14",
"9.	c #142D17",
"0.	c #142916",
"a.	c #112512",
"b.	c #0E210E",
"c.	c #0F1E0D",
"d.	c #112210",
"e.	c #152614",
"f.	c #0D1B0A",
"g.	c #091606",
"h.	c #0B1C0D",
"i.	c #122414",
"j.	c #102710",
"k.	c #173017",
"l.	c #183618",
"m.	c #1E4020",
"n.	c #173919",
"o.	c #183717",
"p.	c #122B12",
"q.	c #203920",
"r.	c #1A391A",
"s.	c #1B351A",
"t.	c #162F16",
"u.	c #19321A",
"v.	c #1D371D",
"w.	c #1C361A",
"x.	c #163314",
"y.	c #1F431D",
"z.	c #142F13",
"A.	c #0F2610",
"B.	c #163016",
"C.	c #1E3F1E",
"D.	c #214221",
"E.	c #1A3B1B",
"F.	c #1A3C1B",
"G.	c #1B3D1C",
"H.	c #143615",
"I.	c #173818",
"J.	c #1B341A",
"K.	c #152C16",
"L.	c #0C250C",
"M.	c #0E1F0F",
"N.	c #0E200F",
"O.	c #152C12",
"P.	c #152D13",
"Q.	c #153115",
"R.	c #112913",
"S.	c #0E250F",
"T.	c #122714",
"U.	c #0C1E0B",
"V.	c #0C1B0A",
"W.	c #0C1C0A",
"X.	c #0C1D0B",
"Y.	c #122411",
"Z.	c #132B13",
"`.	c #101F0D",
" +	c #0E1A0D",
".+	c #0B1C0C",
"++	c #0C1F0D",
"@+	c #0D240E",
"#+	c #183318",
"$+	c #132D12",
"%+	c #1C3E1F",
"&+	c #214323",
"*+	c #1F3E1F",
"=+	c #1D3F1D",
"-+	c #163216",
";+	c #193418",
">+	c #123212",
",+	c #143014",
"'+	c #163217",
")+	c #143018",
"!+	c #183319",
"~+	c #132D11",
"{+	c #1B3618",
"]+	c #1E421C",
"^+	c #122D12",
"/+	c #0D230E",
"(+	c #0E2710",
"_+	c #102912",
":+	c #112A12",
"<+	c #132C14",
"[+	c #153616",
"}+	c #173516",
"|+	c #122E11",
"1+	c #0D260D",
"2+	c #0F2811",
"3+	c #0D1D0C",
"4+	c #152A15",
"5+	c #152C15",
"6+	c #153215",
"7+	c #112510",
"8+	c #0E210D",
"9+	c #0F1C0B",
"0+	c #0D1E0C",
"a+	c #10220F",
"b+	c #0F270E",
"c+	c #10240F",
"d+	c #122111",
"e+	c #111E10",
"f+	c #0E1C0D",
"g+	c #0C1D0D",
"h+	c #0C1F0F",
"i+	c #0D2210",
"j+	c #102A12",
"k+	c #163516",
"l+	c #183819",
"m+	c #142D15",
"n+	c #112D12",
"o+	c #163517",
"p+	c #214222",
"q+	c #224624",
"r+	c #1E4120",
"s+	c #163417",
"t+	c #132C15",
"u+	c #132916",
"v+	c #152E15",
"w+	c #112A11",
"x+	c #0F2810",
"y+	c #142D16",
"z+	c #133015",
"A+	c #1B391C",
"B+	c #1C361C",
"C+	c #112911",
"D+	c #0F230F",
"E+	c #112410",
"F+	c #142813",
"G+	c #182D18",
"H+	c #1B3A1A",
"I+	c #204020",
"J+	c #1E4220",
"K+	c #1C3C1B",
"L+	c #183418",
"M+	c #122813",
"N+	c #0D1E0E",
"O+	c #132513",
"P+	c #0B1B09",
"Q+	c #152D15",
"R+	c #162F15",
"S+	c #142713",
"T+	c #101F0E",
"U+	c #0C1A09",
"V+	c #0B1C0A",
"W+	c #0F210E",
"X+	c #112710",
"Y+	c #132613",
"Z+	c #112310",
"`+	c #132815",
" @	c #152B17",
".@	c #163118",
"+@	c #1A3C1A",
"@@	c #153017",
"#@	c #132A16",
"$@	c #143016",
"%@	c #1F3D20",
"&@	c #163117",
"*@	c #0E2310",
"=@	c #0E1F10",
"-@	c #122913",
";@	c #112812",
">@	c #102711",
",@	c #152917",
"'@	c #132A15",
")@	c #102A11",
"!@	c #0D240D",
"~@	c #0C230D",
"{@	c #10230F",
"]@	c #0F220E",
"^@	c #152814",
"/@	c #192F15",
"(@	c #182E15",
"_@	c #152E13",
":@	c #143015",
"<@	c #17321A",
"[@	c #1A361D",
"}@	c #1A371D",
"|@	c #133016",
"1@	c #142A17",
"2@	c #0C1808",
"3@	c #0B1B0C",
"4@	c #112311",
"5@	c #0C1E0C",
"6@	c #0D1F0D",
"7@	c #0A1B09",
"8@	c #0F240F",
"9@	c #122811",
"0@	c #132C11",
"a@	c #122610",
"b@	c #102610",
"c@	c #183019",
"d@	c #1A341C",
"e@	c #183619",
"f@	c #204521",
"g@	c #1D411D",
"h@	c #173418",
"i@	c #152C18",
"j@	c #152E17",
"k@	c #123013",
"l@	c #0D230D",
"m@	c #0D1D0D",
"n@	c #09160B",
"o@	c #152916",
"p@	c #182C19",
"q@	c #142815",
"r@	c #122513",
"s@	c #0F1F10",
"t@	c #152B15",
"u@	c #0C200D",
"v@	c #0D200C",
"w@	c #0C1F0B",
"x@	c #132411",
"y@	c #162A16",
"z@	c #152A16",
"A@	c #122A13",
"B@	c #163017",
"C@	c #08200C",
"D@	c #091D0A",
"E@	c #0A1706",
"F@	c #0B1505",
"G@	c #0B190C",
"H@	c #0D1E0F",
"I@	c #0E240F",
"J@	c #0E220D",
"K@	c #122512",
"L@	c #0F220F",
"M@	c #0D200D",
"N@	c #091907",
"O@	c #10270E",
"P@	c #163114",
"Q@	c #1A3718",
"R@	c #102810",
"S@	c #142F17",
"T@	c #1D3C1E",
"U@	c #204620",
"V@	c #1C421C",
"W@	c #19391A",
"X@	c #102E11",
"Y@	c #1D3F1E",
"Z@	c #193018",
"`@	c #0F1B0E",
" #	c #071008",
".#	c #132314",
"+#	c #091A0A",
"@#	c #0A160A",
"##	c #0B180A",
"$#	c #122312",
"%#	c #162817",
"&#	c #0F2010",
"*#	c #0F2110",
"=#	c #132612",
"-#	c #0B1D0D",
";#	c #0D2211",
">#	c #112815",
",#	c #132C0F",
"'#	c #11270E",
")#	c #142311",
"!#	c #131F11",
"~#	c #0B1A0B",
"{#	c #0F210F",
"]#	c #132912",
"^#	c #122910",
"/#	c #132A11",
"(#	c #162D14",
"_#	c #142C12",
":#	c #102911",
"<#	c #112312",
"[#	c #0C200F",
"}#	c #0E1B0D",
"|#	c #0D1A0B",
"1#	c #10200E",
"2#	c #19341C",
"3#	c #1B3B1B",
"4#	c #163115",
"5#	c #102511",
"6#	c #132915",
"7#	c #1B391D",
"8#	c #143515",
"9#	c #132F15",
"0#	c #173319",
"a#	c #122F15",
"b#	c #112D13",
"c#	c #132E15",
"d#	c #162816",
"e#	c #0F1E0F",
"f#	c #0E1A0E",
"g#	c #050F06",
"h#	c #0A0F09",
"i#	c #0B120A",
"j#	c #081107",
"k#	c #071306",
"l#	c #061407",
"m#	c #09170A",
"n#	c #0E1C0F",
"o#	c #0A190B",
"p#	c #102311",
"q#	c #172A18",
"r#	c #0C1F0C",
"s#	c #0E1D10",
"t#	c #0A1A0D",
"u#	c #0B1A0D",
"v#	c #0E1F11",
"w#	c #122511",
"x#	c #0E200C",
"y#	c #0C1B0C",
"z#	c #102210",
"A#	c #132712",
"B#	c #142A13",
"C#	c #152E14",
"D#	c #173015",
"E#	c #102411",
"F#	c #102111",
"G#	c #0C200C",
"H#	c #1A3819",
"I#	c #1B351B",
"J#	c #142A15",
"K#	c #091A0B",
"L#	c #112C12",
"M#	c #112D11",
"N#	c #162F18",
"O#	c #162F17",
"P#	c #142C15",
"Q#	c #0E1E0E",
"R#	c #061007",
"S#	c #080E07",
"T#	c #081007",
"U#	c #091408",
"V#	c #0A1708",
"W#	c #0D1B0E",
"X#	c #081609",
"Y#	c #071508",
"Z#	c #08170A",
"`#	c #0A1B0B",
" $	c #0E2010",
".$	c #0D1F0E",
"+$	c #061705",
"@$	c #091909",
"#$	c #0C210B",
"$$	c #0E240D",
"%$	c #133014",
"&$	c #122F13",
"*$	c #122E13",
"=$	c #193219",
"-$	c #0F220D",
";$	c #132813",
">$	c #112611",
",$	c #122712",
"'$	c #183118",
")$	c #142C14",
"!$	c #102611",
"~$	c #081509",
"{$	c #142714",
"]$	c #0E200E",
"^$	c #061206",
"/$	c #081606",
"($	c #11200E",
"_$	c #122013",
":$	c #071608",
"<$	c #112411",
"[$	c #081B08",
"}$	c #0A1E0A",
"|$	c #0D210D",
"1$	c #112511",
"2$	c #0F2410",
"3$	c #142414",
"4$	c #162B15",
"5$	c #1A3119",
"6$	c #18351A",
"7$	c #173519",
"8$	c #19361A",
"9$	c #102211",
"0$	c #10210C",
"a$	c #122711",
"b$	c #162E16",
"c$	c #18331A",
"d$	c #152E18",
"e$	c #0D240F",
"f$	c #0E1F0C",
"g$	c #0A150B",
"h$	c #112010",
"i$	c #0D1B0C",
"j$	c #0F1E0E",
"k$	c #0F200F",
"l$	c #061606",
"m$	c #051105",
"n$	c #09140A",
"o$	c #0B150A",
"p$	c #071405",
"q$	c #0C1B09",
"r$	c #11220F",
"s$	c #122012",
"t$	c #051306",
"u$	c #041105",
"v$	c #122412",
"w$	c #0A1C0A",
"x$	c #0F2510",
"y$	c #0A1D09",
"z$	c #091D08",
"A$	c #0C200B",
"B$	c #122612",
"C$	c #172B16",
"D$	c #162D16",
"E$	c #163415",
"F$	c #1B3317",
"G$	c #193216",
"H$	c #173417",
"I$	c #193719",
"J$	c #0D1B0F",
"K$	c #112912",
"L$	c #102312",
"M$	c #0D1C0D",
"N$	c #0E1F0E",
"O$	c #0D1B0D",
"P$	c #0F1D10",
"Q$	c #0D190D",
"R$	c #091708",
"S$	c #091C09",
"T$	c #041505",
"U$	c #0B160C",
"V$	c #071108",
"W$	c #081408",
"X$	c #0E1C0E",
"Y$	c #10200F",
"Z$	c #060F07",
"`$	c #080E09",
" %	c #071208",
".%	c #142814",
"+%	c #0D220E",
"@%	c #112713",
"#%	c #182B17",
"$%	c #0B1E0A",
"%%	c #142D13",
"&%	c #0F290E",
"*%	c #0C1C0C",
"=%	c #0C190B",
"-%	c #091709",
";%	c #071507",
">%	c #173217",
",%	c #173416",
"'%	c #193617",
")%	c #1A3818",
"!%	c #132F12",
"~%	c #0D1D0E",
"{%	c #132A14",
"]%	c #0C250D",
"^%	c #132413",
"/%	c #0F230E",
"(%	c #09170B",
"_%	c #0A180A",
":%	c #0D220C",
"<%	c #112212",
"[%	c #061308",
"}%	c #061106",
"|%	c #0E1B0E",
"1%	c #0F1F0E",
"2%	c #061006",
"3%	c #0A110B",
"4%	c #091509",
"5%	c #0B230D",
"6%	c #18321A",
"7%	c #142E13",
"8%	c #122912",
"9%	c #0C1A0C",
"0%	c #0A1709",
"a%	c #1A3619",
"b%	c #173115",
"c%	c #142B15",
"d%	c #142913",
"e%	c #142413",
"f%	c #0C1A0D",
"g%	c #081608",
"h%	c #0C1C0B",
"i%	c #152B14",
"j%	c #0E250C",
"k%	c #182B18",
"l%	c #152617",
"m%	c #061507",
"n%	c #08140A",
"o%	c #132312",
"p%	c #132812",
"q%	c #071407",
"r%	c #0D1A0C",
"s%	c #152615",
"t%	c #152E16",
"u%	c #1A371B",
"v%	c #172B17",
"w%	c #0B1D09",
"x%	c #183117",
"y%	c #0A1A0A",
"z%	c #081C08",
"A%	c #091A09",
"B%	c #1A2D1A",
"C%	c #142C17",
"D%	c #142613",
"E%	c #112110",
"F%	c #183018",
"G%	c #0E260D",
"H%	c #0B1F0A",
"I%	c #172D17",
"J%	c #183016",
"K%	c #1B3519",
"L%	c #162916",
"M%	c #051707",
"N%	c #061508",
"O%	c #0C190E",
"P%	c #102310",
"Q%	c #081E08",
"R%	c #142B12",
"S%	c #193017",
"T%	c #102010",
"U%	c #0E1D0D",
"V%	c #0D180D",
"W%	c #0D1E0D",
"X%	c #1B351C",
"Y%	c #122611",
"Z%	c #081B07",
"`%	c #152914",
" &	c #193419",
".&	c #1A3019",
"+&	c #142914",
"@&	c #071707",
"#&	c #122713",
"$&	c #122911",
"%&	c #183015",
"&&	c #132E11",
"*&	c #122D14",
"=&	c #0B190A",
"-&	c #152B16",
";&	c #0A180B",
">&	c #0A140B",
",&	c #061108",
"'&	c #0E190F",
")&	c #112711",
"!&	c #1C381B",
"~&	c #122B15",
"{&	c #0D2410",
"]&	c #122A15",
"^&	c #122A14",
"/&	c #102712",
"(&	c #091E0A",
"_&	c #152D17",
":&	c #142915",
"<&	c #0A190C",
"[&	c #0B1E0B",
"}&	c #0A200B",
"|&	c #1A3A1B",
"1&	c #133114",
"2&	c #122C14",
"3&	c #183317",
"4&	c #1B371C",
"5&	c #0C240E",
"6&	c #132914",
"7&	c #1C3A1D",
"8&	c #163618",
"9&	c #132F17",
"0&	c #10280F",
"a&	c #193317",
"b&	c #1B391A",
"c&	c #153216",
"d&	c #122B13",
"e&	c #102410",
"f&	c #081D09",
"g&	c #081309",
"h&	c #0C160D",
"i&	c #09130A",
"j&	c #1A361B",
"k&	c #1B371D",
"l&	c #1A361C",
"m&	c #173219",
"n&	c #0D1E0B",
"o&	c #10220E",
"p&	c #122515",
"q&	c #0E2112",
"r&	c #0A170B",
"s&	c #1C3B1D",
"t&	c #102C11",
"u&	c #133012",
"v&	c #0E2D0F",
"w&	c #1C351A",
"x&	c #132C13",
"y&	c #193919",
"z&	c #1A3D1C",
"A&	c #17361B",
"B&	c #132D13",
"C&	c #112E11",
"D&	c #1C3C1C",
"E&	c #1B3B1C",
"F&	c #0A1D0A",
"G&	c #081A0A",
"H&	c #101A11",
"I&	c #071009",
"J&	c #041107",
"K&	c #0A1E0B",
"L&	c #0F250F",
"M&	c #0E240E",
"N&	c #0B210A",
"O&	c #0C1C09",
"P&	c #0D1C09",
"Q&	c #0F200D",
"R&	c #0E2110",
"S&	c #0D2012",
"T&	c #0A1809",
"U&	c #192B18",
"V&	c #1D331E",
"W&	c #162E17",
"X&	c #142F14",
"Y&	c #193A1A",
"Z&	c #19381A",
"`&	c #132F14",
" *	c #0E2810",
".*	c #0D270C",
"+*	c #1D3D1E",
"@*	c #123313",
"#*	c #1C3A1B",
"$*	c #12280E",
"%*	c #1D3B1A",
"&*	c #1A3A18",
"**	c #163116",
"=*	c #143315",
"-*	c #193218",
";*	c #172D16",
">*	c #0C1B0E",
",*	c #0C160C",
"'*	c #0E180F",
")*	c #080E0B",
"!*	c #0A130C",
"~*	c #0F1C0F",
"{*	c #081508",
"]*	c #0D2610",
"^*	c #0D180C",
"/*	c #0A1308",
"(*	c #081406",
"_*	c #0C1A08",
":*	c #173117",
"<*	c #1A3B1C",
"[*	c #203F21",
"}*	c #1F3B20",
"|*	c #173318",
"1*	c #142E12",
"2*	c #173617",
"3*	c #1A3C1C",
"4*	c #193618",
"5*	c #1D3A1C",
"6*	c #1B381C",
"7*	c #163317",
"8*	c #0D230F",
"9*	c #0C220E",
"0*	c #0F1F0F",
"a*	c #0E190D",
"b*	c #0C180A",
"c*	c #09180B",
"d*	c #0A190A",
"e*	c #061107",
"f*	c #051206",
"g*	c #0C170E",
"h*	c #152613",
"i*	c #081808",
"j*	c #071007",
"k*	c #0A1109",
"l*	c #0A1408",
"m*	c #0E1A0C",
"n*	c #12200E",
"o*	c #10230D",
"p*	c #152913",
"q*	c #1D3D1C",
"r*	c #1B331B",
"s*	c #16331A",
"t*	c #193619",
"u*	c #1A3719",
"v*	c #183417",
"w*	c #183519",
"x*	c #173317",
"y*	c #0E250E",
"z*	c #0D210C",
"A*	c #0A1C09",
"B*	c #0C180C",
"C*	c #091B0B",
"D*	c #0B150C",
"E*	c #0E1A0F",
"F*	c #19301B",
"G*	c #182F1A",
"H*	c #0F210D",
"I*	c #071307",
"J*	c #081209",
"K*	c #09160C",
"L*	c #152D16",
"M*	c #152C14",
"N*	c #142811",
"O*	c #152711",
"P*	c #1E4221",
"Q*	c #1C341C",
"R*	c #1D3F1F",
"S*	c #19361D",
"T*	c #203D1F",
"U*	c #1E3B1D",
"V*	c #143115",
"W*	c #182E17",
"X*	c #0E1B0F",
"Y*	c #09150A",
"Z*	c #142B16",
"`*	c #162D17",
" =	c #11250F",
".=	c #12240F",
"+=	c #0E1E0B",
"@=	c #0C220B",
"#=	c #112F13",
"$=	c #193C1D",
"%=	c #1D361D",
"&=	c #193119",
"*=	c #0F270F",
"==	c #183416",
"-=	c #1C391B",
";=	c #1B381A",
">=	c #1B361B",
",=	c #153015",
"'=	c #0D230C",
")=	c #192B19",
"!=	c #122212",
"~=	c #0C1C0E",
"{=	c #122313",
"]=	c #0B200B",
"^=	c #0C1C0D",
"/=	c #0F1D0F",
"(=	c #061207",
"_=	c #0B1C0B",
":=	c #041404",
"<=	c #071305",
"[=	c #081504",
"}=	c #0C1E08",
"|=	c #11250E",
"1=	c #172E17",
"2=	c #122C12",
"3=	c #132913",
"4=	c #193118",
"5=	c #152E12",
"6=	c #1C3719",
"7=	c #143815",
"8=	c #1C381C",
"9=	c #163014",
"0=	c #193217",
"a=	c #0E230E",
"b=	c #0E260C",
"c=	c #152B13",
"d=	c #162915",
"e=	c #11210C",
"f=	c #142410",
"g=	c #081908",
"h=	c #0F240C",
"i=	c #0B1F0F",
"j=	c #0C1D0F",
"k=	c #0D1A0D",
"l=	c #061605",
"m=	c #091309",
"n=	c #040E05",
"o=	c #050F05",
"p=	c #041205",
"q=	c #071109",
"r=	c #081109",
"s=	c #091009",
"t=	c #0B110A",
"u=	c #0B1A0A",
"v=	c #0B1C09",
"w=	c #0E230D",
"x=	c #112712",
"y=	c #0F240D",
"z=	c #1C391A",
"A=	c #1F4220",
"B=	c #1D3C1D",
"C=	c #153014",
"D=	c #143112",
"E=	c #122E10",
"F=	c #19371A",
"G=	c #163418",
"H=	c #153018",
"I=	c #0E1C0B",
"J=	c #091406",
"K=	c #13260F",
"L=	c #0A1B0D",
"M=	c #051604",
"N=	c #08150B",
"O=	c #070F07",
"P=	c #0A1009",
"Q=	c #0C150C",
"R=	c #0C170C",
"S=	c #0A1909",
"T=	c #1B321C",
"U=	c #1B391B",
"V=	c #1F4020",
"W=	c #1C3B1B",
"X=	c #0F2D0E",
"Y=	c #153515",
"Z=	c #234522",
"`=	c #274A26",
" -	c #234423",
".-	c #1E3D1E",
"+-	c #1C3A1E",
"@-	c #18341A",
"#-	c #143017",
"$-	c #183014",
"%-	c #111E0F",
"&-	c #091609",
"*-	c #0C1A0E",
"=-	c #0C1D10",
"--	c #0C1E0F",
";-	c #111F12",
">-	c #071207",
",-	c #060F04",
"'-	c #081707",
")-	c #0C220D",
"!-	c #0C180B",
"~-	c #10230E",
"{-	c #0F260D",
"]-	c #1A3A1D",
"^-	c #1C3F1E",
"/-	c #173414",
"(-	c #193718",
"_-	c #1D401C",
":-	c #234922",
"<-	c #244C24",
"[-	c #153817",
"}-	c #213F1E",
"|-	c #203D1D",
"1-	c #183215",
"2-	c #122A0F",
"3-	c #0E2410",
"4-	c #1D381A",
"5-	c #122F12",
"6-	c #081307",
"7-	c #102113",
"8-	c #0C2011",
"9-	c #061806",
"0-	c #0F1A10",
"a-	c #081506",
"b-	c #162C15",
"c-	c #0A1C0B",
"d-	c #0B200C",
"e-	c #172C17",
"f-	c #0B1807",
"g-	c #0E1B0A",
"h-	c #0F1D0C",
"i-	c #244926",
"j-	c #1D461F",
"k-	c #224622",
"l-	c #204320",
"m-	c #204420",
"n-	c #1B3F1B",
"o-	c #1B3E1A",
"p-	c #214520",
"q-	c #244923",
"r-	c #234722",
"s-	c #20441F",
"t-	c #162F12",
"u-	c #152F12",
"v-	c #1F3C1D",
"w-	c #071B0A",
"x-	c #061403",
"y-	c #0B1908",
"z-	c #0F2210",
"A-	c #0D1D10",
"B-	c #051508",
"C-	c #061609",
"D-	c #071809",
"E-	c #061408",
"F-	c #0F1B11",
"G-	c #0B1D0B",
"H-	c #0C1E0D",
"I-	c #102813",
"J-	c #142213",
"K-	c #0D170B",
"L-	c #041302",
"M-	c #081605",
"N-	c #0F1E0C",
"O-	c #28512B",
"P-	c #264E29",
"Q-	c #244C27",
"R-	c #1E4722",
"S-	c #1C451F",
"T-	c #1F4722",
"U-	c #1D4620",
"V-	c #18411C",
"W-	c #1E4621",
"X-	c #204A24",
"Y-	c #1F4A23",
"Z-	c #1E4922",
"`-	c #1B441F",
" ;	c #182F14",
".;	c #1A3217",
"+;	c #1A371A",
"@;	c #1C3D1E",
"#;	c #081407",
"$;	c #0A1908",
"%;	c #0D190B",
"&;	c #091608",
"*;	c #0D1F0F",
"=;	c #122215",
"-;	c #09190C",
";;	c #0F2611",
">;	c #162B17",
",;	c #051507",
"';	c #091C0A",
");	c #091B08",
"!;	c #122613",
"~;	c #122614",
"{;	c #071906",
"];	c #0F2710",
"^;	c #1A3A1C",
"/;	c #1C411F",
"(;	c #1C4520",
"_;	c #204923",
":;	c #224B26",
"<;	c #224A25",
"[;	c #1F4822",
"};	c #1F4823",
"|;	c #1E4620",
"1;	c #203D1E",
"2;	c #1B3719",
"3;	c #163213",
"4;	c #112D0F",
"5;	c #112B11",
"6;	c #142810",
"7;	c #12270F",
"8;	c #142E14",
"9;	c #112A13",
"0;	c #081208",
"a;	c #132412",
"b;	c #112013",
"c;	c #081207",
"d;	c #0B1B0E",
"e;	c #091A0C",
"f;	c #071609",
"g;	c #162917",
"h;	c #1F421F",
"i;	c #1E421E",
"j;	c #1E411E",
"k;	c #254824",
"l;	c #173A17",
"m;	c #183919",
"n;	c #1B3C1C",
"o;	c #1F4021",
"p;	c #1E3E20",
"q;	c #1A341B",
"r;	c #132711",
"s;	c #09220A",
"t;	c #08190A",
"u;	c #0B1A0F",
"v;	c #0A1D0B",
"w;	c #0D1A09",
"x;	c #152312",
"y;	c #080F07",
"z;	c #0B130A",
"A;	c #0A170C",
"B;	c #071709",
"C;	c #0F1D0B",
"D;	c #0C1B08",
"E;	c #081B09",
"F;	c #152715",
"G;	c #081A08",
"H;	c #172F17",
"I;	c #152618",
"J;	c #09210F",
"K;	c #132514",
"L;	c #1D461E",
"M;	c #1C441E",
"N;	c #1F4422",
"O;	c #1F4221",
"P;	c #21461D",
"Q;	c #264C22",
"R;	c #285027",
"S;	c #1F471F",
"T;	c #193A19",
"U;	c #163515",
"V;	c #213E1E",
"W;	c #1D471E",
"X;	c #204822",
"Y;	c #163319",
"Z;	c #172415",
"`;	c #061005",
" >	c #051005",
".>	c #0A150A",
"+>	c #091409",
"@>	c #0A1609",
"#>	c #152713",
"$>	c #162613",
"%>	c #132512",
"&>	c #162C17",
"*>	c #152512",
"=>	c #1A3218",
"->	c #162C14",
";>	c #102512",
">>	c #0B1D0A",
",>	c #0B210D",
"'>	c #0F2712",
")>	c #214721",
"!>	c #1B3F1D",
"~>	c #1A391D",
"{>	c #19381B",
"]>	c #214E23",
"^>	c #265829",
"/>	c #254D29",
"(>	c #1D4320",
"_>	c #1A3D1A",
":>	c #1E401E",
"<>	c #1B3F18",
"[>	c #1C3C1A",
"}>	c #1E391C",
"|>	c #1B321B",
"1>	c #08180B",
"2>	c #0F1B0F",
"3>	c #16321A",
"4>	c #0E280D",
"5>	c #152D12",
"6>	c #1C3118",
"7>	c #0C210C",
"8>	c #11200C",
"9>	c #0B1D08",
"0>	c #0B1F0B",
"a>	c #1E401D",
"b>	c #1E3F1F",
"c>	c #173118",
"d>	c #162E18",
"e>	c #133216",
"f>	c #1C431F",
"g>	c #255229",
"h>	c #214B23",
"i>	c #1F4820",
"j>	c #214720",
"k>	c #1C401A",
"l>	c #1E3D1B",
"m>	c #132F10",
"n>	c #0C210A",
"o>	c #0A1B08",
"p>	c #0B170B",
"q>	c #0F1D0E",
"r>	c #142C13",
"s>	c #173218",
"t>	c #1B381D",
"u>	c #1B3A1E",
"v>	c #152F13",
"w>	c #142C11",
"x>	c #0F250B",
"y>	c #112E12",
"z>	c #122211",
"A>	c #14260F",
"B>	c #152C13",
"C>	c #13250E",
"D>	c #1E3C22",
"E>	c #142F16",
"F>	c #102910",
"G>	c #1B3C1A",
"H>	c #153016",
"I>	c #203D22",
"J>	c #193E16",
"K>	c #20421B",
"L>	c #1F4019",
"M>	c #1D3A1D",
"N>	c #121F0F",
"O>	c #091308",
"P>	c #0A180C",
"Q>	c #0E1E10",
"R>	c #122214",
"S>	c #0D1D0F",
"T>	c #0C1A0B",
"U>	c #152A12",
"V>	c #0D1F0B",
"W>	c #19321B",
"X>	c #111D0F",
"Y>	c #0E1C0C",
"Z>	c #0F210C",
"`>	c #132A10",
" ,	c #1A391C",
".,	c #1A381C",
"+,	c #244323",
"@,	c #0F1C10",
"#,	c #172E15",
"$,	c #0F250E",
"%,	c #11230F",
"&,	c #0E2510",
"*,	c #1C3B1F",
"=,	c #1E3C1E",
"-,	c #183716",
";,	c #1C3B19",
">,	c #1B371B",
",,	c #1E371E",
"',	c #071B07",
"),	c #081909",
"!,	c #0C1B0D",
"~,	c #0F2113",
"{,	c #11230D",
"],	c #10210E",
"^,	c #112810",
"/,	c #183E1C",
"(,	c #183A1A",
"_,	c #091D09",
":,	c #1C411E",
"<,	c #1E431F",
"[,	c #1B401C",
"},	c #1D421E",
"|,	c #0E1D0F",
"1,	c #132A12",
"2,	c #0F240E",
"3,	c #0B220C",
"4,	c #0E2610",
"5,	c #1F3C20",
"6,	c #183B1B",
"7,	c #1D4421",
"8,	c #214620",
"9,	c #1B3D1A",
"0,	c #143113",
"a,	c #0B1A0C",
"b,	c #101D0F",
"c,	c #132B15",
"d,	c #132616",
"e,	c #101E11",
"f,	c #162A13",
"g,	c #0B1F07",
"h,	c #0D1C0F",
"i,	c #0C1E0E",
"j,	c #1C401B",
"k,	c #1E441C",
"l,	c #224223",
"m,	c #071C08",
"n,	c #183518",
"o,	c #214622",
"p,	c #1E441F",
"q,	c #1C421D",
"r,	c #1D431E",
"s,	c #182D19",
"t,	c #10260F",
"u,	c #18301B",
"v,	c #1D421D",
"w,	c #214320",
"x,	c #1B381B",
"y,	c #172E18",
"z,	c #0F1F0D",
"A,	c #132C12",
"B,	c #0E2511",
"C,	c #0B180C",
"D,	c #142B13",
"E,	c #1D3B1C",
"F,	c #1F401E",
"G,	c #21411F",
"H,	c #1B3319",
"I,	c #163316",
"J,	c #224723",
"K,	c #1A401B",
"L,	c #1F3D1E",
"M,	c #1A341A",
"N,	c #162911",
"O,	c #112112",
"P,	c #152F18",
"Q,	c #1F3C1F",
"R,	c #101E0E",
"S,	c #102B11",
"T,	c #111F0F",
"U,	c #0D1C0E",
"V,	c #0F2910",
"W,	c #153117",
"X,	c #12240D",
"Y,	c #234824",
"Z,	c #204621",
"`,	c #19311E",
" '	c #112111",
".'	c #0C190A",
"+'	c #0D220B",
"@'	c #101F10",
"#'	c #0C1D0E",
"$'	c #091B0A",
"%'	c #123113",
"&'	c #1A351B",
"*'	c #20391D",
"='	c #1B3919",
"-'	c #132810",
";'	c #0E1C0A",
">'	c #0B1B0B",
",'	c #121E0F",
"''	c #142F19",
")'	c #193319",
"!'	c #1F3A1F",
"~'	c #1A3618",
"{'	c #1B3D1D",
"]'	c #193A1B",
"^'	c #1A3418",
"/'	c #122416",
"('	c #1C381E",
"_'	c #214824",
":'	c #1E4520",
"<'	c #214621",
"['	c #1F411E",
"}'	c #102B15",
"|'	c #102412",
"1'	c #0D200E",
"2'	c #0A160C",
"3'	c #071408",
"4'	c #061707",
"5'	c #0D2111",
"6'	c #163218",
"7'	c #122C13",
"8'	c #133011",
"9'	c #254C25",
"0'	c #275228",
"a'	c #224A21",
"b'	c #143613",
"c'	c #122D10",
"d'	c #162D13",
"e'	c #163719",
"f'	c #0E260E",
"g'	c #122B11",
"h'	c #1A331A",
"i'	c #152815",
"j'	c #1A2E1A",
"k'	c #182C18",
"l'	c #19331A",
"m'	c #1D3D1D",
"n'	c #1B3D18",
"o'	c #243E23",
"p'	c #1D441F",
"q'	c #1F431F",
"r'	c #173916",
"s'	c #163619",
"t'	c #182F15",
"u'	c #112513",
"v'	c #061807",
"w'	c #152F16",
"x'	c #203E1F",
"y'	c #19351B",
"z'	c #1C3D1C",
"A'	c #234821",
"B'	c #285227",
"C'	c #295A2A",
"D'	c #285B29",
"E'	c #265327",
"F'	c #224C22",
"G'	c #224720",
"H'	c #234721",
"I'	c #204C21",
"J'	c #265129",
"K'	c #274A29",
"L'	c #182F18",
"M'	c #132713",
"N'	c #214421",
"O'	c #1F421D",
"P'	c #0E250D",
"Q'	c #1B3E1D",
"R'	c #1D4520",
"S'	c #193B18",
"T'	c #183616",
"U'	c #1B3718",
"V'	c #1E3D1D",
"W'	c #10250E",
"X'	c #081607",
"Y'	c #1E381E",
"Z'	c #244723",
"`'	c #204A1D",
" )	c #234823",
".)	c #1B3A1D",
"+)	c #1F4A1F",
"@)	c #224F26",
"#)	c #245026",
"$)	c #234F23",
"%)	c #265225",
"&)	c #29562A",
"*)	c #275528",
"=)	c #275325",
"-)	c #275324",
";)	c #255421",
">)	c #255827",
",)	c #26532A",
"')	c #1C401F",
"))	c #173216",
"!)	c #0E2910",
"~)	c #0E220C",
"{)	c #284C24",
"])	c #254E26",
"^)	c #173A18",
"/)	c #224322",
"()	c #213A1F",
"_)	c #214522",
":)	c #193B19",
"<)	c #1D3E1C",
"[)	c #1E371B",
"})	c #122B10",
"|)	c #122812",
"1)	c #0A1E0E",
"2)	c #09190B",
"3)	c #0A170A",
"4)	c #0C170B",
"5)	c #264027",
"6)	c #234B21",
"7)	c #1E451C",
"8)	c #1C4119",
"9)	c #20451C",
"0)	c #244D23",
"a)	c #264D23",
"b)	c #1D4018",
"c)	c #1D3D1B",
"d)	c #1C411D",
"e)	c #204B22",
"f)	c #244D25",
"g)	c #224821",
"h)	c #1A3C18",
"i)	c #193D1B",
"j)	c #204422",
"k)	c #204522",
"l)	c #234725",
"m)	c #1D401E",
"n)	c #193817",
"o)	c #1B331A",
"p)	c #1B3D1B",
"q)	c #2F5D32",
"r)	c #214E24",
"s)	c #163716",
"t)	c #213F20",
"u)	c #153313",
"v)	c #204724",
"w)	c #214521",
"x)	c #203F20",
"y)	c #1B3A1B",
"z)	c #0D210F",
"A)	c #1F3C1E",
"B)	c #102B0F",
"C)	c #244A23",
"D)	c #235125",
"E)	c #1D4A1F",
"F)	c #204A20",
"G)	c #1E461D",
"H)	c #1D481D",
"I)	c #264E25",
"J)	c #22471F",
"K)	c #163A12",
"L)	c #183314",
"M)	c #153012",
"N)	c #1A3E1A",
"O)	c #183A17",
"P)	c #153518",
"Q)	c #17371A",
"R)	c #1D3D20",
"S)	c #1F4121",
"T)	c #214625",
"U)	c #214524",
"V)	c #1A3919",
"W)	c #1A3918",
"X)	c #1D3E1D",
"Y)	c #265328",
"Z)	c #2C592F",
"`)	c #1E4523",
" !	c #204825",
".!	c #1D381C",
"+!	c #162E14",
"@!	c #183116",
"#!	c #1E3F20",
"$!	c #224B24",
"%!	c #1F4D21",
"&!	c #1E4B1F",
"*!	c #1F491E",
"=!	c #264E24",
"-!	c #1E4A1F",
";!	c #1F491F",
">!	c #1F451D",
",!	c #183216",
"'!	c #162E13",
")!	c #183115",
"!!	c #1F3F1F",
"~!	c #204222",
"{!	c #1C3F1F",
"]!	c #18381B",
"^!	c #143417",
"/!	c #112F12",
"(!	c #173518",
"_!	c #1B3B1D",
":!	c #183C1D",
"<!	c #1B3E1C",
"[!	c #1B3E1B",
"}!	c #1E481F",
"|!	c #234D24",
"1!	c #214020",
"2!	c #1E4623",
"3!	c #1D3B1B",
"4!	c #214826",
"5!	c #1D381B",
"6!	c #162F13",
"7!	c #11280E",
"8!	c #1B3C1D",
"9!	c #163919",
"0!	c #162912",
"a!	c #142A10",
"b!	c #1E4820",
"c!	c #1F471D",
"d!	c #20471E",
"e!	c #20441C",
"f!	c #1F421B",
"g!	c #265428",
"h!	c #1E4B20",
"i!	c #255025",
"j!	c #274F25",
"k!	c #183A1B",
"l!	c #173016",
"m!	c #143214",
"n!	c #123415",
"o!	c #1C371C",
"p!	c #152F15",
"q!	c #112B10",
"r!	c #172F15",
"s!	c #1A3519",
"t!	c #123114",
"u!	c #213E23",
"v!	c #17351A",
"w!	c #173419",
"x!	c #214A20",
"y!	c #1D3A1A",
"z!	c #1F3E1E",
"A!	c #214825",
"B!	c #1D401D",
"C!	c #133613",
"D!	c #193519",
"E!	c #1A361A",
"F!	c #122410",
"G!	c #132B12",
"H!	c #1F3E1D",
"I!	c #153114",
"J!	c #214420",
"K!	c #1E451E",
"L!	c #1D461C",
"M!	c #224B25",
"N!	c #265127",
"O!	c #224F20",
"P!	c #2C5927",
"Q!	c #244A22",
"R!	c #1A3717",
"S!	c #132D15",
"T!	c #132B11",
"U!	c #12250B",
"V!	c #192F13",
"W!	c #1D3C1C",
"X!	c #112C13",
"Y!	c #123014",
"Z!	c #1F481D",
"`!	c #2D592A",
" ~	c #1E441B",
".~	c #234724",
"+~	c #1D431D",
"@~	c #1B4520",
"#~	c #122E14",
"$~	c #1A3A19",
"%~	c #113110",
"&~	c #183419",
"*~	c #142E11",
"=~	c #1F441F",
"-~	c #1B4319",
";~	c #204220",
">~	c #193517",
",~	c #2B4F2A",
"'~	c #245224",
")~	c #285B2A",
"!~	c #255527",
"~~	c #1D391C",
"{~	c #234022",
"]~	c #1E381D",
"^~	c #1D371C",
"/~	c #122310",
"(~	c #204121",
"_~	c #1B3A1C",
":~	c #193C18",
"<~	c #2C572A",
"[~	c #265224",
"}~	c #1E411F",
"|~	c #274A28",
"1~	c #1F461F",
"2~	c #1E421D",
"3~	c #173616",
"4~	c #18381A",
"5~	c #1A3D1E",
"6~	c #1E3E1D",
"7~	c #20401F",
"8~	c #1A311A",
"9~	c #19351A",
"0~	c #112A10",
"a~	c #1D371B",
"b~	c #224420",
"c~	c #1F441B",
"d~	c #1D3C1B",
"e~	c #112610",
"f~	c #142710",
"g~	c #213E20",
"h~	c #254E28",
"i~	c #27592C",
"j~	c #28542B",
"k~	c #264925",
"l~	c #1E3C1A",
"m~	c #113012",
"n~	c #1C2E1B",
"o~	c #0E270F",
"p~	c #102A0E",
"q~	c #153516",
"r~	c #244525",
"s~	c #254726",
"t~	c #214A1F",
"u~	c #1E411B",
"v~	c #204520",
"w~	c #224825",
"x~	c #102612",
"y~	c #163318",
"z~	c #1B361C",
"A~	c #071806",
"B~	c #22421F",
"C~	c #20451D",
"D~	c #183615",
"E~	c #132E14",
"F~	c #143817",
"G~	c #183517",
"H~	c #183818",
"I~	c #163113",
"J~	c #1D381D",
"K~	c #153617",
"L~	c #1D411F",
"M~	c #254D25",
"N~	c #2B5A29",
"O~	c #214C1F",
"P~	c #1E441D",
"Q~	c #1D451B",
"R~	c #224F25",
"S~	c #224924",
"T~	c #0A200C",
"U~	c #1A2F19",
"V~	c #172A17",
"W~	c #0B1A09",
"X~	c #1E3E1C",
"Y~	c #102011",
"Z~	c #102413",
"`~	c #0F2612",
" {	c #193416",
".{	c #163214",
"+{	c #21411E",
"@{	c #182F16",
"#{	c #1B321A",
"${	c #1D3E21",
"%{	c #143317",
"&{	c #153116",
"*{	c #1E371D",
"={	c #1F421E",
"-{	c #21451F",
";{	c #1C3C1E",
">{	c #153319",
",{	c #163918",
"'{	c #214D1F",
"){	c #20441E",
"!{	c #1B4119",
"~{	c #183918",
"{{	c #265226",
"]{	c #214321",
"^{	c #1D361C",
"/{	c #10250F",
"({	c #09160A",
"_{	c #112814",
":{	c #0A1907",
"<{	c #0B1706",
"[{	c #1C3B1C",
"}{	c #0F2A0F",
"|{	c #0E2111",
"1{	c #0D220F",
"2{	c #224321",
"3{	c #20451E",
"4{	c #1B3C19",
"5{	c #21421F",
"6{	c #183617",
"7{	c #143212",
"8{	c #162B13",
"9{	c #11260E",
"0{	c #1B371A",
"a{	c #173816",
"b{	c #193518",
"c{	c #183B17",
"d{	c #244B26",
"e{	c #29532B",
"f{	c #265227",
"g{	c #245325",
"h{	c #285829",
"i{	c #2C582C",
"j{	c #0C220C",
"k{	c #102D10",
"l{	c #0B1B0A",
"m{	c #0C220F",
"n{	c #0B1A08",
"o{	c #0D1908",
"p{	c #0A1A08",
"q{	c #0D270D",
"r{	c #224520",
"s{	c #244A21",
"t{	c #254924",
"u{	c #162813",
"v{	c #142712",
"w{	c #153314",
"x{	c #182F19",
"y{	c #1D421B",
"z{	c #255226",
"A{	c #1E4C1E",
"B{	c #215221",
"C{	c #2A5E29",
"D{	c #2F6630",
"E{	c #2A552A",
"F{	c #0F2B0E",
"G{	c #143314",
"H{	c #173517",
"I{	c #10270F",
"J{	c #0B200A",
"K{	c #0A160B",
"L{	c #071C0A",
"M{	c #0C1B0B",
"N{	c #0E1E0F",
"O{	c #0D250D",
"P{	c #101F0F",
"Q{	c #162D15",
"R{	c #163219",
"S{	c #122B14",
"T{	c #244E24",
"U{	c #17301B",
"V{	c #18351D",
"W{	c #19341D",
"X{	c #132D16",
"Y{	c #285325",
"Z{	c #285726",
"`{	c #30622D",
" ]	c #31652C",
".]	c #2D662C",
"+]	c #234E24",
"@]	c #1E3E1E",
"#]	c #163514",
"$]	c #122011",
"%]	c #1A381B",
"&]	c #173618",
"*]	c #183719",
"=]	c #122A11",
"-]	c #0B190D",
";]	c #0B190B",
">]	c #0C1C0F",
",]	c #0A1C0C",
"']	c #172A16",
")]	c #193C1A",
"!]	c #244B25",
"~]	c #153213",
"{]	c #0C1D0A",
"]]	c #214922",
"^]	c #244F23",
"/]	c #244B23",
"(]	c #264E26",
"_]	c #224C21",
":]	c #2B592A",
"<]	c #2C6330",
"[]	c #2A652D",
"}]	c #2E652D",
"|]	c #275A26",
"1]	c #244E23",
"2]	c #1C3A1A",
"3]	c #0D250B",
"4]	c #162815",
"5]	c #142615",
"6]	c #0D1A0E",
"7]	c #08160A",
"8]	c #10240E",
"9]	c #224523",
"0]	c #10290F",
"a]	c #1A3D1B",
"b]	c #1F4520",
"c]	c #183917",
"d]	c #264927",
"e]	c #214B21",
"f]	c #2D622C",
"g]	c #2A602C",
"h]	c #2B5D2D",
"i]	c #235023",
"j]	c #275027",
"k]	c #224422",
"l]	c #101D0E",
"m]	c #09200C",
"n]	c #0C190C",
"o]	c #0D220D",
"p]	c #091F0A",
"q]	c #10260E",
"r]	c #163617",
"s]	c #1C3B1E",
"t]	c #0D2910",
"u]	c #0F2B11",
"v]	c #173114",
"w]	c #244C21",
"x]	c #234F22",
"y]	c #1A3B1A",
"z]	c #133213",
"A]	c #2D5F2D",
"B]	c #265425",
"C]	c #275128",
"D]	c #0F2E10",
"E]	c #111C11",
"F]	c #0C1A0F",
"G]	c #0A160D",
"H]	c #0A1A0B",
"I]	c #0A1409",
"J]	c #0B1608",
"K]	c #091705",
"L]	c #0B210C",
"M]	c #1B311C",
"N]	c #0F280F",
"O]	c #0B180B",
"P]	c #0F1E11",
"Q]	c #0F2412",
"R]	c #204120",
"S]	c #254C23",
"T]	c #245022",
"U]	c #1E4D1B",
"V]	c #173717",
"W]	c #224A23",
"X]	c #275028",
"Y]	c #1A3F17",
"Z]	c #274F23",
"`]	c #265727",
" ^	c #224D22",
".^	c #17331D",
"+^	c #0E160C",
"@^	c #11270F",
"#^	c #081709",
"$^	c #0A1B0A",
"%^	c #061D06",
"&^	c #162F14",
"*^	c #10290E",
"=^	c #0B1C08",
"-^	c #142514",
";^	c #1A3F1B",
">^	c #254B26",
",^	c #1F4320",
"'^	c #193717",
")^	c #264D27",
"!^	c #244F27",
"~^	c #255125",
"{^	c #264F26",
"]^	c #254A26",
"^^	c #1E3F22",
"/^	c #122810",
"(^	c #0A1707",
"_^	c #091F0B",
":^	c #102B10",
"<^	c #1E371C",
"[^	c #122C10",
"}^	c #0F200C",
"|^	c #214821",
"1^	c #254E24",
"2^	c #254B25",
"3^	c #244A25",
"4^	c #1B3E1E",
"5^	c #153316",
"6^	c #132F13",
"7^	c #0D2A0E",
"8^	c #102510",
"9^	c #1C331D",
"0^	c #102A10",
"a^	c #1E3B1E",
"b^	c #0D1E0A",
"c^	c #0F230C",
"d^	c #1C441C",
"e^	c #2A502B",
"f^	c #173A19",
"g^	c #0A200A",
"h^	c #0B230B",
"i^	c #0C220A",
"j^	c #0F1C0C",
"k^	c #061306",
"l^	c #142513",
"m^	c #143215",
"n^	c #182A17",
"o^	c #0D290F",
"p^	c #0F2B10",
"q^	c #173619",
"r^	c #224823",
"s^	c #234924",
"t^	c #214722",
"u^	c #244726",
"v^	c #1E3C1D",
"w^	c #21431F",
"x^	c #1D451F",
"  . + @ # $ % & * = - ; > , ' ) ! ~ { ] ^ / ( _ : < [ } | 1 2 3 4 5 6 7 8 9 0 a b c d d e f g h i j k l m n o p q r s t u v w x ",
"y z A < B C D E F G H I J K L M N O O P Q R S & T U V W X Y Z `  ...+.@.#.$.%.&.*.=.[ [ -.;.>.,.'.).!.~.{.].^./.t (._.s :.<.[.}.",
"|.1.2.3.4.5.6.a 7.8.7.9.0.a.b.c.d.~ ~ e.c f.g.h.i.U j.k.Y 2 Y Y l.m.n.7 o.p.q.r.s.t.t.k.u.v.w.x.y.z.A.B.C.D.r E.F.G.H.I.,.>.J.K.",
"L.M.N.t.O.P.| Q.R.S.A.I T.U U.V.~ W.X.Y.Z.`. +^ .+++@+} | Y #+$+j %+&+*+=+-+;+>+Q.,+#+'+)+!+~+{+]+^+2./+(+_+:+<+[+t q F.}+|+1+2+",
") 3+$ Y.4+5+a 6+7+8+8+' 9+f.f.f.W.0+0+a+b+c+d+e+f+g+h+i+j+k+l+m+n+o+p+q+r+s+t+u+m+v+w+x+8.y+z+A+B+x+} C+D+E+F+G+H+I+r J+K+L+M+N+",
"O+0+P+3+1.M+Q+R+S+E+8+' T+f.U+U+] X.V+W+X+D Y+Z+d.O+`+ @.@G.+@@@#@2+$@%@*+&@*@=@K.-@;@>@,@'@)@#+;@!@~@-@{@]@Y.^@/@(@_@:@<@[@}@|@",
"1@Y.U+2@3@b.d j.{@E+{@E+4@5@6@U.7@] 7@X.8@9@P.0@a@b@c@d@e@f@g@h@i@j@.@k@$+l@m@n@o@p@q@r@s@V+& t@u@a.u@a.S+v@w@v@`.x@y@z@A@<+B@B@",
"C@D@E@F@G@H@U I@{@J@c+D+K@K@L@M@$ V+N@P+v@O@P@Q@;.R@x+S@T@U@V@W@z+X@n Y@Z@a+`@ #H@.#s@+#@###$#' N+%#&#*#=#{@' ]@g+-#;#>#,#'#)#!#",
"5@V+N@N@~#{#7+]#^#/#(#_#:#S.< <#[#M.}#|#1#J@~@2#3#4#5#H@6#7#8#9#0#a#b#c#d#e#f#g#h#i#j#k#l#m#n#o#p#q#b.r#d.d.O N s#t#u#v#w#C S+x#",
"d.$ V+] y#z#A#B#C#D#D#0@:#S.E#F#M@M@d.M G#d /+z H#I#J#N.K#L#M#A@N#O#m+P#{#Q#@#R#S#T#U#V#W#X#Y#Z#{#Y+5@r#7@0+7@X.`#.+ $.$w@v@E+=#",
"0+{ ] +$@$5@#$$$M#%$&$*$=$=.a.<#-$-$;$=.S.I@>$,$v+'$)$!$~$8@R@< z#b.{$]$X.m@^$R#j#U#/$($_$Y#l#:${#<$[$M@0+7@+${ }$|$1$2$8+v@v@v@",
"' d.d.d.3${$4$5$6$7$8$7$'$=.E#9$0$a$b$c$d$e$}$f$/+*.<+w+g${ {@h$i$i$i$j$k$l$m$n$o$p$q$r$s$t$u$Y#v$z#r#r#N d.7@w$x$/+-@J#w#]@v@y$",
"z$A$B$C$D$C##.E$F$G$H$T@I$w+N.J$N+U V K$L$ $g+.+M$N$a$(#O$X#O$P$Q$R$~ E+S$T$G@U$V$W$X$N$Y$Z$`$ %.%+%c @%8+#%y$$%%%&%$+R+B#7+a+*%",
"=%-%;%X$x$)$>%,%'%)%m n !%|.u@~%  o@{%]%u@u@E#a.^%L@/%F+P$l#(%G@_%3+^@:%S$<%P$[%}%|%1%z#Y.2%3%4%d.B$5%6%=#S+y$8+B.7%7%7%8%8@Z+y#",
"##9%0%-%6@J#<+| H$I$a%b%=.>@d % N+E#{%Z.8%c%D$K.d%w#Z+e%f%X#Y#g%h%=#i%j%k%l%m%n%##o%y$p%d%q%g$r%=%s%t%u%v%8+w%c+x%2 Y 7%B#7+z#y%",
"z%/%J@z$A%B%c%Z.C% @D%E%<$d M+>@9$U >@m+F%W . :+G%H%m@f+X#m#t$_%W+I%J%K%L%M%N%O%0+P%Q%R%S%T%4%U%V%W%X%o+Y%Z%$%`% &7%` X .&+&U.@&",
"`.(#%%#&J@$&%&&&*&H 5@=&L@K@<$K@{@E+E+1$-&J#!$!$~%:$m#;&g$>&,&'&W%)&!&H+~&{&]&i@^&/&(&c+_&:&y%W$<&g+J#;@.$[&}&t.|&1&&@2&3&4&5&) ",
"6&7&8&9&5+0&a&b&c&d&e&0+b.b.b.L@E+=#E+S+B$G#f&D+f%G@G@;&g&h&R#i&N%y Q+L+j&k&l&m&_&6&L n&o&P%p&q&r&+#Y+0 P%x$:#>%|&s&t&2&u&m.v&w&",
"x&y&z&A&j@B&C&D&E&8$5+]@M@M@r#F&y$]@=#<$M.G&+#M.G@f%W#G@V$H&V$R#I&J&K&;@L&b@M&N&}&v@O&P&Q&]@R&S&Q$T&W.U&V&W&X&@.Y&Z&`& *.*+*@*#*",
"$*%*&***m+0#=*I.m.l.-*;*P%b.b.M@y$y$v@W+u#Z#>*u#W#f%W#G@,*'*V$R#)*!*N%9$~*{*^${*w@f$q$- ]*(&~#^*/*(*_*Q&D$:*,%o.<*[*}*<+$ N#|*1*",
"E 2*3*|@6+4*5*@.7&6*7**$H 8*9*x$]#A$5@0*a*b*# X.u#<&>*c*Q#d*4%e*f*(%X#f%g*R#V$'&e$I@^@h*W+i*{*j*k*l*m*n*o*p*6.'$L+6+r.q*C+b$r*} ",
"5+2*3*s*t*u*v*v*c&w*h@x*c%[ y*S.;*z*A**%B*T&Q&W+N+-#C*g+O @&q% %f*;&G@;&D*V$g#E*F*G*1$H*X.~#I*J*K*c*=@2.L*M*N*O*O*_@[+P*=$Q+Q*V ",
"b$I$R*S*>.T*U*v*7*V*7*c&B.k.t.. W*H%W+y#f%g+Y+,$E#D+& |$0+@$m$i&q%G@X*m#i&J*R#Y*Z*`*% x#X.@&m$R#n%c*.+2$:+C+ =.=+=@=#=$=%=b$&=*=",
"5+}+E.}@4 ==-=;=w*u%-+:@-+>=Z ,='=c+)=!=~={=d I@%.c x$]=5@^=q%i&;&O$/=g%>&i&R#(=I /+G#U._=:=^$g#T#/*<=[=}=|=1=t%9*A.w+2=m+b$5+R@",
"w#3=4=3&&$5=6=7=H+8=m+J#9=0=B#a=b=c=d=e.e=f=! g=r$_ <+h=i=j=k=W$A%W%N$l=m=D*n=o=0+X.d.h%W#p=X#G@q=r=s=t=u=v=w=Z@d&;@E#]$a=-&J#x=",
"N${@y=_#z.b%z=A=B=,%C=,=D=E=_@5$F=G=H=9.<+F+I=J=K=W W&x#L=j=s#;&_=V+~ l=>&>&R#g#M=X.O ] n#n#t$W#N=J*O=P=Q=R=S=0+)$T=o@.$c !$I@/+",
"}#3+F&M&%%U=V=W=#.X=Y=Z=`= -.-7&(.E&+-@-#-V X.i$$-#+'@%-&-*-=---V+V+$ { i&V$V$>&l=~ 0+] m#;-X#;-<&m#>-,-j*I*'-h%K$3.a.C*& )-!$x=",
"!-0%h%~-{-]-^-/-v*(-_-:-<-g@[-E&}-|-1-2-w $$3-i@4-5-B$`@6-n#7-8-9-0+~ $ Y*e* %0-1%$ 7@~ Z#c*:$n#g+Q#|#a-u=Z+F+b-m+{%, c-d-;$e-c ",
"f-f-g-h-y*7*i-j-k-l-m-i _-n-o-'.p-q-r-s-#*t-u-l.v-| c%w-x-U a.y-F&# I=z-A-B-C-s#Z+Z+' D%4@D-E-F-G-P%K@6@~ $ O ' H-.$g+H-I-v%J-K-",
"L-M-f.N-% L#h O-P-Q-R-S-T-U-V-W-X-Y-Z-`-l. ;.;+;@;:@L@#;U+N { $;{=%;&;*;=;A--;j=;;A.I H >;{#,;X*';S$P%Y+~ 0+7@);K !;K ~;M+Y.i$>-",
"{;A*G-L N.];^;/;(;T-_;:;<;[;};|;1;2;3;4;5;6;7;8;7#9;@&0;V+$;y-a;b;c;l*u#A-A-d;e;c 6&;$a=c@%.';&#L@4@b.L@$ W.] A*M&c%-@j.{@$ @$f;",
"g;[&A*L@T%8*6$^-^.h;i;j;k;k;i l;m;n;o;p;q;r;:%s;9@L@t;u;v;w;x;v$[%y;z;A;c*f;N%B;_*C;C;D;0&c%K E;<$F;P%' W+a;~ G;s;H;W j.* P+`#I;",
"J;m@=%K;< *;t.l-L;M;N;O;P;Q;R;S;T;U;Q@V;W;X;m.Y;K 6@{#{#$%N Z;{*`; >(%c*.>V%U#+>@>T&' #>$>%>1$d &>S+L *>=>->G#Z+8;W&;>H->>,> @d#",
"5@7@K&'>c : w+l-)>!>n;~>{>J+]>^>/>(>_>:><>[>}>|>F;G-5@5@Y.Z+R$I*`;4%s#1>{*f#2>B*B*T&);w@)&K$S@3>M#4>5>6>D%7>f 2 c%8@r#5@8>A#w=8>",
"9>y*j@R.0>: R@a>b>2*|*c>d>e>f>g>h>i>j>k>l>m>n>o>M-S U+x;{@A*=&I*>-p>>*1>N%>*>*>*Q$q>%>^@r>s>t>u>L+v>w>x>9*`*#+y>z>M x#}.A>0&B>C>",
"'$D>E>}.r#*#F>G>4*C=)${%^#} H>I>:-J>K>L>q*M>-@1._*E@g-N>L A*S=^$O>p>P>1>d;Q>R>S>Q$T>W+=#U>(#Y &@K.a=V>]@s+@-W>6&X>Y>Z>`>Z  ,.,$+",
"+,>=x$k$@,N.w+(-#,W*$,9@%,a=&,~&*,=,-,;,}+>,,,5+d-',),!,~,x=e&2>&-l#f%m#p#o*{,: <&.+% a=],~-^,r><$V }+o-/,(,s>V _,H@e&g :,<,[,},",
"W=).5#F#|,y P#,=1,$,2,9@Z+/%3,4,w+5,6,7,8,9,o.0,t@d g+a,b,b@c,d,e,;&G@f%{#f,g,9$h,i,_,x$=#t@t.|  &B=j,k,l,6*d&M+m,~=<$n,o,p,q,r,",
"b&-+s,{=, x=J#8%t,X+W*9@o&>$A.u,+&d&7$+.v,w,k x,y,d .+>*z,A,'+B,P$;&X#C,V.D,D,Y>;-g+G#M+ @K$s>6*E,D&F,G,H,a$,$z-% ~=1$I,J,r,r,K,",
"L,M,d c-~@x=5#e&j.1=.&t,L e&!$;;z#8+{,N,#.-+B@1=x$d-N$O,P,Q,4#>>X#G@e,e,R,S,M,T,U,i,2$-&c,V,W,7*,%x*Y R@X,r$G-L$s,h.< s+Y,p,Z,r,",
"`, '.'.+[&K )-x=*&k.->+'w@W+@'~*~%#'$'r#;>%'G.&'y+d&C#*'r-='-';'>','e%'')' &!'x%y$v@w@7+1 !.4#C=~'{']'^'V*-$=&/'('' L F=_':'<'['",
"}'e&a+#&=.{%I@I@|'1'P W%v@Z+q>p>2'3'4'D+5'y+6'7'8'9,9'0'a'b'c'd'e'X&f'|.g'. R+h'i'v@E+W++%;$j'k'{$l'm'n'p+o'}$~;%@B$A$W@T-p'q'r'",
"s'2 t'Z 7 +;1={$N$5@1.u'^@' =&W$n%v'w'x'm&]&y'z'A'B'C'D'E'F'G'H'I'J'K';+K$L'{%L&{@w#S+=#M';$5#5#L$w=P@N'O'D.'+$$l,5$P'Q'R'r,i;S'",
"!>T'U'V'_-r.)$E#W'^#w+*&|$);X'q%',Y'Z'`' ).)Y&+)@)#)$)%)&)*)=)-);)>),)')6&:&J#3-J@7>z*p%C=))4#).!)~)-$B@{)])^)1*/)()0@_)R'r,m-['",
":):)G><)[)7%-+G=P@})R%|)1)2)3)4)1*5)n,G'6)7)8)9)0)a)P;b)c)a>d)R-e)f)g)h),=B.,=#+i)j)j)k)l)m)n)U'o)S%(#_#p)q)r)s)t)u u)v)<,q'w)m-",
"x)V'y)b&R+D#6*F===D#D,|)*@z)]${#A)&=B)C)D)E)F)G)H)I)J)K)L)M)E$y)d)d)N)O)P)Q)~>R)m.S)S)&+T)U)r+{'V)W)W=H+X)Y)Z)K+V'`))% !g@i;i;g@",
".!3&a%3&+!x%7*7$4-@!(#t@t,=.)@c$#!t,2-$!%!&!*!=!-!;!R;>!a%,!'!)!r.!!~!{!]!]!]-^!/!I,I,(!v _!+.:!r <![!t V'}!|!1!(-2!3!4!i;g@q'q'",
"| | Y Y A,R+u%7&5!6!1,p%7!a&k@8!9!0!a!b!c!d!e!f!g!h!i!j!k!s+Y l!9=m!n!k!o!M,p!q!A,x%l!R+$*r!s!t!$@u!v!w!='G)x!y!}+7,z!A!r,q'B!C!",
",=,=H>8;8 D!E!D!G=,=|)F!G!9=8'H!I!K.X J!K!L!h;@@M!N!O!P!Q!R!R+P,4*;=-=-=c$D a$S!Z 2 Y $+T!U!V!W!@@X!8$Y!}+Z!`! ~_..~+~W;@~.-6!#~",
"q*q*$~%~p!;.=$:*7*&~)&L B#g'*~v-C##&<+C.=~-~;~^&>~,~'~)~!~J)/-~~{~U*4*-='+O@B>W,Y ]~^~2 .%/~|=a&(~_~V*W,w':~<~[~}~|~1~G)2~3~4~5~",
"m 6~7~o.L'c%c%8~.,9~)&o>^@9@0~a~`*H-x=;=b~c~d~e~f~g~h~i~j~k~l~K+u*0,4*5*m~6!b%_~>%g'2 2 n~`*o~p~q~r~s~_>}+E$_-t~}~.~1~G)u~v~w~P*",
"H>!+>=M,%.x~c x=y~z~d%A~1%L%B#=>y@3@y 4#B~C~D~{@B$E~~!W--+'!>~F~G~,%#.H#H~~'I~+*J~Y ` x%P.K~L~='A =*M~N~O~1!B+V)I.<!P~Q~;!R~S~6=",
"T~8%C#**L*L*K$S.t,U~V~@$@#z>D,P@6#W~w;Y.X~['z.Y~Z~`~N#('D$)$C=j  {.{7 R*+{.{@{#{${%{&{*{-=K+={-{;{>{,{&!'{){'.!{H+~{j,G'N!{{]{4@",
",>>@x&^+x%^{-*F>X+/{Z+*%({u={@D,_{:{<{o>))[{}{&#|{1{_ c>7 2{={3{4{5{n-n-6{7{;=-*x&#{8{9{9@P#>%!&0{&=x%O)a{|*b{c{d{e{f{g{h{i{H~j{",
"d 8%. 8 n,t*+;k{B#p%Y.0*r%T&l{1%m{n{o{p{>$` q{N.M.L@M&G!T;r{s{c!+@m'W!#.)$c{t{E!u{v{F+b@++2$Q+Y w{5+4+7%k.x{**y{z{A{B{C{D{E{,.F{",
"0.5+t.-+7 G{r.H{I{J{5@y#T>3)K{B*L{W~g-M{N{>@O{|'P{O Y%Q{&.7 G>:~R{S{+&%,,@+~T{(!|$5#U{V{h'` G~y)L~W{1@X{>%>%<)Y{O~Z{`{ ].]+]@]#]",
"$]<$7'%]&]A d>*]E$=]5@-];&G@G@f%s#O$;]f%>],]e&I ]@v@]@']/+6&-@`*: i,c-`#8+)]!]~]{]P $@]]^]/]5{'%3~@.Q.,=o+j;(]_]:]<][]}]|]1]2]3]",
"p%;.>,o+R@4]%>[ t.%.5]6]7]f%W#f%f%f%;&f%W#`#E+#&{@8+v@^@x=!$I@x$|'a., a.8][+9]0]A*>';@a]b][!7{I~U=b&Y=c]J,d]q'e]f]g]h]i]j]k]^,l]",
"{-1,A.m]*%d=o&h%1.O+&#Q m#;&W#f%W#n]G@m#B*T>p{Y.=#8+{@w#o]I@p]5#y,M&y*=.q]r]s]n&>>O$*;t]u]*$).v]b{3#y.w]x]y]z]F)A]B]*!C])>D], E]",
"5@*%F]G]>]j@5&<&^ *-Q H]9%W#f%G@G@W#G@m#I]J]K]f$']{@=#{@0 )-L]M]8%R@N])$^#H{S!O]E+s$P]3-Q]&,f 6!E!R]S]T]U]V]'+W]X]Y]Z]`] ^[!R+d.",
".^B,9%+^.$H;@^g.m#(%#^_%g=7@7@$^W#f%G@;&>&4%i*6@#&M+x=6&#&%^;.a /%&^*^M'>$G+o&=^a@-^z-.@9~7&V=j;;^r,U@>^,^)%'^h '.k-)^!^~^{^]^(~",
"^^4&a$P+1'5$/^(^3)f%n#f%g=7@V+7@f%G@;&m#J*I*~#~ 8@6&J#-&_^|)^{:^a=<^[^M'2$8@H*}^|=a;1'@-Y@n-|^1^2^K,3^3^t ='V)s 4^4~5^6^<+H>Z&@]",
"7^B&3=0>M@Q{7;.';&C,G@G@V+X.V+] ;&m#;&;& %^$~%a;8^/+6&!$,>9^. 0^&,a^5- @I@B$H*b^c^N$1'b#G.[,d^L!b]Z,e^},F.E,H#f^$=;{7&C=^%r#g^G%",
"2${#*;j=w$h^i^j^k=f%n#e,W%X.X.0+G@;&m#G@>&k^M$l^>$)-x=)->;y,g'>%R.F=m^u,6&7>n^B |=P 1.o^p^q^n;9]r^s^t^t^u^v^)%F.w^w):'x^K%W'>>h%"};
