/* XPM */
static char *_6baf4c1852f4ce2a98af9c82034779421B1jJstbE1uBgcw[] = {
/* columns rows colors chars-per-pixel */
"384 384 15 1 ",
"  c #4F3309",
". c #5C3C0C",
"X c #694714",
"o c #745019",
"O c #805C24",
"+ c #83612A",
"@ c #90703D",
"# c #294EA5",
"$ c #315BBD",
"% c #AEAEAE",
"& c gray74",
"* c #94C1EC",
"= c #FFDBFC",
"- c #E4E8EC",
"; c #F4FAFF",
/* pixels */
"************************************************************************************************************************************************************************************************************************************************************************************************************************************************************************************************",
"************************************************************************************************************************************************************************************************************************************************************************************************************************************************************************************************",
"************************************************************************************************************************************************************************************************************************************************************************************************************************************************************************************************",
"************************************************************************************************************************************************************************************************************************************************************************************************************************************************************************************************",
"************************************************************************************************************************************************************************************************************************************************************************************************************************************************************************************************",
"************************************************************************************************************************************************************************************************************************************************************************************************************************************************************************************************",
"************************************************************************************************************************************************************************************************************************************************************************************************************************************************************************************************",
"************************************************************************************************************************************************************************************************************************************************************************************************************************************************************************************************",
"************************************************************************************************************************************************************************************************************************************************************************************************************************************************************************************************",
"************************************************************************************************************************************************************************************************************************************************************************************************************************************************************************************************",
"************************************************************************************************************************************************************************************************************************************************************************************************************************************************************************************************",
"************************************************************************************************************************************************************************************************************************************************************************************************************************************************************************************************",
"************************************************************************************************************************************************************************************************************************************************************************************************************************************************************************************************",
"************************************************************************************************************************************************************************************************************************************************************************************************************************************************************************************************",
"************************************************************************************************************************************************************************************************************************************************************************************************************************************************************************************************",
"************************************************************************************************************************************************************************************************************************************************************************************************************************************************************************************************",
"************************************************************************************************************************************************************************************************************************************************************************************************************************************************************************************************",
"************************************************************************************************************************************************************************************************************************************************************************************************************************************************************************************************",
"************************************************************************************************************************************************************************************************************************************************************************************************************************************************************************************************",
"************************************************************************************************************************************************************************************************************************************************************************************************************************************************************************************************",
"************************************************************************************************************************************************************************************************************************************************************************************************************************************************************************************************",
"************************************************************************************************;;;;;;;;;;;;************************************************************************************************************************************************************************************************************************************************************************************",
"************************************************************************************************;;;;;;;;;;;;************************************************************************************************************************************************************************************************************************************************************************************",
"************************************************************************************************;;;;;;;;;;;;************************************************************************************************************************************************************************************************************************************************************************************",
"***************************************************************************************;;;;;;;;;;;;;;;;;;;;;;;;*********************************************************************************************************************************************************************************************************************************************************************************",
"***************************************************************************************;;;;;;;;;;;;;;;;;;;;;;;;*********************************************************************************************************************************************************************************************************************************************************************************",
"***************************************************************************************;;;;;;;;;;;;;;;;;;;;;;;;*********************************************************************************************************************************************************************************************************************************************************************************",
"************************************************************************************;;;;;;;;;;;;;;;;;;;;;;;;;;;;;;******************************************************************************************************************************************************************************************************************************************************************************",
"************************************************************************************;;;;;;;;;;;;;;;;;;;;;;;;;;;;;;******************************************************************************************************************************************************************************************************************************************************************************",
"************************************************************************************;;;;;;;;;;;;;;;;;;;;;;;;;;;;;;******************************************************************************************************************************************************************************************************************************************************************************",
"*********************************************************;;;;;;;;;;;;;;;;;;;;;;;;;;;;;;;;;;;;;;;;;;;;;;;;;;;;;;;;;******************************************************************************************************************************************************************************************************************************************************************************",
"*********************************************************;;;;;;;;;;;;;;;;;;;;;;;;;;;;;;;;;;;;;;;;;;;;;;;;;;;;;;;;;******************************************************************************************************************************************************************************************************************************************************************************",
"*********************************************************;;;;;;;;;;;;;;;;;;;;;;;;;;;;;;;;;;;;;;;;;;;;;;;;;;;;;;;;;******************************************************************************************************************************************************************************************************************************************************************************",
"******************************************************;;;;;;;;;;;;;;;;;;;;;;;;;;;;;;;;;;;;;;;;;;;;;;;;;;;;;;;;;;;;;;;;;;;;;;;;;;;;;;************************************************************************************************************************************************************************************************************************************************************",
"******************************************************;;;;;;;;;;;;;;;;;;;;;;;;;;;;;;;;;;;;;;;;;;;;;;;;;;;;;;;;;;;;;;;;;;;;;;;;;;;;;;************************************************************************************************************************************************************************************************************************************************************",
"******************************************************;;;;;;;;;;;;;;;;;;;;;;;;;;;;;;;;;;;;;;;;;;;;;;;;;;;;;;;;;;;;;;;;;;;;;;;;;;;;;;************************************************************************************************************************************************************************************************************************************************************",
"***************************************************;;;;;;;;;;;;;;;;;;;;;;;;;;;;;;;;;;;;;;;;;;;;;;;;;;;;;;;;;;;;;;;;;;;;;;;;;;;;;;;;;;;;;;;******************************************************************************************************************************************************************************************************************************************************",
"***************************************************;;;;;;;;;;;;;;;;;;;;;;;;;;;;;;;;;;;;;;;;;;;;;;;;;;;;;;;;;;;;;;;;;;;;;;;;;;;;;;;;;;;;;;;******************************************************************************************************************************************************************************************************************************************************",
"***************************************************;;;;;;;;;;;;;;;;;;;;;;;;;;;;;;;;;;;;;;;;;;;;;;;;;;;;;;;;;;;;;;;;;;;;;;;;;;;;;;;;;;;;;;;******************************************************************************************************************************************************************************************************************************************************",
"***************************************************;;;;;;;;;;;;;;;;;;;;;;;;;;;;;;;;;;;;;;;;;;;;;;;;;;;;;;;;;;;;;;;;;;;;;;;;;;;;;;;;;;;;;;;;;;***************************************************************************************************************************************************************************************************************************************************",
"***************************************************;;;;;;;;;;;;;;;;;;;;;;;;;;;;;;;;;;;;;;;;;;;;;;;;;;;;;;;;;;;;;;;;;;;;;;;;;;;;;;;;;;;;;;;;;;***************************************************************************************************************************************************************************************************************************************************",
"***************************************************;;;;;;;;;;;;;;;;;;;;;;;;;;;;;;;;;;;;;;;;;;;;;;;;;;;;;;;;;;;;;;;;;;;;;;;;;;;;;;;;;;;;;;;;;;***************************************************************************************************************************************************************************************************************************************************",
"******************************************;;;;;;;;;;;;;;;;;;---;;;;;;;;;;;;;;;------;;;;;;;;;;;;;;;;;;;;;;;;;;;;;;;;;;;;;;;;;;;;;;;;;;;;;;;;;***************************************************************************************************************************************************************************************************************************************************",
"******************************************;;;;;;;;;;;;;;;;;;---;;;;;;;;;;;;;;;------;;;;;;;;;;;;;;;;;;;;;;;;;;;;;;;;;;;;;;;;;;;;;;;;;;;;;;;;;***************************************************************************************************************************************************************************************************************************************************",
"******************************************;;;;;;;;;;;;;;;;;;---;;;;;;;;;;;;;;;------;;;;;;;;;;;;;;;;;;;;;;;;;;;;;;;;;;;;;;;;;;;;;;;;;;;;;;;;;***************************************************************************************************************************************************************************************************************************************************",
"************************************;;;;;;;;;;;;;;;;;;;;;;;;;;;------;;;;;;------;;;;;;;;;;;;;;;;;;;;;;;;;;;;;;;;;;;;;;;;;;---;;;;;;;;;;;;;;;;;;************************************************************************************************************************************************************************************************************************************************",
"************************************;;;;;;;;;;;;;;;;;;;;;;;;;;;------;;;;;;------;;;;;;;;;;;;;;;;;;;;;;;;;;;;;;;;;;;;;;;;;;---;;;;;;;;;;;;;;;;;;************************************************************************************************************************************************************************************************************************************************",
"************************************;;;;;;;;;;;;;;;;;;;;;;;;;;;------;;;;;;------;;;;;;;;;;;;;;;;;;;;;;;;;;;;;;;;;;;;;;;;;;---;;;;;;;;;;;;;;;;;;************************************************************************************************************************************************************************************************************************************************",
"************************************;;;;;;;;;;;;;;;;;;;;;;;;;;;;;;---------;;;;;;;;;;;;;;;;;;;;;---;;;;;;;;;;;;;;;;;;;;;------;;;;;;;;;;;;;;;;;;************************************************************************************************************************************************************************************************************************************************",
"************************************;;;;;;;;;;;;;;;;;;;;;;;;;;;;;;---------;;;;;;;;;;;;;;;;;;;;;---;;;;;;;;;;;;;;;;;;;;;------;;;;;;;;;;;;;;;;;;************************************************************************************************************************************************************************************************************************************************",
"************************************;;;;;;;;;;;;;;;;;;;;;;;;;;;;;;---------;;;;;;;;;;;;;;;;;;;;;---;;;;;;;;;;;;;;;;;;;;;------;;;;;;;;;;;;;;;;;;************************************************************************************************************************************************************************************************************************************************",
"************************************;;;;;;;;;;;;;;;;;;;;;;;;;;;;;;;;;;;;;;;;;;;;;;;;;;;;;;;;;;;;------;;;;;;;;;---------;;;;;;;;;;;;;;;;;;;;;;;;************************************************************************************************************************************************************************************************************************************************",
"************************************;;;;;;;;;;;;;;;;;;;;;;;;;;;;;;;;;;;;;;;;;;;;;;;;;;;;;;;;;;;;------;;;;;;;;;---------;;;;;;;;;;;;;;;;;;;;;;;;************************************************************************************************************************************************************************************************************************************************",
"************************************;;;;;;;;;;;;;;;;;;;;;;;;;;;;;;;;;;;;;;;;;;;;;;;;;;;;;;;;;;;;------;;;;;;;;;---------;;;;;;;;;;;;;;;;;;;;;;;;************************************************************************************************************************************************************************************************************************************************",
"*********************************;;;;;;;;;;;;;;;;;;;;;;;;;;;;;;;;;;;;;;;;;;;;;;;;;;;;;;;;;;;;;;;;;;---------------;;;;;;;;;;;;;;;;;;;;;;;;;;;;;;************************************************************************************************************************************************************************************************************************************************",
"*********************************;;;;;;;;;;;;;;;;;;;;;;;;;;;;;;;;;;;;;;;;;;;;;;;;;;;;;;;;;;;;;;;;;;---------------;;;;;;;;;;;;;;;;;;;;;;;;;;;;;;************************************************************************************************************************************************************************************************************************************************",
"*********************************;;;;;;;;;;;;;;;;;;;;;;;;;;;;;;;;;;;;;;;;;;;;;;;;;;;;;;;;;;;;;;;;;;---------------;;;;;;;;;;;;;;;;;;;;;;;;;;;;;;************************************************************************************************************************************************************************************************************************************************",
"*********************************;;;;;;;;;;;;;;;;;;;;;;;;;;;;;;;;;;;;;;;;;;;;;;;;;;;;;;;;;;;;;;;;;;;;;;;;;;;;;;;;;;;;;;;;;;;;;;;;;;;;;;;;;;;;---************************************************************************************************************************************************************************************************************************************************",
"*********************************;;;;;;;;;;;;;;;;;;;;;;;;;;;;;;;;;;;;;;;;;;;;;;;;;;;;;;;;;;;;;;;;;;;;;;;;;;;;;;;;;;;;;;;;;;;;;;;;;;;;;;;;;;;;---************************************************************************************************************************************************************************************************************************************************",
"*********************************;;;;;;;;;;;;;;;;;;;;;;;;;;;;;;;;;;;;;;;;;;;;;;;;;;;;;;;;;;;;;;;;;;;;;;;;;;;;;;;;;;;;;;;;;;;;;;;;;;;;;;;;;;;;---************************************************************************************************************************************************************************************************************************************************",
"*********************************;;;;;;;;;;;;;;;;;;;;;;;;;;;;;;;;;;;;;;;;;;;;;;;;;;;;;;;;;;;;;;;;;;;;;;;;;;;;;;;;;;;;;;;;;;---;;;;;;;;;;;;------************************************************************************************************************************************************************************************************************************************************",
"*********************************;;;;;;;;;;;;;;;;;;;;;;;;;;;;;;;;;;;;;;;;;;;;;;;;;;;;;;;;;;;;;;;;;;;;;;;;;;;;;;;;;;;;;;;;;;---;;;;;;;;;;;;------************************************************************************************************************************************************************************************************************************************************",
"*********************************;;;;;;;;;;;;;;;;;;;;;;;;;;;;;;;;;;;;;;;;;;;;;;;;;;;;;;;;;;;;;;;;;;;;;;;;;;;;;;;;;;;;;;;;;;---;;;;;;;;;;;;------************************************************************************************************************************************************************************************************************************************************",
"*********************************---;;;;;;;;;;;;;;;;;;;;;;;;;;;;;;;;;;;;;;;;;;;;;;;;;;;;;;;;;;;;;;;;;;;;;;;;;;;;;;;;;;;;;;;------------------***************************************************************************************************************************************************************************************************************************************************",
"*********************************---;;;;;;;;;;;;;;;;;;;;;;;;;;;;;;;;;;;;;;;;;;;;;;;;;;;;;;;;;;;;;;;;;;;;;;;;;;;;;;;;;;;;;;;------------------***************************************************************************************************************************************************************************************************************************************************",
"*********************************---;;;;;;;;;;;;;;;;;;;;;;;;;;;;;;;;;;;;;;;;;;;;;;;;;;;;;;;;;;;;;;;;;;;;;;;;;;;;;;;;;;;;;;;------------------***************************************************************************************************************************************************************************************************************************************************",
"*********************************------;;;;;;;;;;;;;;;;;;;;;;;;;;;;;;;;;;;;;;;------;;;;;;;;;;;;;;;;;;;;;;;;;;;;;;;;;;;;;;;---------************************************************************************************************************************************************************************************************************************************************************",
"*********************************------;;;;;;;;;;;;;;;;;;;;;;;;;;;;;;;;;;;;;;;------;;;;;;;;;;;;;;;;;;;;;;;;;;;;;;;;;;;;;;;---------************************************************************************************************************************************************************************************************************************************************************",
"*********************************------;;;;;;;;;;;;;;;;;;;;;;;;;;;;;;;;;;;;;;;------;;;;;;;;;;;;;;;;;;;;;;;;;;;;;;;;;;;;;;;---------************************************************************************************************************************************************************************************************************************************************************",
"************************************------;;;;;;;;;;;;;;;;;;;;;;;;;;;;;;;;;---------;;;;;;;;;;;;;;;;;;;;;;;;;;;;;;;;;;;;;;;---******************************************************************************************************************************************************************************************************************************************************************",
"************************************------;;;;;;;;;;;;;;;;;;;;;;;;;;;;;;;;;---------;;;;;;;;;;;;;;;;;;;;;;;;;;;;;;;;;;;;;;;---******************************************************************************************************************************************************************************************************************************************************************",
"************************************------;;;;;;;;;;;;;;;;;;;;;;;;;;;;;;;;;---------;;;;;;;;;;;;;;;;;;;;;;;;;;;;;;;;;;;;;;;---******************************************************************************************************************************************************************************************************************************************************************",
"***************************************------------;;;;;;;;;;;;;;;;;;---------------------------;;;;;;;;;;;;;;;;;;;;;;;;------******************************************************************************************************************************************************************************************************************************************************************",
"***************************************------------;;;;;;;;;;;;;;;;;;---------------------------;;;;;;;;;;;;;;;;;;;;;;;;------******************************************************************************************************************************************************************************************************************************************************************",
"***************************************------------;;;;;;;;;;;;;;;;;;---------------------------;;;;;;;;;;;;;;;;;;;;;;;;------******************************************************************************************************************************************************************************************************************************************************************",
"************************************************------------------------*********************------------------------------*********************************************************************************************************************************************************************************************************************************************************************",
"************************************************------------------------*********************------------------------------*********************************************************************************************************************************************************************************************************************************************************************",
"************************************************------------------------*********************------------------------------*********************************************************************************************************************************************************************************************************************************************************************",
"************************************************************************************************************************************************************************************************************************************************************************************************************************************************************************************************",
"************************************************************************************************************************************************************************************************************************************************************************************************************************************************************************************************",
"************************************************************************************************************************************************************************************************************************************************************************************************************************************************************************************************",
"************************************************************************************************************************************************************************************************************************************************************************************************************************************************************************************************",
"************************************************************************************************************************************************************************************************************************************************************************************************************************************************************************************************",
"************************************************************************************************************************************************************************************************************************************************************************************************************************************************************************************************",
"************************************************************************************************************************************************************************************************************************************************************************************************************************************************************************************************",
"************************************************************************************************************************************************************************************************************************************************************************************************************************************************************************************************",
"************************************************************************************************************************************************************************************************************************************************************************************************************************************************************************************************",
"************************************************************************************************************************************************************************************************************************************************************************************************************************************************************************************************",
"************************************************************************************************************************************************************************************************************************************************************************************************************************************************************************************************",
"************************************************************************************************************************************************************************************************************************************************************************************************************************************************************************************************",
"************************************************************************************************************************************************************************************************************************************************************************************************************************************************************************************************",
"************************************************************************************************************************************************************************************************************************************************************************************************************************************************************************************************",
"************************************************************************************************************************************************************************************************************************************************************************************************************************************************************************************************",
"************************************************************************************************************************************************************************************************************************************************************************************************************************************************************************************************",
"************************************************************************************************************************************************************************************************************************************************************************************************************************************************************************************************",
"************************************************************************************************************************************************************************************************************************************************************************************************************************************************************************************************",
"************************************************************************************************************************************************************************************************************************************************************************************************************************************************************************************************",
"************************************************************************************************************************************************************************************************************************************************************************************************************************************************************************************************",
"************************************************************************************************************************************************************************************************************************************************************************************************************************************************************************************************",
"************************************************************************************************************************************************************************************************************************************************************************************************************************************************************************************************",
"************************************************************************************************************************************************************************************************************************************************************************************************************************************************************************************************",
"************************************************************************************************************************************************************************************************************************************************************************************************************************************************************************************************",
"************************************************************************************************************************************************************************************************************************************************************************************************************************************************************************************************",
"************************************************************************************************************************************************************************************************************************************************************************************************************************************************************************************************",
"************************************************************************************************************************************************************************************************************************************************************************************************************************************************************************************************",
"************************************************************************************************************************************************************************************************************************************************************************************************************************************************************************************************",
"************************************************************************************************************************************************************************************************************************************************************************************************************************************************************************************************",
"************************************************************************************************************************************************************************************************************************************************************************************************************************************************************************************************",
"************************************************************************************************************************************************************************************************************************************************************************************************************************************************************************************************",
"************************************************************************************************************************************************************************************************************************************************************************************************************************************************************************************************",
"************************************************************************************************************************************************************************************************************************************************************************************************************************************************************************************************",
"************************************************************************************************************************************************************************************************************************************************************************************************************************************************************************************************",
"************************************************************************************************************************************************************************************************************************************************************************************************************************************************************************************************",
"************************************************************************************************************************************************************************************************************************************************************************************************************************************************************************************************",
"************************************************************************************************************************************************************************************************************************************************************************************************************************************************************************************************",
"************************************************************************************************************************************************************************************************************************************************************************************************************************************************************************************************",
"************************************************************************************************************************************************************************************************************************************************************************************************************************************************************************************************",
"************************************************************************************************************************************************************************************************************************************************************************************************************************************************************************************************",
"************************************************************************************************************************************************************************************************************************************************************************************************************************************************************************************************",
"************************************************************************************************************************************************************************************************************************************************************************************************************************************************************************************************",
"************************************************************************************************************************************************************************************************************************************************************************************************************************************************************************************************",
"************************************************************************************************************************************************************************************************************************************************************************************************************************************************************************************************",
"************************************************************************************************************************************************************************************************************************************************************************************************************************************************************************************************",
"************************************************************************************************************************************************************************************************************************************************************************************************************************************************************************************************",
"************************************************************************************************************************************************************************************************************************************************************************************************************************************************************************************************",
"************************************************************************************************************************************************************************************************************************************************************************************************************************************************************************************************",
"************************************************************************************************************************************************************************************************************************************************************************************************************************************************************************************************",
"************************************************************************************************************************************************************************************************************************************************************************************************************************************************************************************************",
"************************************************************************************************************************************************************************************************************************************************************************************************************************************************************************************************",
"************************************************************************************************************************************************************************************************************************************************************************************************************************************************************************************************",
"************************************************************************************************************************************************************************************************************************************************************************************************************************************************************************************************",
"************************************************************************************************************************************************************************************************************************************************************************************************************************************************************************************************",
"************************************************************************************************************************************************************************************************************************************************************************************************************************************************************************************************",
"************************************************************************************************************************************************************************************************************************************************************************************************************************************************************************************************",
"************************************************************************************************************************************************************************************************************************************************************************************************************************************************************************************************",
"************************************************************************************************************************************************************************************************************************************************************************************************************************************************************************************************",
"************************************************************************************************************************************************************************************************************************************************************************************************************************************************************************************************",
"************************************************************************************************************************************************************************************************************************************************************************************************************************************************************************************************",
"************************************************************************************************************************************************************************************************************************************************************************************************************************************************************************************************",
"************************************************************************************************************************************************************************************************************************************************************************************************************************************************************************************************",
"************************************************************************************************************************************************************************************************************************************************************************************************************************************************************************************************",
"************************************************************************************************************************************************************************************************************************************************************************************************************************************************************************************************",
"************************************************************************************************************************************************************************************************************************************************************************************************************************************************************************************************",
"************************************************************************************************************************************************************************************************************************************************************************************************************************************************************************************************",
"************************************************************************************************************************************************************************************************************************************************************************************************************************************************************************************************",
"************************************************************************************************************************************************************************************************************************************************************************************************************************************************************************************************",
"************************************************************************************************************************************************************************************************************************************************************************************************************************************************************************************************",
"************************************************************************************************************************************************************************************************************************************************************************************************************************************************************************************************",
"************************************************************************************************************************************************************************************************************************************************************************************************************************************************************************************************",
"************************************************************************************************************************************************************************************************************************************************************************************************************************************************************************************************",
"************************************************************************************************************************************************************************************************************************************************************************************************************************************************************************************************",
"************************************************************************************************************************************************************************************************************************************************************************************************************************************************************************************************",
"************************************************************************************************************************************************************************************************************************************************************************************************************************************************************************************************",
"************************************************************************************************************************************************************************************************************************************************************************************************************************************************************************************************",
"************************************************************************************************************************************************************************************************************************************************************************************************************************************************************************************************",
"************************************************************************************************************************************************************************************************************************************************************************************************************************************************************************************************",
"************************************************************************************************************************************************************************************************************************************************************************************************************************************************************************************************",
"************************************************************************************************************************************************************************************************************************************************************************************************************************************************************************************************",
"************************************************************************************************************************************************************************************************************************************************************************************************************************************************************************************************",
"************************************************************************************************************************************************************************************************************************************************************************************************************************************************************************************************",
"************************************************************************************************************************************************************************************************************************************************************************************************************************************************************************************************",
"************************************************************************************************************************************************************************************************************************************************************************************************************************************************************************************************",
"************************************************************************************************************************************************************************************************************************************************************************************************************************************************************************************************",
"************************************************************************************************************************************************************************************************************************************************************************************************************************************************************************************************",
"************************************************************************************************************************************************************************************************************************************************************************************************************************************************************************************************",
"************************************************************************************************************************************************************************************************************************************************************************************************************************************************************************************************",
"************************************************************************************************************************************************************************************************************************************************************************************************************************************************************************************************",
"************************************************************************************************************************************************************************************************************************************************************************************************************************************************************************************************",
"************************************************************************************************************************************************************************************************************************************************************************************************************************************************************************************************",
"************************************************************************************************************************************************************************************************************************************************************************************************************************************************************************************************",
"************************************************************************************************************************************************************************************************************************************************************************************************************************************************************************************************",
"************************************************************************************************************************************************************************************************************************************************************************************************************************************************************************************************",
"************************************************************************************************************************************************************************************************************************************************************************************************************************************************************************************************",
"************************************************************************************************************************************************************************************************************************************************************************************************************************************************************************************************",
"************************************************************************************************************************************************************************************************************************************************************************************************************************************************************************************************",
"************************************************************************************************************************************************************************************************************************************************************************************************************************************************************************************************",
"************************************************************************************************************************************************************************************************************************************************************************************************************************************************************************************************",
"************************************************************************************************************************************************************************************************************************************************************************************************************************************************************************************************",
"************************************************************************************************************************************************************************************************************************************************************************************************************************************************************************************************",
"************************************************************************************************************************************************************************************************************************************************************************************************************************************************************************************************",
"************************************************************************************************************************************************************************************************************************************************************************************************************************************************************************************************",
"************************************************************************************************************************************************************************************************************************************************************************************************************************************************************************************************",
"************************************************************************************************************************************************************************************************************************************************************************************************************************************************************************************************",
"************************************************************************************************************************************************************************************************************************************************************************************************************************************************************************************************",
"************************************************************************************************************************************************************************************************************************************************************************************************************************************************************************************************",
"************************************************************************************************************************************************************************************************************************************************************************************************************************************************************************************************",
"************************************************************************************************************************************************************************************************************************************************************************************************************************************************************************************************",
"************************************************************************************************************************************************************************************************************************************************************************************************************************************************************************************************",
"************************************************************************************************************************************************************************************************************************************************************************************************************************************************************************************************",
"************************************************************************************************************************************************************************************************************************************************************************************************************************************************************************************************",
"************************************************************************************************************************************************************************************************************************************************************************************************************************************************************************************************",
"************************************************************************************************************************************************************************************************************************************************************************************************************************************************************************************************",
"@@@@@@@@@@@@@@@@@@@@@@@@@@@@@@@@@@@@@@@@@@@@@@@@@@@@@@@@@@@@@@@@@@@@@@@@@@@@@@@@@@@@@@@@@@@@@@@@@@@@@@@@@@@@@@@@@@@@@@@@@@@@@@@@@@@@@@@@@@@@@@@@@@@@@@@@@@@@@@@@@@@@@@@@@@@@@@@@@@@@@@@@@@@@@@@@@@@@@@@@@@@@@@@@@@@@@@@@@@@@@@@@@@@@@@@@@@@@@@@@@@@@@@@@@@@@@@@@@@@@@@@@@@@@@@@@@@@@@@@@@@@@@@@@@@@@@@@@@@@@@@@@@@@@@@@@@@@@@@@@@@@@@@@@@@@@@@@@@@@@@@@@@@@@@@@@@@@@@@@@@@@@@@@@@@@@@@@@@@@@@@@@",
"@@@@@@@@@@@@@@@@@@@@@@@@@@@@@@@@@@@@@@@@@@@@@@@@@@@@@@@@@@@@@@@@@@@@@@@@@@@@@@@@@@@@@@@@@@@@@@@@@@@@@@@@@@@@@@@@@@@@@@@@@@@@@@@@@@@@@@@@@@@@@@@@@@@@@@@@@@@@@@@@@@@@@@@@@@@@@@@@@@@@@@@@@@@@@@@@@@@@@@@@@@@@@@@@@@@@@@@@@@@@@@@@@@@@@@@@@@@@@@@@@@@@@@@@@@@@@@@@@@@@@@@@@@@@@@@@@@@@@@@@@@@@@@@@@@@@@@@@@@@@@@@@@@@@@@@@@@@@@@@@@@@@@@@@@@@@@@@@@@@@@@@@@@@@@@@@@@@@@@@@@@@@@@@@@@@@@@@@@@@@@@@@",
"@@@@@@@@@@@@@@@@@@@@@@@@@@@@@@@@@@@@@@@@@@@@@@@@@@@@@@@@@@@@@@@@@@@@@@@@@@@@@@@@@@@@@@@@@@@@@@@@@@@@@@@@@@@@@@@@@@@@@@@@@@@@@@@@@@@@@@@@@@@@@@@@@@@@@@@@@@@@@@@@@@@@@@@@@@@@@@@@@@@@@@@@@@@@@@@@@@@@@@@@@@@@@@@@@@@@@@@@@@@@@@@@@@@@@@@@@@@@@@@@@@@@@@@@@@@@@@@@@@@@@@@@@@@@@@@@@@@@@@@@@@@@@@@@@@@@@@@@@@@@@@@@@@@@@@@@@@@@@@@@@@@@@@@@@@@@@@@@@@@@@@@@@@@@@@@@@@@@@@@@@@@@@@@@@@@@@@@@@@@@@@@@",
"OOOOOOOOOOOOOOOOOOOOOOOOOOOOOOOOOOOOOOOOOOOOOOOOOOOOOOOOOOOOOOOOOOOOOOOOOOOOOOOOOOOOOOOOOOOOOOOOOOOOOOOOOOOOOOOOOOOOOOOOOOOOOOOOOOOOOOOOOOOOOOOOOOOOOOOOOOOOOOOOOOOOOOOOOOOOOOOOOOOOOOOOOOOOOOOOOOOOOOOOOOOOOOOOOOOOOOOOOOOOOOOOOOOOOOOOOOOOOOOOOOOOOOOOOOOOOOOOOOOOOOOOOOOOOOOOOOOOOOOOOOOOOOOOOOOOOOOOOOOOOOOOOOOOOOOOOOOOOOOOOOOOOOOOOOOOOOOOOOOOOOOOOOOOOOOOOOOOOOOOOOOOOOOOOOOOOOOOOOOOOOOO",
"OOOOOOOOOOOOOOOOOOOOOOOOOOOOOOOOOOOOOOOOOOOOOOOOOOOOOOOOOOOOOOOOOOOOOOOOOOOOOOOOOOOOOOOOOOOOOOOOOOOOOOOOOOOOOOOOOOOOOOOOOOOOOOOOOOOOOOOOOOOOOOOOOOOOOOOOOOOOOOOOOOOOOOOOOOOOOOOOOOOOOOOOOOOOOOOOOOOOOOOOOOOOOOOOOOOOOOOOOOOOOOOOOOOOOOOOOOOOOOOOOOOOOOOOOOOOOOOOOOOOOOOOOOOOOOOOOOOOOOOOOOOOOOOOOOOOOOOOOOOOOOOOOOOOOOOOOOOOOOOOOOOOOOOOOOOOOOOOOOOOOOOOOOOOOOOOOOOOOOOOOOOOOOOOOOOOOOOOOOOOOOOO",
"OOOOOOOOOOOOOOOOOOOOOOOOOOOOOOOOOOOOOOOOOOOOOOOOOOOOOOOOOOOOOOOOOOOOOOOOOOOOOOOOOOOOOOOOOOOOOOOOOOOOOOOOOOOOOOOOOOOOOOOOOOOOOOOOOOOOOOOOOOOOOOOOOOOOOOOOOOOOOOOOOOOOOOOOOOOOOOOOOOOOOOOOOOOOOOOOOOOOOOOOOOOOOOOOOOOOOOOOOOOOOOOOOOOOOOOOOOOOOOOOOOOOOOOOOOOOOOOOOOOOOOOOOOOOOOOOOOOOOOOOOOOOOOOOOOOOOOOOOOOOOOOOOOOOOOOOOOOOOOOOOOOOOOOOOOOOOOOOOOOOOOOOOOOOOOOOOOOOOOOOOOOOOOOOOOOOOOOOOOOOOOOO",
"OOOOOOOOOOOOOOOOOOOOOOOOOOOOOOOOOOOOOOOOOOOOOOOOOOOOOOOOOOOOOOOOOOOOOOOOOOOOOOOOOOOOOOOOOOOOOOOOOOOOOOOOOOOOOOOOOOOOOOOOOOOOOOOOOOOOOOOOOOOOOOOOOOOOOOOOOOOOOOOOOOOOOOOOOOOOOOOOOOOOOOOOOOOOOOOOOOOOOOOOOOOOOOOOOOOOOOOOOOOOOOOOOOOOOOOOOOOOOOOOOOOOOOOOOOOOOOOOOOOOOOOOOOOOOOOOOOOOOOOOOOOOOOOOOOOOOOOOOOOOOOOOOOOOOOOOOOOOOOOOOOOOOOOOOOOOOOOOOOOOOOOOOOOOOOOOOOOOOOOOOOOOOOOOOOOOOOOOOOOOOOOO",
"OOOOOOOOOOOOOOOOOOOOOOOOOOOOOOOOOOOOOOOOOOOOOOOOOOOOOOOOOOOOOOOOOOOOOOOOOOOOOOOOOOOOOOOOOOOOOOOOOOOOOOOOOOOOOOOOOOOOOOOOOOOOOOOOOOOOOOOOOOOOOOOOOOOOOOOOOOOOOOOOOOOOOOOOOOOOOOOOOOOOOOOOOOOOOOOOOOOOOOOOOOOOOOOOOOOOOOOOOOOOOOOOOOOOOOOOOOOOOOOOOOOOOOOOOOOOOOOOOOOOOOOOOOOOOOOOOOOOOOOOOOOOOOOOOOOOOOOOOOOOOOOOOOOOOOOOOOOOOOOOOOOOOOOOOOOOOOOOOOOOOOOOOOOOOOOOOOOOOOOOOOOOOOOOOOOOOOOOOOOOOOOO",
"OOOOOOOOOOOOOOOOOOOOOOOOOOOOOOOOOOOOOOOOOOOOOOOOOOOOOOOOOOOOOOOOOOOOOOOOOOOOOOOOOOOOOOOOOOOOOOOOOOOOOOOOOOOOOOOOOOOOOOOOOOOOOOOOOOOOOOOOOOOOOOOOOOOOOOOOOOOOOOOOOOOOOOOOOOOOOOOOOOOOOOOOOOOOOOOOOOOOOOOOOOOOOOOOOOOOOOOOOOOOOOOOOOOOOOOOOOOOOOOOOOOOOOOOOOOOOOOOOOOOOOOOOOOOOOOOOOOOOOOOOOOOOOOOOOOOOOOOOOOOOOOOOOOOOOOOOOOOOOOOOOOOOOOOOOOOOOOOOOOOOOOOOOOOOOOOOOOOOOOOOOOOOOOOOOOOOOOOOOOOOOOO",
"XXXXXXXXXXXXXXXXXXXXXXXXXXXXXXXXXXXXXXXXXXXXXXXXXXXXXXXXXXXXXXXXXXXXXXXXXXXXXXXXXXXXXXXXXXXXXXXXXXXXXXXXXXXXXXXXXXXXXXXXXXXXXXXXXXXXXXXXXXXXXXXXXXXXXXXXXXXXXXXXXXXXXXXXXXXXXXXXXXXXXXXXXXXXXXXXXXXXXXXXXXXXXXXXXXXXXXXXXXXXXXXXXXXXXXXXXXXXXXXXXXXXXXXXXXXXXXXXXXXXXXXXXXXXXXXXXXXXXXXXXXXXXXXXXXXXXXXXXXXXXXXXXXXXXXXXXXXXXXXXXXXXXXXXXXXXXXXXXXXXXXXXXXXXXXXXXXXXXXXXXXXXXXXXXXXXXXXXXXXXXXXX",
"XXXXXXXXXXXXXXXXXXXXXXXXXXXXXXXXXXXXXXXXXXXXXXXXXXXXXXXXXXXXXXXXXXXXXXXXXXXXXXXXXXXXXXXXXXXXXXXXXXXXXXXXXXXXXXXXXXXXXXXXXXXXXXXXXXXXXXXXXXXXXXXXXXXXXXXXXXXXXXXXXXXXXXXXXXXXXXXXXXXXXXXXXXXXXXXXXXXXXXXXXXXXXXXXXXXXXXXXXXXXXXXXXXXXXXXXXXXXXXXXXXXXXXXXXXXXXXXXXXXXXXXXXXXXXXXXXXXXXXXXXXXXXXXXXXXXXXXXXXXXXXXXXXXXXXXXXXXXXXXXXXXXXXXXXXXXXXXXXXXXXXXXXXXXXXXXXXXXXXXXXXXXXXXXXXXXXXXXXXXXXXXX",
"XXXXXXXXXXXXXXXXXXXXXXXXXXXXXXXXXXXXXXXXXXXXXXXXXXXXXXXXXXXXXXXXXXXXXXXXXXXXXXXXXXXXXXXXXXXXXXXXXXXXXXXXXXXXXXXXXXXXXXXXXXXXXXXXXXXXXXXXXXXXXXXXXXXXXXXXXXXXXXXXXXXXXXXXXXXXXXXXXXXXXXXXXXXXXXXXXXXXXXXXXXXXXXXXXXXXXXXXXXXXXXXXXXXXXXXXXXXXXXXXXXXXXXXXXXXXXXXXXXXXXXXXXXXXXXXXXXXXXXXXXXXXXXXXXXXXXXXXXXXXXXXXXXXXXXXXXXXXXXXXXXXXXXXXXXXXXXXXXXXXXXXXXXXXXXXXXXXXXXXXXXXXXXXXXXXXXXXXXXXXXXXX",
"***************************************   ......OOO***************************************************************************   ......OOO************************************************************************************************************   ......ooo***************************************************************************   ......OOO***************************************",
"***************************************   ......OOO***************************************************************************   ......OOO************************************************************************************************************   ......ooo***************************************************************************   ......OOO***************************************",
"***************************************   ......OOO***************************************************************************   ......OOO************************************************************************************************************   ......ooo***************************************************************************   ......OOO***************************************",
"***************************************oooOOOOOO@@@***************************************************************************oooOOOOOO@@@************************************************************************************************************oooOOOOOO@@@***************************************************************************oooOOOOOO@@@***************************************",
"***************************************oooOOOOOO@@@***************************************************************************oooOOOOOO@@@************************************************************************************************************oooOOOOOO@@@***************************************************************************oooOOOOOO@@@***************************************",
"***************************************oooOOOOOO@@@***************************************************************************oooOOOOOO@@@************************************************************************************************************oooOOOOOO@@@***************************************************************************oooOOOOOO@@@***************************************",
"***************************************oooOOOOOO@@@***************************************************************************oooOOOOOO@@@************************************************************************************************************oooOOOOOO@@@***************************************************************************oooOOOOOO@@@***************************************",
"***************************************oooOOOOOO@@@***************************************************************************oooOOOOOO@@@************************************************************************************************************oooOOOOOO@@@***************************************************************************oooOOOOOO@@@***************************************",
"***************************************oooOOOOOO@@@***************************************************************************oooOOOOOO@@@************************************************************************************************************oooOOOOOO@@@***************************************************************************oooOOOOOO@@@***************************************",
"***************************************oooOOOOOO@@@***************************************************************************oooOOOOOO@@@************************************************************************************************************oooOOOOOO@@@***************************************************************************oooOOOOOO@@@***************************************",
"***************************************oooOOOOOO@@@***************************************************************************oooOOOOOO@@@************************************************************************************************************oooOOOOOO@@@***************************************************************************oooOOOOOO@@@***************************************",
"***************************************oooOOOOOO@@@***************************************************************************oooOOOOOO@@@************************************************************************************************************oooOOOOOO@@@***************************************************************************oooOOOOOO@@@***************************************",
"***************************************oooOOOOOO@@@***************************************************************************oooOOOOOO@@@************************************************************************************************************oooOOOOOO@@@***************************************************************************oooOOOOOO@@@***************************************",
"***************************************oooOOOOOO@@@***************************************************************************oooOOOOOO@@@************************************************************************************************************oooOOOOOO@@@***************************************************************************oooOOOOOO@@@***************************************",
"***************************************oooOOOOOO@@@***************************************************************************oooOOOOOO@@@************************************************************************************************************oooOOOOOO@@@***************************************************************************oooOOOOOO@@@***************************************",
"***************************************oooOOOOOO@@@***************************************************************************oooOOOOOO@@@************************************************************************************************************oooOOOOOO@@@***************************************************************************oooOOOOOO@@@***************************************",
"***************************************oooOOOOOO@@@***************************************************************************oooOOOOOO@@@************************************************************************************************************oooOOOOOO@@@***************************************************************************oooOOOOOO@@@***************************************",
"***************************************oooOOOOOO@@@***************************************************************************oooOOOOOO@@@************************************************************************************************************oooOOOOOO@@@***************************************************************************oooOOOOOO@@@***************************************",
"***************************************oooOOOOOO@@@***************************************************************************oooOOOOOO@@@************************************************************************************************************oooOOOOOO@@@***************************************************************************oooOOOOOO@@@***************************************",
"***************************************oooOOOOOO@@@***************************************************************************oooOOOOOO@@@************************************************************************************************************oooOOOOOO@@@***************************************************************************oooOOOOOO@@@***************************************",
"***************************************oooOOOOOO@@@***************************************************************************oooOOOOOO@@@************************************************************************************************************oooOOOOOO@@@***************************************************************************oooOOOOOO@@@***************************************",
"***************************************oooOOOOOO@@@***************************************************************************oooOOOOOO@@@************************************************************************************************************oooOOOOOO@@@***************************************************************************oooOOOOOO@@@***************************************",
"***************************************oooOOOOOO@@@***************************************************************************oooOOOOOO@@@************************************************************************************************************oooOOOOOO@@@***************************************************************************oooOOOOOO@@@***************************************",
"***************************************oooOOOOOO@@@***************************************************************************oooOOOOOO@@@************************************************************************************************************oooOOOOOO@@@***************************************************************************oooOOOOOO@@@***************************************",
"***************************************oooOOOOOO@@@***************************************************************************oooOOOOOO@@@************************************************************************************************************oooOOOOOO@@@***************************************************************************oooOOOOOO@@@***************************************",
"***************************************oooOOOOOO@@@***************************************************************************oooOOOOOO@@@************************************************************************************************************oooOOOOOO@@@***************************************************************************oooOOOOOO@@@***************************************",
"***************************************oooOOOOOO@@@***************************************************************************oooOOOOOO@@@************************************************************************************************************oooOOOOOO@@@***************************************************************************oooOOOOOO@@@***************************************",
"***************************************oooOOOOOO@@@***************************************************************************oooOOOOOO@@@************************************************************************************************************oooOOOOOO@@@***************************************************************************oooOOOOOO@@@***************************************",
"***************************************oooOOOOOO@@@***************************************************************************oooOOOOOO@@@************************************************************************************************************oooOOOOOO@@@***************************************************************************oooOOOOOO@@@***************************************",
"***************************************oooOOOOOO@@@***************************************************************************oooOOOOOO@@@************************************************************************************************************oooOOOOOO@@@***************************************************************************oooOOOOOO@@@***************************************",
"***************************************oooOOOOOO@@@***************************************************************************oooOOOOOO@@@************************************************************************************************************oooOOOOOO@@@***************************************************************************oooOOOOOO@@@***************************************",
"***************************************oooOOOOOO@@@***************************************************************************oooOOOOOO@@@************************************************************************************************************oooOOOOOO@@@***************************************************************************oooOOOOOO@@@***************************************",
"***************************************oooOOOOOO@@@***************************************************************************oooOOOOOO@@@************************************************************************************************************oooOOOOOO@@@***************************************************************************oooOOOOOO@@@***************************************",
"######$$$$$$########################$$$oooOOOOOO@@@#######################################$$$$$$#####################$$$######oooOOOOOO@@@#################################$$$#####################$$$###############$$$##############################oooOOOOOO@@@#####################$$$$$$####################################$$$#########oooOOOOOO@@@$$$##############################$$$###",
"######$$$$$$########################$$$oooOOOOOO@@@#######################################$$$$$$#####################$$$######oooOOOOOO@@@#################################$$$#####################$$$###############$$$##############################oooOOOOOO@@@#####################$$$$$$####################################$$$#########oooOOOOOO@@@$$$##############################$$$###",
"######$$$$$$########################$$$oooOOOOOO@@@#######################################$$$$$$#####################$$$######oooOOOOOO@@@#################################$$$#####################$$$###############$$$##############################oooOOOOOO@@@#####################$$$$$$####################################$$$#########oooOOOOOO@@@$$$##############################$$$###",
"$$$$$$$$$###############$$$$$$#########oooOOOOOO@@@$$$############$$$$$$$$$#########$$$$$$$$$###############$$$$$$############oooOOOOOO@@@###$$$##################$$$$$$$$$############$$$$$$###############$$$$$$$$$$$$############$$$$$$$$$######$$$oooOOOOOO@@@###$$$############$$$$$$###############$$$$$$###############$$$############oooOOOOOO@@@############$$$######$$$$$$############",
"$$$$$$$$$###############$$$$$$#########oooOOOOOO@@@$$$############$$$$$$$$$#########$$$$$$$$$###############$$$$$$############oooOOOOOO@@@###$$$##################$$$$$$$$$############$$$$$$###############$$$$$$$$$$$$############$$$$$$$$$######$$$oooOOOOOO@@@###$$$############$$$$$$###############$$$$$$###############$$$############oooOOOOOO@@@############$$$######$$$$$$############",
"$$$$$$$$$###############$$$$$$#########oooOOOOOO@@@$$$############$$$$$$$$$#########$$$$$$$$$###############$$$$$$############oooOOOOOO@@@###$$$##################$$$$$$$$$############$$$$$$###############$$$$$$$$$$$$############$$$$$$$$$######$$$oooOOOOOO@@@###$$$############$$$$$$###############$$$$$$###############$$$############oooOOOOOO@@@############$$$######$$$$$$############",
"##################$$$$$$$$$############oooOOOOOO@@@#########$$$$$$$$$####################################$$$$$$###############oooOOOOOO@@@$$$##################$$$##################$$$$$$###############$$$$$$##################$$$$$$###############oooOOOOOO@@@$$$############$$$##################$$$$$$##############################$$$oooOOOOOO@@@#########$$$######$$$$$$###############",
"##################$$$$$$$$$############oooOOOOOO@@@#########$$$$$$$$$####################################$$$$$$###############oooOOOOOO@@@$$$##################$$$##################$$$$$$###############$$$$$$##################$$$$$$###############oooOOOOOO@@@$$$############$$$##################$$$$$$##############################$$$oooOOOOOO@@@#########$$$######$$$$$$###############",
"##################$$$$$$$$$############oooOOOOOO@@@#########$$$$$$$$$####################################$$$$$$###############oooOOOOOO@@@$$$##################$$$##################$$$$$$###############$$$$$$##################$$$$$$###############oooOOOOOO@@@$$$############$$$##################$$$$$$##############################$$$oooOOOOOO@@@#########$$$######$$$$$$###############",
"oooooooooooooooooooooooooooooooooooooooooooooooooooooooooooooooooooooooooooooooooooooooooooooooooooooooooooooooooooooooooooooooooooooooooooooooooooooooooooooooooooooooooooooooooooooooooooooooooooooooooooooooooooooooooooooooooooooooooooooooooooooooooooooooooooooooooooooooooooooooooooooooooooooooooooooooooooooooooooooooooooooooooooooooooooooooooooooooooooooooooooooooooooooooooooooooo",
"oooooooooooooooooooooooooooooooooooooooooooooooooooooooooooooooooooooooooooooooooooooooooooooooooooooooooooooooooooooooooooooooooooooooooooooooooooooooooooooooooooooooooooooooooooooooooooooooooooooooooooooooooooooooooooooooooooooooooooooooooooooooooooooooooooooooooooooooooooooooooooooooooooooooooooooooooooooooooooooooooooooooooooooooooooooooooooooooooooooooooooooooooooooooooooooooo",
"oooooooooooooooooooooooooooooooooooooooooooooooooooooooooooooooooooooooooooooooooooooooooooooooooooooooooooooooooooooooooooooooooooooooooooooooooooooooooooooooooooooooooooooooooooooooooooooooooooooooooooooooooooooooooooooooooooooooooooooooooooooooooooooooooooooooooooooooooooooooooooooooooooooooooooooooooooooooooooooooooooooooooooooooooooooooooooooooooooooooooooooooooooooooooooooooo",
"OOOOOOOOOOOOOOOOOOOOOOOOOOOOOOOOOOOOOOOOOOOOOOOO++++++++++++OOOOOOOOOOOOOOOOOOOOOOOOOOOoooOOOOOOOOOOOOOOOOOOOOOOOOOOOOOOOOOOOOOOOOOOOOOOOOOOOOOOOOOOOOOOOOOOOOOOOOOOOOOOOOOOOOoooOOOOOOOOOOOOOOOOOOOOOOOOOOOOOOOOO++++++++++++++++++++++++++++++++++++++++++++++++OOOOOOOOOOOOOOOOOOOOOOOOOOOOOOOOOOOOOOOOOOOOOOOOOOOOOOOOOoooOOOOOOOOOOOOOOOOOOOOOOOOOOOOOOOOOOOOOOOOOO++++++++++++++++++++++++",
"OOOOOOOOOOOOOOOOOOOOOOOOOOOOOOOOOOOOOOOOOOOOOOOO++++++++++++OOOOOOOOOOOOOOOOOOOOOOOOOOOoooOOOOOOOOOOOOOOOOOOOOOOOOOOOOOOOOOOOOOOOOOOOOOOOOOOOOOOOOOOOOOOOOOOOOOOOOOOOOOOOOOOOOoooOOOOOOOOOOOOOOOOOOOOOOOOOOOOOOOOO++++++++++++++++++++++++++++++++++++++++++++++++OOOOOOOOOOOOOOOOOOOOOOOOOOOOOOOOOOOOOOOOOOOOOOOOOOOOOOOOOoooOOOOOOOOOOOOOOOOOOOOOOOOOOOOOOOOOOOOOOOOOO++++++++++++++++++++++++",
"OOOOOOOOOOOOOOOOOOOOOOOOOOOOOOOOOOOOOOOOOOOOOOOO++++++++++++OOOOOOOOOOOOOOOOOOOOOOOOOOOoooOOOOOOOOOOOOOOOOOOOOOOOOOOOOOOOOOOOOOOOOOOOOOOOOOOOOOOOOOOOOOOOOOOOOOOOOOOOOOOOOOOOOoooOOOOOOOOOOOOOOOOOOOOOOOOOOOOOOOOO++++++++++++++++++++++++++++++++++++++++++++++++OOOOOOOOOOOOOOOOOOOOOOOOOOOOOOOOOOOOOOOOOOOOOOOOOOOOOOOOOoooOOOOOOOOOOOOOOOOOOOOOOOOOOOOOOOOOOOOOOOOOO++++++++++++++++++++++++",
"OOOOOOOOOOOOOOOOOOOOOOOOOOOOOOOOOOOOOOOOOOOOOOOO++++++++++++++++++++++++++++++OOOOOOOOOoooOOOOOOOOOOOOOOOOOOOOOOOOOOOOOOOOOOOOOOOOOOOOOOOOOOOOOOOOOOOOOOOOOOOOOOOOOOOOOOOOOOOOoooOOOOOOOOOOOOOOOOOOOOOOOOOOOOOOOOO++++++++++++++++++++++++++++++++++++++++++++++++OOOOOOOOOOOOOOOOOOOOOOOOOOOOOOOOOOOOOOOOOOOOOOOOOOOOOOOOOooo++++++++++++++++++++++++OOOOOOOOOOOOOOOOOO++++++++++++++++++++++++",
"OOOOOOOOOOOOOOOOOOOOOOOOOOOOOOOOOOOOOOOOOOOOOOOO++++++++++++++++++++++++++++++OOOOOOOOOoooOOOOOOOOOOOOOOOOOOOOOOOOOOOOOOOOOOOOOOOOOOOOOOOOOOOOOOOOOOOOOOOOOOOOOOOOOOOOOOOOOOOOoooOOOOOOOOOOOOOOOOOOOOOOOOOOOOOOOOO++++++++++++++++++++++++++++++++++++++++++++++++OOOOOOOOOOOOOOOOOOOOOOOOOOOOOOOOOOOOOOOOOOOOOOOOOOOOOOOOOooo++++++++++++++++++++++++OOOOOOOOOOOOOOOOOO++++++++++++++++++++++++",
"OOOOOOOOOOOOOOOOOOOOOOOOOOOOOOOOOOOOOOOOOOOOOOOO++++++++++++++++++++++++++++++OOOOOOOOOoooOOOOOOOOOOOOOOOOOOOOOOOOOOOOOOOOOOOOOOOOOOOOOOOOOOOOOOOOOOOOOOOOOOOOOOOOOOOOOOOOOOOOoooOOOOOOOOOOOOOOOOOOOOOOOOOOOOOOOOO++++++++++++++++++++++++++++++++++++++++++++++++OOOOOOOOOOOOOOOOOOOOOOOOOOOOOOOOOOOOOOOOOOOOOOOOOOOOOOOOOooo++++++++++++++++++++++++OOOOOOOOOOOOOOOOOO++++++++++++++++++++++++",
"OOOOOOOOOOOOOOO++++++++++++++++++OOOOOOOOOOOOOOOOOOOOOOOO++++++++++++++++++++++++++++++oooOOOOOOOOOOOOOOOOOOOOOOOOOOOOOOOOOOOOOOOOOOOOOOOOOOOOOO++++++++++++++++++++++++++++++ooo+++++++++OOOOOOOOOOOOOOOOOOOOOOOOOOOOOOOOOOOO+++++++++++++++++++++++++++OOOOOOOOOOOOOOOOOOOOOOOOOOOOOOOOOOOO++++++++++++OOOOOOOOOOOOOOOOOOooo++++++++++++++++++++++++OOOOOOOOOOOOOOOOOOOOOOOOOOOOOOOOOOOOOOOOOO",
"OOOOOOOOOOOOOOO++++++++++++++++++OOOOOOOOOOOOOOOOOOOOOOOO++++++++++++++++++++++++++++++oooOOOOOOOOOOOOOOOOOOOOOOOOOOOOOOOOOOOOOOOOOOOOOOOOOOOOOO++++++++++++++++++++++++++++++ooo+++++++++OOOOOOOOOOOOOOOOOOOOOOOOOOOOOOOOOOOO+++++++++++++++++++++++++++OOOOOOOOOOOOOOOOOOOOOOOOOOOOOOOOOOOO++++++++++++OOOOOOOOOOOOOOOOOOooo++++++++++++++++++++++++OOOOOOOOOOOOOOOOOOOOOOOOOOOOOOOOOOOOOOOOOO",
"OOOOOOOOOOOOOOO++++++++++++++++++OOOOOOOOOOOOOOOOOOOOOOOO++++++++++++++++++++++++++++++oooOOOOOOOOOOOOOOOOOOOOOOOOOOOOOOOOOOOOOOOOOOOOOOOOOOOOOO++++++++++++++++++++++++++++++ooo+++++++++OOOOOOOOOOOOOOOOOOOOOOOOOOOOOOOOOOOO+++++++++++++++++++++++++++OOOOOOOOOOOOOOOOOOOOOOOOOOOOOOOOOOOO++++++++++++OOOOOOOOOOOOOOOOOOooo++++++++++++++++++++++++OOOOOOOOOOOOOOOOOOOOOOOOOOOOOOOOOOOOOOOOOO",
"OOO++++++++++++++++++++++++++++++OOOOOOOOOOOOOOOOOOOOOOOOOOOOOOOOOOOOOOOOOO++++++++++++oooOOOOOOOOOOOOOOOOOOOOOOOOOOOOOOOOOOOOOOOOOOOOOOOOOOOOOO++++++++++++++++++++++++++++++ooo+++++++++OOOOOOOOOOOOOOOOOOOOOOOOOOOOOOOOOOOO+++++++++++++++++++++++++++OOOOOOOOOOOOOOOOOOOOOOOOOOOOOOOOOOOO++++++++++++OOOOOOOOOOOOOOOOOOoooOOOOOOOOOOOO+++++++++++++++++++++OOOOOOOOOOOOOOOOOOOOOOOOOOOOOOOOO",
"OOO++++++++++++++++++++++++++++++OOOOOOOOOOOOOOOOOOOOOOOOOOOOOOOOOOOOOOOOOO++++++++++++oooOOOOOOOOOOOOOOOOOOOOOOOOOOOOOOOOOOOOOOOOOOOOOOOOOOOOOO++++++++++++++++++++++++++++++ooo+++++++++OOOOOOOOOOOOOOOOOOOOOOOOOOOOOOOOOOOO+++++++++++++++++++++++++++OOOOOOOOOOOOOOOOOOOOOOOOOOOOOOOOOOOO++++++++++++OOOOOOOOOOOOOOOOOOoooOOOOOOOOOOOO+++++++++++++++++++++OOOOOOOOOOOOOOOOOOOOOOOOOOOOOOOOO",
"OOO++++++++++++++++++++++++++++++OOOOOOOOOOOOOOOOOOOOOOOOOOOOOOOOOOOOOOOOOO++++++++++++oooOOOOOOOOOOOOOOOOOOOOOOOOOOOOOOOOOOOOOOOOOOOOOOOOOOOOOO++++++++++++++++++++++++++++++ooo+++++++++OOOOOOOOOOOOOOOOOOOOOOOOOOOOOOOOOOOO+++++++++++++++++++++++++++OOOOOOOOOOOOOOOOOOOOOOOOOOOOOOOOOOOO++++++++++++OOOOOOOOOOOOOOOOOOoooOOOOOOOOOOOO+++++++++++++++++++++OOOOOOOOOOOOOOOOOOOOOOOOOOOOOOOOO",
"OOO+++++++++++++++OOOOOOOOOOOOOOOOOOOOOOOOOOOOOOOOOOOOOOOOOOOOOOOOOOOOOOOOOOOOOOOOOOOOOoooOOOOOOOOOOOOOOOOOOOOOOOOOOO+++++++++++++++++++++++++++++++++++++++OOOOOOOOOOOOOOOOOOoooOOOOOOOOOOOOOOOOOOOOOOOOOOOOOOOOOOOOOOOOOOOOOOOOOOOOOOOOOOOOOOOOOOOOOOOOOOOOOOOOOOOOOOOOOOOOOOOOOOO++++++++++++++++++++++++OOOOOOOOOOOOOOOoooOOOOOOOOOOOO+++++++++++++++++++++OOOOOOOOOOOOOOOOOOOOOOOOOOOOOOOOO",
"OOO+++++++++++++++OOOOOOOOOOOOOOOOOOOOOOOOOOOOOOOOOOOOOOOOOOOOOOOOOOOOOOOOOOOOOOOOOOOOOoooOOOOOOOOOOOOOOOOOOOOOOOOOOO+++++++++++++++++++++++++++++++++++++++OOOOOOOOOOOOOOOOOOoooOOOOOOOOOOOOOOOOOOOOOOOOOOOOOOOOOOOOOOOOOOOOOOOOOOOOOOOOOOOOOOOOOOOOOOOOOOOOOOOOOOOOOOOOOOOOOOOOOOO++++++++++++++++++++++++OOOOOOOOOOOOOOOoooOOOOOOOOOOOO+++++++++++++++++++++OOOOOOOOOOOOOOOOOOOOOOOOOOOOOOOOO",
"OOO+++++++++++++++OOOOOOOOOOOOOOOOOOOOOOOOOOOOOOOOOOOOOOOOOOOOOOOOOOOOOOOOOOOOOOOOOOOOOoooOOOOOOOOOOOOOOOOOOOOOOOOOOO+++++++++++++++++++++++++++++++++++++++OOOOOOOOOOOOOOOOOOoooOOOOOOOOOOOOOOOOOOOOOOOOOOOOOOOOOOOOOOOOOOOOOOOOOOOOOOOOOOOOOOOOOOOOOOOOOOOOOOOOOOOOOOOOOOOOOOOOOOO++++++++++++++++++++++++OOOOOOOOOOOOOOOoooOOOOOOOOOOOO+++++++++++++++++++++OOOOOOOOOOOOOOOOOOOOOOOOOOOOOOOOO",
"OOOOOOOOOOOOOOOOOOOOOOOOOOOOOOOOOOOOOOOOOOOOOOOOOOOOOOOOOOOOOOOOOOOOOOOOOOOOOOOOOOOOOOOoooOOOOOOOOOOOOOOOOOOOOOOOOOOO+++++++++++++++++++++++++++++++++++++++OOOOOOOOOOOOOOOOOOoooOOOOOOOOOOOOOOOOOOOOOOOOOOOOOOOOOOOOOOOOOOOOOOOOOOOOOOOOOOOOOOOOOOOOOOOOOOOOOOOOOOOOOOOOOOOOOOOOOOO++++++++++++++++++++++++OOOOOOOOOOOOOOOoooOOOOOOOOOOOOOOOOOOOOOOOOOOOOOOOOOOOOOOOOOOOOOOOOOOOOOOOOOOOOOOOOOO",
"OOOOOOOOOOOOOOOOOOOOOOOOOOOOOOOOOOOOOOOOOOOOOOOOOOOOOOOOOOOOOOOOOOOOOOOOOOOOOOOOOOOOOOOoooOOOOOOOOOOOOOOOOOOOOOOOOOOO+++++++++++++++++++++++++++++++++++++++OOOOOOOOOOOOOOOOOOoooOOOOOOOOOOOOOOOOOOOOOOOOOOOOOOOOOOOOOOOOOOOOOOOOOOOOOOOOOOOOOOOOOOOOOOOOOOOOOOOOOOOOOOOOOOOOOOOOOOO++++++++++++++++++++++++OOOOOOOOOOOOOOOoooOOOOOOOOOOOOOOOOOOOOOOOOOOOOOOOOOOOOOOOOOOOOOOOOOOOOOOOOOOOOOOOOOO",
"OOOOOOOOOOOOOOOOOOOOOOOOOOOOOOOOOOOOOOOOOOOOOOOOOOOOOOOOOOOOOOOOOOOOOOOOOOOOOOOOOOOOOOOoooOOOOOOOOOOOOOOOOOOOOOOOOOOO+++++++++++++++++++++++++++++++++++++++OOOOOOOOOOOOOOOOOOoooOOOOOOOOOOOOOOOOOOOOOOOOOOOOOOOOOOOOOOOOOOOOOOOOOOOOOOOOOOOOOOOOOOOOOOOOOOOOOOOOOOOOOOOOOOOOOOOOOOO++++++++++++++++++++++++OOOOOOOOOOOOOOOoooOOOOOOOOOOOOOOOOOOOOOOOOOOOOOOOOOOOOOOOOOOOOOOOOOOOOOOOOOOOOOOOOOO",
"XXXXXXXXXXXXXXXXXXXXXXXXXXXXXXXXXXXXXXXXXXXXXXXXXXXXXXXXXXXXXXXXXXXXXXXXXXXXXXXXXXXXXXXXXXXXXXXXXXXXXXXXXXXXXXXXXXXXXXXXXXXXXXXXXXXXXXXXXXXXXXXXXXXXXXXXXXXXXXXXXXXXXXXXXXXXXXXXXXXXXXXXXXXXXXXXXXXXXXXXXXXXXXXXXXXXXXXXXXXXXXXXXXXXXXXXXXXXXXXXXXXXXXXXXXXXXXXXXXXXXXXXXXXXXXXXXXXXXXXXXXXXXXXXXXXXXXXXXXXXXXXXXXXXXXXXXXXXXXXXXXXXXXXXXXXXXXXXXXXXXXXXXXXXXXXXXXXXXXXXXXXXXXXXXXXXXXXXXXXXXXXX",
"XXXXXXXXXXXXXXXXXXXXXXXXXXXXXXXXXXXXXXXXXXXXXXXXXXXXXXXXXXXXXXXXXXXXXXXXXXXXXXXXXXXXXXXXXXXXXXXXXXXXXXXXXXXXXXXXXXXXXXXXXXXXXXXXXXXXXXXXXXXXXXXXXXXXXXXXXXXXXXXXXXXXXXXXXXXXXXXXXXXXXXXXXXXXXXXXXXXXXXXXXXXXXXXXXXXXXXXXXXXXXXXXXXXXXXXXXXXXXXXXXXXXXXXXXXXXXXXXXXXXXXXXXXXXXXXXXXXXXXXXXXXXXXXXXXXXXXXXXXXXXXXXXXXXXXXXXXXXXXXXXXXXXXXXXXXXXXXXXXXXXXXXXXXXXXXXXXXXXXXXXXXXXXXXXXXXXXXXXXXXXXXX",
"XXXXXXXXXXXXXXXXXXXXXXXXXXXXXXXXXXXXXXXXXXXXXXXXXXXXXXXXXXXXXXXXXXXXXXXXXXXXXXXXXXXXXXXXXXXXXXXXXXXXXXXXXXXXXXXXXXXXXXXXXXXXXXXXXXXXXXXXXXXXXXXXXXXXXXXXXXXXXXXXXXXXXXXXXXXXXXXXXXXXXXXXXXXXXXXXXXXXXXXXXXXXXXXXXXXXXXXXXXXXXXXXXXXXXXXXXXXXXXXXXXXXXXXXXXXXXXXXXXXXXXXXXXXXXXXXXXXXXXXXXXXXXXXXXXXXXXXXXXXXXXXXXXXXXXXXXXXXXXXXXXXXXXXXXXXXXXXXXXXXXXXXXXXXXXXXXXXXXXXXXXXXXXXXXXXXXXXXXXXXXXXX",
"XXXXXXXXXXXXXXXXXXXXXXXXXXXXXXXXXXXXXXXXXXXXXXXXXXXXXXXXXXXXXXXXXXXXXXXXXXXXXXXXXXXXXXXXXXXXXXXXXXXXXXXXXXXXXXXXXXXXXXXXXXXXXXXXXXXXXXXXXXXXXXXXXXXXXXXXXXXXXXXXXXXXXXXXXXXXXXXXXXXXXXXXXXXXXXXXXXXXXXXXXXXXXXXXXXXXXXXXXXXXXXXXXXXXXXXXXXXXXXXXXXXXXXXXXXXXXXXXXXXXXXXXXXXXXXXXXXXXXXXXXXXXXXXXXXXXXXXXXXXXXXXXXXXXXXXXXXXXXXXXXXXXXXXXXXXXXXXXXXXXXXXXXXXXXXXXXXXXXXXXXXXXXXXXXXXXXXXXXXXXXXXX",
"XXXXXXXXXXXXXXXXXXXXXXXXXXXXXXXXXXXXXXXXXXXXXXXXXXXXXXXXXXXXXXXXXXXXXXXXXXXXXXXXXXXXXXXXXXXXXXXXXXXXXXXXXXXXXXXXXXXXXXXXXXXXXXXXXXXXXXXXXXXXXXXXXXXXXXXXXXXXXXXXXXXXXXXXXXXXXXXXXXXXXXXXXXXXXXXXXXXXXXXXXXXXXXXXXXXXXXXXXXXXXXXXXXXXXXXXXXXXXXXXXXXXXXXXXXXXXXXXXXXXXXXXXXXXXXXXXXXXXXXXXXXXXXXXXXXXXXXXXXXXXXXXXXXXXXXXXXXXXXXXXXXXXXXXXXXXXXXXXXXXXXXXXXXXXXXXXXXXXXXXXXXXXXXXXXXXXXXXXXXXXXXX",
"XXXXXXXXXXXXXXXXXXXXXXXXXXXXXXXXXXXXXXXXXXXXXXXXXXXXXXXXXXXXXXXXXXXXXXXXXXXXXXXXXXXXXXXXXXXXXXXXXXXXXXXXXXXXXXXXXXXXXXXXXXXXXXXXXXXXXXXXXXXXXXXXXXXXXXXXXXXXXXXXXXXXXXXXXXXXXXXXXXXXXXXXXXXXXXXXXXXXXXXXXXXXXXXXXXXXXXXXXXXXXXXXXXXXXXXXXXXXXXXXXXXXXXXXXXXXXXXXXXXXXXXXXXXXXXXXXXXXXXXXXXXXXXXXXXXXXXXXXXXXXXXXXXXXXXXXXXXXXXXXXXXXXXXXXXXXXXXXXXXXXXXXXXXXXXXXXXXXXXXXXXXXXXXXXXXXXXXXXXXXXXXX",
"OOOOOOOOOoooOOOOOOOOOOOOOOOOOOOOOOOOOOOOOOOOOOOOOOOOOOOOOOOOOOOOOOOOOOOOOOOOOOOOOOOOOOOOOOOOOOOOOOOOOOOOOOOOOOOOOOOOOOOO+++++++++++++++++++++OOOOOOOOOOOOOOOOOOOOOOOOOOOOOOOOOOOOOOO+++++++++++++++++++++OOOOOOOOOoooOOOOOOOOOOOOOOOOOOOOOOOOOOOOOOOOOOOOOOOOOOOOOOOOOOOOOOOOOOOOOOO++++++OOOOOOOOOOOOOOOOOOOOOOOOOOOOOOOOOOOOOOOOOOOOOOOOOOOOOOOOOOOOOOOOOO++++++++++++++++++oooOOOOOOOOOOOOOOO",
"OOOOOOOOOoooOOOOOOOOOOOOOOOOOOOOOOOOOOOOOOOOOOOOOOOOOOOOOOOOOOOOOOOOOOOOOOOOOOOOOOOOOOOOOOOOOOOOOOOOOOOOOOOOOOOOOOOOOOOO+++++++++++++++++++++OOOOOOOOOOOOOOOOOOOOOOOOOOOOOOOOOOOOOOO+++++++++++++++++++++OOOOOOOOOoooOOOOOOOOOOOOOOOOOOOOOOOOOOOOOOOOOOOOOOOOOOOOOOOOOOOOOOOOOOOOOOO++++++OOOOOOOOOOOOOOOOOOOOOOOOOOOOOOOOOOOOOOOOOOOOOOOOOOOOOOOOOOOOOOOOOO++++++++++++++++++oooOOOOOOOOOOOOOOO",
"OOOOOOOOOoooOOOOOOOOOOOOOOOOOOOOOOOOOOOOOOOOOOOOOOOOOOOOOOOOOOOOOOOOOOOOOOOOOOOOOOOOOOOOOOOOOOOOOOOOOOOOOOOOOOOOOOOOOOOO+++++++++++++++++++++OOOOOOOOOOOOOOOOOOOOOOOOOOOOOOOOOOOOOOO+++++++++++++++++++++OOOOOOOOOoooOOOOOOOOOOOOOOOOOOOOOOOOOOOOOOOOOOOOOOOOOOOOOOOOOOOOOOOOOOOOOOO++++++OOOOOOOOOOOOOOOOOOOOOOOOOOOOOOOOOOOOOOOOOOOOOOOOOOOOOOOOOOOOOOOOOO++++++++++++++++++oooOOOOOOOOOOOOOOO",
"OOOOOOOOOooo+++++++++OOOOOOOOOOOOOOOOOOOOOOOOOOOOOOOOOOOOOOOOOOOOOOOOOOOOOOOOOOOOOOOOOOOOOOOOOOOOOOOOOOOOOOOOOOOOOOOOOOO+++++++++++++++++++++OOOOOOOOOOOOOOOOOOOOOOOOOOOOOOOOOOOOOOO+++++++++++++++++++++OOOOOOOOOoooOOOOOOOOOOOOOOOOOOOOOOOOOOOOOOOOOOOOOOOOOOOOOOOOOOOOOOOOOOOOOOO++++++OOOOOOOOOOOOOOOOOOOOOOOOOOOOOOOOOOOOOOOOOOOOOOOO++++++++++++++++++++++++++++++++++++oooOOOOOOOOOOOOOOO",
"OOOOOOOOOooo+++++++++OOOOOOOOOOOOOOOOOOOOOOOOOOOOOOOOOOOOOOOOOOOOOOOOOOOOOOOOOOOOOOOOOOOOOOOOOOOOOOOOOOOOOOOOOOOOOOOOOOO+++++++++++++++++++++OOOOOOOOOOOOOOOOOOOOOOOOOOOOOOOOOOOOOOO+++++++++++++++++++++OOOOOOOOOoooOOOOOOOOOOOOOOOOOOOOOOOOOOOOOOOOOOOOOOOOOOOOOOOOOOOOOOOOOOOOOOO++++++OOOOOOOOOOOOOOOOOOOOOOOOOOOOOOOOOOOOOOOOOOOOOOOO++++++++++++++++++++++++++++++++++++oooOOOOOOOOOOOOOOO",
"OOOOOOOOOooo+++++++++OOOOOOOOOOOOOOOOOOOOOOOOOOOOOOOOOOOOOOOOOOOOOOOOOOOOOOOOOOOOOOOOOOOOOOOOOOOOOOOOOOOOOOOOOOOOOOOOOOO+++++++++++++++++++++OOOOOOOOOOOOOOOOOOOOOOOOOOOOOOOOOOOOOOO+++++++++++++++++++++OOOOOOOOOoooOOOOOOOOOOOOOOOOOOOOOOOOOOOOOOOOOOOOOOOOOOOOOOOOOOOOOOOOOOOOOOO++++++OOOOOOOOOOOOOOOOOOOOOOOOOOOOOOOOOOOOOOOOOOOOOOOO++++++++++++++++++++++++++++++++++++oooOOOOOOOOOOOOOOO",
"OOOOOOOOOooo++++++++++++++++++OOOOOOOOOOOOOOOOOOOOOOOOOOOOOOOOOOOOOOOOOOOOOOOOOOO+++++++++++++++OOOOOOOOOOOOOOOOOOOOOOOOOOOOOOOOOOOOOOOOOOOOOOOOOOOOOOOOOOOOOOOOOOOOOOOOOOOOOOOOOOOOOOOOOOOOOOOO++++++++++++++++++oooOOOOOOOOOOOOOOOOOOOOOOOOOOOOOOOOOOOOOOOOOOOOOOOOOOOOOOOOO++++++OOOOOOOOOOOOOOOOOOOOOOOOOOOOOOOOOOOOOOOOOOOOOOOOOOOOOO++++++++++++++++++OOOOOOOOOOOOOOOOOOoooOOOOOOOOOOOOOOO",
"OOOOOOOOOooo++++++++++++++++++OOOOOOOOOOOOOOOOOOOOOOOOOOOOOOOOOOOOOOOOOOOOOOOOOOO+++++++++++++++OOOOOOOOOOOOOOOOOOOOOOOOOOOOOOOOOOOOOOOOOOOOOOOOOOOOOOOOOOOOOOOOOOOOOOOOOOOOOOOOOOOOOOOOOOOOOOOO++++++++++++++++++oooOOOOOOOOOOOOOOOOOOOOOOOOOOOOOOOOOOOOOOOOOOOOOOOOOOOOOOOOO++++++OOOOOOOOOOOOOOOOOOOOOOOOOOOOOOOOOOOOOOOOOOOOOOOOOOOOOO++++++++++++++++++OOOOOOOOOOOOOOOOOOoooOOOOOOOOOOOOOOO",
"OOOOOOOOOooo++++++++++++++++++OOOOOOOOOOOOOOOOOOOOOOOOOOOOOOOOOOOOOOOOOOOOOOOOOOO+++++++++++++++OOOOOOOOOOOOOOOOOOOOOOOOOOOOOOOOOOOOOOOOOOOOOOOOOOOOOOOOOOOOOOOOOOOOOOOOOOOOOOOOOOOOOOOOOOOOOOOO++++++++++++++++++oooOOOOOOOOOOOOOOOOOOOOOOOOOOOOOOOOOOOOOOOOOOOOOOOOOOOOOOOOO++++++OOOOOOOOOOOOOOOOOOOOOOOOOOOOOOOOOOOOOOOOOOOOOOOOOOOOOO++++++++++++++++++OOOOOOOOOOOOOOOOOOoooOOOOOOOOOOOOOOO",
"OOOOOOOOOoooOOOOOO++++++++++++++++++OOOOOOOOOOOOOOOOOOOOOOOOOOOOOOOOOOOOOOOOOOOOO+++++++++++++++OOOOOOOOOOOOOOOOOOOOOOOOOOOOOOOOOOOOOOOOOOOOOOOOOOO+++++++++++++++OOOOOOOOOOOOOOOOOOOOOOOOOOOOOO++++++++++++++++++oooOOOOOOOOO+++++++++++++++++++++OOOOOOOOOOOOOOOOOOOOOOOOOOO++++++OOOOOOOOOOOOOOO++++++++++++++++++OOOOOOOOOOOOOOOOOOOOOOOOOOOOOOOOOOOOOOOOOOOOOOOOOOOOOOOOOoooOOOOOOOOOOOOOOO",
"OOOOOOOOOoooOOOOOO++++++++++++++++++OOOOOOOOOOOOOOOOOOOOOOOOOOOOOOOOOOOOOOOOOOOOO+++++++++++++++OOOOOOOOOOOOOOOOOOOOOOOOOOOOOOOOOOOOOOOOOOOOOOOOOOO+++++++++++++++OOOOOOOOOOOOOOOOOOOOOOOOOOOOOO++++++++++++++++++oooOOOOOOOOO+++++++++++++++++++++OOOOOOOOOOOOOOOOOOOOOOOOOOO++++++OOOOOOOOOOOOOOO++++++++++++++++++OOOOOOOOOOOOOOOOOOOOOOOOOOOOOOOOOOOOOOOOOOOOOOOOOOOOOOOOOoooOOOOOOOOOOOOOOO",
"OOOOOOOOOoooOOOOOO++++++++++++++++++OOOOOOOOOOOOOOOOOOOOOOOOOOOOOOOOOOOOOOOOOOOOO+++++++++++++++OOOOOOOOOOOOOOOOOOOOOOOOOOOOOOOOOOOOOOOOOOOOOOOOOOO+++++++++++++++OOOOOOOOOOOOOOOOOOOOOOOOOOOOOO++++++++++++++++++oooOOOOOOOOO+++++++++++++++++++++OOOOOOOOOOOOOOOOOOOOOOOOOOO++++++OOOOOOOOOOOOOOO++++++++++++++++++OOOOOOOOOOOOOOOOOOOOOOOOOOOOOOOOOOOOOOOOOOOOOOOOOOOOOOOOOoooOOOOOOOOOOOOOOO",
"OOOOOOOOOoooOOOOOOOOOOOOOOO+++++++++OOOOOOOOOOOOOOOOOO++++++++++++++++++++++++++++++++++++OOOOOOOOOOOOOOOOOOOOOOOOOOOOOOOOOOOOOOOOOOOOOOOOOOOOOOOOO+++++++++++++++OOOOOOOOOOOOOOOOOOOOOOOOOOOOOOOOOOOOOOOOOOOOOOOOoooOOOOOOOOO+++++++++++++++++++++++++++++++++++++++OOOOOOOOOOOOOOOOOOOOOOOOOOOOOO++++++++++++++++++++++++++++++++++++OOOOOOOOOOOOOOOOOOOOOOOOOOOOOOOOOOOO+++ooo+++++++++++++++",
"OOOOOOOOOoooOOOOOOOOOOOOOOO+++++++++OOOOOOOOOOOOOOOOOO++++++++++++++++++++++++++++++++++++OOOOOOOOOOOOOOOOOOOOOOOOOOOOOOOOOOOOOOOOOOOOOOOOOOOOOOOOO+++++++++++++++OOOOOOOOOOOOOOOOOOOOOOOOOOOOOOOOOOOOOOOOOOOOOOOOoooOOOOOOOOO+++++++++++++++++++++++++++++++++++++++OOOOOOOOOOOOOOOOOOOOOOOOOOOOOO++++++++++++++++++++++++++++++++++++OOOOOOOOOOOOOOOOOOOOOOOOOOOOOOOOOOOO+++ooo+++++++++++++++",
"OOOOOOOOOoooOOOOOOOOOOOOOOO+++++++++OOOOOOOOOOOOOOOOOO++++++++++++++++++++++++++++++++++++OOOOOOOOOOOOOOOOOOOOOOOOOOOOOOOOOOOOOOOOOOOOOOOOOOOOOOOOO+++++++++++++++OOOOOOOOOOOOOOOOOOOOOOOOOOOOOOOOOOOOOOOOOOOOOOOOoooOOOOOOOOO+++++++++++++++++++++++++++++++++++++++OOOOOOOOOOOOOOOOOOOOOOOOOOOOOO++++++++++++++++++++++++++++++++++++OOOOOOOOOOOOOOOOOOOOOOOOOOOOOOOOOOOO+++ooo+++++++++++++++",
"OOOOOOOOOoooOOOOOOOOOOOOOOOOOOOOOOOOOOOOOOOOOOOOOOOOOO++++++++++++++++++++++++++++++++++++OOOOOOOOOOOOOOOOOOOOOOOOOOOOOOOOOOOOOOOOOOOOOOOOOOOOOOOOOOOOOOOOOOOOOOOOOOOOOOOOOOOOOOOOOOOOOOOOOOOOOOOOOOOOOOOOOOOOOOOOoooOOOOOOOOOOOOOOOOOOOOOOOOOOO+++++++++++++++++++++OOOOOOOOOOOOOOOOOOOOOOOOOOOOOOOOOOOOOOOOOOOOO+++++++++++++++++++++OOOOOOOOOOOOOOOOOOOOOOOOOOOOOOOOOOOO+++ooo+++++++++++++++",
"OOOOOOOOOoooOOOOOOOOOOOOOOOOOOOOOOOOOOOOOOOOOOOOOOOOOO++++++++++++++++++++++++++++++++++++OOOOOOOOOOOOOOOOOOOOOOOOOOOOOOOOOOOOOOOOOOOOOOOOOOOOOOOOOOOOOOOOOOOOOOOOOOOOOOOOOOOOOOOOOOOOOOOOOOOOOOOOOOOOOOOOOOOOOOOOoooOOOOOOOOOOOOOOOOOOOOOOOOOOO+++++++++++++++++++++OOOOOOOOOOOOOOOOOOOOOOOOOOOOOOOOOOOOOOOOOOOOO+++++++++++++++++++++OOOOOOOOOOOOOOOOOOOOOOOOOOOOOOOOOOOO+++ooo+++++++++++++++",
"OOOOOOOOOoooOOOOOOOOOOOOOOOOOOOOOOOOOOOOOOOOOOOOOOOOOO++++++++++++++++++++++++++++++++++++OOOOOOOOOOOOOOOOOOOOOOOOOOOOOOOOOOOOOOOOOOOOOOOOOOOOOOOOOOOOOOOOOOOOOOOOOOOOOOOOOOOOOOOOOOOOOOOOOOOOOOOOOOOOOOOOOOOOOOOOoooOOOOOOOOOOOOOOOOOOOOOOOOOOO+++++++++++++++++++++OOOOOOOOOOOOOOOOOOOOOOOOOOOOOOOOOOOOOOOOOOOOO+++++++++++++++++++++OOOOOOOOOOOOOOOOOOOOOOOOOOOOOOOOOOOO+++ooo+++++++++++++++",
"XXXXXXXXXXXXXXXXXXXXXXXXXXXXXXXXXXXXXXXXXXXXXXXXXXXXXXXXXXXXXXXXXXXXXXXXXXXXXXXXXXXXXXXXXXXXXXXXXXXXXXXXXXXXXXXXXXXXXXXXXXXXXXXXXXXXXXXXXXXXXXXXXXXXXXXXXXXXXXXXXXXXXXXXXXXXXXXXXXXXXXXXXXXXXXXXXXXXXXXXXXXXXXXXXXXXXXXXXXXXXXXXXXXXXXXXXXXXXXXXXXXXXXXXXXXXXXXXXXXXXXXXXXXXXXXXXXXXXXXXXXXXXXXXXXXXXXXXXXXXXXXXXXXXXXXXXXXXXXXXXXXXXXXXXXXXXXXXXXXXXXXXXXXXXXXXXXXXXXXXXXXXXXXXXXXXXXXXXXXXXXXX",
"XXXXXXXXXXXXXXXXXXXXXXXXXXXXXXXXXXXXXXXXXXXXXXXXXXXXXXXXXXXXXXXXXXXXXXXXXXXXXXXXXXXXXXXXXXXXXXXXXXXXXXXXXXXXXXXXXXXXXXXXXXXXXXXXXXXXXXXXXXXXXXXXXXXXXXXXXXXXXXXXXXXXXXXXXXXXXXXXXXXXXXXXXXXXXXXXXXXXXXXXXXXXXXXXXXXXXXXXXXXXXXXXXXXXXXXXXXXXXXXXXXXXXXXXXXXXXXXXXXXXXXXXXXXXXXXXXXXXXXXXXXXXXXXXXXXXXXXXXXXXXXXXXXXXXXXXXXXXXXXXXXXXXXXXXXXXXXXXXXXXXXXXXXXXXXXXXXXXXXXXXXXXXXXXXXXXXXXXXXXXXXXX",
"XXXXXXXXXXXXXXXXXXXXXXXXXXXXXXXXXXXXXXXXXXXXXXXXXXXXXXXXXXXXXXXXXXXXXXXXXXXXXXXXXXXXXXXXXXXXXXXXXXXXXXXXXXXXXXXXXXXXXXXXXXXXXXXXXXXXXXXXXXXXXXXXXXXXXXXXXXXXXXXXXXXXXXXXXXXXXXXXXXXXXXXXXXXXXXXXXXXXXXXXXXXXXXXXXXXXXXXXXXXXXXXXXXXXXXXXXXXXXXXXXXXXXXXXXXXXXXXXXXXXXXXXXXXXXXXXXXXXXXXXXXXXXXXXXXXXXXXXXXXXXXXXXXXXXXXXXXXXXXXXXXXXXXXXXXXXXXXXXXXXXXXXXXXXXXXXXXXXXXXXXXXXXXXXXXXXXXXXXXXXXXXX",
"XXXXXXXXXXXXXXXXXXXXXXXXXXXXXXXXXXXXXXXXXXXXXXXXXXXXXXXXXXXXXXXXXXXXXXXXXXXXXXXXXXXXXXXXXXXXXXXXXXXXXXXXXXXXXXXXXXXXXXXXXXXXXXXXXXXXXXXXXXXXXXXXXXXXXXXXXXXXXXXXXXXXXXXXXXXXXXXXXXXXXXXXXXXXXXXXXXXXXXXXXXXXXXXXXXXXXXXXXXXXXXXXXXXXXXXXXXXXXXXXXXXXXXXXXXXXXXXXXXXXXXXXXXXXXXXXXXXXXXXXXXXXXXXXXXXXXXXXXXXXXXXXXXXXXXXXXXXXXXXXXXXXXXXXXXXXXXXXXXXXXXXXXXXXXXXXXXXXXXXXXXXXXXXXXXXXXXXXXXXXXXXX",
"XXXXXXXXXXXXXXXXXXXXXXXXXXXXXXXXXXXXXXXXXXXXXXXXXXXXXXXXXXXXXXXXXXXXXXXXXXXXXXXXXXXXXXXXXXXXXXXXXXXXXXXXXXXXXXXXXXXXXXXXXXXXXXXXXXXXXXXXXXXXXXXXXXXXXXXXXXXXXXXXXXXXXXXXXXXXXXXXXXXXXXXXXXXXXXXXXXXXXXXXXXXXXXXXXXXXXXXXXXXXXXXXXXXXXXXXXXXXXXXXXXXXXXXXXXXXXXXXXXXXXXXXXXXXXXXXXXXXXXXXXXXXXXXXXXXXXXXXXXXXXXXXXXXXXXXXXXXXXXXXXXXXXXXXXXXXXXXXXXXXXXXXXXXXXXXXXXXXXXXXXXXXXXXXXXXXXXXXXXXXXXXX",
"XXXXXXXXXXXXXXXXXXXXXXXXXXXXXXXXXXXXXXXXXXXXXXXXXXXXXXXXXXXXXXXXXXXXXXXXXXXXXXXXXXXXXXXXXXXXXXXXXXXXXXXXXXXXXXXXXXXXXXXXXXXXXXXXXXXXXXXXXXXXXXXXXXXXXXXXXXXXXXXXXXXXXXXXXXXXXXXXXXXXXXXXXXXXXXXXXXXXXXXXXXXXXXXXXXXXXXXXXXXXXXXXXXXXXXXXXXXXXXXXXXXXXXXXXXXXXXXXXXXXXXXXXXXXXXXXXXXXXXXXXXXXXXXXXXXXXXXXXXXXXXXXXXXXXXXXXXXXXXXXXXXXXXXXXXXXXXXXXXXXXXXXXXXXXXXXXXXXXXXXXXXXXXXXXXXXXXXXXXXXXXXX",
"OOOOOOOOOOOOOOOOOOOOOOOOOOOOOOOOOOOOOOOOOOOOOOOOOOOOOOOOOOOOOOOOOOOOOOOOOOOOOOOOOOOOOOOOOO++++++OOOOOOOOOOOOOOOOOOOOOOOOoooOOOOOOOOOOOOOOOOOOOOOOOOOOOOOOOOOOOOOOO+++++++++++++++++++++++++++OOOOOOOOOOOOOOOOOOOOOOOOOOOOOOOOOOOOOOOOOO+++++++++oooOOOOOOOOOOOOOOOOOOOOOOOOOOOOOOOOOOOOOOOOOOOOOOOOOOOOOOOOOOOOOOOOOOOOOOOOOOOOOOOOO++++++++++++++++++OOOOOOOOOOOOOOOOOOOOOOOOOOOOOO++++++++++++",
"OOOOOOOOOOOOOOOOOOOOOOOOOOOOOOOOOOOOOOOOOOOOOOOOOOOOOOOOOOOOOOOOOOOOOOOOOOOOOOOOOOOOOOOOOO++++++OOOOOOOOOOOOOOOOOOOOOOOOoooOOOOOOOOOOOOOOOOOOOOOOOOOOOOOOOOOOOOOOO+++++++++++++++++++++++++++OOOOOOOOOOOOOOOOOOOOOOOOOOOOOOOOOOOOOOOOOO+++++++++oooOOOOOOOOOOOOOOOOOOOOOOOOOOOOOOOOOOOOOOOOOOOOOOOOOOOOOOOOOOOOOOOOOOOOOOOOOOOOOOOOO++++++++++++++++++OOOOOOOOOOOOOOOOOOOOOOOOOOOOOO++++++++++++",
"OOOOOOOOOOOOOOOOOOOOOOOOOOOOOOOOOOOOOOOOOOOOOOOOOOOOOOOOOOOOOOOOOOOOOOOOOOOOOOOOOOOOOOOOOO++++++OOOOOOOOOOOOOOOOOOOOOOOOoooOOOOOOOOOOOOOOOOOOOOOOOOOOOOOOOOOOOOOOO+++++++++++++++++++++++++++OOOOOOOOOOOOOOOOOOOOOOOOOOOOOOOOOOOOOOOOOO+++++++++oooOOOOOOOOOOOOOOOOOOOOOOOOOOOOOOOOOOOOOOOOOOOOOOOOOOOOOOOOOOOOOOOOOOOOOOOOOOOOOOOOO++++++++++++++++++OOOOOOOOOOOOOOOOOOOOOOOOOOOOOO++++++++++++",
"OOOOOOOOOOOOOOOOOOOOOOOOOOOOOOOOOOOOOOOOOOOOOOOOOOOOOOOOOOOOOOOOOOOOOOOOOOOOOOOOOOOO++++++++++++OOOOOOOOOOOOOOOOOOOOOOOOoooOOOOOO++++++++++++++++++++++++OOOOOOOOO+++++++++++++++++++++++++++OOOOOOOOOOOOOOOOOOOOOOOOOOOOOOOOOOOOOOOOOO+++++++++ooo++++++++++++OOOOOOOOOOOOOOOOOOOOOOOOOOOOOOOOOOOOOOOOOOOOOOOOOOO++++++++++++++++++++++++++++++++++++OOOOOOOOOOOOOOOOOOOOOOOOOOOOOO++++++++++++",
"OOOOOOOOOOOOOOOOOOOOOOOOOOOOOOOOOOOOOOOOOOOOOOOOOOOOOOOOOOOOOOOOOOOOOOOOOOOOOOOOOOOO++++++++++++OOOOOOOOOOOOOOOOOOOOOOOOoooOOOOOO++++++++++++++++++++++++OOOOOOOOO+++++++++++++++++++++++++++OOOOOOOOOOOOOOOOOOOOOOOOOOOOOOOOOOOOOOOOOO+++++++++ooo++++++++++++OOOOOOOOOOOOOOOOOOOOOOOOOOOOOOOOOOOOOOOOOOOOOOOOOOO++++++++++++++++++++++++++++++++++++OOOOOOOOOOOOOOOOOOOOOOOOOOOOOO++++++++++++",
"OOOOOOOOOOOOOOOOOOOOOOOOOOOOOOOOOOOOOOOOOOOOOOOOOOOOOOOOOOOOOOOOOOOOOOOOOOOOOOOOOOOO++++++++++++OOOOOOOOOOOOOOOOOOOOOOOOoooOOOOOO++++++++++++++++++++++++OOOOOOOOO+++++++++++++++++++++++++++OOOOOOOOOOOOOOOOOOOOOOOOOOOOOOOOOOOOOOOOOO+++++++++ooo++++++++++++OOOOOOOOOOOOOOOOOOOOOOOOOOOOOOOOOOOOOOOOOOOOOOOOOOO++++++++++++++++++++++++++++++++++++OOOOOOOOOOOOOOOOOOOOOOOOOOOOOO++++++++++++",
"OOOOOOOOOOOOOOOOOOOOOOOO+++++++++++++++++++++++++++OOOOOOOOOOOOOOOOOOOOOOOOOOOOOOOOO++++++OOOOOOOOOOOOOOOOOOOOOOOOOOOOOOoooOOOOOO++++++++++++++++++++++++OOOOOOOOOOOOOOOOOOOOOOOOOOOOOO+++++++++++++++OOOOOOOOOOOOOOOOOOOOOOOOOOOOOOOOOOOOOOOOOOooo++++++++++++OOOOOOOOOOOOOOOOOOOOOOOOOOOOOOOOOOOOOOOOOOOOOOOOOOO++++++++++++++++++++++++OOOOOOOOOOOOOOOOOOOOOOOOOOO++++++OOOOOOOOOOOOOOOOOOOOO",
"OOOOOOOOOOOOOOOOOOOOOOOO+++++++++++++++++++++++++++OOOOOOOOOOOOOOOOOOOOOOOOOOOOOOOOO++++++OOOOOOOOOOOOOOOOOOOOOOOOOOOOOOoooOOOOOO++++++++++++++++++++++++OOOOOOOOOOOOOOOOOOOOOOOOOOOOOO+++++++++++++++OOOOOOOOOOOOOOOOOOOOOOOOOOOOOOOOOOOOOOOOOOooo++++++++++++OOOOOOOOOOOOOOOOOOOOOOOOOOOOOOOOOOOOOOOOOOOOOOOOOOO++++++++++++++++++++++++OOOOOOOOOOOOOOOOOOOOOOOOOOO++++++OOOOOOOOOOOOOOOOOOOOO",
"OOOOOOOOOOOOOOOOOOOOOOOO+++++++++++++++++++++++++++OOOOOOOOOOOOOOOOOOOOOOOOOOOOOOOOO++++++OOOOOOOOOOOOOOOOOOOOOOOOOOOOOOoooOOOOOO++++++++++++++++++++++++OOOOOOOOOOOOOOOOOOOOOOOOOOOOOO+++++++++++++++OOOOOOOOOOOOOOOOOOOOOOOOOOOOOOOOOOOOOOOOOOooo++++++++++++OOOOOOOOOOOOOOOOOOOOOOOOOOOOOOOOOOOOOOOOOOOOOOOOOOO++++++++++++++++++++++++OOOOOOOOOOOOOOOOOOOOOOOOOOO++++++OOOOOOOOOOOOOOOOOOOOO",
"OOOOOOOOOOOOOOOOOOOOOOOO+++++++++++++++++++++++++++OOOOOOOOOOOOOOOOOOOOOOOOOOOOOOOOOOOOOOOOOOOOOOOOOOOOOO+++++++++++++++ooo+++++++++OOOOOOOOOOOOOOOOOOOOOOOOOOOOOOOOOOOOOOOOOOOOOOOOOOO+++++++++++++++OOOOOOOOOOOOOOOOOOOOOOOOOOOOOOOOOOOOOOOOOOoooOOOOOOOOOOOOOOOOOOOOO++++++++++++++++++OOOOOOOOOOOOOOOOOOOOOOOOOOOOOOOOOOOOOOOOOOOOOOOOOOOOOOOOOOOOOOOOOOOOOOOOOOO++++++OOOOOOOOOOOOOOOOOOOOO",
"OOOOOOOOOOOOOOOOOOOOOOOO+++++++++++++++++++++++++++OOOOOOOOOOOOOOOOOOOOOOOOOOOOOOOOOOOOOOOOOOOOOOOOOOOOOO+++++++++++++++ooo+++++++++OOOOOOOOOOOOOOOOOOOOOOOOOOOOOOOOOOOOOOOOOOOOOOOOOOO+++++++++++++++OOOOOOOOOOOOOOOOOOOOOOOOOOOOOOOOOOOOOOOOOOoooOOOOOOOOOOOOOOOOOOOOO++++++++++++++++++OOOOOOOOOOOOOOOOOOOOOOOOOOOOOOOOOOOOOOOOOOOOOOOOOOOOOOOOOOOOOOOOOOOOOOOOOOO++++++OOOOOOOOOOOOOOOOOOOOO",
"OOOOOOOOOOOOOOOOOOOOOOOO+++++++++++++++++++++++++++OOOOOOOOOOOOOOOOOOOOOOOOOOOOOOOOOOOOOOOOOOOOOOOOOOOOOO+++++++++++++++ooo+++++++++OOOOOOOOOOOOOOOOOOOOOOOOOOOOOOOOOOOOOOOOOOOOOOOOOOO+++++++++++++++OOOOOOOOOOOOOOOOOOOOOOOOOOOOOOOOOOOOOOOOOOoooOOOOOOOOOOOOOOOOOOOOO++++++++++++++++++OOOOOOOOOOOOOOOOOOOOOOOOOOOOOOOOOOOOOOOOOOOOOOOOOOOOOOOOOOOOOOOOOOOOOOOOOOO++++++OOOOOOOOOOOOOOOOOOOOO",
"OOO+++++++++++++++++++++++++++OOOOOOOOOOOOOOOOOOOOOOOOOOOOOOOOOOOOOOO++++++++++++++++++OOOOOOOOOOOOOOOOOO+++++++++++++++ooo+++++++++OOOOOOOOOOOOOOOOOOOOOOOOOOOOOOOOOOOOOOOOOOOOOOOOOOOOOOOOOOOOOOOOOOOOOOOOOOOOOO+++++++++++++++OOOOOOOOOOOOOOOoooOOOOOOOOOOOOOOOOOOOOO+++++++++++++++++++++++++++++++++OOOOOOOOOOOOOOOOOOOOOOOOOOOOOOOOOOOO++++++++++++++++++OOOOOOOOOOOOOOOOOOOOOOOOOOOOOOOOO",
"OOO+++++++++++++++++++++++++++OOOOOOOOOOOOOOOOOOOOOOOOOOOOOOOOOOOOOOO++++++++++++++++++OOOOOOOOOOOOOOOOOO+++++++++++++++ooo+++++++++OOOOOOOOOOOOOOOOOOOOOOOOOOOOOOOOOOOOOOOOOOOOOOOOOOOOOOOOOOOOOOOOOOOOOOOOOOOOOO+++++++++++++++OOOOOOOOOOOOOOOoooOOOOOOOOOOOOOOOOOOOOO+++++++++++++++++++++++++++++++++OOOOOOOOOOOOOOOOOOOOOOOOOOOOOOOOOOOO++++++++++++++++++OOOOOOOOOOOOOOOOOOOOOOOOOOOOOOOOO",
"OOO+++++++++++++++++++++++++++OOOOOOOOOOOOOOOOOOOOOOOOOOOOOOOOOOOOOOO++++++++++++++++++OOOOOOOOOOOOOOOOOO+++++++++++++++ooo+++++++++OOOOOOOOOOOOOOOOOOOOOOOOOOOOOOOOOOOOOOOOOOOOOOOOOOOOOOOOOOOOOOOOOOOOOOOOOOOOOO+++++++++++++++OOOOOOOOOOOOOOOoooOOOOOOOOOOOOOOOOOOOOO+++++++++++++++++++++++++++++++++OOOOOOOOOOOOOOOOOOOOOOOOOOOOOOOOOOOO++++++++++++++++++OOOOOOOOOOOOOOOOOOOOOOOOOOOOOOOOO",
"OOO+++++++++++++++++++++++++++OOOOOOOOOOOOOOOOOOOOOOOOOOOOOOOOOOOOOOO++++++++++++++++++OOOOOOOOOOOOOOOOOOOOOOOOOOOOOOOOOoooOOOOOOOOOOOOOOOOOOOOOOOOOOOOOOOOOOOOOOOOOOOOOOOOOOOOOOOOOOOOOOOOOOOOOOOOOOOOOOOOOOOOOOO+++++++++++++++OOOOOOOOOOOOOOOoooOOOOOOOOOOOOOOOOOOOOOOOOOOOOOOOOOOOOOOO+++++++++++++++OOOOOOOOOOOOOOOOOOOOOOOOOOOOOOOOOOOO++++++++++++++++++OOOOOOOOOOOOOOOOOOOOOOOOOOOOOOOOO",
"OOO+++++++++++++++++++++++++++OOOOOOOOOOOOOOOOOOOOOOOOOOOOOOOOOOOOOOO++++++++++++++++++OOOOOOOOOOOOOOOOOOOOOOOOOOOOOOOOOoooOOOOOOOOOOOOOOOOOOOOOOOOOOOOOOOOOOOOOOOOOOOOOOOOOOOOOOOOOOOOOOOOOOOOOOOOOOOOOOOOOOOOOOO+++++++++++++++OOOOOOOOOOOOOOOoooOOOOOOOOOOOOOOOOOOOOOOOOOOOOOOOOOOOOOOO+++++++++++++++OOOOOOOOOOOOOOOOOOOOOOOOOOOOOOOOOOOO++++++++++++++++++OOOOOOOOOOOOOOOOOOOOOOOOOOOOOOOOO",
"OOO+++++++++++++++++++++++++++OOOOOOOOOOOOOOOOOOOOOOOOOOOOOOOOOOOOOOO++++++++++++++++++OOOOOOOOOOOOOOOOOOOOOOOOOOOOOOOOOoooOOOOOOOOOOOOOOOOOOOOOOOOOOOOOOOOOOOOOOOOOOOOOOOOOOOOOOOOOOOOOOOOOOOOOOOOOOOOOOOOOOOOOOO+++++++++++++++OOOOOOOOOOOOOOOoooOOOOOOOOOOOOOOOOOOOOOOOOOOOOOOOOOOOOOOO+++++++++++++++OOOOOOOOOOOOOOOOOOOOOOOOOOOOOOOOOOOO++++++++++++++++++OOOOOOOOOOOOOOOOOOOOOOOOOOOOOOOOO",
"XXXXXXXXXXXXXXXXXXXXXXXXXXXXXXXXXXXXXXXXXXXXXXXXXXXXXXXXXXXXXXXXXXXXXXXXXXXXXXXXXXXXXXXXXXXXXXXXXXXXXXXXXXXXXXXXXXXXXXXXXXXXXXXXXXXXXXXXXXXXXXXXXXXXXXXXXXXXXXXXXXXXXXXXXXXXXXXXXXXXXXXXXXXXXXXXXXXXXXXXXXXXXXXXXXXXXXXXXXXXXXXXXXXXXXXXXXXXXXXXXXXXXXXXXXXXXXXXXXXXXXXXXXXXXXXXXXXXXXXXXXXXXXXXXXXXXXXXXXXXXXXXXXXXXXXXXXXXXXXXXXXXXXXXXXXXXXXXXXXXXXXXXXXXXXXXXXXXXXXXXXXXXXXXXXXXXXXXXXXXXXXX",
"XXXXXXXXXXXXXXXXXXXXXXXXXXXXXXXXXXXXXXXXXXXXXXXXXXXXXXXXXXXXXXXXXXXXXXXXXXXXXXXXXXXXXXXXXXXXXXXXXXXXXXXXXXXXXXXXXXXXXXXXXXXXXXXXXXXXXXXXXXXXXXXXXXXXXXXXXXXXXXXXXXXXXXXXXXXXXXXXXXXXXXXXXXXXXXXXXXXXXXXXXXXXXXXXXXXXXXXXXXXXXXXXXXXXXXXXXXXXXXXXXXXXXXXXXXXXXXXXXXXXXXXXXXXXXXXXXXXXXXXXXXXXXXXXXXXXXXXXXXXXXXXXXXXXXXXXXXXXXXXXXXXXXXXXXXXXXXXXXXXXXXXXXXXXXXXXXXXXXXXXXXXXXXXXXXXXXXXXXXXXXXXX",
"XXXXXXXXXXXXXXXXXXXXXXXXXXXXXXXXXXXXXXXXXXXXXXXXXXXXXXXXXXXXXXXXXXXXXXXXXXXXXXXXXXXXXXXXXXXXXXXXXXXXXXXXXXXXXXXXXXXXXXXXXXXXXXXXXXXXXXXXXXXXXXXXXXXXXXXXXXXXXXXXXXXXXXXXXXXXXXXXXXXXXXXXXXXXXXXXXXXXXXXXXXXXXXXXXXXXXXXXXXXXXXXXXXXXXXXXXXXXXXXXXXXXXXXXXXXXXXXXXXXXXXXXXXXXXXXXXXXXXXXXXXXXXXXXXXXXXXXXXXXXXXXXXXXXXXXXXXXXXXXXXXXXXXXXXXXXXXXXXXXXXXXXXXXXXXXXXXXXXXXXXXXXXXXXXXXXXXXXXXXXXXXX",
"XXXXXXXXXXXXXXXXXXXXXXXXXXXXXXXXXXXXXXXXXXXXXXXXXXXXXXXXXXXXXXXXXXXXXXXXXXXXXXXXXXXXXXXXXXXXXXXXXXXXXXXXXXXXXXXXXXXXXXXXXXXXXXXXXXXXXXXXXXXXXXXXXXXXXXXXXXXXXXXXXXXXXXXXXXXXXXXXXXXXXXXXXXXXXXXXXXXXXXXXXXXXXXXXXXXXXXXXXXXXXXXXXXXXXXXXXXXXXXXXXXXXXXXXXXXXXXXXXXXXXXXXXXXXXXXXXXXXXXXXXXXXXXXXXXXXXXXXXXXXXXXXXXXXXXXXXXXXXXXXXXXXXXXXXXXXXXXXXXXXXXXXXXXXXXXXXXXXXXXXXXXXXXXXXXXXXXXXXXXXXXXX",
"XXXXXXXXXXXXXXXXXXXXXXXXXXXXXXXXXXXXXXXXXXXXXXXXXXXXXXXXXXXXXXXXXXXXXXXXXXXXXXXXXXXXXXXXXXXXXXXXXXXXXXXXXXXXXXXXXXXXXXXXXXXXXXXXXXXXXXXXXXXXXXXXXXXXXXXXXXXXXXXXXXXXXXXXXXXXXXXXXXXXXXXXXXXXXXXXXXXXXXXXXXXXXXXXXXXXXXXXXXXXXXXXXXXXXXXXXXXXXXXXXXXXXXXXXXXXXXXXXXXXXXXXXXXXXXXXXXXXXXXXXXXXXXXXXXXXXXXXXXXXXXXXXXXXXXXXXXXXXXXXXXXXXXXXXXXXXXXXXXXXXXXXXXXXXXXXXXXXXXXXXXXXXXXXXXXXXXXXXXXXXXXX",
"XXXXXXXXXXXXXXXXXXXXXXXXXXXXXXXXXXXXXXXXXXXXXXXXXXXXXXXXXXXXXXXXXXXXXXXXXXXXXXXXXXXXXXXXXXXXXXXXXXXXXXXXXXXXXXXXXXXXXXXXXXXXXXXXXXXXXXXXXXXXXXXXXXXXXXXXXXXXXXXXXXXXXXXXXXXXXXXXXXXXXXXXXXXXXXXXXXXXXXXXXXXXXXXXXXXXXXXXXXXXXXXXXXXXXXXXXXXXXXXXXXXXXXXXXXXXXXXXXXXXXXXXXXXXXXXXXXXXXXXXXXXXXXXXXXXXXXXXXXXXXXXXXXXXXXXXXXXXXXXXXXXXXXXXXXXXXXXXXXXXXXXXXXXXXXXXXXXXXXXXXXXXXXXXXXXXXXXXXXXXXXXX",
"OOOOOOOOOOOOOOOOOOOOOOOOOOOOOOOOOOOOOOOOOOOOOOOOooooooOOOOOOOOOOOOOOOOOOOOO++++++++++++++++++++++++OOOOOOOOOOOOOOOOOOOOOOOOOOOOOOOOOOOOOOOOOOOOOOOOOOOOOOOOOOOOOOOOOOOOOOOOOOOOOOooo+++++++++++++++++++++OOOOOOOOOOOOOOOOOOOOOOOOOOOOOOOOOOOOOOOOOOOOOOOOOOOOOOOOOOOOOOOOOOOOOOOOOOOOOOOOOOOOOOOOOOoooOOOOOO++++++++++++++++++++++++OOOOOOOOOOOOOOOOOOOOOOOOOOOOOOOOOoooOOOOOOOOOOOOOOOOOO++++++",
"OOOOOOOOOOOOOOOOOOOOOOOOOOOOOOOOOOOOOOOOOOOOOOOOooooooOOOOOOOOOOOOOOOOOOOOO++++++++++++++++++++++++OOOOOOOOOOOOOOOOOOOOOOOOOOOOOOOOOOOOOOOOOOOOOOOOOOOOOOOOOOOOOOOOOOOOOOOOOOOOOOooo+++++++++++++++++++++OOOOOOOOOOOOOOOOOOOOOOOOOOOOOOOOOOOOOOOOOOOOOOOOOOOOOOOOOOOOOOOOOOOOOOOOOOOOOOOOOOOOOOOOOOoooOOOOOO++++++++++++++++++++++++OOOOOOOOOOOOOOOOOOOOOOOOOOOOOOOOOoooOOOOOOOOOOOOOOOOOO++++++",
"OOOOOOOOOOOOOOOOOOOOOOOOOOOOOOOOOOOOOOOOOOOOOOOOooooooOOOOOOOOOOOOOOOOOOOOO++++++++++++++++++++++++OOOOOOOOOOOOOOOOOOOOOOOOOOOOOOOOOOOOOOOOOOOOOOOOOOOOOOOOOOOOOOOOOOOOOOOOOOOOOOooo+++++++++++++++++++++OOOOOOOOOOOOOOOOOOOOOOOOOOOOOOOOOOOOOOOOOOOOOOOOOOOOOOOOOOOOOOOOOOOOOOOOOOOOOOOOOOOOOOOOOOoooOOOOOO++++++++++++++++++++++++OOOOOOOOOOOOOOOOOOOOOOOOOOOOOOOOOoooOOOOOOOOOOOOOOOOOO++++++",
"OOOOOOOOOOOOOOOOOOOOOOOOOOOOOOOOOOOOOOOOOOOOOOOOooooooOOOOOO+++++++++++++++++++++++++++++++++++++++OOOOOOOOOOOOOOOOOOOOOOOOOOOOOOOOOOOOOOOOOOOOOOOOOOOOOO+++++++++OOOOOOOOOOOOOOOooo++++++++++++++++++++++++OOOOOOOOOOOOOOOOOOOOOOOOOOOOOOOOOOOOOOOOOOOOOOOOOOOOOOOOOOOOOOOOOOOOOOOOOOOOOO+++++++++ooo++++++++++++++++++++++++++++++OOOOOOOOOOOOOOOOOOOOOOOO+++++++++oooOOOOOOOOOOOOOOOOOO++++++",
"OOOOOOOOOOOOOOOOOOOOOOOOOOOOOOOOOOOOOOOOOOOOOOOOooooooOOOOOO+++++++++++++++++++++++++++++++++++++++OOOOOOOOOOOOOOOOOOOOOOOOOOOOOOOOOOOOOOOOOOOOOOOOOOOOOO+++++++++OOOOOOOOOOOOOOOooo++++++++++++++++++++++++OOOOOOOOOOOOOOOOOOOOOOOOOOOOOOOOOOOOOOOOOOOOOOOOOOOOOOOOOOOOOOOOOOOOOOOOOOOOOO+++++++++ooo++++++++++++++++++++++++++++++OOOOOOOOOOOOOOOOOOOOOOOO+++++++++oooOOOOOOOOOOOOOOOOOO++++++",
"OOOOOOOOOOOOOOOOOOOOOOOOOOOOOOOOOOOOOOOOOOOOOOOOooooooOOOOOO+++++++++++++++++++++++++++++++++++++++OOOOOOOOOOOOOOOOOOOOOOOOOOOOOOOOOOOOOOOOOOOOOOOOOOOOOO+++++++++OOOOOOOOOOOOOOOooo++++++++++++++++++++++++OOOOOOOOOOOOOOOOOOOOOOOOOOOOOOOOOOOOOOOOOOOOOOOOOOOOOOOOOOOOOOOOOOOOOOOOOOOOOO+++++++++ooo++++++++++++++++++++++++++++++OOOOOOOOOOOOOOOOOOOOOOOO+++++++++oooOOOOOOOOOOOOOOOOOO++++++",
"OOOOOO++++++++++++OOOOOOOOOOOOOOOOOOOOOOOOOOOOOOooooooOOOOOO+++++++++++++++++++++OOOOOOOOOOOOOOOOOOOOOOOOOOOOOOOOO++++++OOOOOOOOOOOOOOOOOOOOOOOOOOO+++++++++++++++OOOOOOOOOOOOOOOoooOOOOOOOOOOOOOOO++++++++++++++++++OOOOOOOOOOOOOOO++++++++++++++++++OOOOOOOOOOOOOOOOOOOOOOOOOOOOOOOOOOOO+++++++++ooo+++++++++OOOOOOOOOOOOOOOOOOOOOOOOOOOOOOOOOOOO++++++++++++++++++oooOOOOOOOOOOOOOOOOOOOOOOOO",
"OOOOOO++++++++++++OOOOOOOOOOOOOOOOOOOOOOOOOOOOOOooooooOOOOOO+++++++++++++++++++++OOOOOOOOOOOOOOOOOOOOOOOOOOOOOOOOO++++++OOOOOOOOOOOOOOOOOOOOOOOOOOO+++++++++++++++OOOOOOOOOOOOOOOoooOOOOOOOOOOOOOOO++++++++++++++++++OOOOOOOOOOOOOOO++++++++++++++++++OOOOOOOOOOOOOOOOOOOOOOOOOOOOOOOOOOOO+++++++++ooo+++++++++OOOOOOOOOOOOOOOOOOOOOOOOOOOOOOOOOOOO++++++++++++++++++oooOOOOOOOOOOOOOOOOOOOOOOOO",
"OOOOOO++++++++++++OOOOOOOOOOOOOOOOOOOOOOOOOOOOOOooooooOOOOOO+++++++++++++++++++++OOOOOOOOOOOOOOOOOOOOOOOOOOOOOOOOO++++++OOOOOOOOOOOOOOOOOOOOOOOOOOO+++++++++++++++OOOOOOOOOOOOOOOoooOOOOOOOOOOOOOOO++++++++++++++++++OOOOOOOOOOOOOOO++++++++++++++++++OOOOOOOOOOOOOOOOOOOOOOOOOOOOOOOOOOOO+++++++++ooo+++++++++OOOOOOOOOOOOOOOOOOOOOOOOOOOOOOOOOOOO++++++++++++++++++oooOOOOOOOOOOOOOOOOOOOOOOOO",
"OOOOOO++++++++++++++++++++++++++++++OOOOOOOOOOOOooooooOOOOOOOOOOOOOOOOOOOOOOOOOOOOOOOOOOOOOOOOOOOOOOOOOOOOOOOOOOOO++++++OOOOOOOOOOOO++++++++++++++++++++++++OOOOOOOOOOOOOOOOOOOOOOOOoooOOOOOOOOOOOOOOOOOO++++++++++++OOOOOOOOOOOOOOO++++++++++++++++++++++++++++++++++++++++++OOOOOOOOOOOOOOOOOOOOOoooOOOOOOOOOOOOOOOOOOOOOOOOOOOOOOOOOOOOOOO++++++++++++++++++OOOOOOoooOOO+++++++++++++++OOOOOO",
"OOOOOO++++++++++++++++++++++++++++++OOOOOOOOOOOOooooooOOOOOOOOOOOOOOOOOOOOOOOOOOOOOOOOOOOOOOOOOOOOOOOOOOOOOOOOOOOO++++++OOOOOOOOOOOO++++++++++++++++++++++++OOOOOOOOOOOOOOOOOOOOOOOOoooOOOOOOOOOOOOOOOOOO++++++++++++OOOOOOOOOOOOOOO++++++++++++++++++++++++++++++++++++++++++OOOOOOOOOOOOOOOOOOOOOoooOOOOOOOOOOOOOOOOOOOOOOOOOOOOOOOOOOOOOOO++++++++++++++++++OOOOOOoooOOO+++++++++++++++OOOOOO",
"OOOOOO++++++++++++++++++++++++++++++OOOOOOOOOOOOooooooOOOOOOOOOOOOOOOOOOOOOOOOOOOOOOOOOOOOOOOOOOOOOOOOOOOOOOOOOOOO++++++OOOOOOOOOOOO++++++++++++++++++++++++OOOOOOOOOOOOOOOOOOOOOOOOoooOOOOOOOOOOOOOOOOOO++++++++++++OOOOOOOOOOOOOOO++++++++++++++++++++++++++++++++++++++++++OOOOOOOOOOOOOOOOOOOOOoooOOOOOOOOOOOOOOOOOOOOOOOOOOOOOOOOOOOOOOO++++++++++++++++++OOOOOOoooOOO+++++++++++++++OOOOOO",
"OOOOOOOOOOOOOOO+++++++++++++++++++++++++++++++++oooOOOOOOOOOOOOOOOOOOOOOOOOOOOOOOOOOOOOOOOOOO+++++++++++++++OOOOOOOOOOOOOOOOOOOOOOOO++++++++++++++++++OOOOOOOOOOOOOOOOOO++++++++++++oooOOOOOOOOOOOOOOOOOOOOOOOOOOOOOOOOOOOOOOOOOOOOOOOOOOOOOOOOOOOO++++++++++++++++++++++++++++++++++++++++++OOOOOOoooOOOOOOOOOOOOOOOOOOOOOOOOOOOOOOOOO+++++++++++++++OOOOOOOOOOOOOOOoooOOO+++++++++++++++OOOOOO",
"OOOOOOOOOOOOOOO+++++++++++++++++++++++++++++++++oooOOOOOOOOOOOOOOOOOOOOOOOOOOOOOOOOOOOOOOOOOO+++++++++++++++OOOOOOOOOOOOOOOOOOOOOOOO++++++++++++++++++OOOOOOOOOOOOOOOOOO++++++++++++oooOOOOOOOOOOOOOOOOOOOOOOOOOOOOOOOOOOOOOOOOOOOOOOOOOOOOOOOOOOOO++++++++++++++++++++++++++++++++++++++++++OOOOOOoooOOOOOOOOOOOOOOOOOOOOOOOOOOOOOOOOO+++++++++++++++OOOOOOOOOOOOOOOoooOOO+++++++++++++++OOOOOO",
"OOOOOOOOOOOOOOO+++++++++++++++++++++++++++++++++oooOOOOOOOOOOOOOOOOOOOOOOOOOOOOOOOOOOOOOOOOOO+++++++++++++++OOOOOOOOOOOOOOOOOOOOOOOO++++++++++++++++++OOOOOOOOOOOOOOOOOO++++++++++++oooOOOOOOOOOOOOOOOOOOOOOOOOOOOOOOOOOOOOOOOOOOOOOOOOOOOOOOOOOOOO++++++++++++++++++++++++++++++++++++++++++OOOOOOoooOOOOOOOOOOOOOOOOOOOOOOOOOOOOOOOOO+++++++++++++++OOOOOOOOOOOOOOOoooOOO+++++++++++++++OOOOOO",
"OOOOOOOOOOOOOOOOOOOOOOOOOOOOOOOOO+++++++++++++++oooOOOOOOOOOOOOOOOOOOOOOOOOOOOOOOOOOOOOOOOOOO+++++++++++++++OOOOOOOOOOOOOOOOOOOOOOOOOOOOOOOOOOOOOOOOOOOOOOOOOOOOOOOOOOOO++++++++++++oooOOOOOOOOOOOOOOOOOOOOOOOOOOOOOOOOOOOOOOOOOOOOOOOOOOOOOOOOOOOOOOOOOOOOOOOOOOOOOOOOOOOO++++++++++++++++++OOOOOOoooOOOOOOOOOOOOOOOOOOOOOOOOOOOOOOOOO+++++++++OOOOOOOOOOOOOOOOOOOOOoooOOOOOOOOOOOOOOOOOOOOOOOO",
"OOOOOOOOOOOOOOOOOOOOOOOOOOOOOOOOO+++++++++++++++oooOOOOOOOOOOOOOOOOOOOOOOOOOOOOOOOOOOOOOOOOOO+++++++++++++++OOOOOOOOOOOOOOOOOOOOOOOOOOOOOOOOOOOOOOOOOOOOOOOOOOOOOOOOOOOO++++++++++++oooOOOOOOOOOOOOOOOOOOOOOOOOOOOOOOOOOOOOOOOOOOOOOOOOOOOOOOOOOOOOOOOOOOOOOOOOOOOOOOOOOOOO++++++++++++++++++OOOOOOoooOOOOOOOOOOOOOOOOOOOOOOOOOOOOOOOOO+++++++++OOOOOOOOOOOOOOOOOOOOOoooOOOOOOOOOOOOOOOOOOOOOOOO",
"OOOOOOOOOOOOOOOOOOOOOOOOOOOOOOOOO+++++++++++++++oooOOOOOOOOOOOOOOOOOOOOOOOOOOOOOOOOOOOOOOOOOO+++++++++++++++OOOOOOOOOOOOOOOOOOOOOOOOOOOOOOOOOOOOOOOOOOOOOOOOOOOOOOOOOOOO++++++++++++oooOOOOOOOOOOOOOOOOOOOOOOOOOOOOOOOOOOOOOOOOOOOOOOOOOOOOOOOOOOOOOOOOOOOOOOOOOOOOOOOOOOOO++++++++++++++++++OOOOOOoooOOOOOOOOOOOOOOOOOOOOOOOOOOOOOOOOO+++++++++OOOOOOOOOOOOOOOOOOOOOoooOOOOOOOOOOOOOOOOOOOOOOOO",
"XXXXXXXXXXXXXXXXXXXXXXXXXXXXXXXXXXXXXXXXXXXXXXXXXXXXXXXXXXXXXXXXXXXXXXXXXXXXXXXXXXXXXXXXXXXXXXXXXXXXXXXXXXXXXXXXXXXXXXXXXXXXXXXXXXXXXXXXXXXXXXXXXXXXXXXXXXXXXXXXXXXXXXXXXXXXXXXXXXXXXXXXXXXXXXXXXXXXXXXXXXXXXXXXXXXXXXXXXXXXXXXXXXXXXXXXXXXXXXXXXXXXXXXXXXXXXXXXXXXXXXXXXXXXXXXXXXXXXXXXXXXXXXXXXXXXXXXXXXXXXXXXXXXXXXXXXXXXXXXXXXXXXXXXXXXXXXXXXXXXXXXXXXXXXXXXXXXXXXXXXXXXXXXXXXXXXXXXXXXXXXXX",
"XXXXXXXXXXXXXXXXXXXXXXXXXXXXXXXXXXXXXXXXXXXXXXXXXXXXXXXXXXXXXXXXXXXXXXXXXXXXXXXXXXXXXXXXXXXXXXXXXXXXXXXXXXXXXXXXXXXXXXXXXXXXXXXXXXXXXXXXXXXXXXXXXXXXXXXXXXXXXXXXXXXXXXXXXXXXXXXXXXXXXXXXXXXXXXXXXXXXXXXXXXXXXXXXXXXXXXXXXXXXXXXXXXXXXXXXXXXXXXXXXXXXXXXXXXXXXXXXXXXXXXXXXXXXXXXXXXXXXXXXXXXXXXXXXXXXXXXXXXXXXXXXXXXXXXXXXXXXXXXXXXXXXXXXXXXXXXXXXXXXXXXXXXXXXXXXXXXXXXXXXXXXXXXXXXXXXXXXXXXXXXXX",
"XXXXXXXXXXXXXXXXXXXXXXXXXXXXXXXXXXXXXXXXXXXXXXXXXXXXXXXXXXXXXXXXXXXXXXXXXXXXXXXXXXXXXXXXXXXXXXXXXXXXXXXXXXXXXXXXXXXXXXXXXXXXXXXXXXXXXXXXXXXXXXXXXXXXXXXXXXXXXXXXXXXXXXXXXXXXXXXXXXXXXXXXXXXXXXXXXXXXXXXXXXXXXXXXXXXXXXXXXXXXXXXXXXXXXXXXXXXXXXXXXXXXXXXXXXXXXXXXXXXXXXXXXXXXXXXXXXXXXXXXXXXXXXXXXXXXXXXXXXXXXXXXXXXXXXXXXXXXXXXXXXXXXXXXXXXXXXXXXXXXXXXXXXXXXXXXXXXXXXXXXXXXXXXXXXXXXXXXXXXXXXXX",
"XXXXXXXXXXXXXXXXXXXXXXXXXXXXXXXXXXXXXXXXXXXXXXXXXXXXXXXXXXXXXXXXXXXXXXXXXXXXXXXXXXXXXXXXXXXXXXXXXXXXXXXXXXXXXXXXXXXXXXXXXXXXXXXXXXXXXXXXXXXXXXXXXXXXXXXXXXXXXXXXXXXXXXXXXXXXXXXXXXXXXXXXXXXXXXXXXXXXXXXXXXXXXXXXXXXXXXXXXXXXXXXXXXXXXXXXXXXXXXXXXXXXXXXXXXXXXXXXXXXXXXXXXXXXXXXXXXXXXXXXXXXXXXXXXXXXXXXXXXXXXXXXXXXXXXXXXXXXXXXXXXXXXXXXXXXXXXXXXXXXXXXXXXXXXXXXXXXXXXXXXXXXXXXXXXXXXXXXXXXXXXXX",
"XXXXXXXXXXXXXXXXXXXXXXXXXXXXXXXXXXXXXXXXXXXXXXXXXXXXXXXXXXXXXXXXXXXXXXXXXXXXXXXXXXXXXXXXXXXXXXXXXXXXXXXXXXXXXXXXXXXXXXXXXXXXXXXXXXXXXXXXXXXXXXXXXXXXXXXXXXXXXXXXXXXXXXXXXXXXXXXXXXXXXXXXXXXXXXXXXXXXXXXXXXXXXXXXXXXXXXXXXXXXXXXXXXXXXXXXXXXXXXXXXXXXXXXXXXXXXXXXXXXXXXXXXXXXXXXXXXXXXXXXXXXXXXXXXXXXXXXXXXXXXXXXXXXXXXXXXXXXXXXXXXXXXXXXXXXXXXXXXXXXXXXXXXXXXXXXXXXXXXXXXXXXXXXXXXXXXXXXXXXXXXXX",
"XXXXXXXXXXXXXXXXXXXXXXXXXXXXXXXXXXXXXXXXXXXXXXXXXXXXXXXXXXXXXXXXXXXXXXXXXXXXXXXXXXXXXXXXXXXXXXXXXXXXXXXXXXXXXXXXXXXXXXXXXXXXXXXXXXXXXXXXXXXXXXXXXXXXXXXXXXXXXXXXXXXXXXXXXXXXXXXXXXXXXXXXXXXXXXXXXXXXXXXXXXXXXXXXXXXXXXXXXXXXXXXXXXXXXXXXXXXXXXXXXXXXXXXXXXXXXXXXXXXXXXXXXXXXXXXXXXXXXXXXXXXXXXXXXXXXXXXXXXXXXXXXXXXXXXXXXXXXXXXXXXXXXXXXXXXXXXXXXXXXXXXXXXXXXXXXXXXXXXXXXXXXXXXXXXXXXXXXXXXXXXXX",
"OOO+++++++++OOOOOOOOOOOOOOOOOOOOOOOOOOOOOOOOOOOOOOOOOOOOOOOOOOOOOOOOO+++++++++++++++OOOOOOOOOOOOoooOOOOOOOOOOOOOOOOOOOOOOOOOOOOOOOOOOOOOOOOOOOOOOOO++++++OOOOOOOOOOOOOOOOOOOOOOOOOOOOOOOOOOOOOOOOOOOOOOOOOOOOOOOOOOOOOOOOOOOOOOOOOOOOOOoooOOOOOOOOOOOOOOOOOOOOOOOOOOOOOOOOOOOOOOOOOOOOOOOOOOOOOOOOOOOO+++++++++OOOOOOOOOOOOOOOOOOOOOOOOOOOOOOOOOOOOOOOOOOOOOOOOOOOOOOOOOOOOOOOOOOOOOOOOOOOOOOOOO",
"OOO+++++++++OOOOOOOOOOOOOOOOOOOOOOOOOOOOOOOOOOOOOOOOOOOOOOOOOOOOOOOOO+++++++++++++++OOOOOOOOOOOOoooOOOOOOOOOOOOOOOOOOOOOOOOOOOOOOOOOOOOOOOOOOOOOOOO++++++OOOOOOOOOOOOOOOOOOOOOOOOOOOOOOOOOOOOOOOOOOOOOOOOOOOOOOOOOOOOOOOOOOOOOOOOOOOOOOoooOOOOOOOOOOOOOOOOOOOOOOOOOOOOOOOOOOOOOOOOOOOOOOOOOOOOOOOOOOOO+++++++++OOOOOOOOOOOOOOOOOOOOOOOOOOOOOOOOOOOOOOOOOOOOOOOOOOOOOOOOOOOOOOOOOOOOOOOOOOOOOOOOO",
"OOO+++++++++OOOOOOOOOOOOOOOOOOOOOOOOOOOOOOOOOOOOOOOOOOOOOOOOOOOOOOOOO+++++++++++++++OOOOOOOOOOOOoooOOOOOOOOOOOOOOOOOOOOOOOOOOOOOOOOOOOOOOOOOOOOOOOO++++++OOOOOOOOOOOOOOOOOOOOOOOOOOOOOOOOOOOOOOOOOOOOOOOOOOOOOOOOOOOOOOOOOOOOOOOOOOOOOOoooOOOOOOOOOOOOOOOOOOOOOOOOOOOOOOOOOOOOOOOOOOOOOOOOOOOOOOOOOOOO+++++++++OOOOOOOOOOOOOOOOOOOOOOOOOOOOOOOOOOOOOOOOOOOOOOOOOOOOOOOOOOOOOOOOOOOOOOOOOOOOOOOOO",
"OOO++++++++++++OOOOOOOOOOOOOOOOOOOOOOOOOOOOOOOOOOOOOOOOOOOOOOOOOOOOOO+++++++++++++++++++++++++++oooOOOOOOOOOOOOOOOOOOOOOOOOOOOOOOOOOOOOOOOOOOOOOOOO++++++++++++++++++OOOOOOOOOOOOOOOOOOOOOOOOOOOOOOOOOOOOOOOOOOOOO++++++++++++++++++OOOoooOOOOOOOOOOOOOOOOOOOOOOOOOOOOOO++++++OOOOOOOOOOOOOOOOOOOOOOOO+++++++++++++++OOOOOOOOOOOOOOOOOOOOOOOOOOOOOOOOOOOOOOO+++++++++++++++OOOOOOOOOOOOOOOOOOOOO",
"OOO++++++++++++OOOOOOOOOOOOOOOOOOOOOOOOOOOOOOOOOOOOOOOOOOOOOOOOOOOOOO+++++++++++++++++++++++++++oooOOOOOOOOOOOOOOOOOOOOOOOOOOOOOOOOOOOOOOOOOOOOOOOO++++++++++++++++++OOOOOOOOOOOOOOOOOOOOOOOOOOOOOOOOOOOOOOOOOOOOO++++++++++++++++++OOOoooOOOOOOOOOOOOOOOOOOOOOOOOOOOOOO++++++OOOOOOOOOOOOOOOOOOOOOOOO+++++++++++++++OOOOOOOOOOOOOOOOOOOOOOOOOOOOOOOOOOOOOOO+++++++++++++++OOOOOOOOOOOOOOOOOOOOO",
"OOO++++++++++++OOOOOOOOOOOOOOOOOOOOOOOOOOOOOOOOOOOOOOOOOOOOOOOOOOOOOO+++++++++++++++++++++++++++oooOOOOOOOOOOOOOOOOOOOOOOOOOOOOOOOOOOOOOOOOOOOOOOOO++++++++++++++++++OOOOOOOOOOOOOOOOOOOOOOOOOOOOOOOOOOOOOOOOOOOOO++++++++++++++++++OOOoooOOOOOOOOOOOOOOOOOOOOOOOOOOOOOO++++++OOOOOOOOOOOOOOOOOOOOOOOO+++++++++++++++OOOOOOOOOOOOOOOOOOOOOOOOOOOOOOOOOOOOOOO+++++++++++++++OOOOOOOOOOOOOOOOOOOOO",
"OOOOOO+++++++++++++++OOOOOOOOOOOOOOOOOOOOOOOOOOOOOOOOOOOOOOOOOOOOOOOO++++++OOOOOO+++++++++++++++oooOOOOOOOOOOOOOOOOOOOOOOOOOOOOOOOOOOOOOOOOOOOOOOOOOOO++++++++++++++++++++++++OOOOOOOOOOOOOOOOOOOOOOOOOOOOOOOOOOOO++++++++++++++++++OOOoooOOOOOOOOOOOOOOOOOOOOOOOO++++++++++++OOOOOOOOOOOOOOOOOOOOOOOOOOO+++++++++++++++++++++OOOOOOOOOOOOOOOXXXOOOOOOOOOOOO++++++++++++++++++++++++++++++OOOOOO",
"OOOOOO+++++++++++++++OOOOOOOOOOOOOOOOOOOOOOOOOOOOOOOOOOOOOOOOOOOOOOOO++++++OOOOOO+++++++++++++++oooOOOOOOOOOOOOOOOOOOOOOOOOOOOOOOOOOOOOOOOOOOOOOOOOOOO++++++++++++++++++++++++OOOOOOOOOOOOOOOOOOOOOOOOOOOOOOOOOOOO++++++++++++++++++OOOoooOOOOOOOOOOOOOOOOOOOOOOOO++++++++++++OOOOOOOOOOOOOOOOOOOOOOOOOOO+++++++++++++++++++++OOOOOOOOOOOOOOOXXXOOOOOOOOOOOO++++++++++++++++++++++++++++++OOOOOO",
"OOOOOO+++++++++++++++OOOOOOOOOOOOOOOOOOOOOOOOOOOOOOOOOOOOOOOOOOOOOOOO++++++OOOOOO+++++++++++++++oooOOOOOOOOOOOOOOOOOOOOOOOOOOOOOOOOOOOOOOOOOOOOOOOOOOO++++++++++++++++++++++++OOOOOOOOOOOOOOOOOOOOOOOOOOOOOOOOOOOO++++++++++++++++++OOOoooOOOOOOOOOOOOOOOOOOOOOOOO++++++++++++OOOOOOOOOOOOOOOOOOOOOOOOOOO+++++++++++++++++++++OOOOOOOOOOOOOOOXXXOOOOOOOOOOOO++++++++++++++++++++++++++++++OOOOOO",
"OOOOOOOOO+++++++++++++++++++++OOOOOOOOOOOOOOOOOOOOO++++++++++++++++++++++++OOOOOOOOOOOOOOOOOOOOOoooOOOOOOOOOOOOOOO++++++++++++++++++++++++OOOOOOOOOOOOOOOOOOOOO+++++++++++++++OOOOOOOOOOOOOOOOOOOOO+++++++++++++++++++++OOOOOOOOOOOOOOOoooOOOOOOOOOOOO++++++++++++++++++++++++OOOOOOOOOOOOOOOOOOOOOOOOOOOOOOOOO+++++++++++++++OOOXXXOOO++++++OOOXXXOOOOOOOOOOOOOOOOOO+++++++++++++++++++++OOOOOO",
"OOOOOOOOO+++++++++++++++++++++OOOOOOOOOOOOOOOOOOOOO++++++++++++++++++++++++OOOOOOOOOOOOOOOOOOOOOoooOOOOOOOOOOOOOOO++++++++++++++++++++++++OOOOOOOOOOOOOOOOOOOOO+++++++++++++++OOOOOOOOOOOOOOOOOOOOO+++++++++++++++++++++OOOOOOOOOOOOOOOoooOOOOOOOOOOOO++++++++++++++++++++++++OOOOOOOOOOOOOOOOOOOOOOOOOOOOOOOOO+++++++++++++++OOOXXXOOO++++++OOOXXXOOOOOOOOOOOOOOOOOO+++++++++++++++++++++OOOOOO",
"OOOOOOOOO+++++++++++++++++++++OOOOOOOOOOOOOOOOOOOOO++++++++++++++++++++++++OOOOOOOOOOOOOOOOOOOOOoooOOOOOOOOOOOOOOO++++++++++++++++++++++++OOOOOOOOOOOOOOOOOOOOO+++++++++++++++OOOOOOOOOOOOOOOOOOOOO+++++++++++++++++++++OOOOOOOOOOOOOOOoooOOOOOOOOOOOO++++++++++++++++++++++++OOOOOOOOOOOOOOOOOOOOOOOOOOOOOOOOO+++++++++++++++OOOXXXOOO++++++OOOXXXOOOOOOOOOOOOOOOOOO+++++++++++++++++++++OOOOOO",
"OOOOOOOOOOOOOOO+++++++++++++++OOOOOOOOOOOOOOOOOOOOO++++++++++++++++++++++++OOOOOOOOOOOOOOOOOOOOOoooOOOOOOOOOOOOOOO++++++++++++++++++++++++OOOOOOOOOOOOOOOOOOOOOOOOOOOOOOOOOOOOOOOOOOOOOOOOOOOOOOOOO+++++++++++++++++++++OOOOOOOOOOOOOOOoooOOOOOOOOOOOO++++++++++++++++++OOOOOOOOOOOOOOOOOOOOOOOOOOOOOOOOOOOOOOOOOOOOOOOOOOOOOOXXXOOOOOO++++++XXXOOOOOOOOOOOOOOOOOOOOOOOOOOOOOOOOOOOOOOOOOOOOOOOO",
"OOOOOOOOOOOOOOO+++++++++++++++OOOOOOOOOOOOOOOOOOOOO++++++++++++++++++++++++OOOOOOOOOOOOOOOOOOOOOoooOOOOOOOOOOOOOOO++++++++++++++++++++++++OOOOOOOOOOOOOOOOOOOOOOOOOOOOOOOOOOOOOOOOOOOOOOOOOOOOOOOOO+++++++++++++++++++++OOOOOOOOOOOOOOOoooOOOOOOOOOOOO++++++++++++++++++OOOOOOOOOOOOOOOOOOOOOOOOOOOOOOOOOOOOOOOOOOOOOOOOOOOOOOXXXOOOOOO++++++XXXOOOOOOOOOOOOOOOOOOOOOOOOOOOOOOOOOOOOOOOOOOOOOOOO",
"OOOOOOOOOOOOOOO+++++++++++++++OOOOOOOOOOOOOOOOOOOOO++++++++++++++++++++++++OOOOOOOOOOOOOOOOOOOOOoooOOOOOOOOOOOOOOO++++++++++++++++++++++++OOOOOOOOOOOOOOOOOOOOOOOOOOOOOOOOOOOOOOOOOOOOOOOOOOOOOOOOO+++++++++++++++++++++OOOOOOOOOOOOOOOoooOOOOOOOOOOOO++++++++++++++++++OOOOOOOOOOOOOOOOOOOOOOOOOOOOOOOOOOOOOOOOOOOOOOOOOOOOOOXXXOOOOOO++++++XXXOOOOOOOOOOOOOOOOOOOOOOOOOOOOOOOOOOOOOOOOOOOOOOOO",
"XXXXXXXXXXXXXXXXXXXXXXXXXXXXXXXXXXXXXXXXXXXXXXXXXXXXXXXXXXXXXXXXXXXXXXXXXXXXXXXXXXXXXXXXXXXXXXXXXXXXXXXXXXXXXXXXXXXXXXXXXXXXXXXXXXXXXXXXXXXXXXXXXXXXXXXXXXXXXXXXXXXXXXXXXXXXXXXXXXXXXXXXXXXXXXXXXXXXXXXXXXXXXXXXXXXXXXXXXXXXXXXXXXXXXXXXXXXXXXXXXXXXXXXXXXXXXXXXXXXXXXXXXXXXXXXXXXXXXXXXXXXXXXXXXXXXXXXXXXXXXXXXXXXXXXXXXXXXXXXXXXXXXXXXXXXXXXXXXXXXXXXXXXXXXXXXXXXXXXXXXXXXXXXXXXXXXXXXXXXXXXXX",
"XXXXXXXXXXXXXXXXXXXXXXXXXXXXXXXXXXXXXXXXXXXXXXXXXXXXXXXXXXXXXXXXXXXXXXXXXXXXXXXXXXXXXXXXXXXXXXXXXXXXXXXXXXXXXXXXXXXXXXXXXXXXXXXXXXXXXXXXXXXXXXXXXXXXXXXXXXXXXXXXXXXXXXXXXXXXXXXXXXXXXXXXXXXXXXXXXXXXXXXXXXXXXXXXXXXXXXXXXXXXXXXXXXXXXXXXXXXXXXXXXXXXXXXXXXXXXXXXXXXXXXXXXXXXXXXXXXXXXXXXXXXXXXXXXXXXXXXXXXXXXXXXXXXXXXXXXXXXXXXXXXXXXXXXXXXXXXXXXXXXXXXXXXXXXXXXXXXXXXXXXXXXXXXXXXXXXXXXXXXXXXXX",
"XXXXXXXXXXXXXXXXXXXXXXXXXXXXXXXXXXXXXXXXXXXXXXXXXXXXXXXXXXXXXXXXXXXXXXXXXXXXXXXXXXXXXXXXXXXXXXXXXXXXXXXXXXXXXXXXXXXXXXXXXXXXXXXXXXXXXXXXXXXXXXXXXXXXXXXXXXXXXXXXXXXXXXXXXXXXXXXXXXXXXXXXXXXXXXXXXXXXXXXXXXXXXXXXXXXXXXXXXXXXXXXXXXXXXXXXXXXXXXXXXXXXXXXXXXXXXXXXXXXXXXXXXXXXXXXXXXXXXXXXXXXXXXXXXXXXXXXXXXXXXXXXXXXXXXXXXXXXXXXXXXXXXXXXXXXXXXXXXXXXXXXXXXXXXXXXXXXXXXXXXXXXXXXXXXXXXXXXXXXXXXXX",
"XXXXXXXXXXXXXXXXXXXXXXXXXXXXXXXXXXXXXXXXXXXXXXXXXXXXXXXXXXXXXXXXXXXXXXXXXXXXXXXXXXXXXXXXXXXXXXXXXXXXXXXXXXXXXXXXXXXXXXXXXXXXXXXXXXXXXXXXXXXXXXXXXXXXXXXXXXXXXXXXXXXXXXXXXXXXXXXXXXXXXXXXXXXXXXXXXXXXXXXXXXXXXXXXXXXXXXXXXXXXXXXXXXXXXXXXXXXXXXXXXXXXXXXXXXXXXXXXXXXXXXXXXXXXXXXXXXXXXXXXXXXXXXXXXXXXXXXXXXXXXXXXXXXXXXXXXXXXXXXXXXXX$$$###XXXXXXXXXXXXXXXXXXXXXXXXXXXXXXXXXXXXXXXXXXXXXXXXXXXXXX",
"XXXXXXXXXXXXXXXXXXXXXXXXXXXXXXXXXXXXXXXXXXXXXXXXXXXXXXXXXXXXXXXXXXXXXXXXXXXXXXXXXXXXXXXXXXXXXXXXXXXXXXXXXXXXXXXXXXXXXXXXXXXXXXXXXXXXXXXXXXXXXXXXXXXXXXXXXXXXXXXXXXXXXXXXXXXXXXXXXXXXXXXXXXXXXXXXXXXXXXXXXXXXXXXXXXXXXXXXXXXXXXXXXXXXXXXXXXXXXXXXXXXXXXXXXXXXXXXXXXXXXXXXXXXXXXXXXXXXXXXXXXXXXXXXXXXXXXXXXXXXXXXXXXXXXXXXXXXXXXXXXXXX$$$###XXXXXXXXXXXXXXXXXXXXXXXXXXXXXXXXXXXXXXXXXXXXXXXXXXXXXX",
"XXXXXXXXXXXXXXXXXXXXXXXXXXXXXXXXXXXXXXXXXXXXXXXXXXXXXXXXXXXXXXXXXXXXXXXXXXXXXXXXXXXXXXXXXXXXXXXXXXXXXXXXXXXXXXXXXXXXXXXXXXXXXXXXXXXXXXXXXXXXXXXXXXXXXXXXXXXXXXXXXXXXXXXXXXXXXXXXXXXXXXXXXXXXXXXXXXXXXXXXXXXXXXXXXXXXXXXXXXXXXXXXXXXXXXXXXXXXXXXXXXXXXXXXXXXXXXXXXXXXXXXXXXXXXXXXXXXXXXXXXXXXXXXXXXXXXXXXXXXXXXXXXXXXXXXXXXXXXXXXXXXX$$$###XXXXXXXXXXXXXXXXXXXXXXXXXXXXXXXXXXXXXXXXXXXXXXXXXXXXXX",
"++++++++++++OOOOOOoooOOOOOOOOOOOOOOOOOOOOOOOOOOOOOOOOOOOOOOOOOOOOOOOOOOOOOO+++++++++++++++++++++++++++++++++OOOOOOOOOOOOOOOOOOOOOOOOOOOOOOOOOOOOOOOOOOOOOOOOoooOOOOOOOOOOOOOOOOOOOOOOOOOOOOOOOOOOOOOOOOOO+++++++++OOOOOOOOOOOOOOOOOOOOOOOOOOOOOOOOOOOOOOOOOOOOOOOOOOOOOOOOOOOOOOOOOOOOOOOOOOOOOOoooOOOOOOOOOOOOOOO++++++OOOOOOOOOXXX######XXXOOOXXXOOOOOOOOOOOOOOOOOOOOO++++++OOOOOOOOOOOOOOOOOO",
"++++++++++++OOOOOOoooOOOOOOOOOOOOOOOOOOOOOOOOOOOOOOOOOOOOOOOOOOOOOOOOOOOOOO+++++++++++++++++++++++++++++++++OOOOOOOOOOOOOOOOOOOOOOOOOOOOOOOOOOOOOOOOOOOOOOOOoooOOOOOOOOOOOOOOOOOOOOOOOOOOOOOOOOOOOOOOOOOO+++++++++OOOOOOOOOOOOOOOOOOOOOOOOOOOOOOOOOOOOOOOOOOOOOOOOOOOOOOOOOOOOOOOOOOOOOOOOOOOOOOoooOOOOOOOOOOOOOOO++++++OOOOOOOOOXXX######XXXOOOXXXOOOOOOOOOOOOOOOOOOOOO++++++OOOOOOOOOOOOOOOOOO",
"++++++++++++OOOOOOoooOOOOOOOOOOOOOOOOOOOOOOOOOOOOOOOOOOOOOOOOOOOOOOOOOOOOOO+++++++++++++++++++++++++++++++++OOOOOOOOOOOOOOOOOOOOOOOOOOOOOOOOOOOOOOOOOOOOOOOOoooOOOOOOOOOOOOOOOOOOOOOOOOOOOOOOOOOOOOOOOOOO+++++++++OOOOOOOOOOOOOOOOOOOOOOOOOOOOOOOOOOOOOOOOOOOOOOOOOOOOOOOOOOOOOOOOOOOOOOOOOOOOOOoooOOOOOOOOOOOOOOO++++++OOOOOOOOOXXX######XXXOOOXXXOOOOOOOOOOOOOOOOOOOOO++++++OOOOOOOOOOOOOOOOOO",
"++++++++++++++++++oooOOOOOOOOOOOOOOOOOOOOOOOO+++++++++++++++++++++OOOOOOOOO+++++++++++++++++++++++++++++++++OOOOOOOOO++++++++++++++++++++++++OOOOOOOOOOOOOOOoooOOOOOO+++++++++++++++++++++OOOOOOOOOOOOOOO++++++++++++OOOOOOOOOOOOOOOOOOOOOOOOOOOOOOOOOOOOOOOOOOOOOOOOOOOOOOOOO%%%%%%%%%OOOOOOOOOoooOOOOOOOOOOOOOOO++++++XXXOOOOOOXXX######XXXOOOOOOOOOOOOOOOOOOOOOOOOOOO++++++++++++OOOOOOOOOOOO",
"++++++++++++++++++oooOOOOOOOOOOOOOOOOOOOOOOOO+++++++++++++++++++++OOOOOOOOO+++++++++++++++++++++++++++++++++OOOOOOOOO++++++++++++++++++++++++OOOOOOOOOOOOOOOoooOOOOOO+++++++++++++++++++++OOOOOOOOOOOOOOO++++++++++++OOOOOOOOOOOOOOOOOOOOOOOOOOOOOOOOOOOOOOOOOOOOOOOOOOOOOOOOO%%%%%%%%%OOOOOOOOOoooOOOOOOOOOOOOOOO++++++XXXOOOOOOXXX######XXXOOOOOOOOOOOOOOOOOOOOOOOOOOO++++++++++++OOOOOOOOOOOO",
"++++++++++++++++++oooOOOOOOOOOOOOOOOOOOOOOOOO+++++++++++++++++++++OOOOOOOOO+++++++++++++++++++++++++++++++++OOOOOOOOO++++++++++++++++++++++++OOOOOOOOOOOOOOOoooOOOOOO+++++++++++++++++++++OOOOOOOOOOOOOOO++++++++++++OOOOOOOOOOOOOOOOOOOOOOOOOOOOOOOOOOOOOOOOOOOOOOOOOOOOOOOOO%%%%%%%%%OOOOOOOOOoooOOOOOOOOOOOOOOO++++++XXXOOOOOOXXX######XXXOOOOOOOOOOOOOOOOOOOOOOOOOOO++++++++++++OOOOOOOOOOOO",
"OOOOOO++++++++++++oooOOOOOOOOOOOOOOOOOOOOOOOO+++++++++++++++++++++OOOOOOOOOOOOOOO++++++++++++++++++OOOOOOOOOOOOOOOOOO++++++++++++++++++++++++OOOOOOOOOOOOOOOoooOOOOOO+++++++++++++++++++++OOOOOOOOOOOOOOOOOO++++++++++++++++++OOOOOOOOOOOOOOOOOOOOOOOOOOOOOOOOOOOO++++++++++++&&&&&&%%%&&&&&&&&&oooOOOOOOOOOOOOOOOOOOOOOOOOXXXXXXXXX######XXXOOOXXXOOOOOOOOOOOOXXXOOOOOOOOO++++++++++++++++++OOO",
"OOOOOO++++++++++++oooOOOOOOOOOOOOOOOOOOOOOOOO+++++++++++++++++++++OOOOOOOOOOOOOOO++++++++++++++++++OOOOOOOOOOOOOOOOOO++++++++++++++++++++++++OOOOOOOOOOOOOOOoooOOOOOO+++++++++++++++++++++OOOOOOOOOOOOOOOOOO++++++++++++++++++OOOOOOOOOOOOOOOOOOOOOOOOOOOOOOOOOOOO++++++++++++&&&&&&%%%&&&&&&&&&oooOOOOOOOOOOOOOOOOOOOOOOOOXXXXXXXXX######XXXOOOXXXOOOOOOOOOOOOXXXOOOOOOOOO++++++++++++++++++OOO",
"OOOOOO++++++++++++oooOOOOOOOOOOOOOOOOOOOOOOOO+++++++++++++++++++++OOOOOOOOOOOOOOO++++++++++++++++++OOOOOOOOOOOOOOOOOO++++++++++++++++++++++++OOOOOOOOOOOOOOOoooOOOOOO+++++++++++++++++++++OOOOOOOOOOOOOOOOOO++++++++++++++++++OOOOOOOOOOOOOOOOOOOOOOOOOOOOOOOOOOOO++++++++++++&&&&&&%%%&&&&&&&&&oooOOOOOOOOOOOOOOOOOOOOOOOOXXXXXXXXX######XXXOOOXXXOOOOOOOOOOOOXXXOOOOOOOOO++++++++++++++++++OOO",
"OOOOOOOOOOOO++++++oooOOOOOOOOOOOO+++++++++++++++++++++OOOOOOOOOOOOOOOOOOOOOOOOOOOOOOOOOOOOOOOOOOOOOOOOOOOOOOOOOOOOOOOOOOOOOOOOOOOOOO++++++++++++++++++++++++oooOOOOOOOOOOOOOOO++++++OOOOOOOOOOOOOOOOOOOOOOOOOOO+++++++++++++++++++++++++++OOOOOOOOOOOOOOOOOOOOO+++++++++++++++&&&&&&%%%&&&&&&&&&oooOOOOOO===++++++OOOXXXOOOXXX#########$$$XXXXXXOOOOOOOOOXXXXXXOOOOOOOOOOOOOOO++++++++++++++++++",
"OOOOOOOOOOOO++++++oooOOOOOOOOOOOO+++++++++++++++++++++OOOOOOOOOOOOOOOOOOOOOOOOOOOOOOOOOOOOOOOOOOOOOOOOOOOOOOOOOOOOOOOOOOOOOOOOOOOOOO++++++++++++++++++++++++oooOOOOOOOOOOOOOOO++++++OOOOOOOOOOOOOOOOOOOOOOOOOOO+++++++++++++++++++++++++++OOOOOOOOOOOOOOOOOOOOO+++++++++++++++&&&&&&%%%&&&&&&&&&oooOOOOOO===++++++OOOXXXOOOXXX#########$$$XXXXXXOOOOOOOOOXXXXXXOOOOOOOOOOOOOOO++++++++++++++++++",
"OOOOOOOOOOOO++++++oooOOOOOOOOOOOO+++++++++++++++++++++OOOOOOOOOOOOOOOOOOOOOOOOOOOOOOOOOOOOOOOOOOOOOOOOOOOOOOOOOOOOOOOOOOOOOOOOOOOOOO++++++++++++++++++++++++oooOOOOOOOOOOOOOOO++++++OOOOOOOOOOOOOOOOOOOOOOOOOOO+++++++++++++++++++++++++++OOOOOOOOOOOOOOOOOOOOO+++++++++++++++&&&&&&%%%&&&&&&&&&oooOOOOOO===++++++OOOXXXOOOXXX#########$$$XXXXXXOOOOOOOOOXXXXXXOOOOOOOOOOOOOOO++++++++++++++++++",
"OOOOOOOOOOOOOOOOOOoooOOOOOOOOOOOO+++++++++++++++++++++OOOOOOOOOOOOOOOOOOOOOOOOOOOOOOOOOOOOOOOOOOOOOOOOOOOOOOOOOOOOOOOOOOOOOOOOOOOOOO++++++++++++++++++++++++oooOOOOOOOOOOOOOOO++++++OOOOOOOOOOOOOOOOOOOOOOOOOOOOOOOOOOOO++++++++++++++++++OOOOOOOOOOOOOOOOOOOOO+++++++++===&&&&&&%%%&&&&&&&&&&&&&&&OOO======++++++OOOOOOXXXXXX###$$$#########XXXXXXXXXXXXXXXOOOXXXOOOOOOOOOOOOOOOOOOOOO+++++++++",
"OOOOOOOOOOOOOOOOOOoooOOOOOOOOOOOO+++++++++++++++++++++OOOOOOOOOOOOOOOOOOOOOOOOOOOOOOOOOOOOOOOOOOOOOOOOOOOOOOOOOOOOOOOOOOOOOOOOOOOOOO++++++++++++++++++++++++oooOOOOOOOOOOOOOOO++++++OOOOOOOOOOOOOOOOOOOOOOOOOOOOOOOOOOOO++++++++++++++++++OOOOOOOOOOOOOOOOOOOOO+++++++++===&&&&&&%%%&&&&&&&&&&&&&&&OOO======++++++OOOOOOXXXXXX###$$$#########XXXXXXXXXXXXXXXOOOXXXOOOOOOOOOOOOOOOOOOOOO+++++++++",
"OOOOOOOOOOOOOOOOOOoooOOOOOOOOOOOO+++++++++++++++++++++OOOOOOOOOOOOOOOOOOOOOOOOOOOOOOOOOOOOOOOOOOOOOOOOOOOOOOOOOOOOOOOOOOOOOOOOOOOOOO++++++++++++++++++++++++oooOOOOOOOOOOOOOOO++++++OOOOOOOOOOOOOOOOOOOOOOOOOOOOOOOOOOOO++++++++++++++++++OOOOOOOOOOOOOOOOOOOOO+++++++++===&&&&&&%%%&&&&&&&&&&&&&&&OOO======++++++OOOOOOXXXXXX###$$$#########XXXXXXXXXXXXXXXOOOXXXOOOOOOOOOOOOOOOOOOOOO+++++++++",
"XXXXXXXXXXXXXXXXXXXXXXXXXXXXXXXXXXXXXXXXXXXXXXXXXXXXXXXXXXXXXXXXXXXXXXXXXXXXXXXXXXXXXXXXXXXXXXXXXXXXXXXXXXXXXXXXXXXXXXXXXXXXXXXXXXXXXXXXXXXXXXXXXXXXXXXXXXXXXXXXXXXXXXXXXXXXXXXXXXXXXXXXXXXXXXXXXXXXXXXXXXXXXXXXXXXXXXXXXXXXXXXXXXXXXXXXXXXXXXXXXXXXXXXXXXXXXXXXXXXXXXXX&&&&&&&&&&&&&&&&&&&&&&&&&&&======XXXXXXXXXXXX...#########$$$###############$$$###...XXX...XXXXXXXXXXXXXXXXXXXXXXXXXXXXXX",
"XXXXXXXXXXXXXXXXXXXXXXXXXXXXXXXXXXXXXXXXXXXXXXXXXXXXXXXXXXXXXXXXXXXXXXXXXXXXXXXXXXXXXXXXXXXXXXXXXXXXXXXXXXXXXXXXXXXXXXXXXXXXXXXXXXXXXXXXXXXXXXXXXXXXXXXXXXXXXXXXXXXXXXXXXXXXXXXXXXXXXXXXXXXXXXXXXXXXXXXXXXXXXXXXXXXXXXXXXXXXXXXXXXXXXXXXXXXXXXXXXXXXXXXXXXXXXXXXXXXXXXXX&&&&&&&&&&&&&&&&&&&&&&&&&&&======XXXXXXXXXXXX...#########$$$###############$$$###...XXX...XXXXXXXXXXXXXXXXXXXXXXXXXXXXXX",
"XXXXXXXXXXXXXXXXXXXXXXXXXXXXXXXXXXXXXXXXXXXXXXXXXXXXXXXXXXXXXXXXXXXXXXXXXXXXXXXXXXXXXXXXXXXXXXXXXXXXXXXXXXXXXXXXXXXXXXXXXXXXXXXXXXXXXXXXXXXXXXXXXXXXXXXXXXXXXXXXXXXXXXXXXXXXXXXXXXXXXXXXXXXXXXXXXXXXXXXXXXXXXXXXXXXXXXXXXXXXXXXXXXXXXXXXXXXXXXXXXXXXXXXXXXXXXXXXXXXXXXXX&&&&&&&&&&&&&&&&&&&&&&&&&&&======XXXXXXXXXXXX...#########$$$###############$$$###...XXX...XXXXXXXXXXXXXXXXXXXXXXXXXXXXXX"
};
