/* XPM */
static char * pirate_in_boat_xpm[] = {
"128 128 6 1",
" 	c #5C3C0C",
".	c #805C24",
"+	c #83612A",
"@	c #4F3309",
"#	c #878787",
"$	c #AEAEAE",
"                                                                                                                                ",
"...++++++++++++++++++++++...............................................................................++++++++++++............",
"...++++++++++++++++++++++...............................................................................++++++++++++............",
"...++++++++++++++++++++++...............................................................................++++++++++++............",
"...++++++++++++++++++++++.....................................................................................++++++++++++++....",
"............++++++++++++++++++++++++++++..........................++++++++++..................................++++++++++++++....",
"............++++++++++++++++++++++++++++..........................++++++++++++++++++..........................++++++++++++++....",
"............++++++++++++++++++++++++++++..........................++++++++++++++++++..........................++++++++++++++....",
"............++++++++++++++++++++++++++++..........................++++++++++++++++++............................................",
".........................................................................+++++++++++............................................",
"................................................................................................................................",
"................................................................................................................................",
".....................................................................................................................++++.......",
".................................................+++++++++++.........................................................++++.......",
".................................................+++++++++++.........................................................++++.......",
".................................................+++++++++++......................+++++++++++++..................++++++++.......",
".................................................+++++++++++......................+++++++++++++..................++++...........",
"......................................++++++++++++++++............................+++++++++++++..................++++...........",
"......................................++++++++++++++++............................+++++++++++++..................++++...........",
"......................................++++++++++++++++..........................................................................",
"......................................++++++++++++++++..........................................................................",
"                                                                                                                                ",
"                                                                                                                                ",
"................................................................................................................................",
"................................................................................................................................",
"................................................................................................................................",
".....+++++++++++++++++++++++++++.........................................................................+++++++++++++..........",
".....+++++++++++++++++++++++++++..@@@@@@@@@@@@@@@@@@@@@@@@@@@@@@@@@@@@@@@@@@@@@@@@@@@@@@@@@@@@...........+++++++++++++..........",
".....+++++++++++++++++++++++++++..@...............  ..++++...............  ................  @...........+++++++++++++..........",
".....+++++++++++++++++++++++++++..@...............  ..++++...............  ................  @...........+++++++++++++..........",
"...................+++++++++++++++@...............  ..++++...............  ................  @..................................",
"...................+++++++++++++++@...............  ..++++...............  .........++++...  @..................................",
"...................+++++++++++++++@........++++...  ..++++...............  .........++++...  @..................................",
"...................+++++++++++++++@........++++...  ..++++...............  .........++++...  @..................................",
"..................................@........++++...  ..++++...............  .........++++...  @+++++.............................",
"..................................@........++++...  ..++++........++++...  .........++++...  @+++++.............................",
"..................................@........++++...  ..++++........++++...  .........++++...  @+++++.............................",
"..................................@........++++...  ..+++++.......++++...  .........++++...  @+++++.............................",
"..................................@........++++...  ..+++++.......++++...  .........++++...  @..................................",
"..................................@........++++...  ..+++++.......++++...  .........++++...  @..................................",
"..................................@........++++...  ...++++......+++++...  .....++++++++...  @..................................",
"..................................@........++++...  ...++++......+++++...  .....++++++++...  @..................................",
"..................................@........++++...  ...++++......+++++...  .....++++++++...  @..................................",
"..................................@.......+++++...  ...++++......++++....  .....++++++++...  @..................................",
"                                  @.......+++++...  ...++++......++++....  .....++++++++...  @                                  ",
"                                  @.......+++++...  ...++++......++++....  .....++++++++...  @                                  ",
"..................................@.......++++....  ...++++......++++....  .....++++++++...  @+.................................",
"..................................@.......++++....  ...++++......++++....  .....++++++++...  @+.................................",
"..................................@.......++++....  ...++++......++++....  .....++++++++...  @+.................................",
"..................................@.......++++....  ...++++......++++....  .....++++++++... #$#.................................",
"..................................@.......++++....  ............+++++....  .....++++++++... #$#.................................",
"..................................@.......++++....  ............+++++....  .....++++....... $$$.................................",
"..................................@.......++++....  ............+++++....  .....++++....... $$$.................................",
"........++++++++++++++++++++++....@.......++++....  ............++++.....  .....++++....... #$#.................................",
"........++++++++++++++++++++++....@.......++++....  ............++++.....  .....++++....... #$#...........+++++++++++++.........",
"........++++++++++++++++++++++....@.......++++....  ............++++.....  .....++++.......  @............+++++++++++++.........",
"........++++++++++++++++++++++....@.......++++....  ............++++.....  .....++++.......  @............+++++++++++++.........",
"..................++++++++++++++++@...............  ............++++.....  .....++++.......  @............+++++++++++++.........",
"..................++++++++++++++++@...............  ...++++..............  .....++++.......  @..+++++++++++++++.................",
"..................++++++++++++++++@.++++..........  ...++++..............  .....++++.......  @..+++++++++++++++.................",
"..................++++++++++++++++@.++++..........  ...++++..............  .....++++.......  @..+++++++++++++++.................",
"..................................@.++++..........  ...++++..........++++  ................  @..+++++++++++++++.................",
"..................................@.++++..........  ...++++..........++++  ................  @..................................",
"..................................@.++++..........  ...++++..........++++  ............++++  @..................................",
"..................................@.++++..........  ...+++++.........++++  .++++.......++++  @..................................",
"..................................@.++++..........  ...+++++......+++++++  .++++.......++++  @..................................",
"                                  @.++++..........  ...+++++......+++++++  .++++.......++++  @                                  ",
"                                  @.++++..........  ....++++......+++++++  .++++.......++++  @                                  ",
"..................................@.++++..........  ....++++......+++++++  .++++.......++++  @..................................",
"..................................@.++++++++......  ....++++......+++++++  .++++.......++++  @..................................",
"..................................@.++++++++......  ....++++......+++++++  .++++.......++++  @..................................",
"..................................@.++++++++......  ....++++......+++++++  .++++...........  @..................................",
"..................................@.....++++......  ....++++......+++++++  .++++...........  @..................................",
"..................................@.....++++......  ....++++......+++++++  .++++...........  @...............++++++++++++++.....",
"..++++++++++++++++++++++++++......@.....++++......  ....++++......+++++++  .++++...........  @...............++++++++++++++.....",
"..++++++++++++++++++++++++++......@...............  ....++++......+++++++  .++++...........  @...............++++++++++++++.....",
"..++++++++++++++++++++++++++......@...........++++  ....+++++.....+++++++  .++++...........  @...............++++++++++++++.....",
"..++++++++++++++++++++++++++......@....   ....++++  ....+++++.....+++++++  .++++++++.......  @++++...................++++++++...",
".................+++++++++++......@....   ....++++  ....+++++.....+++++++  .++++++++.......  @++++...................++++++++...",
".................+++++++++++......@....   ....++++  .....++++.....+++++++  .++++++++.......  @++++...................++++++++...",
".................+++++++++++......@...........++++  .....++++.....+++++++  .++++++++.......  @++++...................++++++++...",
".................+++++++++++......@...........++++  .....++++........++++  .++++++++.......  @+++++++++.........................",
".................+++++++++++++++++@...........++++  .....++++........++++  .++++++++.......  @+++++++++.........................",
".................+++++++++++++++++@...........++++  .....++++............  .++++++++.......  @+++++++++.........................",
".................+++++++++++++++++@...........++++  .....++++............  .++++++++.......  @+++++++++.........................",
".................+++++++++++++++++@...........++++  .....++++............  .++++++++.......  @..................................",
"..................................@...........++++  .....++++............  .++++++++.......  @..................................",
"..................................@....++++...++++  .....++++............  .++++++++.......  @..................................",
"..................................@....++++...++++  .....+++++...........  .++++++++.......  @..................................",
"                                  @....++++.......  .....+++++...........  .++++++++.......  @                                  ",
"                                  @....++++.......  .....+++++...........  .....++++.......  @                                  ",
"..................................@....++++.......  ......++++...........  .....++++.......  @..............+++++++++++++++++...",
"..................................@....++++.......  ......++++...........  .....++++.......  @..............+++++++++++++++++...",
"..................................@....++++.......  ......++++...........  .....++++.......  @..............+++++++++++++++++...",
"......++++++++++++................@....++++.......  ......++++...........  .....++++.......  @..............+++++++++++++++++...",
"......++++++++++++................@....++++.......  ......++++...........  .....++++.......  @......+++++++++++++++.............",
"......++++++++++++................@....++++.......  ......++++...........  .....++++.......  @......+++++++++++++++.............",
"......++++++++++++................@....++++.......  ......++++...........  .....++++.......  @......+++++++++++++++.............",
"............+++++++++...........++@...+++++.......  .....................  .....++++.......  @......+++++++++++++++.............",
"............+++++++++...........++@...+++++.......  .....................  .....++++.......  @..................................",
"............+++++++++...........++@...+++++.......  ...............++++..  ................  @..................................",
"............+++++++++...........++@...++++........  ...............++++..  ................  @..................................",
"..................................@...++++........  ...............++++..  ..........++++..  @..................................",
"..................................@...++++........  ...............++++..  ..........++++..  @..................................",
"..................................@...++++........  ...............++++..  ++++......++++.. #$#.................................",
"..................................@...++++........  ...++++........++++..  ++++......++++.. #$#++++++++.........................",
"..................................@...++++........  ...++++.......+++++..  ++++......++++.. $$$++++++++.........................",
"..................................@...++++........  ...++++.......+++++..  ++++......++++.. $$$++++++++.........................",
"..................................@...++++........  ...++++.......+++++..  ++++......++++.. #$#++++++++.........................",
"                                  @...++++........  ...++++.......++++...  ++++......++++.. #$#                                 ",
"                                  @...++++........  ...++++.......++++...  ++++......++++..  @                                  ",
"..................................@...++++..++++..  ...++++.......++++...  ++++......++++..  @........................++++++++++",
"..................................@.........++++..  ...++++.......++++...  ++++............  @........................++++++++++",
"..................................@.........++++..  ...++++.......++++...  ++++............  @........................++++++++++",
".....................+++++++++++++@.........++++..  ...++++.......++++...  ++++............  @........................++++++++++",
".....................+++++++++++++@.........++++..  ...++++.......++++...  ++++............  @..................................",
".....................+++++++++++++@.........++++..  ...++++.......++++...  ++++............  @..................................",
".....................+++++++++++++@.........++++..  ...++++......+++++...  ++++............  @..................................",
"..................................@++++.....++++..  ...++++......+++++...  ++++++..........  @.......+++++++++++++++++++........",
"..................................@++++.....++++..  .............+++++...  ++++++..........  @.......+++++++++++++++++++........",
"..................................@++++.....++++..  .............++++....  ++++++..........  @.......+++++++++++++++++++........",
".............++++++++++++.........@++++.....++++..  .............++++....  ..++++..........  @.......+++++++++++++++++++........",
".............++++++++++++.........@++++.....++++..  .............++++....  ..++++..........  @++++++++++++++....................",
".............++++++++++++.........@++++.....++++..  .............++++....  ..++++..........  @++++++++++++++....................",
".............++++++++++++.........@++++.....++++..  .............++++....  ..++++..........  @++++++++++++++....................",
"......+++++++++++++...............@++++.....++++..  .............++++....  ..++++..........  @++++++++++++++....................",
"......+++++++++++++...............@++++...........  .....................  ..++++..........  @..................................",
"                                  @@@@@@@@@@@@@@@@@@@@@@@@@@@@@@@@@@@@@@@@@@@@@@@@@@@@@@@@@@@@                                  "};
