/* XPM */
static char * pirate_floor_xpm[] = {
"128 128 3 1",
" 	c #5C3C0C",
".	c #805C24",
"+	c #83612A",
"                                                                                                                                ",
"...++++++++++++++++++++++...............................................................................++++++++++++............",
"...++++++++++++++++++++++...............................................................................++++++++++++............",
"...++++++++++++++++++++++...............................................................................++++++++++++............",
"...++++++++++++++++++++++.....................................................................................++++++++++++++....",
"............++++++++++++++++++++++++++++..........................++++++++++..................................++++++++++++++....",
"............++++++++++++++++++++++++++++..........................++++++++++++++++++..........................++++++++++++++....",
"............++++++++++++++++++++++++++++..........................++++++++++++++++++..........................++++++++++++++....",
"............++++++++++++++++++++++++++++..........................++++++++++++++++++............................................",
".........................................................................+++++++++++............................................",
"................................................................................................................................",
"................................................................................................................................",
".....................................................................................................................++++.......",
".................................................+++++++++++.........................................................++++.......",
".................................................+++++++++++.........................................................++++.......",
".................................................+++++++++++......................+++++++++++++..................++++++++.......",
".................................................+++++++++++......................+++++++++++++..................++++...........",
"......................................++++++++++++++++............................+++++++++++++..................++++...........",
"......................................++++++++++++++++............................+++++++++++++..................++++...........",
"......................................++++++++++++++++..........................................................................",
"......................................++++++++++++++++..........................................................................",
"                                                                                                                                ",
"                                                                                                                                ",
"................................................................................................................................",
"................................................................................................................................",
"................................................................................................................................",
".....+++++++++++++++++++++++++++.........................................................................+++++++++++++..........",
".....+++++++++++++++++++++++++++.........................................................................+++++++++++++..........",
".....+++++++++++++++++++++++++++.........................................................................+++++++++++++..........",
".....+++++++++++++++++++++++++++.........................................................................+++++++++++++..........",
"...................++++++++++++++++++++++++.....................................................................................",
"...................++++++++++++++++++++++++.....................................................................................",
"...................++++++++++++++++++++++++.....................................................................................",
"...................++++++++++++++++++++++++.....................................................................................",
"................................................................................+++++++++++++++++++.............................",
"................................................................................+++++++++++++++++++.............................",
"................................................................................+++++++++++++++++++.............................",
"................................................................................+++++++++++++++++++.............................",
"................................................................+++++++++++++++++++++++.........................................",
"................................................................+++++++++++++++++++++++.........................................",
"................................................................+++++++++++++++++++++++.........................................",
"................................................................+++++++++++++++++++++++.........................................",
"................................................................................................................................",
"................................................................................................................................",
"                                                                                                                                ",
"                                                                                                                                ",
"............................................................................+++++++++++++++++++.................................",
"............................................................................+++++++++++++++++++.................................",
"............................................................................+++++++++++++++++++.................................",
"............................................................................+++++++++++++++++++.................................",
"...................................................................................++++++++.....................................",
"...................................................................................++++++++.....................................",
"...................................................................................++++++++.....................................",
"........++++++++++++++++++++++.....................................................++++++++.....................................",
"........++++++++++++++++++++++............................................................................+++++++++++++.........",
"........++++++++++++++++++++++............................................................................+++++++++++++.........",
"........++++++++++++++++++++++............................................................................+++++++++++++.........",
"..................+++++++++++++++++++++...................................................................+++++++++++++.........",
"..................+++++++++++++++++++++.........................................................+++++++++++++++.................",
"..................+++++++++++++++++++++.........................................................+++++++++++++++.................",
"..................+++++++++++++++++++++.........................................................+++++++++++++++.................",
"................................................................................................+++++++++++++++.................",
".........................................................+++++++++++++++++++++++++++++..........................................",
".........................................................+++++++++++++++++++++++++++++..........................................",
".........................................................+++++++++++++++++++++++++++++..........................................",
".........................................................+++++++++++++++++++++++++++++..........................................",
"                                                                                                                                ",
"                                                                                                                                ",
"................................................................................................................................",
".........................................................+++++++++++++++........................................................",
".........................................................+++++++++++++++........................................................",
".........................................................+++++++++++++++........................................................",
".........................................................+++++++++++++++........................................................",
".............................................+++++++++++++++++...................+++++++++...................++++++++++++++.....",
"..++++++++++++++++++++++++++.................+++++++++++++++++...................+++++++++...................++++++++++++++.....",
"..++++++++++++++++++++++++++.................+++++++++++++++++...................+++++++++...................++++++++++++++.....",
"..++++++++++++++++++++++++++.................+++++++++++++++++...................+++++++++...................++++++++++++++.....",
"..++++++++++++++++++++++++++.........................................................+++++++++++++...................++++++++...",
".................+++++++++++.........................................................+++++++++++++...................++++++++...",
".................+++++++++++.........................................................+++++++++++++...................++++++++...",
".................+++++++++++.........................................................+++++++++++++...................++++++++...",
".................+++++++++++..................................................................+++++++++.........................",
".................+++++++++++++++++++++++++....................................................+++++++++.........................",
".................+++++++++++++++++++++++++....................................................+++++++++.........................",
".................+++++++++++++++++++++++++....................................................+++++++++.........................",
".................+++++++++++++++++++++++++.....................+++++++++++++++++................................................",
"...............................................................+++++++++++++++++................................................",
"...............................................................+++++++++++++++++................................................",
"...............................................................+++++++++++++++++................................................",
"                                                                                                                                ",
"                                                                                                                                ",
"...............................................+++++++++++..................................................+++++++++++++++++...",
"...............................................+++++++++++..................................................+++++++++++++++++...",
"...............................................+++++++++++..................................................+++++++++++++++++...",
"......++++++++++++.............................+++++++++++..................................................+++++++++++++++++...",
"......++++++++++++..................................................................................+++++++++++++++.............",
"......++++++++++++...................................................++++++++++++++++...............+++++++++++++++.............",
"......++++++++++++...................................................++++++++++++++++...............+++++++++++++++.............",
"............+++++++++...........++++.................................++++++++++++++++...............+++++++++++++++.............",
"............+++++++++...........++++.................................++++++++++++++++...........................................",
"............+++++++++...........++++..........................+++++++++++++.....................................................",
"............+++++++++...........++++..........................+++++++++++++............++++.....................................",
"...................................+++++++++..................+++++++++++++............++++.....................................",
"...................................+++++++++..................+++++++++++++............++++.....................................",
"...................................+++++++++...........................................++++.....................................",
"...................................+++++++++++++...........................................++++++++++++.........................",
"............................................++++...........................................++++++++++++.........................",
"............................................++++...........................................++++++++++++.........................",
"............................................++++...........................................++++++++++++.........................",
"                                                                                                                                ",
"                                                                                                                                ",
".................................................+++++++++++++++......................................................++++++++++",
".................................................+++++++++++++++......................................................++++++++++",
".................................................+++++++++++++++......................................................++++++++++",
".....................+++++++++++++++++++.........+++++++++++++++......................................................++++++++++",
".....................+++++++++++++++++++..................+++++++++++...........................................................",
".....................+++++++++++++++++++..................+++++++++++...........................................................",
".....................+++++++++++++++++++..................+++++++++++...........................................................",
"..........................................................+++++++++++................................+++++++++++++++++++........",
"..............................................................++++++++++++...........................+++++++++++++++++++........",
"...............................................+++++++........++++++++++++...........................+++++++++++++++++++........",
".............++++++++++++......................+++++++........++++++++++++...........................+++++++++++++++++++........",
".............++++++++++++......................+++++++........++++++++++++..............++++++++++++++++++++....................",
".............++++++++++++......................+++++++..................................++++++++++++++++++++....................",
".............++++++++++++.................++++++++++++++++..............................++++++++++++++++++++....................",
"......+++++++++++++.......................++++++++++++++++..............................++++++++++++++++++++....................",
"......+++++++++++++.......................++++++++++++++++......................................................................",
"                                                                                                                                "};
