/* XPM */
static char * pirate_cave_xpm[] = {
"128 128 116 2",
"  	c #806131",
". 	c #4F3A18",
"+ 	c #6D5126",
"@ 	c #453111",
"# 	c #491B06",
"$ 	c #542008",
"% 	c #4F1F09",
"& 	c #061E01",
"* 	c #0D2B06",
"= 	c #092702",
"- 	c #E3CA8E",
"; 	c #4D4802",
"> 	c #61280E",
", 	c #EED59A",
"' 	c #706A16",
") 	c #656019",
"! 	c #0D3105",
"~ 	c #7A3C0C",
"{ 	c #7E761B",
"] 	c #9D7739",
"^ 	c #85632B",
"/ 	c #906B2F",
"( 	c #251B0F",
"_ 	c #1A1711",
": 	c #7A5B2B",
"< 	c #332616",
"[ 	c #150E05",
"} 	c #432369",
"| 	c #5F9BA1",
"1 	c #3B9098",
"2 	c #68A8AE",
"3 	c #47A0A9",
"4 	c #24201A",
"5 	c #A38FBB",
"6 	c #52317A",
"7 	c #2B1F11",
"8 	c #1C140B",
"9 	c #9C840A",
"0 	c #D9D9C8",
"a 	c #ECECE2",
"b 	c #A78F11",
"c 	c #A9A9A3",
"d 	c #F2F2E7",
"e 	c #9C9C95",
"f 	c #705428",
"g 	c #9F983D",
"h 	c #608315",
"i 	c #54701A",
"j 	c #6C901F",
"k 	c #5C7A1E",
"l 	c #6C877F",
"m 	c #A1BBB4",
"n 	c #D8D390",
"o 	c #ACA655",
"p 	c #CCE3DC",
"q 	c #B7CCC6",
"r 	c #272522",
"s 	c #5B786F",
"t 	c #BDC7B1",
"u 	c #B89542",
"v 	c #B4BBAB",
"w 	c #399C1A",
"x 	c #474334",
"y 	c #5A5647",
"z 	c #27080D",
"A 	c #2F8315",
"B 	c #DD8494",
"C 	c #D0D0CD",
"D 	c #DDDDD3",
"E 	c #EE9FAD",
"F 	c #281661",
"G 	c #F6D0D6",
"H 	c #1B0A51",
"I 	c #36332E",
"J 	c #2D2A25",
"K 	c #8B0808",
"L 	c #9A132B",
"M 	c #AC213A",
"N 	c #B62C44",
"O 	c #FFFFFF",
"P 	c #160843",
"Q 	c #924B13",
"R 	c #BB6E30",
"S 	c #A1561B",
"T 	c #B7B896",
"U 	c #BDAB24",
"V 	c #C4C5A6",
"W 	c #B29E04",
"X 	c #175E5B",
"Y 	c #9F2005",
"Z 	c #2DB868",
"` 	c #7EB294",
" .	c #542E10",
"..	c #36C573",
"+.	c #8ABDA0",
"@.	c #216B68",
"#.	c #5C9693",
"$.	c #986E3D",
"%.	c #BD925F",
"&.	c #C99E6C",
"*.	c #A57031",
"=.	c #3D9F67",
"-.	c #152402",
";.	c #203603",
">.	c #92CEAB",
",.	c #49AB72",
"'.	c #32487E",
").	c #364F13",
"!.	c #243A06",
"~.	c #3584A7",
"{.	c #AAE1DA",
"].	c #408DAE",
"^.	c #C5F4EE",
"/.	c #273E08",
"(.	c #95A4C9",
"_.	c #425990",
"                                                                                                                                                                                                                                                                ",
"                                                                                                                                                                                                                                                                ",
"                                                                                                                                                                                                                                                                ",
"                                                                                                                                                                                                                                                                ",
"                                                                                                                                                                                                                                                                ",
"                                                                                                                                                                                                                                                                ",
"                                                                                                                                                                                                                                                                ",
"                                                                                                                                                                                                                                                                ",
". . . . . . . . . . . . . . . . . . . . . . . . . . . . . . . . . . . . . . . . . . . . . . . . . . . . . . . . . . . . . . . . . . . . . . . . . . . . . . . . . . . . . . . . . . . . . . . . . . . . . . . . . . . . . . . . . . . . . . . . . . . . . . . . ",
"                                                                                                                                                                                                                                                                ",
"                                                                                                                                                                                                                                                                ",
"                                                                                                                                                                                                                                                                ",
"                                                                                                                                                                                                                                                                ",
"                                                                                                                                                                                                                                                                ",
"                                                                                                                                                                                                                                                                ",
"                                                                                                                                                                                                                                                                ",
"                                                                                                                                                                                                                                                                ",
"                                                                                                                                                                                                                                                                ",
"                                                                                                                                                                                                                                                                ",
". . . . . . . . . . . . . . . . . . . . . . . . . . . . . . . . . . . . . . . . . . . . . . . . . . . . . . . . . . . . . . . . . . . . . . . . . . . . . . . . . . . . . . . . . . . . . . . . . . . . . . . . . . . . . . . . . . . . . . . . . . . . . . . . ",
"                                                                                                                                                                                                                                                                ",
"                                                                                                                                                                                                                                                                ",
"                                                                                                                                                                                                                                                                ",
"                                                                                                                                                                                                                                                                ",
"                                                                                                                                                                                                                                                                ",
"                                                                                                                                                                                                                                                                ",
"                                                                                                                                                                                                                                                                ",
"                                                                                                                                                                                                                                                                ",
"                                                                                                                                                                                                                                                                ",
". . . . . . . . . . . . . . . . . . . . . . . . . . . . . . . . . . . . . . . . . . . . . . . . . . . . . . . . . . . . . . . . . . . . . . . . . . . . . . . . . . . . . . . . . . . . . . . . . . . . . . . . . . . . . . . . . . . . . . . . . . . . . . . . ",
". . . . . . . . . . . . . . . . . . . . . . . . . . . . . . . . . . . . . . . . . . . . . . . . . . . . . . . . . . . . . . . . . . . . . . . . . . . . . . . . . . . . . . . . . . . . . . . . . . . . . . . . . . . . . . . . . . . . . . . . . . . . . . . . ",
"+ @ @ # # # # $ $ $ $ $ % % % % $ $ $ % % % % $ $ $ $ $ $ # # # & & * * * = = = * * * & & - - - - - - - - - - - - - - - - - - - - - - - - - - - - - - - - - - - - - - - - - - - - - # # # # # # # # # # # ; ; ; ; ; ; ; ; ; ; ; ; ; ; ; ; ; ; ; ; ; ; @ @ + + + ",
"+ @ @ # % % % $ > > % % % % $ $ > > > $ $ % % % % > > > $ % % # = = * * = = * = = * * = = - , , , , , , , , , , , , , , , , , , , , , , , , , , , , , , , , , , , , , , , , - - - - # # # % % % % % % % % ; ' ' ) ) ) ) ' ' ) ) ) ) ' ' ) ) ) ) ' ' ) @ @ + + + ",
"+ @ @ # % % % $ % % % % $ $ > > > > > > > $ $ % % % % > $ % % # = = * = = * ! * = = * = = - , , , , , , , , , , , , , , , , , , , , , , , , , , , , , , , , , , , , , , , , - ~ ~ ~ ~ ~ # % # % # % # % # ; ' ' ) ) { { ' ' ) ) { { ' ' ) ) { { ' ' ) @ @ + + + ",
"  . . # % % % % % % $ $ > > > > > > > > > > > $ $ % % % % % % # = = = = * ! ! ! * = = = = - , , , , , , , , , , , , , , , , , , , , , , , , , , , , , , , , , , , , , , , , - > > > > > # % # % # % # % # ; ' ' ) { { { ' ' ) { { { ' ' ) { { { ' ' ) . .       ",
"  . . # % % % % $ $ $ $ $ $ $ $ $ $ $ $ $ $ $ $ $ $ $ % % % % # = = = * * * * * * * = = = - - - , , , , , , , , , , , , , , , , , , , , , , , , , , , , , , , , , , - - - - - ~ ~ ~ ~ ~ # % % % % % % % % ; ' ' ) { { { ' ' ) { { { ' ' ) { { { ' ' ) . .       ",
"  . . ] ] ] ] ] ] ] ] ] ] ] ] ] ] ] ] ] ] ] ] ] ] ] ] ] ] ] ] ] ] ] ] ] ] ] ] ] ] ] ] ] ] ] ] - , , , , , , , , , , , , , , , , , , , , , , , , , , , , , , , , , , - ] ] ] ] ] ] ] ] ] ] ] ] ] ] ] ] ] ] ] ] ] ] ] ] ] ] ] ] ] ] ] ] ] ] ] ] ] ] ] ] . .       ",
"  . . ] ] ] ] ] ] ] ] ] ] ] ] ] ] ] ] ] ] ] ] ] ] ] ] ] ] ] ] ] ] ] ] ] ] ] ] ] ] ] ] ] ] ] ] - , , , , , , , , , , , , , , , , , , , , , , , , , , , , , , , , , , - ] ] ] ] ] ] ] ] ] ] ] ] ] ] ] ] ] ] ] ] ] ] ] ] ] ] ] ] ] ] ] ] ] ] ] ] ] ] ] ] . .       ",
"  . . ] ] ] ] ] ] ] ] ] ] ] ] ] ] ] ] ] ] ] ] ] ] ] ] ] ] ] ] ] ] ] ] ] ] ] ] ] ] ] ] ] ] ] ] - , , , , , , , , , , , , , , , , , , , , , , , , , , , , , , , , , , - ] ] ^ ^ ^   / / / / / / / / / / / ^ ^ ^ / ^ ^ ^ / ^ ^ ^ / / ^ ( _ _ ( : ^ ^ ] ] . .       ",
"  . . ] ] ^ ^ ^   / / / / / / / / / / / / / / / / / / / / / / / / / / / / / / / /   ^ ^ ^ ] ] - , , , , , , , , , , , , , , , , , , , , , , , , , , , , , , , , , , - ] ] ^ ^ ^   / / / / / / / / / / ^ < < ( ^ [ [ [ ^ ( < < ^ / / ^ } } : ^ ^ ^ ] ] . .       ",
"  . . ] ] ^ ^ ^   / / / / / / / ^ ^ ^ ^ ^ ^ ^ ^ ^ ^ ^ ^ ^ ^ ^ ^ ^ / / / / / / / /   ^ ^ ^ ] ] - , , , , , , , , , , , , , , , , , , , , , , , , , , , , , , , , , , - ] ] ^ ^ ^   / / / / / / / / / / ^ | | | ^ 1 1 1 ^ | | | ^ / / ^ } } : ^ ^ ^ ] ] . .       ",
"  . . ] ] ^ ^ ^   / / / / / / ^ ( ( ( ( ( ( ( ( ( ( ( ( ( ( ( ( ( ^ / / / / / / /   ^ ^ ^ ] ] - , , , , , , , , , , , , , , , , , , , , , , , , - - - - - - - - - , - ] ] ^ ^ ^   / / / / / / / / / ^ | | 2 | 1 1 3 1 1 | 2 | | ^ ^ } } } } : ^ ^ ] ] . .       ",
"  . . ] ] ^ ^ ^   / / / / / ^ ( < < < < < < < < < < < < < < < < < ( ^ / / / / / /   ^ ^ ^ ] ] - , , , , , , , , , - - - - - - - - - - - - - - - _ 4 4 4 4 4 4 4 4 - - ] ] ^ ^ ^   / / / / / / / / / ^ | 2 2 | 1 3 3 3 1 | 2 2 | ^ } } 5 6 } } : ^ ] ] . .       ",
"  . . ] ] ^ ^ ^   / / / / ^ ( ( ( ( ( ( ( ( ( ( ( ( ( ( ( ( ( ( ( ( ( ^ / / / / /   ^ ^ ^ ] ] - , , - - - - - - - _ 4 4 4 4 4 4 4 4 4 4 4 4 4 4 4 4 4 4 4 4 4 4 4 - - ] ] ^ ^ ^   / / / / / / / / / ^ | 2 2 | 1 3 3 3 1 | 2 2 | ^ } 5 6 6 6 } : ^ ] ] . .       ",
"  . . ] ] ^ ^ ^   / / / ^ ( < < < < < 7 7 7 7 7 7 7 < < < < < < < < < ( ^ / / / /   ^ ^ ^ ] ] - , - 4 4 4 4 4 4 4 4 4 4 _ _ _ _ _ _ _ _ _ 4 4 4 4 4 4 4 4 4 4 4 4 - - ] ] ^ ^ ^   / / / / / / / / / ^ | 2 2 | 1 3 3 3 1 | 2 2 | ^ } 5 6 6 6 } : ^ ] ] . .       ",
"  . . ] ] ^ ^ ^   / / ^ ( ( ( ( ( ( ( 8 9 9 9 9 9 8 ( ( ( ( ( ( ( ( ( ( ( ^ / / /   ^ ^ ^ ] ] - , - 4 4 4 4 4 4 4 4 _ _ 0 0 0 a a 0 0 0 0 _ _ 4 4 4 4 4 4 4 4 4 4 - - ] ] ^ ^ ^   / / / / / / / / / ^ | 2 2 | 1 3 3 3 1 | 2 2 | ^ } 5 6 6 6 } : ^ ] ] . .       ",
"  . . ] ] ^ ^ ^   / / ^ ( < < < < < < 7 b b b b 9 7 < < < < < < < < < < ( ^ / / /   ^ ^ ^ ] ] - , - 4 4 4 4 4 4 4 _ 0 0 a c a a a a c a a 0 0 _ 4 4 4 4 4 4 4 4 4 - - ] ] ^ ^ ^   / / / / / / / / / ^ | 2 2 | 1 3 3 3 1 | 2 2 | ^ } 6 6 6 6 } : ^ ] ] . .       ",
"  . . ] ] ^ ^ ^   / / ^ ( < < < < < < 7 7 7 7 7 7 7 < < < < < < < < < < ( ^ / / /   ^ ^ ^ ] ] - , - 4 4 4 4 4 4 4 _ 0 a c a c a a c a c a a 0 _ 4 4 4 4 4 4 4 4 4 - - ] ] ^ ^ ^   / / / / / / / / / ^ | 2 2 | 1 3 3 3 1 | 2 2 | ^ } 6 6 6 6 } : ^ ] ] . .       ",
"  . . ] ] ^ ^ ^   / / ^ ( ( ( ( ( ( ( ( ( ( ( ( ( ( ( ( ( ( ( ( ( ( ( ( ( ^ / / /   ^ ^ ^ ] ] - , - 4 4 4 4 4 4 _ 0 a c a a d d d d a a c a a 0 _ 4 4 4 4 4 4 4 4 - - ] ] ^ ^ ^   / / / / / / / / / ^ | 2 2 | 1 3 3 3 1 | 2 2 | ^ } 6 6 6 6 } : ^ ] ] . .       ",
"  . . ] ] ^ ^ ^   / / ^ ( < < < < < < < < < < < < < < < < < < < < < < < ( ^ / / /   ^ ^ ^ ] ] - , - 4 4 4 4 4 4 _ 0 a a a d d d d d d a a a a 0 _ 4 4 4 4 4 4 4 4 - - ] ] ^ ^ ^   / / / / / / / / / ^ | 2 2 | 1 3 3 3 1 | 2 2 | ^ } 6 6 6 6 } : ^ ] ] . .       ",
"  . . ] ] ^ ^ ^   / / ^ ( < < < < < < < < < < < < < < < < < < < < < < < ( ^ / / /   ^ ^ ^ ] ] - , - 4 4 4 4 4 _ 0 a a a d e e d d e e d a a a a 0 _ 4 4 4 4 4 4 4 - - ] ] ^ ^ ^   / / / / / / / / / ^ | 2 2 | 1 3 3 3 1 | 2 2 | ^ } 6 6 6 6 } : ^ ] ] . .       ",
"  . . ] ]                                                                                 ] ] - , - 4 4 4 4 4 _ 0 a a d e e e d d e e e d a a a 0 _ 4 4 4 4 4 4 4 - - ] ] ^ ^ ^   / / / / / / / / / ^ | 2 2 | 1 3 3 3 1 | 2 2 | ^ } 6 6 6 6 } : ^ ] ] . .       ",
"  . . ] ]                                                                                 ] ] - , - 4 4 4 4 4 _ 0 a d d c e e d d c c e d d a a 0 _ 4 4 4 4 4 4 4 - - ] ] ^ ^ ^   / / / / / / / / / ^ | | | | 1 1 3 1 1 | | | | ^ } } } } } } : ^ ] ] . .       ",
"  . . ] ] ^ ^ : f ^ / ^ ^ ^ / ^ ^ ^ / / ^ ( _ _ ( ^ / / / / / / / / / / / / / / /   ^ ^ ^ ] ] - , - 4 4 4 4 4 _ 0 a d c c e e d d c c e e d a a 0 _ 4 4 4 4 4 4 4 - - ] ]                                                                         ] ] . .       ",
"  . . ] ] ^ : < < ( ^ [ [ [ ^ ( < < ^ / / ^ g g ^ / / / / / / / / / / / / / / / /   ^ ^ ^ ] ] - , - 4 4 4 4 4 _ 0 a d c c e e d d c c e e d a a 0 _ 4 4 4 4 4 4 4 - - ] ]                                                                         ] ] . .       ",
"  . . ] ] ^ : h h h ^ i i i ^ h h h ^ / / ^ g g ^ / / / / / / / / / / / / / / / /   ^ ^ ^ ] ] - , - 4 4 4 4 4 _ 0 a d c c e e d d c c e e d a a 0 _ 4 4 4 4 4 4 4 - - ] ] ^ ^ ^   ^ ^ ^ ^ ^ ^ ^ ^ ^ ^ ^ ^ ^ ^ ^ ^ ^ ^ ^ ^ ^ / / / / / / /   ^ ^ ^ ] ] . .       ",
"  . . ] ] : h h j h i i k i i h j h h ^ ^ g g g g ^ / / / / / / / / / / / / / / /   ^ ^ ^ ] ] - , - 4 4 4 4 4 _ 0 a d d d d d d d d d d d d a a 0 _ 4 4 4 4 4 4 4 - - ] ] ^ ^ ^   ^ l l l l l l l l m m m l l l l l l l l l ^ / / / / / /   ^ ^ ^ ] ] . .       ",
"  . . ] ] : h j j h i k k k i h j j h ^ g g n o g g ^ / / / / / / / / / / / / / /   ^ ^ ^ ] ] - , - 4 4 4 4 4 _ 0 a a d d d d e d d d d d a a a 0 _ 4 4 4 4 4 4 4 - - ] ] ^ ^ ^ : l l p p p l p p p q q m m l l l p p p p l ^ / / / / / /   ^ ^ ^ ] ] . .       ",
"  . . ] ] : h j j h i k k k i h j j h ^ g n o o o g ^ / / / / / / / / / / / / / /   ^ ^ ^ ] ] - - - r r r r 4 _ 0 a a a d d c d e d d d d a a a 0 _ 4 4 4 4 4 4 4 - - ] ] ^ ^ : l l p p l l l l q q q q q m m l l l l l p l l ^ / / / ^ /   ^ ^ ^ ] ] . .       ",
"  . . ] ] : h j j h i k k k i h j j h ^ g n o o o g ^ / / / / / / / / / / / / / /   ^ ^ ^ ] ] - - @ @ @ @ @ r 4 _ 0 a a d d d d d d d d a a a 0 _ 4 4 4 4 4 4 4 4 - - ] ] ^ ^ : l l p l l l l l q q q q q m m m l l l l p p l l ^ ^ ^ @ ^   ^ ^ ^ ] ] . .       ",
"  . . ] ] : h j j h i k k k i h j j h ^ g n o o o g ^ / / / / / / / / / / / / / /   ^ ^ ^ ] ] - - - @ @ @ r 4 4 _ 0 a a a d d d d d d d c a a 0 _ 4 4 4 4 4 4 4 4 - - ] ] ^ ^ : l l p l l l l q q q q q q q m m l l l l l p p l l l s @ ^   ^ ^ ^ ] ] . .       ",
"  . . ] ] : h j j h i k k k i h j j h ^ g o o o o g ^ / / / / / / / / / / / / / /   ^ ^ ^ ] ] - - - t t t r 4 4 _ 0 0 a a a d d d d d c a a 0 0 _ 4 4 4 4 4 4 4 4 - - ] ] ^ ^ : l l l l l l q q q q q q q q q m m l l l l l l l l l s @ ^   ^ ^ ^ ] ] . .       ",
"  . . ] ] : h j j h i k k k i h j j h ^ g o o o o g ^ / / / / / / / / / / / / / /   ^ ^ ^ ] ] - - u t t t r 4 4 4 4 _ 0 a c c c c c c a a 0 _ 4 4 4 4 4 4 4 4 4 4 - - ] ] ^ ^ : l l l l l l l l l l . l l @ l l l l l l l l l l l l s @ ^   ^ ^ ^ ] ] . .       ",
"  . . ] ] : h j j h i k k k i h j j h ^ g o o o o g ^ / / / / / / / / / / / / / /   ^ ^ ^ ] ] - - v u t t u r 4 4 4 _ 0 a a d d d d d a a 0 _ 4 4 4 _ _ _ 4 4 4 4 - - ] ] ^ ^ : l l l . . . . . . . . . . . . . . . . . . . l l ^ ^ ^ @ ^   ^ ^ ^ ] ] . .       ",
"  . . ] ] : h j j h i k k k i h j j h ^ g o o o o g ^ / / / / / / / / / / / / / /   ^ ^ ^ ] ] - t t v u u v t r 4 4 _ 0 0 a a d d d a a a 0 _ 4 4 _ w w w _ 4 4 4 - - ] ] ^ ^ : l l l l . . . . . . . . . . . . . . . . . l l ^ / / / ^ /   ^ ^ ^ ] ] . .       ",
"  . . ] ] : h j j h i k k k i h j j h ^ g o o o o g ^ / / / / / / / / / / / / / /   ^ ^ ^ ] ] - t u u v u t t r 4 4 4 _ 0 0 a a a a a 0 0 _ 4 4 _ w w w w w _ 4 4 - - ] ] ^ ^ ^ : l l l . . . . . . . . . . . . . . . l l l ^ / / / / / /   ^ ^ ^ ] ] . .       ",
"  . . ] ] : h j j h i k k k i h j j h ^ g o o o o g ^ / / / / / / / / / / / / / /   ^ ^ ^ ] ] - u v v t v u t r 4 4 4 4 _ _ _ _ _ _ _ _ _ 4 4 _ w w x w w w _ _ 4 - - ] ] ^ ^ ^   ^ l l l l l l l l l l l l l l l l l l l l ^ / / / / / /   ^ ^ ^ ] ] . .       ",
"  . . ] ] : h h h h i i k i i h h h h : g g g g g g :                                     ] ] - v u t t t v u r 4 4 4 4 4 4 4 4 4 4 4 4 4 4 _ y y w w w w w w w _ - - ] ] ^ ^ ^   / ^ ^ ^ ^ ^ @ @ @ @ @ @ @ @ @ @ ^ ^ ^ ^ ^ / / / / / / /   ^ ^ ^ ] ] . .       ",
"  . . ] ]                                                                                 ] ] - t v u t t t u r 4 4 4 4 4 4 4 4 4 4 4 4 4 4 _ y _ w w w w w w w w - - ] ] ^ ^ ^   / / / ^ @ @ @ @ u u u u u u @ @ @ @ ^ / / / / / / / / /   ^ ^ ^ ] ] . .       ",
"  . . ] ] ^ ^ ^   / / / / / / / / / / / / / / / / / / / / / / / / / / / ^ z z ^ /   ^ ^ ^ ] ] - t t u t t u v r 4 4 _ - - - - - - - - - - - - - - - - w w A A A w - - ] ]                                                                         ] ] . .       ",
"  . . ] ] ^ ^ ^   / / / / / / / / / / / / / / / / / / / / / / / / / / / ^ B B ^ /   ^ ^ ^ ] ] - C D C u C u t - - - - - , , , , , , , , , , , , , , - w A A A A w - - ] ]                                                                         ] ] . .       ",
"  . . ] ] ^ ^ ^   / / / / / / / / / / / / / / / / / / / / / / / / / / / ^ B B ^ /   ^ ^ ^ ] ] - C D D C u C t - , , , , , , , , , , , , , , , , , , - w A A A A w w - ] ] ^ ^ ^   / / / ^ @ @ @ @ @ ^ / / / / / / / ^ ^ / / / ^ ^ / / ^ ^   ^ ^ ^ ] ] . .       ",
"  . . ] ] ^ ^ ^   / / / / / / / ^ / / / / / / ^ / / / / / / / / / / / ^ B E E B ^   ^ ^ ^ ] ] - C D D u C u t - , , , , , , , , , , , , , , , , , , - w A A A A A w - ] ] ^ ^ ^   / / / / ^ @ @ @ ^ / / / / / / / ^ @ @ ^ / ^ @ @ ^ ^ @ @   ^ ^ ^ ] ] . .       ",
"  . . ] ] ^ ^ ^   / / / / / / ^ F ^ / / / / ^ F ^ / / / / / / / / / / ^ B E G B ^   ^ ^ ^ ] ] - t t u v t u t - , , , , , , , , , , , , , , , , , , - w w A A A A w - ] ] ^ ^ ^   / / / / ^ t t t ^ / / / / / / / ^ r r ^ / ^ r r ^ ^ r r   ^ ^ ^ ] ] . .       ",
"  . . ] ] ^ ^ ^   / / / / / / ^ F F ^ / / ^ F F ^ / / / / / / / / / ^ B E E G G B : ^ ^ ^ ] ] - t t u t t v u - , , , , , , , , , , , , , , , , , , - w w w A A A w - ] ] ^ ^ ^   / / / ^ u t t t ^ / / / / / / / ^ r r ^ / ^ r r ^ ^ r r   ^ ^ ^ ] ] . .       ",
"  . . ] ] ^ ^ ^   / / / / / / ^ F F F ^ ^ F F F ^ / / / / / / / / ^ B E E E E G E B : ^ ^ ] ] - t u v t t t v - , , , , , , , , , , , , , , , , , , - - w w w A A w - ] ] ^ ^ ^   / / / ^ v u t t u ^ / / / / / / ^ r r ^ ^ ^ r r ^ ^ r r   ^ ^ ^ ] ] . .       ",
"  . . ] ] ^ ^ ^   / / / / / / ^ F F H F F H F F ^ / / / / / / / / ^ B E E E E G G B : ^ ^ ] ] - u v t t t t t - , , , , , , , , , , , , , , , , , , , - x y - - w w - ] ] ^ ^ ^   / / ^ t t v u u v t ^ / / / / ^ r r r r 4 r r r r 4 r r r : ^ ^ ] ] . .       ",
"  . . ] ] ^ ^ ^   / / / / / / ^ H F F F F F F H ^ / / / / / / / ^ B E E E E E E G E B : ^ ] ] - v t t t t t t - - - - - - - - - - - - - - - - - - - - x y y - - - - - ] ] ^ ^ ^   / / ^ t u u v u t t ^ / / / ^ r r I J 4 r r I J r r 4 J r r : ^ ] ] . .       ",
"  . . ] ] ^ ^ ^   / / / / / ^ F F F K F F K F F F ^ / / / / / / ^ L M M M M M M N M L : ^ ] ] ] ] ] ] ] ] ] ] ] ] ] ] ] ] ] ] ] ] ] ] ] ] ] ] ] ] ] ] ] ] ] ] ] ] ] ] ] ] ^ ^ ^   / / ^ u v v t v u t ^ / / / ^ r I J J 4 r I J J J r 4 J J r : ^ ] ] . .       ",
"  . . ] ] ^ ^ ^   / / / / ^ F F F F F F F F F F F F ^ / / / / / ^ L M L L M M M L M L : ^ ] ] ] ] ] ] ] ] ] ] ] ] ] ] ] ] ] ] ] ] ] ] ] ] ] ] ] ] ] ] ] ] ] ] ] ] ] ] ] ] ^ ^ ^   / / ^ v u t t t v u ^ / / / ^ r I J J 4 r I J J J r 4 J J r : ^ ] ] . .       ",
"  . . ] ] ^ ^ ^   / / / / ^ F F H F O F F O F H F F ^ / / / / / ^ L M M M M L L M M L : ^ ] ] ] ] ^ ^   / / / / / / / / / / / / / / / / / / / / / / / / / /   ^ ^ ] ] ] ] ^ ^ ^   / / ^ t v u t t t u ^ / / / ^ r I J J 4 r I J J J r 4 J J r : ^ ] ] . .       ",
"  . . ] ] ^ ^ ^   / / / / ^ F H H F F O O F F H H F ^ / / / / / ^ L M M M L L M L L L : ^ ] ] ] ] ^ ^   / / / / / / / / / / / / / / / / / / / / / / / / / /   ^ ^ ] ] ] ] ^ ^ ^   / / ^ t t u t t u v ^ / / / ^ r I J J 4 r I J J J r 4 J J r : ^ ] ] . .       ",
"  . . ] ] ^ ^ ^   / / / / / ^ P P H F F F F H P P ^ / / / / / / ^ B E E E E E E E E B : ^ ] ] ] ] ^ ^   / / / / / / / / / / / / / / / / / / / / / / ^ ^ ^ ^ : ^ ^ ] ] ] ] ^ ^ ^   / / ^ C D C u C u t ^ / / / ^ Q R S S ~ Q R S S S Q ~ S S Q : ^ ] ] . .       ",
"  . . ] ] ^ ^ ^   / / / / / ^ P P P H F F H P P P ^ / / / / / / ^ B B E E E E E E B B : ^ ] ] ] ] ^ ^   / / / / / / / / / / / / / / / / / / / / / ^ @ @ @ @ @   ^ ] ] ] ] ^ ^ ^   / / ^ C D D C u C t ^ / / / ^ Q R S S ~ Q R S S S Q ~ S S Q : ^ ] ] . .       ",
"  . . ] ]                                                                                 ] ] ] ] ^ ^   / / / / / / / / / / / / / ^ ^ / / / / / / / ^ @ @ @ : ^ ^ ] ] ] ] ^ ^ ^   / / ^ C D D u C u t ^ / / / ^ Q R S S ~ Q R S S S Q ~ S S Q : ^ ] ] . .       ",
"  . . ] ]                                                                                 ] ] ] ] ^ ^   / / ^ ^ / / / / / / / / ^ Q Q ^ / / / / / / ^ t t t : ^ ^ ] ] ] ] ^ ^ ^   / / ^ t t u v t u t ^ / / / ^ Q R S S ~ Q R S S S Q ~ S S Q : ^ ] ] . .       ",
"  . . ] ] ^ ^ ^   / / / / / / / / / / / / / / / / / / / / / / / / / / / / / / / /   ^ ^ ^ ] ] ] ] ^ ^   / ^ u u ^ / / / / / / / ^ J J ^ / / / / / ^ u t t t : ^ ^ ] ] ] ] ^ ^ ^   / / ^ t t u t t v u ^ / / / ^ Q R S S ~ Q R S S S Q ~ S S Q : ^ ] ] . .       ",
"  . . ] ] ^ ^ ^   / / / / / / / / / / / / / / / / / / / / / / / / / / / / / / / /   ^ ^ ^ ] ] ] ] ^ ^   / ^ T T ^ / / / / / / / ^ J J ^ / / / / / ^ v u t t u   ^ ] ] ] ] ^ ^ ^   / / ^ t u v t t t v ^ / / / ^ r I J J 4 r J J J J r 4 J J r : ^ ] ] . .       ",
"  . . ] ] ^ ^ ^   / / / / / / / / / / / U U U U U U U U U U / / / / / / / / / / /   ^ ^ ^ ] ] ] ] ^ ^   / ^ T T ^ / / / / / / / ^ J J ^ / / / / ^ t t v u u v t   ] ] ] ] ^ ^ ^   / / ^ u v t t t t t ^ / / / ^ r J J J 4 r J J J J r 4 J J r : ^ ] ] . .       ",
"  . . ] ] ^ ^ ^   / / / / / / / / / / U U U U U U U U U U U U / / / / / / / / / /   ^ ^ ^ ] ] ] ] ^ ^   / ^ T T ^ / / / / / / ^ 4 J J 4 ^ / / / ^ t u u v u t t   ] ] ] ] ^ ^ ^   / / ^ v t t t t t t ^ / / / ^ r r J J 4 r r J J r r 4 J r r : ^ ] ] . .       ",
"  . . ] ] ^ ^ ^   / / / / / / / / U U U U U U U U U U U U U U U U / / / / / / / /   ^ ^ ^ ] ] ] ] ^ ^   ^ T V V T ^ / / / / ^ 4 J I I J 4 ^ / / ^ u v v t v u t   ] ] ] ]                                                                         ] ] . .       ",
"  . . ] ] ^ ^ ^   / / / / / / / U U 9 U U U U U U U U U U U U U U U / / / / / / /   ^ ^ ^ ] ] ] ] ^ ^   ^ T V D T ^ / / / ^ 4 J I I I I J 4 ^ / ^ v u t t t v u   ] ] ] ]                                                                         ] ] . .       ",
"  . . ] ] ^ ^ ^   / / / / / / U U 9 U 9 U U U U U U U U U U U U U U U / / / / / /   ^ ^ ^ ] ] ] ] ^ ^ : T V V D D T ^ / / ^ 4 J T I I I T 4 ^ / ^ t v u t t t u   ] ] ] ] ^ ^ ^   / / / / / / / / / / / / / / / / / / / / / / / / ^ ^ / /   ^ ^ ^ ] ] . .       ",
"  . . ] ] ^ ^ ^   / / / W W W U U U 9 U 9 U U U U U U U U U U U U U U W W W / / /   ^ ^ ^ ] ] ] ] ^ : T V V V V D V T ^ ^ 4 J T T I I I T T 4 ^ ^ t t u t t u v   ] ] ] ] ^ ^ ^   / / / / / / / / / / / / / / / / / / / / / / / ^ R R ^ /   ^ ^ ^ ] ] . .       ",
"  . . ] ] ^ ^ ^   / / W W W W U U U U U U U U U U U U U U U U U U U U W W W W / /   ^ ^ ^ ] ] ] ] ^ : T V V V V D D T ^ ^ 4 J J I V I V I J 4 ^ ^ C D C u C u t   ] ] ] ] ^ ^ ^   / / / ^ ^ ^ / ^ ^ ^ / ^ ^ ^ / / / / / / / / / ^ X X ^ /   ^ ^ ^ ] ] . .       ",
"  . . ] ] ^ ^ ^   / / W W W W U U U U U U U U U U U U U U U U U U U U W W W W / /   ^ ^ ^ ] ] ] ] : T V V V V V V D V T ^ 4 J I I I V I I I 4 ^ ^ C D D C u C t   ] ] ] ] ^ ^ ^   / / ^ < < ( ^ [ [ [ ^ ( < < ^ / / / / / / / / ^ X X ^ /   ^ ^ ^ ] ] . .       ",
"  . . ] ] ^ ^ ^   / / W W W Y U U U U U U U U U U U U U U U U U U U U Y W W W / /   ^ ^ ^ ] ] ] ] : Q S S S S S S R S Q ^ 4 J J I V I V I J 4 ^ ^ C D D u C u t   ] ] ] ] ^ ^ ^   / / ^ Z Z Z ^ ` ` ` ^ Z Z Z ^ / / / / / / / / ^ X X ^ /   ^ ^ ^ ] ] . .       ",
"  . . ] ] ^ ^ ^   / / W 9 W Y Y Y Y Y Y Y Y Y Y Y Y Y Y Y Y Y Y Y Y Y Y W 9 W / /   ^ ^ ^ ] ] ] ] : Q S  . .S S S  .S Q ^ 4 J T T I I I T T 4 ^ ^ t t u v t u t   ] ] ] ] ^ ^ ^   / ^ Z Z ..Z ` ` +.` ` Z ..Z Z ^ / / / / / / ^ X @.@.X ^   ^ ^ ^ ] ] . .       ",
"  . . ] ] ^ ^ ^   / / W 9 W W Y Y Y Y Y Y Y Y Y Y Y Y Y Y Y Y Y Y Y Y W W 9 W / /   ^ ^ ^ ] ] ] ] : Q S S S S  . .S S Q ^ 4 J J T I I I T J 4 ^ ^ t t u t t v u   ] ] ] ] ^ ^ ^   / ^ Z ....Z ` +.+.+.` Z ....Z ^ / / / / / / ^ X @.#.X ^   ^ ^ ^ ] ] . .       ",
"  . . ] ] ^ ^ ^   / / W W 9 W W W W W W W W W W W W W W W W W W W W W W 9 W W / /   ^ ^ ^ ] ] ] ] : Q S S S  . .S  . .Q ^ ^ 4 J J I I I J 4 ^ / ^ t u v t t t v   ] ] ] ] ^ ^ ^   / ^ Z ....Z ` +.+.+.` Z ....Z ^ / / / / / ^ X @.@.#.#.X : : ^ ^ ] ] . .       ",
"  . . ] ] ^ ^ ^   / ^ ^ W W W W W W W W W W W W W W W W W W W W W W 9 9 W W ^ ^ /   ^ ^ ^ ] ] ] ] : T V V V V V V V V T ^ ^ 4 4 J J J J 4 4 ^ / ^ u v t t t t t   ] ] ] ] ^ ^ ^   / ^ Z ....Z ` +.+.+.` Z ....Z ^ / / / / ^ X @.@.@.@.#.@.X : ^ ^ ] ] . .       ",
"  . . ] ] ^ ^ ^   ^ ^ ^ ^ W W W W W W W W W W W W W W W W 9 W 9 9 9 W W W ^ ^ ^ ^   ^ ^ ^ ] ] ] ] : T T V V V V V V T T ^ / ^ 4 4 J J 4 4 ^ / / ^ v t t t t t t   ] ] ] ] ^ ^ ^   / ^ Z ....Z ` +.+.+.` Z ....Z ^ / / / / ^ X @.@.@.@.#.#.X : ^ ^ ] ] . .       ",
"  . . ] ] ^ ^ ^   ^ ^ ^ ^ ^ ^ W W W W W W W W W W W W W W W W W W W W ^ ^ ^ ^ ^ ^   ^ ^ ^ ] ] ] ]                                                                 ] ] ] ] ^ ^ ^   / ^ Z ....Z ` +.+.+.` Z ....Z ^ / / / ^ X @.@.@.@.@.@.#.@.X : ^ ] ] . .       ",
"  . . ] ]                     : : : : : : : : : : : : : : : : : : : :                     ] ] ] ]                                                                 ] ] ] ] ^ ^ ^   / ^ Z ....Z ` +.+.+.` Z ....Z ^ / / / ^ $.%.%.%.%.%.%.&.%.$.: ^ ] ] . .       ",
"  . . ] ]                                                                                 ] ] ] ] ^ ^   ^ ^ ^ ^ ^ ^ ^ ^ ^ ^ ^ ^ ^ ^ ^ ^ ^ ^ ^ ^ ^ ^ ^ ^ ^ ^   ^ ^ ] ] ] ] ^ ^ ^   / ^ Z ....Z ` +.+.+.` Z ....Z ^ / / / ^ $.%.*.*.%.%.%.*.%.$.: ^ ] ] . .       ",
"  . . ] ] ^ ^ ^   / / / / / / / / / / / / / / / / / / / / / / / / / / / / / / / /   ^ ^ ^ ] ] ] ] ^ ^   / / / / / / / / / / / / / / / / / / / / / / / / / /   ^ ^ ] ] ] ] ^ ^ ^   / ^ Z ....Z ` +.+.+.` Z ....Z ^ / / / ^ $.%.%.%.%.*.*.%.%.$.: ^ ] ] . .       ",
"  . . ] ] ^ ^ ^   / / / / / / / / / / / / / / / / / / / / / / / / / / / / / / / /   ^ ^ ^ ] ] ] ] ^ ^   / / / / / / / / / / / / / / / / / / / / / / / / / /   ^ ^ ] ] ] ] ^ ^ ^   / ^ Z ....Z ` +.+.+.` Z ....Z ^ / / / ^ $.%.%.%.*.*.%.*.*.$.: ^ ] ] . .       ",
"  . . ] ] ^ ^ ^   ^ ^ / / / ^ ^ / / ^ ^ / / / ^ ^ / / / ^ ^ / / ^ ^ / / / / ^ ^ ^ : ^ ^ ^ ] ] ] ] ^ ^   / / / / / / / / / / / / / ^ ^ / / / : : / / ^ ^ / /   ^ ^ ] ] ] ] ^ ^ ^   / ^ Z ....Z ` +.+.+.` Z ....Z ^ / / / ^ X @.@.@.@.@.@.@.@.X : ^ ] ] . .       ",
"  . . ] ] ^ ^ ^ : @ @ ^ / ^ @ @ ^ ^ @ @ ^ / ^ @ @ ^ / ^ @ @ ^ ^ @ @ ^ / / ^ ( ( ( ( : ^ ^ ] ] ] ] ^ ^   / ^ ^ ^ ^ ^ / / / / / / ^ @ @ ^ / : @ @ : ^ @ @ ^ /   ^ ^ ] ] ] ] ^ ^ ^   / ^ Z Z Z Z ` ` +.` ` Z Z Z Z ^ / / / ^ X X @.@.@.@.@.@.X X : ^ ] ] . .       ",
"  . . ] ] ^ ^ ^ : r r ^ / ^ r r ^ ^ r r ^ / ^ r r ^ / ^ r r ^ ^ r r ^ / / / ^ =.=.: ^ ^ ^ ] ] ] ] ^ ^   ^ @ @ @ @ @ ^ / / / / / ^ r r ^ / : r r : ^ r r ^ /   ^ ^ ] ] ] ]                                                                         ] ] . .       ",
"  . . ] ] ^ ^ ^ : r r ^ / ^ r r ^ ^ r r ^ / ^ r r ^ / ^ r r ^ ^ r r ^ / / / ^ =.=.: ^ ^ ^ ] ] ] ] ^ ^   / ^ -.-.-.^ / / / / / / ^ r r ^ / : r r : ^ r r ^ /   ^ ^ ] ] ] ]                                                                         ] ] . .       ",
"  . . ] ] ^ ^ ^ : r r ^ ^ ^ r r ^ ^ r r ^ / ^ r r ^ ^ ^ r r ^ ^ r r ^ / / ^ =.=.=.=.: ^ ^ ] ] ] ] ^ ^   / ^ ;.;.;.^ / / / / / / ^ r r ^ ^ : r r : ^ r r ^ /   ^ ^ ] ] ] ] ^ ^ : ( _ _ ( ^ / / / / / / / / / / / ^ ^ ^ / ^ ^ ^ / ^ ^ ^ / /   ^ ^ ^ ] ] . .       ",
"  . . ] ] ^ ^ : r r r r 4 r r r r 4 r r r 4 r r r r 4 r r r r 4 r r r ^ / =.=.>.,.=.=.: ^ ] ] ] ] ^ ^   ^ ;.;.;.;.;.^ / / / / ^ r r r r 4 r r r r 4 r r r ^   ^ ^ ] ] ] ] ^ ^ ^ : '.'.^ / / / / / / / / / / / ^ < < ( ^ [ [ [ ^ ( < < ^ /   ^ ^ ^ ] ] . .       ",
"  . . ] ] ^ : r r I J 4 r r I J r r 4 r 4 r r I J 4 r r I J r r 4 J r r ^ =.>.,.,.,.=.: ^ ] ] ] ] ^ ^ : ;.;.).!.!.;.;.^ / / ^ r r I J 4 r r I J r r 4 J r r ^ ^ ^ ] ] ] ] ^ ^ ^ : '.'.^ / / / / / / / / / / / ^ ~.~.~.^ {.{.{.^ ~.~.~.^ /   ^ ^ ^ ] ] . .       ",
"  . . ] ] ^ : r I J J 4 r I J J J r 4 r 4 r I J J 4 r I J J J r 4 J J r ^ =.>.,.,.,.=.: ^ ] ] ] ] ^ ^ : ;.).).!.!.!.;.^ / / ^ r I J J 4 r I J J J r 4 J J r ^ ^ ^ ] ] ] ] ^ ^ : '.'.'.'.^ / / / / / / / / / ^ ~.~.].~.{.{.^.{.{.~.].~.~.^   ^ ^ ^ ] ] . .       ",
"  . . ] ] ^ : r I J J 4 r I J J J r 4 r 4 r I J J 4 r I J J J r 4 J J r ^ =.>.,.,.,.=.: ^ ] ] ] ] ^ ^ : ;.).)././.!.;.^ / / ^ r I J J 4 r I J J J r 4 J J r ^ ^ ^ ] ] ] ] ^ : '.'.(._.'.'.^ / / / / / / / / ^ ~.].].~.{.^.^.^.{.~.].].~.^   ^ ^ ^ ] ] . .       ",
"  . . ] ] ^ : r I J J 4 r I J J J r 4 r 4 r I J J 4 r I J J J r 4 J J r ^ =.>.,.,.,.=.: ^ ] ] ] ] ^ : ;.;.)./././.!.;.;.^ / ^ r I J J 4 r I J J J r 4 J J r ^ ^ ^ ] ] ] ] ^ : '.(._._._.'.^ / / / / / / / / ^ ~.].].~.{.^.^.^.{.~.].].~.^   ^ ^ ^ ] ] . .       ",
"  . . ] ] ^ : r I J J 4 r I J J J r 4 r 4 r I J J 4 r I J J J r 4 J J r ^ =.,.,.,.,.=.: ^ ] ] ] ] ^ : ;.!.!./././.!.!.;.^ / ^ r I J J 4 r I J J J r 4 J J r ^ ^ ^ ] ] ] ] ^ : '.(._._._.'.^ / / / / / / / / ^ ~.].].~.{.^.^.^.{.~.].].~.^   ^ ^ ^ ] ] . .       ",
"  . . ] ] ^ : Q R S S ~ Q R S S S Q ~ Q ~ Q R S S ~ Q R S S S Q ~ S S Q ^ =.,.,.,.,.=.: ^ ] ] ] ] ^ : ;.!.)././././.!.;.^ / ^ Q R S S ~ Q R S S S Q ~ S S Q ^ ^ ^ ] ] ] ] ^ : '.(._._._.'.^ / / / / / / / / ^ ~.].].~.{.^.^.^.{.~.].].~.^   ^ ^ ^ ] ] . .       ",
"  . . ] ] ^ : Q R S S ~ Q R S S S Q ~ Q ~ Q R S S ~ Q R S S S Q ~ S S Q ^ =.,.,.,.,.=.: ^ ] ] ] ] ^ : ;.!./././././.!.;.^ / ^ Q R S S ~ Q R S S S Q ~ S S Q ^ ^ ^ ] ] ] ] ^ : '._._._._.'.^ / / / / / / / / ^ ~.].].~.{.^.^.^.{.~.].].~.^   ^ ^ ^ ] ] . .       ",
"  . . ] ] ^ : Q R S S ~ Q R S S S Q ~ Q ~ Q R S S ~ Q R S S S Q ~ S S Q ^ =.,.,.,.,.=.: ^ ] ] ] ] ^ : ;.!./././././.!.;.^ / ^ Q R S S ~ Q R S S S Q ~ S S Q ^ ^ ^ ] ] ] ] ^ : '._._._._.'.^ / / / / / / / / ^ ~.].].~.{.^.^.^.{.~.].].~.^   ^ ^ ^ ] ] . .       ",
"  . . ] ] ^ : Q R S S ~ Q R S S S Q ~ Q ~ Q R S S ~ Q R S S S Q ~ S S Q ^ =.,.,.,.,.=.: ^ ] ] ] ] ^ : ;.!./././././.!.;.^ / ^ Q R S S ~ Q R S S S Q ~ S S Q ^ ^ ^ ] ] ] ] ^ : '._._._._.'.^ / / / / / / / / ^ ~.].].~.{.^.^.^.{.~.].].~.^   ^ ^ ^ ] ] . .       ",
"  . . ] ] ^ : Q R S S ~ Q R S S S Q ~ Q ~ Q R S S ~ Q R S S S Q ~ S S Q ^ =.,.,.,.,.=.: ^ ] ] ] ] ^ : ;.!./././././.!.;.^ / ^ Q R S S ~ Q R S S S Q ~ S S Q ^ ^ ^ ] ] ] ] ^ : '._._._._.'.^ / / / / / / / / ^ ~.].].~.{.^.^.^.{.~.].].~.^   ^ ^ ^ ] ] . .       ",
"  . . ] ] ^ : r I J J 4 r J J J J r 4 r 4 r I J J 4 r J J J J r 4 J J r ^ =.,.,.,.,.=.: ^ ] ] ] ] ^ : ;.!./././././.!.;.^ / ^ r I J J 4 r J J J J r 4 J J r ^ ^ ^ ] ] ] ] ^ : '._._._._.'.^ / / / / / / / / ^ ~.].].~.{.^.^.^.{.~.].].~.^   ^ ^ ^ ] ] . .       ",
"  . . ] ] ^ : r J J J 4 r J J J J r 4 r 4 r J J J 4 r J J J J r 4 J J r ^ =.,.,.,.,.=.: ^ ] ] ] ] ^ : ;.!./././././.!.;.^ / ^ r J J J 4 r J J J J r 4 J J r ^ ^ ^ ] ] ] ] ^ : '._._._._.'.^ / / / / / / / / ^ ~.].].~.{.^.^.^.{.~.].].~.^   ^ ^ ^ ] ] . .       ",
"  . . ] ] ^ : r r J J 4 r r J J r r 4 r 4 r r J J 4 r r J J r r 4 J r r ^ =.=.=.=.=.=.: ^ ] ] ] ] ^ : ;.!./././././.!.;.^ / ^ r r J J 4 r r J J r r 4 J r r ^ ^ ^ ] ] ] ] ^ : '.'.'.'.'.'.^ / / / / / / / / ^ ~.~.~.~.{.{.^.{.{.~.~.~.~.^   ^ ^ ^ ] ] . .       ",
"  . . ] ] ] ] ] ] ] ] ] ] ] ] ] ] ] ] ] ] ] ] ] ] ] ] ] ] ] ] ] ] ] ] ] ] ] ] ] ] ] ] ] ] ] ] ] ] ] ] ] ] ] ] ] ] ] ] ] ] ] ] ] ] ] ] ] ] ] ] ] ] ] ] ] ] ] ] ] ] ] ] ] ] ] ] ] ] ] ] ] ] ] ] ] ] ] ] ] ] ] ] ] ] ] ] ] ] ] ] ] ] ] ] ] ] ] ] ] ] ] ] . .       ",
"  . . ] ] ] ] ] ] ] ] ] ] ] ] ] ] ] ] ] ] ] ] ] ] ] ] ] ] ] ] ] ] ] ] ] ] ] ] ] ] ] ] ] ] ] ] ] ] ] ] ] ] ] ] ] ] ] ] ] ] ] ] ] ] ] ] ] ] ] ] ] ] ] ] ] ] ] ] ] ] ] ] ] ] ] ] ] ] ] ] ] ] ] ] ] ] ] ] ] ] ] ] ] ] ] ] ] ] ] ] ] ] ] ] ] ] ] ] ] ] ] ] . .       "};
