/* XPM */
static char *_3bf4ce44aa84fb3e90850f392c68be1BewGykERXfSNPqAI[] = {
/* columns rows colors chars-per-pixel */
"384 384 3 1 ",
"  c #5C3C0C",
". c #805C24",
"X c #83612A",
/* pixels */
"                                                                                                                                                                                                                                                                                                                                                                                                ",
"                                                                                                                                                                                                                                                                                                                                                                                                ",
"                                                                                                                                                                                                                                                                                                                                                                                                ",
".........XXXXXXXXXXXXXXXXXXXXXXXXXXXXXXXXXXXXXXXXXXXXXXXXXXXXXXXXXXXXXXXXXX.............................................................................................................................................................................................................................................XXXXXXXXXXXXXXXXXXXXXXXXXXXXXXXXXXXX....................................",
".........XXXXXXXXXXXXXXXXXXXXXXXXXXXXXXXXXXXXXXXXXXXXXXXXXXXXXXXXXXXXXXXXXX.............................................................................................................................................................................................................................................XXXXXXXXXXXXXXXXXXXXXXXXXXXXXXXXXXXX....................................",
".........XXXXXXXXXXXXXXXXXXXXXXXXXXXXXXXXXXXXXXXXXXXXXXXXXXXXXXXXXXXXXXXXXX.............................................................................................................................................................................................................................................XXXXXXXXXXXXXXXXXXXXXXXXXXXXXXXXXXXX....................................",
".........XXXXXXXXXXXXXXXXXXXXXXXXXXXXXXXXXXXXXXXXXXXXXXXXXXXXXXXXXXXXXXXXXX.............................................................................................................................................................................................................................................XXXXXXXXXXXXXXXXXXXXXXXXXXXXXXXXXXXX....................................",
".........XXXXXXXXXXXXXXXXXXXXXXXXXXXXXXXXXXXXXXXXXXXXXXXXXXXXXXXXXXXXXXXXXX.............................................................................................................................................................................................................................................XXXXXXXXXXXXXXXXXXXXXXXXXXXXXXXXXXXX....................................",
".........XXXXXXXXXXXXXXXXXXXXXXXXXXXXXXXXXXXXXXXXXXXXXXXXXXXXXXXXXXXXXXXXXX.............................................................................................................................................................................................................................................XXXXXXXXXXXXXXXXXXXXXXXXXXXXXXXXXXXX....................................",
".........XXXXXXXXXXXXXXXXXXXXXXXXXXXXXXXXXXXXXXXXXXXXXXXXXXXXXXXXXXXXXXXXXX.............................................................................................................................................................................................................................................XXXXXXXXXXXXXXXXXXXXXXXXXXXXXXXXXXXX....................................",
".........XXXXXXXXXXXXXXXXXXXXXXXXXXXXXXXXXXXXXXXXXXXXXXXXXXXXXXXXXXXXXXXXXX.............................................................................................................................................................................................................................................XXXXXXXXXXXXXXXXXXXXXXXXXXXXXXXXXXXX....................................",
".........XXXXXXXXXXXXXXXXXXXXXXXXXXXXXXXXXXXXXXXXXXXXXXXXXXXXXXXXXXXXXXXXXX.............................................................................................................................................................................................................................................XXXXXXXXXXXXXXXXXXXXXXXXXXXXXXXXXXXX....................................",
".........XXXXXXXXXXXXXXXXXXXXXXXXXXXXXXXXXXXXXXXXXXXXXXXXXXXXXXXXXXXXXXXXXX...............................................................................................................................................................................................................................................................XXXXXXXXXXXXXXXXXXXXXXXXXXXXXXXXXXXXXXXXXX............",
".........XXXXXXXXXXXXXXXXXXXXXXXXXXXXXXXXXXXXXXXXXXXXXXXXXXXXXXXXXXXXXXXXXX...............................................................................................................................................................................................................................................................XXXXXXXXXXXXXXXXXXXXXXXXXXXXXXXXXXXXXXXXXX............",
".........XXXXXXXXXXXXXXXXXXXXXXXXXXXXXXXXXXXXXXXXXXXXXXXXXXXXXXXXXXXXXXXXXX...............................................................................................................................................................................................................................................................XXXXXXXXXXXXXXXXXXXXXXXXXXXXXXXXXXXXXXXXXX............",
"....................................XXXXXXXXXXXXXXXXXXXXXXXXXXXXXXXXXXXXXXXXXXXXXXXXXXXXXXXXXXXXXXXXXXXXXXXXXXXXXXXXXXXX..............................................................................XXXXXXXXXXXXXXXXXXXXXXXXXXXXXX......................................................................................................XXXXXXXXXXXXXXXXXXXXXXXXXXXXXXXXXXXXXXXXXX............",
"....................................XXXXXXXXXXXXXXXXXXXXXXXXXXXXXXXXXXXXXXXXXXXXXXXXXXXXXXXXXXXXXXXXXXXXXXXXXXXXXXXXXXXX..............................................................................XXXXXXXXXXXXXXXXXXXXXXXXXXXXXX......................................................................................................XXXXXXXXXXXXXXXXXXXXXXXXXXXXXXXXXXXXXXXXXX............",
"....................................XXXXXXXXXXXXXXXXXXXXXXXXXXXXXXXXXXXXXXXXXXXXXXXXXXXXXXXXXXXXXXXXXXXXXXXXXXXXXXXXXXXX..............................................................................XXXXXXXXXXXXXXXXXXXXXXXXXXXXXX......................................................................................................XXXXXXXXXXXXXXXXXXXXXXXXXXXXXXXXXXXXXXXXXX............",
"....................................XXXXXXXXXXXXXXXXXXXXXXXXXXXXXXXXXXXXXXXXXXXXXXXXXXXXXXXXXXXXXXXXXXXXXXXXXXXXXXXXXXXX..............................................................................XXXXXXXXXXXXXXXXXXXXXXXXXXXXXXXXXXXXXXXXXXXXXXXXXXXXXX..............................................................................XXXXXXXXXXXXXXXXXXXXXXXXXXXXXXXXXXXXXXXXXX............",
"....................................XXXXXXXXXXXXXXXXXXXXXXXXXXXXXXXXXXXXXXXXXXXXXXXXXXXXXXXXXXXXXXXXXXXXXXXXXXXXXXXXXXXX..............................................................................XXXXXXXXXXXXXXXXXXXXXXXXXXXXXXXXXXXXXXXXXXXXXXXXXXXXXX..............................................................................XXXXXXXXXXXXXXXXXXXXXXXXXXXXXXXXXXXXXXXXXX............",
"....................................XXXXXXXXXXXXXXXXXXXXXXXXXXXXXXXXXXXXXXXXXXXXXXXXXXXXXXXXXXXXXXXXXXXXXXXXXXXXXXXXXXXX..............................................................................XXXXXXXXXXXXXXXXXXXXXXXXXXXXXXXXXXXXXXXXXXXXXXXXXXXXXX..............................................................................XXXXXXXXXXXXXXXXXXXXXXXXXXXXXXXXXXXXXXXXXX............",
"....................................XXXXXXXXXXXXXXXXXXXXXXXXXXXXXXXXXXXXXXXXXXXXXXXXXXXXXXXXXXXXXXXXXXXXXXXXXXXXXXXXXXXX..............................................................................XXXXXXXXXXXXXXXXXXXXXXXXXXXXXXXXXXXXXXXXXXXXXXXXXXXXXX..............................................................................XXXXXXXXXXXXXXXXXXXXXXXXXXXXXXXXXXXXXXXXXX............",
"....................................XXXXXXXXXXXXXXXXXXXXXXXXXXXXXXXXXXXXXXXXXXXXXXXXXXXXXXXXXXXXXXXXXXXXXXXXXXXXXXXXXXXX..............................................................................XXXXXXXXXXXXXXXXXXXXXXXXXXXXXXXXXXXXXXXXXXXXXXXXXXXXXX..............................................................................XXXXXXXXXXXXXXXXXXXXXXXXXXXXXXXXXXXXXXXXXX............",
"....................................XXXXXXXXXXXXXXXXXXXXXXXXXXXXXXXXXXXXXXXXXXXXXXXXXXXXXXXXXXXXXXXXXXXXXXXXXXXXXXXXXXXX..............................................................................XXXXXXXXXXXXXXXXXXXXXXXXXXXXXXXXXXXXXXXXXXXXXXXXXXXXXX..............................................................................XXXXXXXXXXXXXXXXXXXXXXXXXXXXXXXXXXXXXXXXXX............",
"....................................XXXXXXXXXXXXXXXXXXXXXXXXXXXXXXXXXXXXXXXXXXXXXXXXXXXXXXXXXXXXXXXXXXXXXXXXXXXXXXXXXXXX..............................................................................XXXXXXXXXXXXXXXXXXXXXXXXXXXXXXXXXXXXXXXXXXXXXXXXXXXXXX....................................................................................................................................",
"....................................XXXXXXXXXXXXXXXXXXXXXXXXXXXXXXXXXXXXXXXXXXXXXXXXXXXXXXXXXXXXXXXXXXXXXXXXXXXXXXXXXXXX..............................................................................XXXXXXXXXXXXXXXXXXXXXXXXXXXXXXXXXXXXXXXXXXXXXXXXXXXXXX....................................................................................................................................",
"....................................XXXXXXXXXXXXXXXXXXXXXXXXXXXXXXXXXXXXXXXXXXXXXXXXXXXXXXXXXXXXXXXXXXXXXXXXXXXXXXXXXXXX..............................................................................XXXXXXXXXXXXXXXXXXXXXXXXXXXXXXXXXXXXXXXXXXXXXXXXXXXXXX....................................................................................................................................",
"...........................................................................................................................................................................................................................XXXXXXXXXXXXXXXXXXXXXXXXXXXXXXXXX....................................................................................................................................",
"...........................................................................................................................................................................................................................XXXXXXXXXXXXXXXXXXXXXXXXXXXXXXXXX....................................................................................................................................",
"...........................................................................................................................................................................................................................XXXXXXXXXXXXXXXXXXXXXXXXXXXXXXXXX....................................................................................................................................",
"................................................................................................................................................................................................................................................................................................................................................................................................",
"................................................................................................................................................................................................................................................................................................................................................................................................",
"................................................................................................................................................................................................................................................................................................................................................................................................",
"................................................................................................................................................................................................................................................................................................................................................................................................",
"................................................................................................................................................................................................................................................................................................................................................................................................",
"................................................................................................................................................................................................................................................................................................................................................................................................",
"...............................................................................................................................................................................................................................................................................................................................................................XXXXXXXXXXXX.....................",
"...............................................................................................................................................................................................................................................................................................................................................................XXXXXXXXXXXX.....................",
"...............................................................................................................................................................................................................................................................................................................................................................XXXXXXXXXXXX.....................",
"...................................................................................................................................................XXXXXXXXXXXXXXXXXXXXXXXXXXXXXXXXX...........................................................................................................................................................................XXXXXXXXXXXX.....................",
"...................................................................................................................................................XXXXXXXXXXXXXXXXXXXXXXXXXXXXXXXXX...........................................................................................................................................................................XXXXXXXXXXXX.....................",
"...................................................................................................................................................XXXXXXXXXXXXXXXXXXXXXXXXXXXXXXXXX...........................................................................................................................................................................XXXXXXXXXXXX.....................",
"...................................................................................................................................................XXXXXXXXXXXXXXXXXXXXXXXXXXXXXXXXX...........................................................................................................................................................................XXXXXXXXXXXX.....................",
"...................................................................................................................................................XXXXXXXXXXXXXXXXXXXXXXXXXXXXXXXXX...........................................................................................................................................................................XXXXXXXXXXXX.....................",
"...................................................................................................................................................XXXXXXXXXXXXXXXXXXXXXXXXXXXXXXXXX...........................................................................................................................................................................XXXXXXXXXXXX.....................",
"...................................................................................................................................................XXXXXXXXXXXXXXXXXXXXXXXXXXXXXXXXX..................................................................XXXXXXXXXXXXXXXXXXXXXXXXXXXXXXXXXXXXXXX......................................................XXXXXXXXXXXXXXXXXXXXXXXX.....................",
"...................................................................................................................................................XXXXXXXXXXXXXXXXXXXXXXXXXXXXXXXXX..................................................................XXXXXXXXXXXXXXXXXXXXXXXXXXXXXXXXXXXXXXX......................................................XXXXXXXXXXXXXXXXXXXXXXXX.....................",
"...................................................................................................................................................XXXXXXXXXXXXXXXXXXXXXXXXXXXXXXXXX..................................................................XXXXXXXXXXXXXXXXXXXXXXXXXXXXXXXXXXXXXXX......................................................XXXXXXXXXXXXXXXXXXXXXXXX.....................",
"...................................................................................................................................................XXXXXXXXXXXXXXXXXXXXXXXXXXXXXXXXX..................................................................XXXXXXXXXXXXXXXXXXXXXXXXXXXXXXXXXXXXXXX......................................................XXXXXXXXXXXX.................................",
"...................................................................................................................................................XXXXXXXXXXXXXXXXXXXXXXXXXXXXXXXXX..................................................................XXXXXXXXXXXXXXXXXXXXXXXXXXXXXXXXXXXXXXX......................................................XXXXXXXXXXXX.................................",
"...................................................................................................................................................XXXXXXXXXXXXXXXXXXXXXXXXXXXXXXXXX..................................................................XXXXXXXXXXXXXXXXXXXXXXXXXXXXXXXXXXXXXXX......................................................XXXXXXXXXXXX.................................",
"..................................................................................................................XXXXXXXXXXXXXXXXXXXXXXXXXXXXXXXXXXXXXXXXXXXXXXXX....................................................................................XXXXXXXXXXXXXXXXXXXXXXXXXXXXXXXXXXXXXXX......................................................XXXXXXXXXXXX.................................",
"..................................................................................................................XXXXXXXXXXXXXXXXXXXXXXXXXXXXXXXXXXXXXXXXXXXXXXXX....................................................................................XXXXXXXXXXXXXXXXXXXXXXXXXXXXXXXXXXXXXXX......................................................XXXXXXXXXXXX.................................",
"..................................................................................................................XXXXXXXXXXXXXXXXXXXXXXXXXXXXXXXXXXXXXXXXXXXXXXXX....................................................................................XXXXXXXXXXXXXXXXXXXXXXXXXXXXXXXXXXXXXXX......................................................XXXXXXXXXXXX.................................",
"..................................................................................................................XXXXXXXXXXXXXXXXXXXXXXXXXXXXXXXXXXXXXXXXXXXXXXXX....................................................................................XXXXXXXXXXXXXXXXXXXXXXXXXXXXXXXXXXXXXXX......................................................XXXXXXXXXXXX.................................",
"..................................................................................................................XXXXXXXXXXXXXXXXXXXXXXXXXXXXXXXXXXXXXXXXXXXXXXXX....................................................................................XXXXXXXXXXXXXXXXXXXXXXXXXXXXXXXXXXXXXXX......................................................XXXXXXXXXXXX.................................",
"..................................................................................................................XXXXXXXXXXXXXXXXXXXXXXXXXXXXXXXXXXXXXXXXXXXXXXXX....................................................................................XXXXXXXXXXXXXXXXXXXXXXXXXXXXXXXXXXXXXXX......................................................XXXXXXXXXXXX.................................",
"..................................................................................................................XXXXXXXXXXXXXXXXXXXXXXXXXXXXXXXXXXXXXXXXXXXXXXXX..............................................................................................................................................................................................................................",
"..................................................................................................................XXXXXXXXXXXXXXXXXXXXXXXXXXXXXXXXXXXXXXXXXXXXXXXX..............................................................................................................................................................................................................................",
"..................................................................................................................XXXXXXXXXXXXXXXXXXXXXXXXXXXXXXXXXXXXXXXXXXXXXXXX..............................................................................................................................................................................................................................",
"..................................................................................................................XXXXXXXXXXXXXXXXXXXXXXXXXXXXXXXXXXXXXXXXXXXXXXXX..............................................................................................................................................................................................................................",
"..................................................................................................................XXXXXXXXXXXXXXXXXXXXXXXXXXXXXXXXXXXXXXXXXXXXXXXX..............................................................................................................................................................................................................................",
"..................................................................................................................XXXXXXXXXXXXXXXXXXXXXXXXXXXXXXXXXXXXXXXXXXXXXXXX..............................................................................................................................................................................................................................",
"                                                                                                                                                                                                                                                                                                                                                                                                ",
"                                                                                                                                                                                                                                                                                                                                                                                                ",
"                                                                                                                                                                                                                                                                                                                                                                                                ",
"                                                                                                                                                                                                                                                                                                                                                                                                ",
"                                                                                                                                                                                                                                                                                                                                                                                                ",
"                                                                                                                                                                                                                                                                                                                                                                                                ",
"................................................................................................................................................................................................................................................................................................................................................................................................",
"................................................................................................................................................................................................................................................................................................................................................................................................",
"................................................................................................................................................................................................................................................................................................................................................................................................",
"................................................................................................................................................................................................................................................................................................................................................................................................",
"................................................................................................................................................................................................................................................................................................................................................................................................",
"................................................................................................................................................................................................................................................................................................................................................................................................",
"................................................................................................................................................................................................................................................................................................................................................................................................",
"................................................................................................................................................................................................................................................................................................................................................................................................",
"................................................................................................................................................................................................................................................................................................................................................................................................",
"...............XXXXXXXXXXXXXXXXXXXXXXXXXXXXXXXXXXXXXXXXXXXXXXXXXXXXXXXXXXXXXXXXXXXXXXXXXXXXXXXXX...........................................................................................................................................................................................................................XXXXXXXXXXXXXXXXXXXXXXXXXXXXXXXXXXXXXXX..............................",
"...............XXXXXXXXXXXXXXXXXXXXXXXXXXXXXXXXXXXXXXXXXXXXXXXXXXXXXXXXXXXXXXXXXXXXXXXXXXXXXXXXX...........................................................................................................................................................................................................................XXXXXXXXXXXXXXXXXXXXXXXXXXXXXXXXXXXXXXX..............................",
"...............XXXXXXXXXXXXXXXXXXXXXXXXXXXXXXXXXXXXXXXXXXXXXXXXXXXXXXXXXXXXXXXXXXXXXXXXXXXXXXXXX...........................................................................................................................................................................................................................XXXXXXXXXXXXXXXXXXXXXXXXXXXXXXXXXXXXXXX..............................",
"...............XXXXXXXXXXXXXXXXXXXXXXXXXXXXXXXXXXXXXXXXXXXXXXXXXXXXXXXXXXXXXXXXXXXXXXXXXXXXXXXXX...........................................................................................................................................................................................................................XXXXXXXXXXXXXXXXXXXXXXXXXXXXXXXXXXXXXXX..............................",
"...............XXXXXXXXXXXXXXXXXXXXXXXXXXXXXXXXXXXXXXXXXXXXXXXXXXXXXXXXXXXXXXXXXXXXXXXXXXXXXXXXX...........................................................................................................................................................................................................................XXXXXXXXXXXXXXXXXXXXXXXXXXXXXXXXXXXXXXX..............................",
"...............XXXXXXXXXXXXXXXXXXXXXXXXXXXXXXXXXXXXXXXXXXXXXXXXXXXXXXXXXXXXXXXXXXXXXXXXXXXXXXXXX...........................................................................................................................................................................................................................XXXXXXXXXXXXXXXXXXXXXXXXXXXXXXXXXXXXXXX..............................",
"...............XXXXXXXXXXXXXXXXXXXXXXXXXXXXXXXXXXXXXXXXXXXXXXXXXXXXXXXXXXXXXXXXXXXXXXXXXXXXXXXXX...........................................................................................................................................................................................................................XXXXXXXXXXXXXXXXXXXXXXXXXXXXXXXXXXXXXXX..............................",
"...............XXXXXXXXXXXXXXXXXXXXXXXXXXXXXXXXXXXXXXXXXXXXXXXXXXXXXXXXXXXXXXXXXXXXXXXXXXXXXXXXX...........................................................................................................................................................................................................................XXXXXXXXXXXXXXXXXXXXXXXXXXXXXXXXXXXXXXX..............................",
"...............XXXXXXXXXXXXXXXXXXXXXXXXXXXXXXXXXXXXXXXXXXXXXXXXXXXXXXXXXXXXXXXXXXXXXXXXXXXXXXXXX...........................................................................................................................................................................................................................XXXXXXXXXXXXXXXXXXXXXXXXXXXXXXXXXXXXXXX..............................",
"...............XXXXXXXXXXXXXXXXXXXXXXXXXXXXXXXXXXXXXXXXXXXXXXXXXXXXXXXXXXXXXXXXXXXXXXXXXXXXXXXXX...........................................................................................................................................................................................................................XXXXXXXXXXXXXXXXXXXXXXXXXXXXXXXXXXXXXXX..............................",
"...............XXXXXXXXXXXXXXXXXXXXXXXXXXXXXXXXXXXXXXXXXXXXXXXXXXXXXXXXXXXXXXXXXXXXXXXXXXXXXXXXX...........................................................................................................................................................................................................................XXXXXXXXXXXXXXXXXXXXXXXXXXXXXXXXXXXXXXX..............................",
"...............XXXXXXXXXXXXXXXXXXXXXXXXXXXXXXXXXXXXXXXXXXXXXXXXXXXXXXXXXXXXXXXXXXXXXXXXXXXXXXXXX...........................................................................................................................................................................................................................XXXXXXXXXXXXXXXXXXXXXXXXXXXXXXXXXXXXXXX..............................",
".........................................................XXXXXXXXXXXXXXXXXXXXXXXXXXXXXXXXXXXXXXXXXXXXXXXXXXXXXXXXXXXXXXXXXXXXXXXX...............................................................................................................................................................................................................................................................",
".........................................................XXXXXXXXXXXXXXXXXXXXXXXXXXXXXXXXXXXXXXXXXXXXXXXXXXXXXXXXXXXXXXXXXXXXXXXX...............................................................................................................................................................................................................................................................",
".........................................................XXXXXXXXXXXXXXXXXXXXXXXXXXXXXXXXXXXXXXXXXXXXXXXXXXXXXXXXXXXXXXXXXXXXXXXX...............................................................................................................................................................................................................................................................",
".........................................................XXXXXXXXXXXXXXXXXXXXXXXXXXXXXXXXXXXXXXXXXXXXXXXXXXXXXXXXXXXXXXXXXXXXXXXX...............................................................................................................................................................................................................................................................",
".........................................................XXXXXXXXXXXXXXXXXXXXXXXXXXXXXXXXXXXXXXXXXXXXXXXXXXXXXXXXXXXXXXXXXXXXXXXX...............................................................................................................................................................................................................................................................",
".........................................................XXXXXXXXXXXXXXXXXXXXXXXXXXXXXXXXXXXXXXXXXXXXXXXXXXXXXXXXXXXXXXXXXXXXXXXX...............................................................................................................................................................................................................................................................",
".........................................................XXXXXXXXXXXXXXXXXXXXXXXXXXXXXXXXXXXXXXXXXXXXXXXXXXXXXXXXXXXXXXXXXXXXXXXX...............................................................................................................................................................................................................................................................",
".........................................................XXXXXXXXXXXXXXXXXXXXXXXXXXXXXXXXXXXXXXXXXXXXXXXXXXXXXXXXXXXXXXXXXXXXXXXX...............................................................................................................................................................................................................................................................",
".........................................................XXXXXXXXXXXXXXXXXXXXXXXXXXXXXXXXXXXXXXXXXXXXXXXXXXXXXXXXXXXXXXXXXXXXXXXX...............................................................................................................................................................................................................................................................",
".........................................................XXXXXXXXXXXXXXXXXXXXXXXXXXXXXXXXXXXXXXXXXXXXXXXXXXXXXXXXXXXXXXXXXXXXXXXX...............................................................................................................................................................................................................................................................",
".........................................................XXXXXXXXXXXXXXXXXXXXXXXXXXXXXXXXXXXXXXXXXXXXXXXXXXXXXXXXXXXXXXXXXXXXXXXX...............................................................................................................................................................................................................................................................",
".........................................................XXXXXXXXXXXXXXXXXXXXXXXXXXXXXXXXXXXXXXXXXXXXXXXXXXXXXXXXXXXXXXXXXXXXXXXX...............................................................................................................................................................................................................................................................",
"................................................................................................................................................................................................................................................XXXXXXXXXXXXXXXXXXXXXXXXXXXXXXXXXXXXXXXXXXXXXXXXXXXXXXXXX.......................................................................................",
"................................................................................................................................................................................................................................................XXXXXXXXXXXXXXXXXXXXXXXXXXXXXXXXXXXXXXXXXXXXXXXXXXXXXXXXX.......................................................................................",
"................................................................................................................................................................................................................................................XXXXXXXXXXXXXXXXXXXXXXXXXXXXXXXXXXXXXXXXXXXXXXXXXXXXXXXXX.......................................................................................",
"................................................................................................................................................................................................................................................XXXXXXXXXXXXXXXXXXXXXXXXXXXXXXXXXXXXXXXXXXXXXXXXXXXXXXXXX.......................................................................................",
"................................................................................................................................................................................................................................................XXXXXXXXXXXXXXXXXXXXXXXXXXXXXXXXXXXXXXXXXXXXXXXXXXXXXXXXX.......................................................................................",
"................................................................................................................................................................................................................................................XXXXXXXXXXXXXXXXXXXXXXXXXXXXXXXXXXXXXXXXXXXXXXXXXXXXXXXXX.......................................................................................",
"................................................................................................................................................................................................................................................XXXXXXXXXXXXXXXXXXXXXXXXXXXXXXXXXXXXXXXXXXXXXXXXXXXXXXXXX.......................................................................................",
"................................................................................................................................................................................................................................................XXXXXXXXXXXXXXXXXXXXXXXXXXXXXXXXXXXXXXXXXXXXXXXXXXXXXXXXX.......................................................................................",
"................................................................................................................................................................................................................................................XXXXXXXXXXXXXXXXXXXXXXXXXXXXXXXXXXXXXXXXXXXXXXXXXXXXXXXXX.......................................................................................",
"................................................................................................................................................................................................................................................XXXXXXXXXXXXXXXXXXXXXXXXXXXXXXXXXXXXXXXXXXXXXXXXXXXXXXXXX.......................................................................................",
"................................................................................................................................................................................................................................................XXXXXXXXXXXXXXXXXXXXXXXXXXXXXXXXXXXXXXXXXXXXXXXXXXXXXXXXX.......................................................................................",
"................................................................................................................................................................................................................................................XXXXXXXXXXXXXXXXXXXXXXXXXXXXXXXXXXXXXXXXXXXXXXXXXXXXXXXXX.......................................................................................",
"................................................................................................................................................................................................XXXXXXXXXXXXXXXXXXXXXXXXXXXXXXXXXXXXXXXXXXXXXXXXXXXXXXXXXXXXXXXXXXXXX...........................................................................................................................",
"................................................................................................................................................................................................XXXXXXXXXXXXXXXXXXXXXXXXXXXXXXXXXXXXXXXXXXXXXXXXXXXXXXXXXXXXXXXXXXXXX...........................................................................................................................",
"................................................................................................................................................................................................XXXXXXXXXXXXXXXXXXXXXXXXXXXXXXXXXXXXXXXXXXXXXXXXXXXXXXXXXXXXXXXXXXXXX...........................................................................................................................",
"................................................................................................................................................................................................XXXXXXXXXXXXXXXXXXXXXXXXXXXXXXXXXXXXXXXXXXXXXXXXXXXXXXXXXXXXXXXXXXXXX...........................................................................................................................",
"................................................................................................................................................................................................XXXXXXXXXXXXXXXXXXXXXXXXXXXXXXXXXXXXXXXXXXXXXXXXXXXXXXXXXXXXXXXXXXXXX...........................................................................................................................",
"................................................................................................................................................................................................XXXXXXXXXXXXXXXXXXXXXXXXXXXXXXXXXXXXXXXXXXXXXXXXXXXXXXXXXXXXXXXXXXXXX...........................................................................................................................",
"................................................................................................................................................................................................XXXXXXXXXXXXXXXXXXXXXXXXXXXXXXXXXXXXXXXXXXXXXXXXXXXXXXXXXXXXXXXXXXXXX...........................................................................................................................",
"................................................................................................................................................................................................XXXXXXXXXXXXXXXXXXXXXXXXXXXXXXXXXXXXXXXXXXXXXXXXXXXXXXXXXXXXXXXXXXXXX...........................................................................................................................",
"................................................................................................................................................................................................XXXXXXXXXXXXXXXXXXXXXXXXXXXXXXXXXXXXXXXXXXXXXXXXXXXXXXXXXXXXXXXXXXXXX...........................................................................................................................",
"................................................................................................................................................................................................XXXXXXXXXXXXXXXXXXXXXXXXXXXXXXXXXXXXXXXXXXXXXXXXXXXXXXXXXXXXXXXXXXXXX...........................................................................................................................",
"................................................................................................................................................................................................XXXXXXXXXXXXXXXXXXXXXXXXXXXXXXXXXXXXXXXXXXXXXXXXXXXXXXXXXXXXXXXXXXXXX...........................................................................................................................",
"................................................................................................................................................................................................XXXXXXXXXXXXXXXXXXXXXXXXXXXXXXXXXXXXXXXXXXXXXXXXXXXXXXXXXXXXXXXXXXXXX...........................................................................................................................",
"................................................................................................................................................................................................................................................................................................................................................................................................",
"................................................................................................................................................................................................................................................................................................................................................................................................",
"................................................................................................................................................................................................................................................................................................................................................................................................",
"................................................................................................................................................................................................................................................................................................................................................................................................",
"................................................................................................................................................................................................................................................................................................................................................................................................",
"................................................................................................................................................................................................................................................................................................................................................................................................",
"                                                                                                                                                                                                                                                                                                                                                                                                ",
"                                                                                                                                                                                                                                                                                                                                                                                                ",
"                                                                                                                                                                                                                                                                                                                                                                                                ",
"                                                                                                                                                                                                                                                                                                                                                                                                ",
"                                                                                                                                                                                                                                                                                                                                                                                                ",
"                                                                                                                                                                                                                                                                                                                                                                                                ",
"....................................................................................................................................................................................................................................XXXXXXXXXXXXXXXXXXXXXXXXXXXXXXXXXXXXXXXXXXXXXXXXXXXXXXXXX...................................................................................................",
"....................................................................................................................................................................................................................................XXXXXXXXXXXXXXXXXXXXXXXXXXXXXXXXXXXXXXXXXXXXXXXXXXXXXXXXX...................................................................................................",
"....................................................................................................................................................................................................................................XXXXXXXXXXXXXXXXXXXXXXXXXXXXXXXXXXXXXXXXXXXXXXXXXXXXXXXXX...................................................................................................",
"....................................................................................................................................................................................................................................XXXXXXXXXXXXXXXXXXXXXXXXXXXXXXXXXXXXXXXXXXXXXXXXXXXXXXXXX...................................................................................................",
"....................................................................................................................................................................................................................................XXXXXXXXXXXXXXXXXXXXXXXXXXXXXXXXXXXXXXXXXXXXXXXXXXXXXXXXX...................................................................................................",
"....................................................................................................................................................................................................................................XXXXXXXXXXXXXXXXXXXXXXXXXXXXXXXXXXXXXXXXXXXXXXXXXXXXXXXXX...................................................................................................",
"....................................................................................................................................................................................................................................XXXXXXXXXXXXXXXXXXXXXXXXXXXXXXXXXXXXXXXXXXXXXXXXXXXXXXXXX...................................................................................................",
"....................................................................................................................................................................................................................................XXXXXXXXXXXXXXXXXXXXXXXXXXXXXXXXXXXXXXXXXXXXXXXXXXXXXXXXX...................................................................................................",
"....................................................................................................................................................................................................................................XXXXXXXXXXXXXXXXXXXXXXXXXXXXXXXXXXXXXXXXXXXXXXXXXXXXXXXXX...................................................................................................",
"....................................................................................................................................................................................................................................XXXXXXXXXXXXXXXXXXXXXXXXXXXXXXXXXXXXXXXXXXXXXXXXXXXXXXXXX...................................................................................................",
"....................................................................................................................................................................................................................................XXXXXXXXXXXXXXXXXXXXXXXXXXXXXXXXXXXXXXXXXXXXXXXXXXXXXXXXX...................................................................................................",
"....................................................................................................................................................................................................................................XXXXXXXXXXXXXXXXXXXXXXXXXXXXXXXXXXXXXXXXXXXXXXXXXXXXXXXXX...................................................................................................",
".........................................................................................................................................................................................................................................................XXXXXXXXXXXXXXXXXXXXXXXX...............................................................................................................",
".........................................................................................................................................................................................................................................................XXXXXXXXXXXXXXXXXXXXXXXX...............................................................................................................",
".........................................................................................................................................................................................................................................................XXXXXXXXXXXXXXXXXXXXXXXX...............................................................................................................",
".........................................................................................................................................................................................................................................................XXXXXXXXXXXXXXXXXXXXXXXX...............................................................................................................",
".........................................................................................................................................................................................................................................................XXXXXXXXXXXXXXXXXXXXXXXX...............................................................................................................",
".........................................................................................................................................................................................................................................................XXXXXXXXXXXXXXXXXXXXXXXX...............................................................................................................",
".........................................................................................................................................................................................................................................................XXXXXXXXXXXXXXXXXXXXXXXX...............................................................................................................",
".........................................................................................................................................................................................................................................................XXXXXXXXXXXXXXXXXXXXXXXX...............................................................................................................",
".........................................................................................................................................................................................................................................................XXXXXXXXXXXXXXXXXXXXXXXX...............................................................................................................",
"........................XXXXXXXXXXXXXXXXXXXXXXXXXXXXXXXXXXXXXXXXXXXXXXXXXXXXXXXXXXXXXXXXXX...............................................................................................................................................................XXXXXXXXXXXXXXXXXXXXXXXX...............................................................................................................",
"........................XXXXXXXXXXXXXXXXXXXXXXXXXXXXXXXXXXXXXXXXXXXXXXXXXXXXXXXXXXXXXXXXXX...............................................................................................................................................................XXXXXXXXXXXXXXXXXXXXXXXX...............................................................................................................",
"........................XXXXXXXXXXXXXXXXXXXXXXXXXXXXXXXXXXXXXXXXXXXXXXXXXXXXXXXXXXXXXXXXXX...............................................................................................................................................................XXXXXXXXXXXXXXXXXXXXXXXX...............................................................................................................",
"........................XXXXXXXXXXXXXXXXXXXXXXXXXXXXXXXXXXXXXXXXXXXXXXXXXXXXXXXXXXXXXXXXXX....................................................................................................................................................................................................................................XXXXXXXXXXXXXXXXXXXXXXXXXXXXXXXXXXXXXXX...........................",
"........................XXXXXXXXXXXXXXXXXXXXXXXXXXXXXXXXXXXXXXXXXXXXXXXXXXXXXXXXXXXXXXXXXX....................................................................................................................................................................................................................................XXXXXXXXXXXXXXXXXXXXXXXXXXXXXXXXXXXXXXX...........................",
"........................XXXXXXXXXXXXXXXXXXXXXXXXXXXXXXXXXXXXXXXXXXXXXXXXXXXXXXXXXXXXXXXXXX....................................................................................................................................................................................................................................XXXXXXXXXXXXXXXXXXXXXXXXXXXXXXXXXXXXXXX...........................",
"........................XXXXXXXXXXXXXXXXXXXXXXXXXXXXXXXXXXXXXXXXXXXXXXXXXXXXXXXXXXXXXXXXXX....................................................................................................................................................................................................................................XXXXXXXXXXXXXXXXXXXXXXXXXXXXXXXXXXXXXXX...........................",
"........................XXXXXXXXXXXXXXXXXXXXXXXXXXXXXXXXXXXXXXXXXXXXXXXXXXXXXXXXXXXXXXXXXX....................................................................................................................................................................................................................................XXXXXXXXXXXXXXXXXXXXXXXXXXXXXXXXXXXXXXX...........................",
"........................XXXXXXXXXXXXXXXXXXXXXXXXXXXXXXXXXXXXXXXXXXXXXXXXXXXXXXXXXXXXXXXXXX....................................................................................................................................................................................................................................XXXXXXXXXXXXXXXXXXXXXXXXXXXXXXXXXXXXXXX...........................",
"........................XXXXXXXXXXXXXXXXXXXXXXXXXXXXXXXXXXXXXXXXXXXXXXXXXXXXXXXXXXXXXXXXXX....................................................................................................................................................................................................................................XXXXXXXXXXXXXXXXXXXXXXXXXXXXXXXXXXXXXXX...........................",
"........................XXXXXXXXXXXXXXXXXXXXXXXXXXXXXXXXXXXXXXXXXXXXXXXXXXXXXXXXXXXXXXXXXX....................................................................................................................................................................................................................................XXXXXXXXXXXXXXXXXXXXXXXXXXXXXXXXXXXXXXX...........................",
"........................XXXXXXXXXXXXXXXXXXXXXXXXXXXXXXXXXXXXXXXXXXXXXXXXXXXXXXXXXXXXXXXXXX....................................................................................................................................................................................................................................XXXXXXXXXXXXXXXXXXXXXXXXXXXXXXXXXXXXXXX...........................",
"......................................................XXXXXXXXXXXXXXXXXXXXXXXXXXXXXXXXXXXXXXXXXXXXXXXXXXXXXXXXXXXXXXX.........................................................................................................................................................................................................XXXXXXXXXXXXXXXXXXXXXXXXXXXXXXXXXXXXXXX...........................",
"......................................................XXXXXXXXXXXXXXXXXXXXXXXXXXXXXXXXXXXXXXXXXXXXXXXXXXXXXXXXXXXXXXX.........................................................................................................................................................................................................XXXXXXXXXXXXXXXXXXXXXXXXXXXXXXXXXXXXXXX...........................",
"......................................................XXXXXXXXXXXXXXXXXXXXXXXXXXXXXXXXXXXXXXXXXXXXXXXXXXXXXXXXXXXXXXX.........................................................................................................................................................................................................XXXXXXXXXXXXXXXXXXXXXXXXXXXXXXXXXXXXXXX...........................",
"......................................................XXXXXXXXXXXXXXXXXXXXXXXXXXXXXXXXXXXXXXXXXXXXXXXXXXXXXXXXXXXXXXX...........................................................................................................................................................................XXXXXXXXXXXXXXXXXXXXXXXXXXXXXXXXXXXXXXXXXXXXX...................................................",
"......................................................XXXXXXXXXXXXXXXXXXXXXXXXXXXXXXXXXXXXXXXXXXXXXXXXXXXXXXXXXXXXXXX...........................................................................................................................................................................XXXXXXXXXXXXXXXXXXXXXXXXXXXXXXXXXXXXXXXXXXXXX...................................................",
"......................................................XXXXXXXXXXXXXXXXXXXXXXXXXXXXXXXXXXXXXXXXXXXXXXXXXXXXXXXXXXXXXXX...........................................................................................................................................................................XXXXXXXXXXXXXXXXXXXXXXXXXXXXXXXXXXXXXXXXXXXXX...................................................",
"......................................................XXXXXXXXXXXXXXXXXXXXXXXXXXXXXXXXXXXXXXXXXXXXXXXXXXXXXXXXXXXXXXX...........................................................................................................................................................................XXXXXXXXXXXXXXXXXXXXXXXXXXXXXXXXXXXXXXXXXXXXX...................................................",
"......................................................XXXXXXXXXXXXXXXXXXXXXXXXXXXXXXXXXXXXXXXXXXXXXXXXXXXXXXXXXXXXXXX...........................................................................................................................................................................XXXXXXXXXXXXXXXXXXXXXXXXXXXXXXXXXXXXXXXXXXXXX...................................................",
"......................................................XXXXXXXXXXXXXXXXXXXXXXXXXXXXXXXXXXXXXXXXXXXXXXXXXXXXXXXXXXXXXXX...........................................................................................................................................................................XXXXXXXXXXXXXXXXXXXXXXXXXXXXXXXXXXXXXXXXXXXXX...................................................",
"......................................................XXXXXXXXXXXXXXXXXXXXXXXXXXXXXXXXXXXXXXXXXXXXXXXXXXXXXXXXXXXXXXX...........................................................................................................................................................................XXXXXXXXXXXXXXXXXXXXXXXXXXXXXXXXXXXXXXXXXXXXX...................................................",
"......................................................XXXXXXXXXXXXXXXXXXXXXXXXXXXXXXXXXXXXXXXXXXXXXXXXXXXXXXXXXXXXXXX...........................................................................................................................................................................XXXXXXXXXXXXXXXXXXXXXXXXXXXXXXXXXXXXXXXXXXXXX...................................................",
"......................................................XXXXXXXXXXXXXXXXXXXXXXXXXXXXXXXXXXXXXXXXXXXXXXXXXXXXXXXXXXXXXXX...........................................................................................................................................................................XXXXXXXXXXXXXXXXXXXXXXXXXXXXXXXXXXXXXXXXXXXXX...................................................",
"................................................................................................................................................................................................................................................................................................XXXXXXXXXXXXXXXXXXXXXXXXXXXXXXXXXXXXXXXXXXXXX...................................................",
"................................................................................................................................................................................................................................................................................................XXXXXXXXXXXXXXXXXXXXXXXXXXXXXXXXXXXXXXXXXXXXX...................................................",
"................................................................................................................................................................................................................................................................................................XXXXXXXXXXXXXXXXXXXXXXXXXXXXXXXXXXXXXXXXXXXXX...................................................",
"...........................................................................................................................................................................XXXXXXXXXXXXXXXXXXXXXXXXXXXXXXXXXXXXXXXXXXXXXXXXXXXXXXXXXXXXXXXXXXXXXXXXXXXXXXXXXXXXXXX..............................................................................................................................",
"...........................................................................................................................................................................XXXXXXXXXXXXXXXXXXXXXXXXXXXXXXXXXXXXXXXXXXXXXXXXXXXXXXXXXXXXXXXXXXXXXXXXXXXXXXXXXXXXXXX..............................................................................................................................",
"...........................................................................................................................................................................XXXXXXXXXXXXXXXXXXXXXXXXXXXXXXXXXXXXXXXXXXXXXXXXXXXXXXXXXXXXXXXXXXXXXXXXXXXXXXXXXXXXXXX..............................................................................................................................",
"...........................................................................................................................................................................XXXXXXXXXXXXXXXXXXXXXXXXXXXXXXXXXXXXXXXXXXXXXXXXXXXXXXXXXXXXXXXXXXXXXXXXXXXXXXXXXXXXXXX..............................................................................................................................",
"...........................................................................................................................................................................XXXXXXXXXXXXXXXXXXXXXXXXXXXXXXXXXXXXXXXXXXXXXXXXXXXXXXXXXXXXXXXXXXXXXXXXXXXXXXXXXXXXXXX..............................................................................................................................",
"...........................................................................................................................................................................XXXXXXXXXXXXXXXXXXXXXXXXXXXXXXXXXXXXXXXXXXXXXXXXXXXXXXXXXXXXXXXXXXXXXXXXXXXXXXXXXXXXXXX..............................................................................................................................",
"...........................................................................................................................................................................XXXXXXXXXXXXXXXXXXXXXXXXXXXXXXXXXXXXXXXXXXXXXXXXXXXXXXXXXXXXXXXXXXXXXXXXXXXXXXXXXXXXXXX..............................................................................................................................",
"...........................................................................................................................................................................XXXXXXXXXXXXXXXXXXXXXXXXXXXXXXXXXXXXXXXXXXXXXXXXXXXXXXXXXXXXXXXXXXXXXXXXXXXXXXXXXXXXXXX..............................................................................................................................",
"...........................................................................................................................................................................XXXXXXXXXXXXXXXXXXXXXXXXXXXXXXXXXXXXXXXXXXXXXXXXXXXXXXXXXXXXXXXXXXXXXXXXXXXXXXXXXXXXXXX..............................................................................................................................",
"...........................................................................................................................................................................XXXXXXXXXXXXXXXXXXXXXXXXXXXXXXXXXXXXXXXXXXXXXXXXXXXXXXXXXXXXXXXXXXXXXXXXXXXXXXXXXXXXXXX..............................................................................................................................",
"...........................................................................................................................................................................XXXXXXXXXXXXXXXXXXXXXXXXXXXXXXXXXXXXXXXXXXXXXXXXXXXXXXXXXXXXXXXXXXXXXXXXXXXXXXXXXXXXXXX..............................................................................................................................",
"...........................................................................................................................................................................XXXXXXXXXXXXXXXXXXXXXXXXXXXXXXXXXXXXXXXXXXXXXXXXXXXXXXXXXXXXXXXXXXXXXXXXXXXXXXXXXXXXXXX..............................................................................................................................",
"                                                                                                                                                                                                                                                                                                                                                                                                ",
"                                                                                                                                                                                                                                                                                                                                                                                                ",
"                                                                                                                                                                                                                                                                                                                                                                                                ",
"                                                                                                                                                                                                                                                                                                                                                                                                ",
"                                                                                                                                                                                                                                                                                                                                                                                                ",
"                                                                                                                                                                                                                                                                                                                                                                                                ",
"................................................................................................................................................................................................................................................................................................................................................................................................",
"................................................................................................................................................................................................................................................................................................................................................................................................",
"................................................................................................................................................................................................................................................................................................................................................................................................",
"...........................................................................................................................................................................XXXXXXXXXXXXXXXXXXXXXXXXXXXXXXXXXXXXXXXXXXXXX........................................................................................................................................................................",
"...........................................................................................................................................................................XXXXXXXXXXXXXXXXXXXXXXXXXXXXXXXXXXXXXXXXXXXXX........................................................................................................................................................................",
"...........................................................................................................................................................................XXXXXXXXXXXXXXXXXXXXXXXXXXXXXXXXXXXXXXXXXXXXX........................................................................................................................................................................",
"...........................................................................................................................................................................XXXXXXXXXXXXXXXXXXXXXXXXXXXXXXXXXXXXXXXXXXXXX........................................................................................................................................................................",
"...........................................................................................................................................................................XXXXXXXXXXXXXXXXXXXXXXXXXXXXXXXXXXXXXXXXXXXXX........................................................................................................................................................................",
"...........................................................................................................................................................................XXXXXXXXXXXXXXXXXXXXXXXXXXXXXXXXXXXXXXXXXXXXX........................................................................................................................................................................",
"...........................................................................................................................................................................XXXXXXXXXXXXXXXXXXXXXXXXXXXXXXXXXXXXXXXXXXXXX........................................................................................................................................................................",
"...........................................................................................................................................................................XXXXXXXXXXXXXXXXXXXXXXXXXXXXXXXXXXXXXXXXXXXXX........................................................................................................................................................................",
"...........................................................................................................................................................................XXXXXXXXXXXXXXXXXXXXXXXXXXXXXXXXXXXXXXXXXXXXX........................................................................................................................................................................",
"...........................................................................................................................................................................XXXXXXXXXXXXXXXXXXXXXXXXXXXXXXXXXXXXXXXXXXXXX........................................................................................................................................................................",
"...........................................................................................................................................................................XXXXXXXXXXXXXXXXXXXXXXXXXXXXXXXXXXXXXXXXXXXXX........................................................................................................................................................................",
"...........................................................................................................................................................................XXXXXXXXXXXXXXXXXXXXXXXXXXXXXXXXXXXXXXXXXXXXX........................................................................................................................................................................",
".......................................................................................................................................XXXXXXXXXXXXXXXXXXXXXXXXXXXXXXXXXXXXXXXXXXXXXXXXXXX.........................................................XXXXXXXXXXXXXXXXXXXXXXXXXXX.........................................................XXXXXXXXXXXXXXXXXXXXXXXXXXXXXXXXXXXXXXXXXX...............",
".......................................................................................................................................XXXXXXXXXXXXXXXXXXXXXXXXXXXXXXXXXXXXXXXXXXXXXXXXXXX.........................................................XXXXXXXXXXXXXXXXXXXXXXXXXXX.........................................................XXXXXXXXXXXXXXXXXXXXXXXXXXXXXXXXXXXXXXXXXX...............",
".......................................................................................................................................XXXXXXXXXXXXXXXXXXXXXXXXXXXXXXXXXXXXXXXXXXXXXXXXXXX.........................................................XXXXXXXXXXXXXXXXXXXXXXXXXXX.........................................................XXXXXXXXXXXXXXXXXXXXXXXXXXXXXXXXXXXXXXXXXX...............",
"......XXXXXXXXXXXXXXXXXXXXXXXXXXXXXXXXXXXXXXXXXXXXXXXXXXXXXXXXXXXXXXXXXXXXXXXXXXXXXX...................................................XXXXXXXXXXXXXXXXXXXXXXXXXXXXXXXXXXXXXXXXXXXXXXXXXXX.........................................................XXXXXXXXXXXXXXXXXXXXXXXXXXX.........................................................XXXXXXXXXXXXXXXXXXXXXXXXXXXXXXXXXXXXXXXXXX...............",
"......XXXXXXXXXXXXXXXXXXXXXXXXXXXXXXXXXXXXXXXXXXXXXXXXXXXXXXXXXXXXXXXXXXXXXXXXXXXXXX...................................................XXXXXXXXXXXXXXXXXXXXXXXXXXXXXXXXXXXXXXXXXXXXXXXXXXX.........................................................XXXXXXXXXXXXXXXXXXXXXXXXXXX.........................................................XXXXXXXXXXXXXXXXXXXXXXXXXXXXXXXXXXXXXXXXXX...............",
"......XXXXXXXXXXXXXXXXXXXXXXXXXXXXXXXXXXXXXXXXXXXXXXXXXXXXXXXXXXXXXXXXXXXXXXXXXXXXXX...................................................XXXXXXXXXXXXXXXXXXXXXXXXXXXXXXXXXXXXXXXXXXXXXXXXXXX.........................................................XXXXXXXXXXXXXXXXXXXXXXXXXXX.........................................................XXXXXXXXXXXXXXXXXXXXXXXXXXXXXXXXXXXXXXXXXX...............",
"......XXXXXXXXXXXXXXXXXXXXXXXXXXXXXXXXXXXXXXXXXXXXXXXXXXXXXXXXXXXXXXXXXXXXXXXXXXXXXX...................................................XXXXXXXXXXXXXXXXXXXXXXXXXXXXXXXXXXXXXXXXXXXXXXXXXXX.........................................................XXXXXXXXXXXXXXXXXXXXXXXXXXX.........................................................XXXXXXXXXXXXXXXXXXXXXXXXXXXXXXXXXXXXXXXXXX...............",
"......XXXXXXXXXXXXXXXXXXXXXXXXXXXXXXXXXXXXXXXXXXXXXXXXXXXXXXXXXXXXXXXXXXXXXXXXXXXXXX...................................................XXXXXXXXXXXXXXXXXXXXXXXXXXXXXXXXXXXXXXXXXXXXXXXXXXX.........................................................XXXXXXXXXXXXXXXXXXXXXXXXXXX.........................................................XXXXXXXXXXXXXXXXXXXXXXXXXXXXXXXXXXXXXXXXXX...............",
"......XXXXXXXXXXXXXXXXXXXXXXXXXXXXXXXXXXXXXXXXXXXXXXXXXXXXXXXXXXXXXXXXXXXXXXXXXXXXXX...................................................XXXXXXXXXXXXXXXXXXXXXXXXXXXXXXXXXXXXXXXXXXXXXXXXXXX.........................................................XXXXXXXXXXXXXXXXXXXXXXXXXXX.........................................................XXXXXXXXXXXXXXXXXXXXXXXXXXXXXXXXXXXXXXXXXX...............",
"......XXXXXXXXXXXXXXXXXXXXXXXXXXXXXXXXXXXXXXXXXXXXXXXXXXXXXXXXXXXXXXXXXXXXXXXXXXXXXX...................................................XXXXXXXXXXXXXXXXXXXXXXXXXXXXXXXXXXXXXXXXXXXXXXXXXXX.........................................................XXXXXXXXXXXXXXXXXXXXXXXXXXX.........................................................XXXXXXXXXXXXXXXXXXXXXXXXXXXXXXXXXXXXXXXXXX...............",
"......XXXXXXXXXXXXXXXXXXXXXXXXXXXXXXXXXXXXXXXXXXXXXXXXXXXXXXXXXXXXXXXXXXXXXXXXXXXXXX...................................................XXXXXXXXXXXXXXXXXXXXXXXXXXXXXXXXXXXXXXXXXXXXXXXXXXX.........................................................XXXXXXXXXXXXXXXXXXXXXXXXXXX.........................................................XXXXXXXXXXXXXXXXXXXXXXXXXXXXXXXXXXXXXXXXXX...............",
"......XXXXXXXXXXXXXXXXXXXXXXXXXXXXXXXXXXXXXXXXXXXXXXXXXXXXXXXXXXXXXXXXXXXXXXXXXXXXXX...................................................XXXXXXXXXXXXXXXXXXXXXXXXXXXXXXXXXXXXXXXXXXXXXXXXXXX.........................................................XXXXXXXXXXXXXXXXXXXXXXXXXXX.........................................................XXXXXXXXXXXXXXXXXXXXXXXXXXXXXXXXXXXXXXXXXX...............",
"......XXXXXXXXXXXXXXXXXXXXXXXXXXXXXXXXXXXXXXXXXXXXXXXXXXXXXXXXXXXXXXXXXXXXXXXXXXXXXX...........................................................................................................................................................................XXXXXXXXXXXXXXXXXXXXXXXXXXXXXXXXXXXXXXX.........................................................XXXXXXXXXXXXXXXXXXXXXXXX.........",
"......XXXXXXXXXXXXXXXXXXXXXXXXXXXXXXXXXXXXXXXXXXXXXXXXXXXXXXXXXXXXXXXXXXXXXXXXXXXXXX...........................................................................................................................................................................XXXXXXXXXXXXXXXXXXXXXXXXXXXXXXXXXXXXXXX.........................................................XXXXXXXXXXXXXXXXXXXXXXXX.........",
"......XXXXXXXXXXXXXXXXXXXXXXXXXXXXXXXXXXXXXXXXXXXXXXXXXXXXXXXXXXXXXXXXXXXXXXXXXXXXXX...........................................................................................................................................................................XXXXXXXXXXXXXXXXXXXXXXXXXXXXXXXXXXXXXXX.........................................................XXXXXXXXXXXXXXXXXXXXXXXX.........",
"...................................................XXXXXXXXXXXXXXXXXXXXXXXXXXXXXXXXX...........................................................................................................................................................................XXXXXXXXXXXXXXXXXXXXXXXXXXXXXXXXXXXXXXX.........................................................XXXXXXXXXXXXXXXXXXXXXXXX.........",
"...................................................XXXXXXXXXXXXXXXXXXXXXXXXXXXXXXXXX...........................................................................................................................................................................XXXXXXXXXXXXXXXXXXXXXXXXXXXXXXXXXXXXXXX.........................................................XXXXXXXXXXXXXXXXXXXXXXXX.........",
"...................................................XXXXXXXXXXXXXXXXXXXXXXXXXXXXXXXXX...........................................................................................................................................................................XXXXXXXXXXXXXXXXXXXXXXXXXXXXXXXXXXXXXXX.........................................................XXXXXXXXXXXXXXXXXXXXXXXX.........",
"...................................................XXXXXXXXXXXXXXXXXXXXXXXXXXXXXXXXX...........................................................................................................................................................................XXXXXXXXXXXXXXXXXXXXXXXXXXXXXXXXXXXXXXX.........................................................XXXXXXXXXXXXXXXXXXXXXXXX.........",
"...................................................XXXXXXXXXXXXXXXXXXXXXXXXXXXXXXXXX...........................................................................................................................................................................XXXXXXXXXXXXXXXXXXXXXXXXXXXXXXXXXXXXXXX.........................................................XXXXXXXXXXXXXXXXXXXXXXXX.........",
"...................................................XXXXXXXXXXXXXXXXXXXXXXXXXXXXXXXXX...........................................................................................................................................................................XXXXXXXXXXXXXXXXXXXXXXXXXXXXXXXXXXXXXXX.........................................................XXXXXXXXXXXXXXXXXXXXXXXX.........",
"...................................................XXXXXXXXXXXXXXXXXXXXXXXXXXXXXXXXX...........................................................................................................................................................................XXXXXXXXXXXXXXXXXXXXXXXXXXXXXXXXXXXXXXX.........................................................XXXXXXXXXXXXXXXXXXXXXXXX.........",
"...................................................XXXXXXXXXXXXXXXXXXXXXXXXXXXXXXXXX...........................................................................................................................................................................XXXXXXXXXXXXXXXXXXXXXXXXXXXXXXXXXXXXXXX.........................................................XXXXXXXXXXXXXXXXXXXXXXXX.........",
"...................................................XXXXXXXXXXXXXXXXXXXXXXXXXXXXXXXXX...........................................................................................................................................................................XXXXXXXXXXXXXXXXXXXXXXXXXXXXXXXXXXXXXXX.........................................................XXXXXXXXXXXXXXXXXXXXXXXX.........",
"...................................................XXXXXXXXXXXXXXXXXXXXXXXXXXXXXXXXX......................................................................................................................................................................................................XXXXXXXXXXXXXXXXXXXXXXXXXXX...........................................................................",
"...................................................XXXXXXXXXXXXXXXXXXXXXXXXXXXXXXXXX......................................................................................................................................................................................................XXXXXXXXXXXXXXXXXXXXXXXXXXX...........................................................................",
"...................................................XXXXXXXXXXXXXXXXXXXXXXXXXXXXXXXXX......................................................................................................................................................................................................XXXXXXXXXXXXXXXXXXXXXXXXXXX...........................................................................",
"...................................................XXXXXXXXXXXXXXXXXXXXXXXXXXXXXXXXXXXXXXXXXXXXXXXXXXXXXXXXXXXXXXXXXXXXXXXXXXX............................................................................................................................................................XXXXXXXXXXXXXXXXXXXXXXXXXXX...........................................................................",
"...................................................XXXXXXXXXXXXXXXXXXXXXXXXXXXXXXXXXXXXXXXXXXXXXXXXXXXXXXXXXXXXXXXXXXXXXXXXXXX............................................................................................................................................................XXXXXXXXXXXXXXXXXXXXXXXXXXX...........................................................................",
"...................................................XXXXXXXXXXXXXXXXXXXXXXXXXXXXXXXXXXXXXXXXXXXXXXXXXXXXXXXXXXXXXXXXXXXXXXXXXXX............................................................................................................................................................XXXXXXXXXXXXXXXXXXXXXXXXXXX...........................................................................",
"...................................................XXXXXXXXXXXXXXXXXXXXXXXXXXXXXXXXXXXXXXXXXXXXXXXXXXXXXXXXXXXXXXXXXXXXXXXXXXX............................................................................................................................................................XXXXXXXXXXXXXXXXXXXXXXXXXXX...........................................................................",
"...................................................XXXXXXXXXXXXXXXXXXXXXXXXXXXXXXXXXXXXXXXXXXXXXXXXXXXXXXXXXXXXXXXXXXXXXXXXXXX............................................................................................................................................................XXXXXXXXXXXXXXXXXXXXXXXXXXX...........................................................................",
"...................................................XXXXXXXXXXXXXXXXXXXXXXXXXXXXXXXXXXXXXXXXXXXXXXXXXXXXXXXXXXXXXXXXXXXXXXXXXXX............................................................................................................................................................XXXXXXXXXXXXXXXXXXXXXXXXXXX...........................................................................",
"...................................................XXXXXXXXXXXXXXXXXXXXXXXXXXXXXXXXXXXXXXXXXXXXXXXXXXXXXXXXXXXXXXXXXXXXXXXXXXX............................................................................................................................................................XXXXXXXXXXXXXXXXXXXXXXXXXXX...........................................................................",
"...................................................XXXXXXXXXXXXXXXXXXXXXXXXXXXXXXXXXXXXXXXXXXXXXXXXXXXXXXXXXXXXXXXXXXXXXXXXXXX............................................................................................................................................................XXXXXXXXXXXXXXXXXXXXXXXXXXX...........................................................................",
"...................................................XXXXXXXXXXXXXXXXXXXXXXXXXXXXXXXXXXXXXXXXXXXXXXXXXXXXXXXXXXXXXXXXXXXXXXXXXXX............................................................................................................................................................XXXXXXXXXXXXXXXXXXXXXXXXXXX...........................................................................",
"...................................................XXXXXXXXXXXXXXXXXXXXXXXXXXXXXXXXXXXXXXXXXXXXXXXXXXXXXXXXXXXXXXXXXXXXXXXXXXX...............................................................XXXXXXXXXXXXXXXXXXXXXXXXXXXXXXXXXXXXXXXXXXXXXXXXXXX................................................................................................................................................",
"...................................................XXXXXXXXXXXXXXXXXXXXXXXXXXXXXXXXXXXXXXXXXXXXXXXXXXXXXXXXXXXXXXXXXXXXXXXXXXX...............................................................XXXXXXXXXXXXXXXXXXXXXXXXXXXXXXXXXXXXXXXXXXXXXXXXXXX................................................................................................................................................",
"...................................................XXXXXXXXXXXXXXXXXXXXXXXXXXXXXXXXXXXXXXXXXXXXXXXXXXXXXXXXXXXXXXXXXXXXXXXXXXX...............................................................XXXXXXXXXXXXXXXXXXXXXXXXXXXXXXXXXXXXXXXXXXXXXXXXXXX................................................................................................................................................",
".............................................................................................................................................................................................XXXXXXXXXXXXXXXXXXXXXXXXXXXXXXXXXXXXXXXXXXXXXXXXXXX................................................................................................................................................",
".............................................................................................................................................................................................XXXXXXXXXXXXXXXXXXXXXXXXXXXXXXXXXXXXXXXXXXXXXXXXXXX................................................................................................................................................",
".............................................................................................................................................................................................XXXXXXXXXXXXXXXXXXXXXXXXXXXXXXXXXXXXXXXXXXXXXXXXXXX................................................................................................................................................",
".............................................................................................................................................................................................XXXXXXXXXXXXXXXXXXXXXXXXXXXXXXXXXXXXXXXXXXXXXXXXXXX................................................................................................................................................",
".............................................................................................................................................................................................XXXXXXXXXXXXXXXXXXXXXXXXXXXXXXXXXXXXXXXXXXXXXXXXXXX................................................................................................................................................",
".............................................................................................................................................................................................XXXXXXXXXXXXXXXXXXXXXXXXXXXXXXXXXXXXXXXXXXXXXXXXXXX................................................................................................................................................",
".............................................................................................................................................................................................XXXXXXXXXXXXXXXXXXXXXXXXXXXXXXXXXXXXXXXXXXXXXXXXXXX................................................................................................................................................",
".............................................................................................................................................................................................XXXXXXXXXXXXXXXXXXXXXXXXXXXXXXXXXXXXXXXXXXXXXXXXXXX................................................................................................................................................",
".............................................................................................................................................................................................XXXXXXXXXXXXXXXXXXXXXXXXXXXXXXXXXXXXXXXXXXXXXXXXXXX................................................................................................................................................",
"                                                                                                                                                                                                                                                                                                                                                                                                ",
"                                                                                                                                                                                                                                                                                                                                                                                                ",
"                                                                                                                                                                                                                                                                                                                                                                                                ",
"                                                                                                                                                                                                                                                                                                                                                                                                ",
"                                                                                                                                                                                                                                                                                                                                                                                                ",
"                                                                                                                                                                                                                                                                                                                                                                                                ",
".............................................................................................................................................XXXXXXXXXXXXXXXXXXXXXXXXXXXXXXXXX......................................................................................................................................................XXXXXXXXXXXXXXXXXXXXXXXXXXXXXXXXXXXXXXXXXXXXXXXXXXX.........",
".............................................................................................................................................XXXXXXXXXXXXXXXXXXXXXXXXXXXXXXXXX......................................................................................................................................................XXXXXXXXXXXXXXXXXXXXXXXXXXXXXXXXXXXXXXXXXXXXXXXXXXX.........",
".............................................................................................................................................XXXXXXXXXXXXXXXXXXXXXXXXXXXXXXXXX......................................................................................................................................................XXXXXXXXXXXXXXXXXXXXXXXXXXXXXXXXXXXXXXXXXXXXXXXXXXX.........",
".............................................................................................................................................XXXXXXXXXXXXXXXXXXXXXXXXXXXXXXXXX......................................................................................................................................................XXXXXXXXXXXXXXXXXXXXXXXXXXXXXXXXXXXXXXXXXXXXXXXXXXX.........",
".............................................................................................................................................XXXXXXXXXXXXXXXXXXXXXXXXXXXXXXXXX......................................................................................................................................................XXXXXXXXXXXXXXXXXXXXXXXXXXXXXXXXXXXXXXXXXXXXXXXXXXX.........",
".............................................................................................................................................XXXXXXXXXXXXXXXXXXXXXXXXXXXXXXXXX......................................................................................................................................................XXXXXXXXXXXXXXXXXXXXXXXXXXXXXXXXXXXXXXXXXXXXXXXXXXX.........",
".............................................................................................................................................XXXXXXXXXXXXXXXXXXXXXXXXXXXXXXXXX......................................................................................................................................................XXXXXXXXXXXXXXXXXXXXXXXXXXXXXXXXXXXXXXXXXXXXXXXXXXX.........",
".............................................................................................................................................XXXXXXXXXXXXXXXXXXXXXXXXXXXXXXXXX......................................................................................................................................................XXXXXXXXXXXXXXXXXXXXXXXXXXXXXXXXXXXXXXXXXXXXXXXXXXX.........",
".............................................................................................................................................XXXXXXXXXXXXXXXXXXXXXXXXXXXXXXXXX......................................................................................................................................................XXXXXXXXXXXXXXXXXXXXXXXXXXXXXXXXXXXXXXXXXXXXXXXXXXX.........",
"..................XXXXXXXXXXXXXXXXXXXXXXXXXXXXXXXXXXXX.......................................................................................XXXXXXXXXXXXXXXXXXXXXXXXXXXXXXXXX......................................................................................................................................................XXXXXXXXXXXXXXXXXXXXXXXXXXXXXXXXXXXXXXXXXXXXXXXXXXX.........",
"..................XXXXXXXXXXXXXXXXXXXXXXXXXXXXXXXXXXXX.......................................................................................XXXXXXXXXXXXXXXXXXXXXXXXXXXXXXXXX......................................................................................................................................................XXXXXXXXXXXXXXXXXXXXXXXXXXXXXXXXXXXXXXXXXXXXXXXXXXX.........",
"..................XXXXXXXXXXXXXXXXXXXXXXXXXXXXXXXXXXXX.......................................................................................XXXXXXXXXXXXXXXXXXXXXXXXXXXXXXXXX......................................................................................................................................................XXXXXXXXXXXXXXXXXXXXXXXXXXXXXXXXXXXXXXXXXXXXXXXXXXX.........",
"..................XXXXXXXXXXXXXXXXXXXXXXXXXXXXXXXXXXXX......................................................................................................................................................................................................................................................XXXXXXXXXXXXXXXXXXXXXXXXXXXXXXXXXXXXXXXXXXXXX.......................................",
"..................XXXXXXXXXXXXXXXXXXXXXXXXXXXXXXXXXXXX......................................................................................................................................................................................................................................................XXXXXXXXXXXXXXXXXXXXXXXXXXXXXXXXXXXXXXXXXXXXX.......................................",
"..................XXXXXXXXXXXXXXXXXXXXXXXXXXXXXXXXXXXX......................................................................................................................................................................................................................................................XXXXXXXXXXXXXXXXXXXXXXXXXXXXXXXXXXXXXXXXXXXXX.......................................",
"..................XXXXXXXXXXXXXXXXXXXXXXXXXXXXXXXXXXXX.........................................................................................................................................................XXXXXXXXXXXXXXXXXXXXXXXXXXXXXXXXXXXXXXXXXXXXXXXX.............................................XXXXXXXXXXXXXXXXXXXXXXXXXXXXXXXXXXXXXXXXXXXXX.......................................",
"..................XXXXXXXXXXXXXXXXXXXXXXXXXXXXXXXXXXXX.........................................................................................................................................................XXXXXXXXXXXXXXXXXXXXXXXXXXXXXXXXXXXXXXXXXXXXXXXX.............................................XXXXXXXXXXXXXXXXXXXXXXXXXXXXXXXXXXXXXXXXXXXXX.......................................",
"..................XXXXXXXXXXXXXXXXXXXXXXXXXXXXXXXXXXXX.........................................................................................................................................................XXXXXXXXXXXXXXXXXXXXXXXXXXXXXXXXXXXXXXXXXXXXXXXX.............................................XXXXXXXXXXXXXXXXXXXXXXXXXXXXXXXXXXXXXXXXXXXXX.......................................",
"..................XXXXXXXXXXXXXXXXXXXXXXXXXXXXXXXXXXXX.........................................................................................................................................................XXXXXXXXXXXXXXXXXXXXXXXXXXXXXXXXXXXXXXXXXXXXXXXX.............................................XXXXXXXXXXXXXXXXXXXXXXXXXXXXXXXXXXXXXXXXXXXXX.......................................",
"..................XXXXXXXXXXXXXXXXXXXXXXXXXXXXXXXXXXXX.........................................................................................................................................................XXXXXXXXXXXXXXXXXXXXXXXXXXXXXXXXXXXXXXXXXXXXXXXX.............................................XXXXXXXXXXXXXXXXXXXXXXXXXXXXXXXXXXXXXXXXXXXXX.......................................",
"..................XXXXXXXXXXXXXXXXXXXXXXXXXXXXXXXXXXXX.........................................................................................................................................................XXXXXXXXXXXXXXXXXXXXXXXXXXXXXXXXXXXXXXXXXXXXXXXX.............................................XXXXXXXXXXXXXXXXXXXXXXXXXXXXXXXXXXXXXXXXXXXXX.......................................",
"....................................XXXXXXXXXXXXXXXXXXXXXXXXXXX.................................XXXXXXXXXXXX...................................................................................................XXXXXXXXXXXXXXXXXXXXXXXXXXXXXXXXXXXXXXXXXXXXXXXX.............................................XXXXXXXXXXXXXXXXXXXXXXXXXXXXXXXXXXXXXXXXXXXXX.......................................",
"....................................XXXXXXXXXXXXXXXXXXXXXXXXXXX.................................XXXXXXXXXXXX...................................................................................................XXXXXXXXXXXXXXXXXXXXXXXXXXXXXXXXXXXXXXXXXXXXXXXX.............................................XXXXXXXXXXXXXXXXXXXXXXXXXXXXXXXXXXXXXXXXXXXXX.......................................",
"....................................XXXXXXXXXXXXXXXXXXXXXXXXXXX.................................XXXXXXXXXXXX...................................................................................................XXXXXXXXXXXXXXXXXXXXXXXXXXXXXXXXXXXXXXXXXXXXXXXX.............................................XXXXXXXXXXXXXXXXXXXXXXXXXXXXXXXXXXXXXXXXXXXXX.......................................",
"....................................XXXXXXXXXXXXXXXXXXXXXXXXXXX.................................XXXXXXXXXXXX...................................................................................................XXXXXXXXXXXXXXXXXXXXXXXXXXXXXXXXXXXXXXXXXXXXXXXX.................................................................................................................................",
"....................................XXXXXXXXXXXXXXXXXXXXXXXXXXX.................................XXXXXXXXXXXX...................................................................................................XXXXXXXXXXXXXXXXXXXXXXXXXXXXXXXXXXXXXXXXXXXXXXXX.................................................................................................................................",
"....................................XXXXXXXXXXXXXXXXXXXXXXXXXXX.................................XXXXXXXXXXXX...................................................................................................XXXXXXXXXXXXXXXXXXXXXXXXXXXXXXXXXXXXXXXXXXXXXXXX.................................................................................................................................",
"....................................XXXXXXXXXXXXXXXXXXXXXXXXXXX.................................XXXXXXXXXXXX..............................................................................XXXXXXXXXXXXXXXXXXXXXXXXXXXXXXXXXXXXXXX...............................................................................................................................................................",
"....................................XXXXXXXXXXXXXXXXXXXXXXXXXXX.................................XXXXXXXXXXXX..............................................................................XXXXXXXXXXXXXXXXXXXXXXXXXXXXXXXXXXXXXXX...............................................................................................................................................................",
"....................................XXXXXXXXXXXXXXXXXXXXXXXXXXX.................................XXXXXXXXXXXX..............................................................................XXXXXXXXXXXXXXXXXXXXXXXXXXXXXXXXXXXXXXX...............................................................................................................................................................",
"....................................XXXXXXXXXXXXXXXXXXXXXXXXXXX.................................XXXXXXXXXXXX..............................................................................XXXXXXXXXXXXXXXXXXXXXXXXXXXXXXXXXXXXXXX....................................XXXXXXXXXXXX...............................................................................................................",
"....................................XXXXXXXXXXXXXXXXXXXXXXXXXXX.................................XXXXXXXXXXXX..............................................................................XXXXXXXXXXXXXXXXXXXXXXXXXXXXXXXXXXXXXXX....................................XXXXXXXXXXXX...............................................................................................................",
"....................................XXXXXXXXXXXXXXXXXXXXXXXXXXX.................................XXXXXXXXXXXX..............................................................................XXXXXXXXXXXXXXXXXXXXXXXXXXXXXXXXXXXXXXX....................................XXXXXXXXXXXX...............................................................................................................",
".........................................................................................................XXXXXXXXXXXXXXXXXXXXXXXXXXX......................................................XXXXXXXXXXXXXXXXXXXXXXXXXXXXXXXXXXXXXXX....................................XXXXXXXXXXXX...............................................................................................................",
".........................................................................................................XXXXXXXXXXXXXXXXXXXXXXXXXXX......................................................XXXXXXXXXXXXXXXXXXXXXXXXXXXXXXXXXXXXXXX....................................XXXXXXXXXXXX...............................................................................................................",
".........................................................................................................XXXXXXXXXXXXXXXXXXXXXXXXXXX......................................................XXXXXXXXXXXXXXXXXXXXXXXXXXXXXXXXXXXXXXX....................................XXXXXXXXXXXX...............................................................................................................",
".........................................................................................................XXXXXXXXXXXXXXXXXXXXXXXXXXX......................................................XXXXXXXXXXXXXXXXXXXXXXXXXXXXXXXXXXXXXXX....................................XXXXXXXXXXXX...............................................................................................................",
".........................................................................................................XXXXXXXXXXXXXXXXXXXXXXXXXXX......................................................XXXXXXXXXXXXXXXXXXXXXXXXXXXXXXXXXXXXXXX....................................XXXXXXXXXXXX...............................................................................................................",
".........................................................................................................XXXXXXXXXXXXXXXXXXXXXXXXXXX......................................................XXXXXXXXXXXXXXXXXXXXXXXXXXXXXXXXXXXXXXX....................................XXXXXXXXXXXX...............................................................................................................",
".........................................................................................................XXXXXXXXXXXXXXXXXXXXXXXXXXX.................................................................................................................................XXXXXXXXXXXX...............................................................................................................",
".........................................................................................................XXXXXXXXXXXXXXXXXXXXXXXXXXX.................................................................................................................................XXXXXXXXXXXX...............................................................................................................",
".........................................................................................................XXXXXXXXXXXXXXXXXXXXXXXXXXX.................................................................................................................................XXXXXXXXXXXX...............................................................................................................",
".........................................................................................................XXXXXXXXXXXXXXXXXXXXXXXXXXXXXXXXXXXXXXX.................................................................................................................................XXXXXXXXXXXXXXXXXXXXXXXXXXXXXXXXXXXX...........................................................................",
".........................................................................................................XXXXXXXXXXXXXXXXXXXXXXXXXXXXXXXXXXXXXXX.................................................................................................................................XXXXXXXXXXXXXXXXXXXXXXXXXXXXXXXXXXXX...........................................................................",
".........................................................................................................XXXXXXXXXXXXXXXXXXXXXXXXXXXXXXXXXXXXXXX.................................................................................................................................XXXXXXXXXXXXXXXXXXXXXXXXXXXXXXXXXXXX...........................................................................",
"....................................................................................................................................XXXXXXXXXXXX.................................................................................................................................XXXXXXXXXXXXXXXXXXXXXXXXXXXXXXXXXXXX...........................................................................",
"....................................................................................................................................XXXXXXXXXXXX.................................................................................................................................XXXXXXXXXXXXXXXXXXXXXXXXXXXXXXXXXXXX...........................................................................",
"....................................................................................................................................XXXXXXXXXXXX.................................................................................................................................XXXXXXXXXXXXXXXXXXXXXXXXXXXXXXXXXXXX...........................................................................",
"....................................................................................................................................XXXXXXXXXXXX.................................................................................................................................XXXXXXXXXXXXXXXXXXXXXXXXXXXXXXXXXXXX...........................................................................",
"....................................................................................................................................XXXXXXXXXXXX.................................................................................................................................XXXXXXXXXXXXXXXXXXXXXXXXXXXXXXXXXXXX...........................................................................",
"....................................................................................................................................XXXXXXXXXXXX.................................................................................................................................XXXXXXXXXXXXXXXXXXXXXXXXXXXXXXXXXXXX...........................................................................",
"....................................................................................................................................XXXXXXXXXXXX.................................................................................................................................XXXXXXXXXXXXXXXXXXXXXXXXXXXXXXXXXXXX...........................................................................",
"....................................................................................................................................XXXXXXXXXXXX.................................................................................................................................XXXXXXXXXXXXXXXXXXXXXXXXXXXXXXXXXXXX...........................................................................",
"....................................................................................................................................XXXXXXXXXXXX.................................................................................................................................XXXXXXXXXXXXXXXXXXXXXXXXXXXXXXXXXXXX...........................................................................",
"                                                                                                                                                                                                                                                                                                                                                                                                ",
"                                                                                                                                                                                                                                                                                                                                                                                                ",
"                                                                                                                                                                                                                                                                                                                                                                                                ",
"                                                                                                                                                                                                                                                                                                                                                                                                ",
"                                                                                                                                                                                                                                                                                                                                                                                                ",
"                                                                                                                                                                                                                                                                                                                                                                                                ",
"...................................................................................................................................................XXXXXXXXXXXXXXXXXXXXXXXXXXXXXXXXXXXXXXXXXXXXX..................................................................................................................................................................XXXXXXXXXXXXXXXXXXXXXXXXXXXXXX",
"...................................................................................................................................................XXXXXXXXXXXXXXXXXXXXXXXXXXXXXXXXXXXXXXXXXXXXX..................................................................................................................................................................XXXXXXXXXXXXXXXXXXXXXXXXXXXXXX",
"...................................................................................................................................................XXXXXXXXXXXXXXXXXXXXXXXXXXXXXXXXXXXXXXXXXXXXX..................................................................................................................................................................XXXXXXXXXXXXXXXXXXXXXXXXXXXXXX",
"...................................................................................................................................................XXXXXXXXXXXXXXXXXXXXXXXXXXXXXXXXXXXXXXXXXXXXX..................................................................................................................................................................XXXXXXXXXXXXXXXXXXXXXXXXXXXXXX",
"...................................................................................................................................................XXXXXXXXXXXXXXXXXXXXXXXXXXXXXXXXXXXXXXXXXXXXX..................................................................................................................................................................XXXXXXXXXXXXXXXXXXXXXXXXXXXXXX",
"...................................................................................................................................................XXXXXXXXXXXXXXXXXXXXXXXXXXXXXXXXXXXXXXXXXXXXX..................................................................................................................................................................XXXXXXXXXXXXXXXXXXXXXXXXXXXXXX",
"...................................................................................................................................................XXXXXXXXXXXXXXXXXXXXXXXXXXXXXXXXXXXXXXXXXXXXX..................................................................................................................................................................XXXXXXXXXXXXXXXXXXXXXXXXXXXXXX",
"...................................................................................................................................................XXXXXXXXXXXXXXXXXXXXXXXXXXXXXXXXXXXXXXXXXXXXX..................................................................................................................................................................XXXXXXXXXXXXXXXXXXXXXXXXXXXXXX",
"...................................................................................................................................................XXXXXXXXXXXXXXXXXXXXXXXXXXXXXXXXXXXXXXXXXXXXX..................................................................................................................................................................XXXXXXXXXXXXXXXXXXXXXXXXXXXXXX",
"...............................................................XXXXXXXXXXXXXXXXXXXXXXXXXXXXXXXXXXXXXXXXXXXXXXXXXXXXXXXXX...........................XXXXXXXXXXXXXXXXXXXXXXXXXXXXXXXXXXXXXXXXXXXXX..................................................................................................................................................................XXXXXXXXXXXXXXXXXXXXXXXXXXXXXX",
"...............................................................XXXXXXXXXXXXXXXXXXXXXXXXXXXXXXXXXXXXXXXXXXXXXXXXXXXXXXXXX...........................XXXXXXXXXXXXXXXXXXXXXXXXXXXXXXXXXXXXXXXXXXXXX..................................................................................................................................................................XXXXXXXXXXXXXXXXXXXXXXXXXXXXXX",
"...............................................................XXXXXXXXXXXXXXXXXXXXXXXXXXXXXXXXXXXXXXXXXXXXXXXXXXXXXXXXX...........................XXXXXXXXXXXXXXXXXXXXXXXXXXXXXXXXXXXXXXXXXXXXX..................................................................................................................................................................XXXXXXXXXXXXXXXXXXXXXXXXXXXXXX",
"...............................................................XXXXXXXXXXXXXXXXXXXXXXXXXXXXXXXXXXXXXXXXXXXXXXXXXXXXXXXXX......................................................XXXXXXXXXXXXXXXXXXXXXXXXXXXXXXXXX.................................................................................................................................................................................",
"...............................................................XXXXXXXXXXXXXXXXXXXXXXXXXXXXXXXXXXXXXXXXXXXXXXXXXXXXXXXXX......................................................XXXXXXXXXXXXXXXXXXXXXXXXXXXXXXXXX.................................................................................................................................................................................",
"...............................................................XXXXXXXXXXXXXXXXXXXXXXXXXXXXXXXXXXXXXXXXXXXXXXXXXXXXXXXXX......................................................XXXXXXXXXXXXXXXXXXXXXXXXXXXXXXXXX.................................................................................................................................................................................",
"...............................................................XXXXXXXXXXXXXXXXXXXXXXXXXXXXXXXXXXXXXXXXXXXXXXXXXXXXXXXXX......................................................XXXXXXXXXXXXXXXXXXXXXXXXXXXXXXXXX.................................................................................................................................................................................",
"...............................................................XXXXXXXXXXXXXXXXXXXXXXXXXXXXXXXXXXXXXXXXXXXXXXXXXXXXXXXXX......................................................XXXXXXXXXXXXXXXXXXXXXXXXXXXXXXXXX.................................................................................................................................................................................",
"...............................................................XXXXXXXXXXXXXXXXXXXXXXXXXXXXXXXXXXXXXXXXXXXXXXXXXXXXXXXXX......................................................XXXXXXXXXXXXXXXXXXXXXXXXXXXXXXXXX.................................................................................................................................................................................",
"...............................................................XXXXXXXXXXXXXXXXXXXXXXXXXXXXXXXXXXXXXXXXXXXXXXXXXXXXXXXXX......................................................XXXXXXXXXXXXXXXXXXXXXXXXXXXXXXXXX.................................................................................................................................................................................",
"...............................................................XXXXXXXXXXXXXXXXXXXXXXXXXXXXXXXXXXXXXXXXXXXXXXXXXXXXXXXXX......................................................XXXXXXXXXXXXXXXXXXXXXXXXXXXXXXXXX.................................................................................................................................................................................",
"...............................................................XXXXXXXXXXXXXXXXXXXXXXXXXXXXXXXXXXXXXXXXXXXXXXXXXXXXXXXXX......................................................XXXXXXXXXXXXXXXXXXXXXXXXXXXXXXXXX.................................................................................................................................................................................",
"..............................................................................................................................................................................XXXXXXXXXXXXXXXXXXXXXXXXXXXXXXXXX................................................................................................XXXXXXXXXXXXXXXXXXXXXXXXXXXXXXXXXXXXXXXXXXXXXXXXXXXXXXXXX........................",
"..............................................................................................................................................................................XXXXXXXXXXXXXXXXXXXXXXXXXXXXXXXXX................................................................................................XXXXXXXXXXXXXXXXXXXXXXXXXXXXXXXXXXXXXXXXXXXXXXXXXXXXXXXXX........................",
"..............................................................................................................................................................................XXXXXXXXXXXXXXXXXXXXXXXXXXXXXXXXX................................................................................................XXXXXXXXXXXXXXXXXXXXXXXXXXXXXXXXXXXXXXXXXXXXXXXXXXXXXXXXX........................",
"..........................................................................................................................................................................................XXXXXXXXXXXXXXXXXXXXXXXXXXXXXXXXXXXX.................................................................................XXXXXXXXXXXXXXXXXXXXXXXXXXXXXXXXXXXXXXXXXXXXXXXXXXXXXXXXX........................",
"..........................................................................................................................................................................................XXXXXXXXXXXXXXXXXXXXXXXXXXXXXXXXXXXX.................................................................................XXXXXXXXXXXXXXXXXXXXXXXXXXXXXXXXXXXXXXXXXXXXXXXXXXXXXXXXX........................",
"..........................................................................................................................................................................................XXXXXXXXXXXXXXXXXXXXXXXXXXXXXXXXXXXX.................................................................................XXXXXXXXXXXXXXXXXXXXXXXXXXXXXXXXXXXXXXXXXXXXXXXXXXXXXXXXX........................",
".............................................................................................................................................XXXXXXXXXXXXXXXXXXXXX........................XXXXXXXXXXXXXXXXXXXXXXXXXXXXXXXXXXXX.................................................................................XXXXXXXXXXXXXXXXXXXXXXXXXXXXXXXXXXXXXXXXXXXXXXXXXXXXXXXXX........................",
".............................................................................................................................................XXXXXXXXXXXXXXXXXXXXX........................XXXXXXXXXXXXXXXXXXXXXXXXXXXXXXXXXXXX.................................................................................XXXXXXXXXXXXXXXXXXXXXXXXXXXXXXXXXXXXXXXXXXXXXXXXXXXXXXXXX........................",
".............................................................................................................................................XXXXXXXXXXXXXXXXXXXXX........................XXXXXXXXXXXXXXXXXXXXXXXXXXXXXXXXXXXX.................................................................................XXXXXXXXXXXXXXXXXXXXXXXXXXXXXXXXXXXXXXXXXXXXXXXXXXXXXXXXX........................",
".......................................XXXXXXXXXXXXXXXXXXXXXXXXXXXXXXXXXXXX..................................................................XXXXXXXXXXXXXXXXXXXXX........................XXXXXXXXXXXXXXXXXXXXXXXXXXXXXXXXXXXX.................................................................................XXXXXXXXXXXXXXXXXXXXXXXXXXXXXXXXXXXXXXXXXXXXXXXXXXXXXXXXX........................",
".......................................XXXXXXXXXXXXXXXXXXXXXXXXXXXXXXXXXXXX..................................................................XXXXXXXXXXXXXXXXXXXXX........................XXXXXXXXXXXXXXXXXXXXXXXXXXXXXXXXXXXX.................................................................................XXXXXXXXXXXXXXXXXXXXXXXXXXXXXXXXXXXXXXXXXXXXXXXXXXXXXXXXX........................",
".......................................XXXXXXXXXXXXXXXXXXXXXXXXXXXXXXXXXXXX..................................................................XXXXXXXXXXXXXXXXXXXXX........................XXXXXXXXXXXXXXXXXXXXXXXXXXXXXXXXXXXX.................................................................................XXXXXXXXXXXXXXXXXXXXXXXXXXXXXXXXXXXXXXXXXXXXXXXXXXXXXXXXX........................",
".......................................XXXXXXXXXXXXXXXXXXXXXXXXXXXXXXXXXXXX..................................................................XXXXXXXXXXXXXXXXXXXXX........................XXXXXXXXXXXXXXXXXXXXXXXXXXXXXXXXXXXX..........................................XXXXXXXXXXXXXXXXXXXXXXXXXXXXXXXXXXXXXXXXXXXXXXXXXXXXXXXXXXXX............................................................",
".......................................XXXXXXXXXXXXXXXXXXXXXXXXXXXXXXXXXXXX..................................................................XXXXXXXXXXXXXXXXXXXXX........................XXXXXXXXXXXXXXXXXXXXXXXXXXXXXXXXXXXX..........................................XXXXXXXXXXXXXXXXXXXXXXXXXXXXXXXXXXXXXXXXXXXXXXXXXXXXXXXXXXXX............................................................",
".......................................XXXXXXXXXXXXXXXXXXXXXXXXXXXXXXXXXXXX..................................................................XXXXXXXXXXXXXXXXXXXXX........................XXXXXXXXXXXXXXXXXXXXXXXXXXXXXXXXXXXX..........................................XXXXXXXXXXXXXXXXXXXXXXXXXXXXXXXXXXXXXXXXXXXXXXXXXXXXXXXXXXXX............................................................",
".......................................XXXXXXXXXXXXXXXXXXXXXXXXXXXXXXXXXXXX..................................................................XXXXXXXXXXXXXXXXXXXXX......................................................................................................XXXXXXXXXXXXXXXXXXXXXXXXXXXXXXXXXXXXXXXXXXXXXXXXXXXXXXXXXXXX............................................................",
".......................................XXXXXXXXXXXXXXXXXXXXXXXXXXXXXXXXXXXX..................................................................XXXXXXXXXXXXXXXXXXXXX......................................................................................................XXXXXXXXXXXXXXXXXXXXXXXXXXXXXXXXXXXXXXXXXXXXXXXXXXXXXXXXXXXX............................................................",
".......................................XXXXXXXXXXXXXXXXXXXXXXXXXXXXXXXXXXXX..................................................................XXXXXXXXXXXXXXXXXXXXX......................................................................................................XXXXXXXXXXXXXXXXXXXXXXXXXXXXXXXXXXXXXXXXXXXXXXXXXXXXXXXXXXXX............................................................",
".......................................XXXXXXXXXXXXXXXXXXXXXXXXXXXXXXXXXXXX...................................................XXXXXXXXXXXXXXXXXXXXXXXXXXXXXXXXXXXXXXXXXXXXXXXX..........................................................................................XXXXXXXXXXXXXXXXXXXXXXXXXXXXXXXXXXXXXXXXXXXXXXXXXXXXXXXXXXXX............................................................",
".......................................XXXXXXXXXXXXXXXXXXXXXXXXXXXXXXXXXXXX...................................................XXXXXXXXXXXXXXXXXXXXXXXXXXXXXXXXXXXXXXXXXXXXXXXX..........................................................................................XXXXXXXXXXXXXXXXXXXXXXXXXXXXXXXXXXXXXXXXXXXXXXXXXXXXXXXXXXXX............................................................",
".......................................XXXXXXXXXXXXXXXXXXXXXXXXXXXXXXXXXXXX...................................................XXXXXXXXXXXXXXXXXXXXXXXXXXXXXXXXXXXXXXXXXXXXXXXX..........................................................................................XXXXXXXXXXXXXXXXXXXXXXXXXXXXXXXXXXXXXXXXXXXXXXXXXXXXXXXXXXXX............................................................",
"..................XXXXXXXXXXXXXXXXXXXXXXXXXXXXXXXXXXXXXXX.....................................................................XXXXXXXXXXXXXXXXXXXXXXXXXXXXXXXXXXXXXXXXXXXXXXXX..........................................................................................XXXXXXXXXXXXXXXXXXXXXXXXXXXXXXXXXXXXXXXXXXXXXXXXXXXXXXXXXXXX............................................................",
"..................XXXXXXXXXXXXXXXXXXXXXXXXXXXXXXXXXXXXXXX.....................................................................XXXXXXXXXXXXXXXXXXXXXXXXXXXXXXXXXXXXXXXXXXXXXXXX..........................................................................................XXXXXXXXXXXXXXXXXXXXXXXXXXXXXXXXXXXXXXXXXXXXXXXXXXXXXXXXXXXX............................................................",
"..................XXXXXXXXXXXXXXXXXXXXXXXXXXXXXXXXXXXXXXX.....................................................................XXXXXXXXXXXXXXXXXXXXXXXXXXXXXXXXXXXXXXXXXXXXXXXX..........................................................................................XXXXXXXXXXXXXXXXXXXXXXXXXXXXXXXXXXXXXXXXXXXXXXXXXXXXXXXXXXXX............................................................",
"..................XXXXXXXXXXXXXXXXXXXXXXXXXXXXXXXXXXXXXXX.....................................................................XXXXXXXXXXXXXXXXXXXXXXXXXXXXXXXXXXXXXXXXXXXXXXXX..................................................................................................................................................................................................................",
"..................XXXXXXXXXXXXXXXXXXXXXXXXXXXXXXXXXXXXXXX.....................................................................XXXXXXXXXXXXXXXXXXXXXXXXXXXXXXXXXXXXXXXXXXXXXXXX..................................................................................................................................................................................................................",
"..................XXXXXXXXXXXXXXXXXXXXXXXXXXXXXXXXXXXXXXX.....................................................................XXXXXXXXXXXXXXXXXXXXXXXXXXXXXXXXXXXXXXXXXXXXXXXX..................................................................................................................................................................................................................",
"                                                                                                                                                                                                                                                                                                                                                                                                ",
"                                                                                                                                                                                                                                                                                                                                                                                                ",
"                                                                                                                                                                                                                                                                                                                                                                                                "
};
