/* XPM */
static char * pirate_ceiling_xpm[] = {
"128 128 3 1",
" 	c #94C1EC",
".	c #F4FAFF",
"+	c #E4E8EC",
"                                                                                                                                ",
"                                                                                                                                ",
"                                                                                                                                ",
"                                                                                                                                ",
"                                                                                                                                ",
"                                                                                                                                ",
"                                                                                                                                ",
"                                                                                                                                ",
"                                                                                                                                ",
"                                                                                                                                ",
"                                                                                                                                ",
"                                                                                                                                ",
"                                .......    ......                                                                               ",
"                              ..........  ..........                                                                            ",
"                             ........................                                                                           ",
"                            ..........................                                                                          ",
"                           ............................                                                                         ",
"                          .............................                                                                         ",
"                         ..............................                                                                         ",
"                    ...................................                                                                         ",
"                   ..........................................                                                                   ",
"                 ..............................................                                                                 ",
"                ..................................................                                                              ",
"                ..................................................                                                              ",
"                ....................................................                                                            ",
"                ....................................................                                                            ",
"                ++.......................................++.........                                                            ",
"                ++.......................................++.........                                                            ",
"                +++......++.............++.......++......++.........                                                            ",
"                ++++...++++.............++.......+++....+++.........                                                            ",
"                 ++++++++++.............++++....+++++++++++.........                                                            ",
"                 .+++++++................+++++++++++++++++.........                                                             ",
"                ..........................++++++++..++++...........                                                             ",
"               .....................................................                                                            ",
"               .....................................................                                                            ",
"              ......................................................                                                            ",
"              ....................................................++                                                            ",
"              ....................................................++                                                            ",
"              ....................................................++                                                            ",
"              ....................................................++                                                            ",
"              ...............++..................................+++                                                            ",
"              ...............++..................................+++                                                            ",
"               .............+++..........................++.....+++                                                             ",
"               ..+++......+++++...............++........+++....++++                                                             ",
"                 +++++++++++++................++........++++++++++                                                              ",
"                  +++++++++++++...............+++......++++++++++                                                               ",
"                             ++++............+++++++++++++                                                                      ",
"                              ++++++.......++++++++++++++                                                                       ",
"                               ++++++++++++++++                                                                                 ",
"                                  +++++++++++                                                                                   ",
"                                                                                                                                ",
"                                                                                                                                ",
"                                                                                                                                ",
"                                                                                                                                ",
"                                                                                                                                ",
"                                                                                                                                ",
"                                                                                                                                ",
"                                                                                                                                ",
"                                                                                                                                ",
"                                                                                                                                ",
"                                                                                                                                ",
"                                                                                                                                ",
"                                                                                                                                ",
"                                                                                                                                ",
"                                                                                                                                ",
"                                                                                                                                ",
"                                                                                                                                ",
"                                                                                                                                ",
"                                                                                                                                ",
"                                                                                                                                ",
"                                                                              ........                                          ",
"                                                                             ...........                                        ",
"                                                                            .............                                       ",
"                                                                           ................                                     ",
"                                                                           ................    .........                        ",
"                                                              .............................. ............                       ",
"                                                              ............................................                      ",
"                                                             ..............................................                     ",
"                                                            ................................................                    ",
"                                                            ................................................                    ",
"                                                            ................................................                    ",
"                                                            ................................................                    ",
"                                                            ................................................                    ",
"                                                           ..........................................................           ",
"                                                        ................++...........++........++.....................          ",
"                                                        ................++...........+++......+++.....................          ",
"                                                       .................++...........+++++++++++.......................         ",
"                                                      ..................+++..........++++++++++........................         ",
"                                                     ...................+++++.....++++++...............................         ",
"                                                     ....................++++++++++++++................................         ",
"                                                     .......................+++++++....................................+        ",
"                                                     ..................................................................+        ",
"                                                     ++................................................................+        ",
"                                                     ++................................................................+        ",
"                                                     ++................................................................+        ",
"                                                     +++..............................................................++        ",
"                                                     ++++.............................................................++        ",
"                                                      +++............................................................+++        ",
"                                                       +++............+++....................................+++....++++        ",
"                                                        ++++.........++++....................................++++++++++         ",
"                                                        ++++++++++++++++.....................................+++++++++          ",
"                                                           +++++++++++++....................................+++  +++            ",
"                                                                      ++....................................++                  ",
"                                                                      ++...................................+++                  ",
"                                                                      +++....................++...........++++                  ",
"                                                                      +++++.................+++++++++++++++++                   ",
"                                                                        ++++...............+++++++++++++++++                    ",
"                                                                         +++++++++++++++++++++                                  ",
"                                                                          +++++++++++++++++++                                   ",
"                                                                                                                                ",
"                                                                                                                                ",
"                                                                                                                                ",
"                                                                                                                                ",
"                                                                                                                                ",
"                                                                                                                                ",
"                                                                                                                                ",
"                                                                                                                                ",
"                                                                                                                                ",
"                                                                                                                                ",
"                                                                                                                                ",
"                                                                                                                                ",
"                                                                                                                                ",
"                                                                                                                                ",
"                                                                                                                                ",
"                                                                                                                                ",
"                                                                                                                                ",
"                                                                                                                                ",
"                                                                                                                                "};
