/* XPM */
static char *_f7e7be94cbe4b1fddd18b0d8d639e1bnEDs80KN6UevAV2o[] = {
/* columns rows colors chars-per-pixel */
"384 384 15 1 ",
"  c #4F3309",
". c #5C3C0C",
"X c #694714",
"o c #745019",
"O c gray36",
"+ c #805C24",
"@ c #83612A",
"# c #90703D",
"$ c #294EA5",
"% c #315BBD",
"& c gray53",
"* c #AEAEAE",
"= c #94C1EC",
"- c #E4E8EC",
"; c #F4FAFF",
/* pixels */
"================================================================================================================================================================================================================================================================================================================================================================================================",
"================================================================================================================================================================================================================================================================================================================================================================================================",
"================================================================================================================================================================================================================================================================================================================================================================================================",
"================================================================================================================================================================================================================================================================================================================================================================================================",
"================================================================================================================================================================================================================================================================================================================================================================================================",
"================================================================================================================================================================================================================================================================================================================================================================================================",
"================================================================================================================================================================================================================================================================================================================================================================================================",
"================================================================================================================================================================================================================================================================================================================================================================================================",
"================================================================================================================================================================================================================================================================================================================================================================================================",
"================================================================================================================================================================================================================================================================================================================================================================================================",
"================================================================================================================================================================================================================================================================================================================================================================================================",
"================================================================================================================================================================================================================================================================================================================================================================================================",
"================================================================================================================================================================================================================================================================================================================================================================================================",
"================================================================================================================================================================================================================================================================================================================================================================================================",
"================================================================================================================================================================================================================================================================================================================================================================================================",
"================================================;;;;;;;;;;;;;;;;;;;;;;;;========================================================================================================================================================================================================================================================================================================================",
"================================================;;;;;;;;;;;;;;;;;;;;;;;;========================================================================================================================================================================================================================================================================================================================",
"================================================;;;;;;;;;;;;;;;;;;;;;;;;========================================================================================================================================================================================================================================================================================================================",
"=============================================;;;;;;;;;;;;;;;;;;;;;;;;;;;;;;;;;;;;;;;;;;;;;======================================================================================================================================================================================================================================================================================================",
"=============================================;;;;;;;;;;;;;;;;;;;;;;;;;;;;;;;;;;;;;;;;;;;;;======================================================================================================================================================================================================================================================================================================",
"=============================================;;;;;;;;;;;;;;;;;;;;;;;;;;;;;;;;;;;;;;;;;;;;;======================================================================================================================================================================================================================================================================================================",
"=============================================;;;;;;;;;;;;;;;;;;;;;;;;;;;;;;;;;;;;;;;;;;;;;;;;;;;================================================================================================================================================================================================================================================================================================",
"=============================================;;;;;;;;;;;;;;;;;;;;;;;;;;;;;;;;;;;;;;;;;;;;;;;;;;;================================================================================================================================================================================================================================================================================================",
"=============================================;;;;;;;;;;;;;;;;;;;;;;;;;;;;;;;;;;;;;;;;;;;;;;;;;;;================================================================================================================================================================================================================================================================================================",
"===========================;;;;;;;;;;;;;;;;;;;;;;;;;;;;;;;;;;;;;;;;;;;;;;;;;;;;;;;;;;;;;;;;;;;;;=============================================================================================$$$================================================================================================================================================================================================",
"===========================;;;;;;;;;;;;;;;;;;;;;;;;;;;;;;;;;;;;;;;;;;;;;;;;;;;;;;;;;;;;;;;;;;;;;=============================================================================================$$$================================================================================================================================================================================================",
"===========================;;;;;;;;;;;;;;;;;;;;;;;;;;;;;;;;;;;;;;;;;;;;;;;;;;;;;;;;;;;;;;;;;;;;;=============================================================================================$$$================================================================================================================================================================================================",
"=====================;;;;;;;;;;;;;;;;;;;;;;;;;;;;;;;;;;;;;;;;;;;;;;;;;;;;;;;;;;;;;;;;;;;;;;;;;;;=============================================================================================$$$================================================================================================================================================================================================",
"=====================;;;;;;;;;;;;;;;;;;;;;;;;;;;;;;;;;;;;;;;;;;;;;;;;;;;;;;;;;;;;;;;;;;;;;;;;;;;=============================================================================================$$$================================================================================================================================================================================================",
"=====================;;;;;;;;;;;;;;;;;;;;;;;;;;;;;;;;;;;;;;;;;;;;;;;;;;;;;;;;;;;;;;;;;;;;;;;;;;;=============================================================================================$$$================================================================================================================================================================================================",
"=====================;;;;;;;;;;;;;;;;;;;;;;;;;;;;;;;;;;;;;;;;;;;;;;;;;;;;;;;;;;;;;;;;;;;;;;;;;;;=============================================================================================$$$=========$$$====================================================================================================================================================================================",
"=====================;;;;;;;;;;;;;;;;;;;;;;;;;;;;;;;;;;;;;;;;;;;;;;;;;;;;;;;;;;;;;;;;;;;;;;;;;;;=============================================================================================$$$=========$$$====================================================================================================================================================================================",
"=====================;;;;;;;;;;;;;;;;;;;;;;;;;;;;;;;;;;;;;;;;;;;;;;;;;;;;;;;;;;;;;;;;;;;;;;;;;;;=============================================================================================$$$=========$$$====================================================================================================================================================================================",
"=====================;;;;;;;;;;;;;;;;;;;;;;;;;;;;;;;;;;;;;;;;;;;;;;;;;;;;;;;;;;;;;;;;;;;;;;;;;;;================================================================================================$$$===$$$$$$====================================================================================================================================================================================",
"=====================;;;;;;;;;;;;;;;;;;;;;;;;;;;;;;;;;;;;;;;;;;;;;;;;;;;;;;;;;;;;;;;;;;;;;;;;;;;================================================================================================$$$===$$$$$$====================================================================================================================================================================================",
"=====================;;;;;;;;;;;;;;;;;;;;;;;;;;;;;;;;;;;;;;;;;;;;;;;;;;;;;;;;;;;;;;;;;;;;;;;;;;;================================================================================================$$$===$$$$$$====================================================================================================================================================================================",
"==================;;;;;;;;;;;;;;;;;;;;;;;;;;;;;;;;;;;;;;;---;;;;;;------;;;;;;;;;;;;;;;;;;;;;;;;=================================================================================$$$$$$$$$$$$===$$$===$$$==================&&&&&&&&&&&&&&&&&&&&&&&&&&&&&&=======================================================================================================================================",
"==================;;;;;;;;;;;;;;;;;;;;;;;;;;;;;;;;;;;;;;;---;;;;;;------;;;;;;;;;;;;;;;;;;;;;;;;=================================================================================$$$$$$$$$$$$===$$$===$$$==================&&&&&&&&&&&&&&&&&&&&&&&&&&&&&&=======================================================================================================================================",
"==================;;;;;;;;;;;;;;;;;;;;;;;;;;;;;;;;;;;;;;;---;;;;;;------;;;;;;;;;;;;;;;;;;;;;;;;=================================================================================$$$$$$$$$$$$===$$$===$$$==================&&&&&&&&&&&&&&&&&&&&&&&&&&&&&&=======================================================================================================================================",
"==================;;;;;;;;;;;;;;;;;;;;;;;;;;;;;;;;;;;;;;;------------;;;;;;;;;;;;;;;;;;;;;;;;---==========================================================================================$$$$$$======$$$=========&&&&&&&&&&&&************************&&&&&&&&&&&&==============================================================================================================================",
"==================;;;;;;;;;;;;;;;;;;;;;;;;;;;;;;;;;;;;;;;------------;;;;;;;;;;;;;;;;;;;;;;;;---==========================================================================================$$$$$$======$$$=========&&&&&&&&&&&&************************&&&&&&&&&&&&==============================================================================================================================",
"==================;;;;;;;;;;;;;;;;;;;;;;;;;;;;;;;;;;;;;;;------------;;;;;;;;;;;;;;;;;;;;;;;;---==========================================================================================$$$$$$======$$$=========&&&&&&&&&&&&************************&&&&&&&&&&&&==============================================================================================================================",
"==================;;;;;;;;;;;;;;;;;;;;;;;;;;;;;;;;;;;;;;;;;;------;;;;;;;;;;;;;;;;;;;;;;;;;;;---=============================================================================================$$$$$$=========&&&&&&&&&******************************************&&&&&&===========================================================================================================================",
"==================;;;;;;;;;;;;;;;;;;;;;;;;;;;;;;;;;;;;;;;;;;------;;;;;;;;;;;;;;;;;;;;;;;;;;;---=============================================================================================$$$$$$=========&&&&&&&&&******************************************&&&&&&===========================================================================================================================",
"==================;;;;;;;;;;;;;;;;;;;;;;;;;;;;;;;;;;;;;;;;;;------;;;;;;;;;;;;;;;;;;;;;;;;;;;---=============================================================================================$$$$$$=========&&&&&&&&&******************************************&&&&&&===========================================================================================================================",
"==================;;;;;;;;;;;;;;;;;;;;;;;;;;;;;;;;;;;;;;;;;;;;;;;;;;;;;;;;;;;;;;;;;;;;;;;;------================================================&&&&&&&&&&&&&&&&&&&&&&&&&&&&&&========================&&&OOO&&&***************************************************&&&&&&&&&=====================================================================================================================",
"==================;;;;;;;;;;;;;;;;;;;;;;;;;;;;;;;;;;;;;;;;;;;;;;;;;;;;;;;;;;;;;;;;;;;;;;;;------================================================&&&&&&&&&&&&&&&&&&&&&&&&&&&&&&========================&&&OOO&&&***************************************************&&&&&&&&&=====================================================================================================================",
"==================;;;;;;;;;;;;;;;;;;;;;;;;;;;;;;;;;;;;;;;;;;;;;;;;;;;;;;;;;;;;;;;;;;;;;;;;------================================================&&&&&&&&&&&&&&&&&&&&&&&&&&&&&&========================&&&OOO&&&***************************************************&&&&&&&&&=====================================================================================================================",
"==================---;;;;;;;;;;;;;;;;;;;;;;;;;;;;;;;;;;;;;;;;;;;;;;;;;;;;;;;;;;;;------------===================================================&&&***************************&&&&&&&&&============&&&OOO&&&******************************************&&&&&&&&&*********&&&&&&==================================================================================================================",
"==================---;;;;;;;;;;;;;;;;;;;;;;;;;;;;;;;;;;;;;;;;;;;;;;;;;;;;;;;;;;;;------------===================================================&&&***************************&&&&&&&&&============&&&OOO&&&******************************************&&&&&&&&&*********&&&&&&==================================================================================================================",
"==================---;;;;;;;;;;;;;;;;;;;;;;;;;;;;;;;;;;;;;;;;;;;;;;;;;;;;;;;;;;;;------------===================================================&&&***************************&&&&&&&&&============&&&OOO&&&******************************************&&&&&&&&&*********&&&&&&==================================================================================================================",
"==================---;;;;;;;;;;;;;;;;;;;;;;;;;;;;;;;;;;;;;;;;;;;;;;;;;;;;;;;;;;;;;;;---=========================================================&&&*********************************&&&&&&&&&&&&&&&OOO&&&*********************************************&&&&&&&&&************&&&&&&&&&&&&&&&&&&&&&================================================================================================",
"==================---;;;;;;;;;;;;;;;;;;;;;;;;;;;;;;;;;;;;;;;;;;;;;;;;;;;;;;;;;;;;;;;---=========================================================&&&*********************************&&&&&&&&&&&&&&&OOO&&&*********************************************&&&&&&&&&************&&&&&&&&&&&&&&&&&&&&&================================================================================================",
"==================---;;;;;;;;;;;;;;;;;;;;;;;;;;;;;;;;;;;;;;;;;;;;;;;;;;;;;;;;;;;;;;;---=========================================================&&&*********************************&&&&&&&&&&&&&&&OOO&&&*********************************************&&&&&&&&&************&&&&&&&&&&&&&&&&&&&&&================================================================================================",
"==================------;;;;;;;;;;;;;;;;;;;;;;;;;;;;;;;;;;;;;;;;;;;;;;;;;;;;;;;;;;;;---=========================================================&&&***************************************&&&&&&******************************************************&&&&&&&&&******************************&&&&&&&&&==========================================================================================",
"==================------;;;;;;;;;;;;;;;;;;;;;;;;;;;;;;;;;;;;;;;;;;;;;;;;;;;;;;;;;;;;---=========================================================&&&***************************************&&&&&&******************************************************&&&&&&&&&******************************&&&&&&&&&==========================================================================================",
"==================------;;;;;;;;;;;;;;;;;;;;;;;;;;;;;;;;;;;;;;;;;;;;;;;;;;;;;;;;;;;;---=========================================================&&&***************************************&&&&&&******************************************************&&&&&&&&&******************************&&&&&&&&&==========================================================================================",
"=====================---------;;;---;;;;;;;;;;;;;;;;;;;;;;;;;;;;;;---;;;;;;;;;;;;------=========================================================&&&&&&*********************************&&&&&&************************************************************************************&&&***************&&&==========================================================================================",
"=====================---------;;;---;;;;;;;;;;;;;;;;;;;;;;;;;;;;;;---;;;;;;;;;;;;------=========================================================&&&&&&*********************************&&&&&&************************************************************************************&&&***************&&&==========================================================================================",
"=====================---------;;;---;;;;;;;;;;;;;;;;;;;;;;;;;;;;;;---;;;;;;;;;;;;------=========================================================&&&&&&*********************************&&&&&&************************************************************************************&&&***************&&&==========================================================================================",
"===========================---------;;;;;;;;;;;;;;;;;;;;;;;;;;;------;;;;;;;;;------===============================================================&&&&&&******************************&&&******************************************************************************************&&&&&&&&&&&&&&&&&&==========================================================================================",
"===========================---------;;;;;;;;;;;;;;;;;;;;;;;;;;;------;;;;;;;;;------===============================================================&&&&&&******************************&&&******************************************************************************************&&&&&&&&&&&&&&&&&&==========================================================================================",
"===========================---------;;;;;;;;;;;;;;;;;;;;;;;;;;;------;;;;;;;;;------===============================================================&&&&&&******************************&&&******************************************************************************************&&&&&&&&&&&&&&&&&&==========================================================================================",
"=================================---;;;;;;;;;;;;;;;;;;;;;;;;;;;------------------=====================================================================&&&&&&*********************************************************************************************************************************&&&&&&&&&==========================================================================================",
"=================================---;;;;;;;;;;;;;;;;;;;;;;;;;;;------------------=====================================================================&&&&&&*********************************************************************************************************************************&&&&&&&&&==========================================================================================",
"=================================---;;;;;;;;;;;;;;;;;;;;;;;;;;;------------------=====================================================================&&&&&&*********************************************************************************************************************************&&&&&&&&&==========================================================================================",
"=================================------;;;;;;;;;;;;;;;;;;;;;;;;------====================================================================================&&&&&&*********************************************************************************************************************&&&&&&&&&&&&================================================================================================",
"=================================------;;;;;;;;;;;;;;;;;;;;;;;;------====================================================================================&&&&&&*********************************************************************************************************************&&&&&&&&&&&&================================================================================================",
"=================================------;;;;;;;;;;;;;;;;;;;;;;;;------====================================================================================&&&&&&*********************************************************************************************************************&&&&&&&&&&&&================================================================================================",
"====================================------;;;;;;;;;;;;;;;---------==========================================================================================&&&&&&************************************************************************************************************&&&&&&&&&=========================================================================================================",
"====================================------;;;;;;;;;;;;;;;---------==========================================================================================&&&&&&************************************************************************************************************&&&&&&&&&=========================================================================================================",
"====================================------;;;;;;;;;;;;;;;---------==========================================================================================&&&&&&************************************************************************************************************&&&&&&&&&=========================================================================================================",
"==========================================---------------=========================================================================================================&&&&&&***&&&***************************************************************************************&&&&&&&&&&&&===============================================================================================================",
"==========================================---------------=========================================================================================================&&&&&&***&&&***************************************************************************************&&&&&&&&&&&&===============================================================================================================",
"==========================================---------------=========================================================================================================&&&&&&***&&&***************************************************************************************&&&&&&&&&&&&===============================================================================================================",
"=====================================================================================================================================================================&&&&&&&&&*********************************************************************************&&&&&&&&&========================================================================================================================",
"=====================================================================================================================================================================&&&&&&&&&*********************************************************************************&&&&&&&&&========================================================================================================================",
"=====================================================================================================================================================================&&&&&&&&&*********************************************************************************&&&&&&&&&========================================================================================================================",
"==================================================================================================================================================================&&&***************************************************************************************&&&&&&==============================================================================================================================",
"==================================================================================================================================================================&&&***************************************************************************************&&&&&&==============================================================================================================================",
"==================================================================================================================================================================&&&***************************************************************************************&&&&&&==============================================================================================================================",
"==================================================================================================================================================================&&&******************************&&&***************&&&*********************************&&&&&&=================================================================================================================================",
"==================================================================================================================================================================&&&******************************&&&***************&&&*********************************&&&&&&=================================================================================================================================",
"==================================================================================================================================================================&&&******************************&&&***************&&&*********************************&&&&&&=================================================================================================================================",
"===============================================================================================================================================================&&&&&&******************************&&&***************&&&******************************&&&&&&====================================================================================================================================",
"===============================================================================================================================================================&&&&&&******************************&&&***************&&&******************************&&&&&&====================================================================================================================================",
"===============================================================================================================================================================&&&&&&******************************&&&***************&&&******************************&&&&&&====================================================================================================================================",
"===============================================================================================================================================================&&&&&&***************************&&&&&&***************&&&************************&&&&&&==========================================================================================================================================",
"===============================================================================================================================================================&&&&&&***************************&&&&&&***************&&&************************&&&&&&==========================================================================================================================================",
"===============================================================================================================================================================&&&&&&***************************&&&&&&***************&&&************************&&&&&&==========================================================================================================================================",
"===============================================================================================================================================================&&&******************************&&&***************&&&&&&*********************&&&&&&=============================================================================================================================================",
"===============================================================================================================================================================&&&******************************&&&***************&&&&&&*********************&&&&&&=============================================================================================================================================",
"===============================================================================================================================================================&&&******************************&&&***************&&&&&&*********************&&&&&&=============================================================================================================================================",
"============================================================================================================================================================&&&&&&******************************&&&***************&&&******************&&&&&&&&&================================================================================================================================================",
"============================================================================================================================================================&&&&&&******************************&&&***************&&&******************&&&&&&&&&================================================================================================================================================",
"============================================================================================================================================================&&&&&&******************************&&&***************&&&******************&&&&&&&&&================================================================================================================================================",
"============================================================================================================================================================&&&*********************************&&&************&&&&&&************&&&&&&&&&======================================================================================================================================================",
"============================================================================================================================================================&&&*********************************&&&************&&&&&&************&&&&&&&&&======================================================================================================================================================",
"============================================================================================================================================================&&&*********************************&&&************&&&&&&************&&&&&&&&&======================================================================================================================================================",
"=========================================================================================================================================================&&&************************************&&&************&&&************&&&&&&============================================================================================================================================================",
"=========================================================================================================================================================&&&************************************&&&************&&&************&&&&&&============================================================================================================================================================",
"=========================================================================================================================================================&&&************************************&&&************&&&************&&&&&&============================================================================================================================================================",
"=========================================================================================================================================================&&&************************************&&&************&&&***&&&&&&&&&&&&===============================================================================================================================================================",
"=========================================================================================================================================================&&&************************************&&&************&&&***&&&&&&&&&&&&===============================================================================================================================================================",
"=========================================================================================================================================================&&&************************************&&&************&&&***&&&&&&&&&&&&===============================================================================================================================================================",
"=========================================================================================================================================================&&&************************************&&&*********&&&&&&&&&&&&OOO=====================================================================================================================================================================",
"=========================================================================================================================================================&&&************************************&&&*********&&&&&&&&&&&&OOO=====================================================================================================================================================================",
"=========================================================================================================================================================&&&************************************&&&*********&&&&&&&&&&&&OOO=====================================================================================================================================================================",
"=========================================================================================================================================================&&&************************************&&&&&&******&&&OOOOOOOOO========================================================================================================================================================================",
"=========================================================================================================================================================&&&************************************&&&&&&******&&&OOOOOOOOO========================================================================================================================================================================",
"=========================================================================================================================================================&&&************************************&&&&&&******&&&OOOOOOOOO========================================================================================================================================================================",
"=========================================================================================================================================================&&&***************************************&&&******&&&OOOOOO===========================================================================================================================================================================",
"=========================================================================================================================================================&&&***************************************&&&******&&&OOOOOO===========================================================================================================================================================================",
"=========================================================================================================================================================&&&***************************************&&&******&&&OOOOOO===========================================================================================================================================================================",
"======================================================================================================================================================&&&*********************************&&&&&&&&&&&&***&&&&&&OOO==============================================================================================================================================================================",
"======================================================================================================================================================&&&*********************************&&&&&&&&&&&&***&&&&&&OOO==============================================================================================================================================================================",
"======================================================================================================================================================&&&*********************************&&&&&&&&&&&&***&&&&&&OOO==============================================================================================================================================================================",
"======================================================================================================================================================&&&******************************&&&&&&======&&&&&&&&&OOOOOO==============================================================================================================================================================================",
"======================================================================================================================================================&&&******************************&&&&&&======&&&&&&&&&OOOOOO==============================================================================================================================================================================",
"======================================================================================================================================================&&&******************************&&&&&&======&&&&&&&&&OOOOOO==============================================================================================================================================================================",
"======================================================================================================================================================&&&************************&&&&&&&&&=========&&&&&&OOOOOO=================================================================================================================================================================================",
"======================================================================================================================================================&&&************************&&&&&&&&&=========&&&&&&OOOOOO=================================================================================================================================================================================",
"======================================================================================================================================================&&&************************&&&&&&&&&=========&&&&&&OOOOOO=================================================================================================================================================================================",
"=================================================================================================================================&&&&&&&&&&&&&&&&&&&&&&&&******************&&&&&&&&&============================================================================================================================================================================================================",
"=================================================================================================================================&&&&&&&&&&&&&&&&&&&&&&&&******************&&&&&&&&&============================================================================================================================================================================================================",
"=================================================================================================================================&&&&&&&&&&&&&&&&&&&&&&&&******************&&&&&&&&&============================================================================================================================================================================================================",
"========================================================================================================================&&&&&&&&&&&&******************&&&***************&&&&&&==================================================================================================================================================================================================================",
"========================================================================================================================&&&&&&&&&&&&******************&&&***************&&&&&&==================================================================================================================================================================================================================",
"========================================================================================================================&&&&&&&&&&&&******************&&&***************&&&&&&==================================================================================================================================================================================================================",
"=====================================================================================================================&&&&&&******************************************&&&&&&=====================================================================================================================================================================================================================",
"=====================================================================================================================&&&&&&******************************************&&&&&&=====================================================================================================================================================================================================================",
"=====================================================================================================================&&&&&&******************************************&&&&&&=====================================================================================================================================================================================================================",
"==================================================================================================================&&&***************************************************&&&=====================================================================================================================================================================================================================",
"==================================================================================================================&&&***************************************************&&&=====================================================================================================================================================================================================================",
"==================================================================================================================&&&***************************************************&&&=====================================================================================================================================================================================================================",
"============================================================================================================&&&&&&******************************************************&&&&&&==================================================================================================================================================================================================================",
"============================================================================================================&&&&&&******************************************************&&&&&&==================================================================================================================================================================================================================",
"============================================================================================================&&&&&&******************************************************&&&&&&==================================================================================================================================================================================================================",
"=========================================================================================================&&&&&&************************************************************&&&==================================================================================================================================================================================================================",
"=========================================================================================================&&&&&&************************************************************&&&==================================================================================================================================================================================================================",
"=========================================================================================================&&&&&&************************************************************&&&==================================================================================================================================================================================================================",
"=========================================================================================================&&&***************************************************************&&&&&&===============================================================================================================================================================================================================",
"=========================================================================================================&&&***************************************************************&&&&&&===============================================================================================================================================================================================================",
"=========================================================================================================&&&***************************************************************&&&&&&===============================================================================================================================================================================================================",
"======================================================================================================&&&&&&******************************************************************&&&===============================================================================================================================================================================================================",
"======================================================================================================&&&&&&******************************************************************&&&===============================================================================================================================================================================================================",
"======================================================================================================&&&&&&******************************************************************&&&===============================================================================================================================================================================================================",
"===================================================================================================&&&&&&*********************************************************************&&&===============================================================================================================================================================================================================",
"===================================================================================================&&&&&&*********************************************************************&&&===============================================================================================================================================================================================================",
"===================================================================================================&&&&&&*********************************************************************&&&===============================================================================================================================================================================================================",
"===================================================================================================&&&************************************************************************&&&===============================================================================================================================================================================================================",
"===================================================================================================&&&************************************************************************&&&===============================================================================================================================================================================================================",
"===================================================================================================&&&************************************************************************&&&===============================================================================================================================================================================================================",
"================================================================================================&&&&&&*********************************&&&&&&&&&&&&&&&************************&&&===============================================================================================================================================================================================================",
"================================================================================================&&&&&&*********************************&&&&&&&&&&&&&&&************************&&&===============================================================================================================================================================================================================",
"================================================================================================&&&&&&*********************************&&&&&&&&&&&&&&&************************&&&===============================================================================================================================================================================================================",
"================================================================================================&&&******************************&&&&&&&&&======&&&************************&&&==================================================================================================================================================================================================================",
"================================================================================================&&&******************************&&&&&&&&&======&&&************************&&&==================================================================================================================================================================================================================",
"================================================================================================&&&******************************&&&&&&&&&======&&&************************&&&==================================================================================================================================================================================================================",
"================================================================================================&&&***************************&&&&&&============&&&************************&&&==================================================================================================================================================================================================================",
"================================================================================================&&&***************************&&&&&&============&&&************************&&&==================================================================================================================================================================================================================",
"================================================================================================&&&***************************&&&&&&============&&&************************&&&==================================================================================================================================================================================================================",
"=============================================================================================&&&&&&*********************&&&&&&==================&&&&&&*********************&&&==================================================================================================================================================================================================================",
"=============================================================================================&&&&&&*********************&&&&&&==================&&&&&&*********************&&&==================================================================================================================================================================================================================",
"=============================================================================================&&&&&&*********************&&&&&&==================&&&&&&*********************&&&==================================================================================================================================================================================================================",
"=============================================================================================&&&***************&&&&&&&&&&&&========================&&&*********************&&&==================================================================================================================================================================================================================",
"=============================================================================================&&&***************&&&&&&&&&&&&========================&&&*********************&&&==================================================================================================================================================================================================================",
"=============================================================================================&&&***************&&&&&&&&&&&&========================&&&*********************&&&==================================================================================================================================================================================================================",
"=============================================================================================&&&&&&&&&&&&&&&&&&&&&=================================&&&&&&***************&&&&&&==================================================================================================================================================================================================================",
"=============================================================================================&&&&&&&&&&&&&&&&&&&&&=================================&&&&&&***************&&&&&&==================================================================================================================================================================================================================",
"=============================================================================================&&&&&&&&&&&&&&&&&&&&&=================================&&&&&&***************&&&&&&==================================================================================================================================================================================================================",
"======================================================================================================================================================&&&&&&************&&&=====================================================================================================================================================================================================================",
"======================================================================================================================================================&&&&&&************&&&=====================================================================================================================================================================================================================",
"======================================================================================================================================================&&&&&&************&&&=====================================================================================================================================================================================================================",
"=========================================================================================================================================================&&&************&&&=====================================================================================================================================================================================================================",
"=========================================================================================================================================================&&&************&&&=====================================================================================================================================================================================================================",
"=========================================================================================================================================================&&&************&&&=====================================================================================================================================================================================================================",
"=========================================================================================================================================================&&&*********&&&&&&=====================================================================================================================================================================================================================",
"=========================================================================================================================================================&&&*********&&&&&&=====================================================================================================================================================================================================================",
"=========================================================================================================================================================&&&*********&&&&&&=====================================================================================================================================================================================================================",
"=========================================================================================================================================================&&&&&&&&&***&&&========================================================================================================================================================================================================================",
"=========================================================================================================================================================&&&&&&&&&***&&&========================================================================================================================================================================================================================",
"=========================================================================================================================================================&&&&&&&&&***&&&========================================================================================================================================================================================================================",
"===============================================================================================================================================================&&&&&&&&&========================================================================================================================================================================================================================",
"===============================================================================================================================================================&&&&&&&&&========================================================================================================================================================================================================================",
"===============================================================================================================================================================&&&&&&&&&========================================================================================================================================================================================================================",
"================================================================================================================================================================================================================================================================================================================================================================================================",
"================================================================================================================================================================================================================================================================================================================================================================================================",
"================================================================================================================================================================================================================================================================================================================================================================================================",
"================================================================================================================================================================================================================================================================================================================================================================================================",
"================================================================================================================================================================================================================================================================================================================================================================================================",
"================================================================================================================================================================================================================================================================================================================================================================================================",
"################################################################################################################################################################################################################################################################################################################################################################################################",
"################################################################################################################################################################################################################################################################################################################################################################################################",
"################################################################################################################################################################################################################################################################################################################################################################################################",
"++++++++++++++++++++++++++++++++++++++++++++++++++++++++++++++++++++++++++++++++++++++++++++++++++++++++++++++++++++++++++++++++++++++++++++++++++++++++++++++++++++++++++++++++++++++++++++++++++++++++++++++++++++++++++++++++++++++++++++++++++++++++++++++++++++++++++++++++++++++++++++++++++++++++++++++++++++++++++++++++++++++++++++++++++++++++++++++++++++++++++++++++++++++++++++++++",
"++++++++++++++++++++++++++++++++++++++++++++++++++++++++++++++++++++++++++++++++++++++++++++++++++++++++++++++++++++++++++++++++++++++++++++++++++++++++++++++++++++++++++++++++++++++++++++++++++++++++++++++++++++++++++++++++++++++++++++++++++++++++++++++++++++++++++++++++++++++++++++++++++++++++++++++++++++++++++++++++++++++++++++++++++++++++++++++++++++++++++++++++++++++++++++++++",
"++++++++++++++++++++++++++++++++++++++++++++++++++++++++++++++++++++++++++++++++++++++++++++++++++++++++++++++++++++++++++++++++++++++++++++++++++++++++++++++++++++++++++++++++++++++++++++++++++++++++++++++++++++++++++++++++++++++++++++++++++++++++++++++++++++++++++++++++++++++++++++++++++++++++++++++++++++++++++++++++++++++++++++++++++++++++++++++++++++++++++++++++++++++++++++++++",
"++++++++++++++++++++++++++++++++++++++++++++++++++++++++++++++++++++++++++++++++++++++++++++++++++++++++++++++++++++++++++++++++++++++++++++++++++++++++++++++++++++++++++++++++++++++++++++++++++++++++++++++++++++++++++++++++++++++++++++++++++++++++++++++++++++++++++++++++++++++++++++++++++++++++++++++++++++++++++++++++++++++++++++++++++++++++++++++++++++++++++++++++++++++++++++++++",
"++++++++++++++++++++++++++++++++++++++++++++++++++++++++++++++++++++++++++++++++++++++++++++++++++++++++++++++++++++++++++++++++++++++++++++++++++++++++++++++++++++++++++++++++++++++++++++++++++++++++++++++++++++++++++++++++++++++++++++++++++++++++++++++++++++++++++++++++++++++++++++++++++++++++++++++++++++++++++++++++++++++++++++++++++++++++++++++++++++++++++++++++++++++++++++++++",
"++++++++++++++++++++++++++++++++++++++++++++++++++++++++++++++++++++++++++++++++++++++++++++++++++++++++++++++++++++++++++++++++++++++++++++++++++++++++++++++++++++++++++++++++++++++++++++++++++++++++++++++++++++++++++++++++++++++++++++++++++++++++++++++++++++++++++++++++++++++++++++++++++++++++++++++++++++++++++++++++++++++++++++++++++++++++++++++++++++++++++++++++++++++++++++++++",
"XXXXXXXXXXXXXXXXXXXXXXXXXXXXXXXXXXXXXXXXXXXXXXXXXXXXXXXXXXXXXXXXXXXXXXXXXXXXXXXXXXXXXXXXXXXXXXXXXXXXXXXXXXXXXXXXXXXXXXXXXXXXXXXXXXXXXXXXXXXXXXXXXXXXXXXXXXXXXXXXXXXXXXXXXXXXXXXXXXXXXXXXXXXXXXXXXXXXXXXXXXXXXXXXXXXXXXXXXXXXXXXXXXXXXXXXXXXXXXXXXXXXXXXXXXXXXXXXXXXXXXXXXXXXXXXXXXXXXXXXXXXXXXXXXXXXXXXXXXXXXXXXXXXXXXXXXXXXXXXXXXXXXXXXXXXXXXXXXXXXXXXXXXXXXXXXXXXXXXXXXXXXXXXXXXXXXXXXXXXXXXXX",
"XXXXXXXXXXXXXXXXXXXXXXXXXXXXXXXXXXXXXXXXXXXXXXXXXXXXXXXXXXXXXXXXXXXXXXXXXXXXXXXXXXXXXXXXXXXXXXXXXXXXXXXXXXXXXXXXXXXXXXXXXXXXXXXXXXXXXXXXXXXXXXXXXXXXXXXXXXXXXXXXXXXXXXXXXXXXXXXXXXXXXXXXXXXXXXXXXXXXXXXXXXXXXXXXXXXXXXXXXXXXXXXXXXXXXXXXXXXXXXXXXXXXXXXXXXXXXXXXXXXXXXXXXXXXXXXXXXXXXXXXXXXXXXXXXXXXXXXXXXXXXXXXXXXXXXXXXXXXXXXXXXXXXXXXXXXXXXXXXXXXXXXXXXXXXXXXXXXXXXXXXXXXXXXXXXXXXXXXXXXXXXXX",
"XXXXXXXXXXXXXXXXXXXXXXXXXXXXXXXXXXXXXXXXXXXXXXXXXXXXXXXXXXXXXXXXXXXXXXXXXXXXXXXXXXXXXXXXXXXXXXXXXXXXXXXXXXXXXXXXXXXXXXXXXXXXXXXXXXXXXXXXXXXXXXXXXXXXXXXXXXXXXXXXXXXXXXXXXXXXXXXXXXXXXXXXXXXXXXXXXXXXXXXXXXXXXXXXXXXXXXXXXXXXXXXXXXXXXXXXXXXXXXXXXXXXXXXXXXXXXXXXXXXXXXXXXXXXXXXXXXXXXXXXXXXXXXXXXXXXXXXXXXXXXXXXXXXXXXXXXXXXXXXXXXXXXXXXXXXXXXXXXXXXXXXXXXXXXXXXXXXXXXXXXXXXXXXXXXXXXXXXXXXXXXXX",
"=======================================   ......+++===========================================================================   ......+++============================================================================================================   ......ooo===========================================================================   ......+++=======================================",
"=======================================   ......+++===========================================================================   ......+++============================================================================================================   ......ooo===========================================================================   ......+++=======================================",
"=======================================   ......+++===========================================================================   ......+++============================================================================================================   ......ooo===========================================================================   ......+++=======================================",
"=======================================ooo++++++###===========================================================================ooo++++++###============================================================================================================ooo++++++###===========================================================================ooo++++++###=======================================",
"=======================================ooo++++++###===========================================================================ooo++++++###============================================================================================================ooo++++++###===========================================================================ooo++++++###=======================================",
"=======================================ooo++++++###===========================================================================ooo++++++###============================================================================================================ooo++++++###===========================================================================ooo++++++###=======================================",
"=======================================ooo++++++###===========================================================================ooo++++++###============================================================================================================ooo++++++###===========================================================================ooo++++++###=======================================",
"=======================================ooo++++++###===========================================================================ooo++++++###============================================================================================================ooo++++++###===========================================================================ooo++++++###=======================================",
"=======================================ooo++++++###===========================================================================ooo++++++###============================================================================================================ooo++++++###===========================================================================ooo++++++###=======================================",
"=======================================ooo++++++###===========================================================================ooo++++++###============================================================================================================ooo++++++###===========================================================================ooo++++++###=======================================",
"=======================================ooo++++++###===========================================================================ooo++++++###============================================================================================================ooo++++++###===========================================================================ooo++++++###=======================================",
"=======================================ooo++++++###===========================================================================ooo++++++###============================================================================================================ooo++++++###===========================================================================ooo++++++###=======================================",
"=======================================ooo++++++###===========================================================================ooo++++++###============================================================================================================ooo++++++###===========================================================================ooo++++++###=======================================",
"=======================================ooo++++++###===========================================================================ooo++++++###============================================================================================================ooo++++++###===========================================================================ooo++++++###=======================================",
"=======================================ooo++++++###===========================================================================ooo++++++###============================================================================================================ooo++++++###===========================================================================ooo++++++###=======================================",
"=======================================ooo++++++###===========================================================================ooo++++++###============================================================================================================ooo++++++###===========================================================================ooo++++++###=======================================",
"=======================================ooo++++++###===========================================================================ooo++++++###============================================================================================================ooo++++++###===========================================================================ooo++++++###=======================================",
"=======================================ooo++++++###===========================================================================ooo++++++###============================================================================================================ooo++++++###===========================================================================ooo++++++###=======================================",
"=======================================ooo++++++###===========================================================================ooo++++++###============================================================================================================ooo++++++###===========================================================================ooo++++++###=======================================",
"=======================================ooo++++++###===========================================================================ooo++++++###============================================================================================================ooo++++++###===========================================================================ooo++++++###=======================================",
"=======================================ooo++++++###===========================================================================ooo++++++###============================================================================================================ooo++++++###===========================================================================ooo++++++###=======================================",
"=======================================ooo++++++###===========================================================================ooo++++++###============================================================================================================ooo++++++###===========================================================================ooo++++++###=======================================",
"=======================================ooo++++++###===========================================================================ooo++++++###============================================================================================================ooo++++++###===========================================================================ooo++++++###=======================================",
"=======================================ooo++++++###===========================================================================ooo++++++###============================================================================================================ooo++++++###===========================================================================ooo++++++###=======================================",
"=======================================ooo++++++###===========================================================================ooo++++++###============================================================================================================ooo++++++###===========================================================================ooo++++++###=======================================",
"=======================================ooo++++++###===========================================================================ooo++++++###============================================================================================================ooo++++++###===========================================================================ooo++++++###=======================================",
"=======================================ooo++++++###===========================================================================ooo++++++###============================================================================================================ooo++++++###===========================================================================ooo++++++###=======================================",
"=======================================ooo++++++###===========================================================================ooo++++++###============================================================================================================ooo++++++###===========================================================================ooo++++++###=======================================",
"=======================================ooo++++++###===========================================================================ooo++++++###============================================================================================================ooo++++++###===========================================================================ooo++++++###=======================================",
"=======================================ooo++++++###===========================================================================ooo++++++###============================================================================================================ooo++++++###===========================================================================ooo++++++###=======================================",
"=======================================ooo++++++###===========================================================================ooo++++++###============================================================================================================ooo++++++###===========================================================================ooo++++++###=======================================",
"=======================================ooo++++++###===========================================================================ooo++++++###============================================================================================================ooo++++++###===========================================================================ooo++++++###=======================================",
"=======================================ooo++++++###===========================================================================ooo++++++###============================================================================================================ooo++++++###===========================================================================ooo++++++###=======================================",
"$$$$$$%%%%%%$$$$$$$$$$$$$$$$$$$$$$$$%%%ooo++++++###$$$$$$$$$$$$$$$$$$$$$$$$$$$$$$$$$$$$$$$%%%%%%$$$$$$$$$$$$$$$$$$$$$%%%$$$$$$ooo++++++###$$$$$$$$$$$$$$$$$$$$$$$$$$$$$$$$$%%%$$$$$$$$$$$$$$$$$$$$$%%%$$$$$$$$$$$$$$$%%%$$$$$$$$$$$$$$$$$$$$$$$$$$$$$$ooo++++++###$$$$$$$$$$$$$$$$$$$$$%%%%%%$$$$$$$$$$$$$$$$$$$$$$$$$$$$$$$$$$$$%%%$$$$$$$$$ooo++++++###%%%$$$$$$$$$$$$$$$$$$$$$$$$$$$$$$%%%$$$",
"$$$$$$%%%%%%$$$$$$$$$$$$$$$$$$$$$$$$%%%ooo++++++###$$$$$$$$$$$$$$$$$$$$$$$$$$$$$$$$$$$$$$$%%%%%%$$$$$$$$$$$$$$$$$$$$$%%%$$$$$$ooo++++++###$$$$$$$$$$$$$$$$$$$$$$$$$$$$$$$$$%%%$$$$$$$$$$$$$$$$$$$$$%%%$$$$$$$$$$$$$$$%%%$$$$$$$$$$$$$$$$$$$$$$$$$$$$$$ooo++++++###$$$$$$$$$$$$$$$$$$$$$%%%%%%$$$$$$$$$$$$$$$$$$$$$$$$$$$$$$$$$$$$%%%$$$$$$$$$ooo++++++###%%%$$$$$$$$$$$$$$$$$$$$$$$$$$$$$$%%%$$$",
"$$$$$$%%%%%%$$$$$$$$$$$$$$$$$$$$$$$$%%%ooo++++++###$$$$$$$$$$$$$$$$$$$$$$$$$$$$$$$$$$$$$$$%%%%%%$$$$$$$$$$$$$$$$$$$$$%%%$$$$$$ooo++++++###$$$$$$$$$$$$$$$$$$$$$$$$$$$$$$$$$%%%$$$$$$$$$$$$$$$$$$$$$%%%$$$$$$$$$$$$$$$%%%$$$$$$$$$$$$$$$$$$$$$$$$$$$$$$ooo++++++###$$$$$$$$$$$$$$$$$$$$$%%%%%%$$$$$$$$$$$$$$$$$$$$$$$$$$$$$$$$$$$$%%%$$$$$$$$$ooo++++++###%%%$$$$$$$$$$$$$$$$$$$$$$$$$$$$$$%%%$$$",
"%%%%%%%%%$$$$$$$$$$$$$$$%%%%%%$$$$$$$$$ooo++++++###%%%$$$$$$$$$$$$%%%%%%%%%$$$$$$$$$%%%%%%%%%$$$$$$$$$$$$$$$%%%%%%$$$$$$$$$$$$ooo++++++###$$$%%%$$$$$$$$$$$$$$$$$$%%%%%%%%%$$$$$$$$$$$$%%%%%%$$$$$$$$$$$$$$$%%%%%%%%%%%%$$$$$$$$$$$$%%%%%%%%%$$$$$$%%%ooo++++++###$$$%%%$$$$$$$$$$$$%%%%%%$$$$$$$$$$$$$$$%%%%%%$$$$$$$$$$$$$$$%%%$$$$$$$$$$$$ooo++++++###$$$$$$$$$$$$%%%$$$$$$%%%%%%$$$$$$$$$$$$",
"%%%%%%%%%$$$$$$$$$$$$$$$%%%%%%$$$$$$$$$ooo++++++###%%%$$$$$$$$$$$$%%%%%%%%%$$$$$$$$$%%%%%%%%%$$$$$$$$$$$$$$$%%%%%%$$$$$$$$$$$$ooo++++++###$$$%%%$$$$$$$$$$$$$$$$$$%%%%%%%%%$$$$$$$$$$$$%%%%%%$$$$$$$$$$$$$$$%%%%%%%%%%%%$$$$$$$$$$$$%%%%%%%%%$$$$$$%%%ooo++++++###$$$%%%$$$$$$$$$$$$%%%%%%$$$$$$$$$$$$$$$%%%%%%$$$$$$$$$$$$$$$%%%$$$$$$$$$$$$ooo++++++###$$$$$$$$$$$$%%%$$$$$$%%%%%%$$$$$$$$$$$$",
"%%%%%%%%%$$$$$$$$$$$$$$$%%%%%%$$$$$$$$$ooo++++++###%%%$$$$$$$$$$$$%%%%%%%%%$$$$$$$$$%%%%%%%%%$$$$$$$$$$$$$$$%%%%%%$$$$$$$$$$$$ooo++++++###$$$%%%$$$$$$$$$$$$$$$$$$%%%%%%%%%$$$$$$$$$$$$%%%%%%$$$$$$$$$$$$$$$%%%%%%%%%%%%$$$$$$$$$$$$%%%%%%%%%$$$$$$%%%ooo++++++###$$$%%%$$$$$$$$$$$$%%%%%%$$$$$$$$$$$$$$$%%%%%%$$$$$$$$$$$$$$$%%%$$$$$$$$$$$$ooo++++++###$$$$$$$$$$$$%%%$$$$$$%%%%%%$$$$$$$$$$$$",
"$$$$$$$$$$$$$$$$$$%%%%%%%%%$$$$$$$$$$$$ooo++++++###$$$$$$$$$%%%%%%%%%$$$$$$$$$$$$$$$$$$$$$$$$$$$$$$$$$$$$%%%%%%$$$$$$$$$$$$$$$ooo++++++###%%%$$$$$$$$$$$$$$$$$$%%%$$$$$$$$$$$$$$$$$$%%%%%%$$$$$$$$$$$$$$$%%%%%%$$$$$$$$$$$$$$$$$$%%%%%%$$$$$$$$$$$$$$$ooo++++++###%%%$$$$$$$$$$$$%%%$$$$$$$$$$$$$$$$$$%%%%%%$$$$$$$$$$$$$$$$$$$$$$$$$$$$$$%%%ooo++++++###$$$$$$$$$%%%$$$$$$%%%%%%$$$$$$$$$$$$$$$",
"$$$$$$$$$$$$$$$$$$%%%%%%%%%$$$$$$$$$$$$ooo++++++###$$$$$$$$$%%%%%%%%%$$$$$$$$$$$$$$$$$$$$$$$$$$$$$$$$$$$$%%%%%%$$$$$$$$$$$$$$$ooo++++++###%%%$$$$$$$$$$$$$$$$$$%%%$$$$$$$$$$$$$$$$$$%%%%%%$$$$$$$$$$$$$$$%%%%%%$$$$$$$$$$$$$$$$$$%%%%%%$$$$$$$$$$$$$$$ooo++++++###%%%$$$$$$$$$$$$%%%$$$$$$$$$$$$$$$$$$%%%%%%$$$$$$$$$$$$$$$$$$$$$$$$$$$$$$%%%ooo++++++###$$$$$$$$$%%%$$$$$$%%%%%%$$$$$$$$$$$$$$$",
"$$$$$$$$$$$$$$$$$$%%%%%%%%%$$$$$$$$$$$$ooo++++++###$$$$$$$$$%%%%%%%%%$$$$$$$$$$$$$$$$$$$$$$$$$$$$$$$$$$$$%%%%%%$$$$$$$$$$$$$$$ooo++++++###%%%$$$$$$$$$$$$$$$$$$%%%$$$$$$$$$$$$$$$$$$%%%%%%$$$$$$$$$$$$$$$%%%%%%$$$$$$$$$$$$$$$$$$%%%%%%$$$$$$$$$$$$$$$ooo++++++###%%%$$$$$$$$$$$$%%%$$$$$$$$$$$$$$$$$$%%%%%%$$$$$$$$$$$$$$$$$$$$$$$$$$$$$$%%%ooo++++++###$$$$$$$$$%%%$$$$$$%%%%%%$$$$$$$$$$$$$$$",
"oooooooooooooooooooooooooooooooooooooooooooooooooooooooooooooooooooooooooooooooooooooooooooooooooooooooooooooooooooooooooooooooooooooooooooooooooooooooooooooooooooooooooooooooooooooooooooooooooooooooooooooooooooooooooooooooooooooooooooooooooooooooooooooooooooooooooooooooooooooooooooooooooooooooooooooooooooooooooooooooooooooooooooooooooooooooooooooooooooooooooooooooooooooooooooooooo",
"oooooooooooooooooooooooooooooooooooooooooooooooooooooooooooooooooooooooooooooooooooooooooooooooooooooooooooooooooooooooooooooooooooooooooooooooooooooooooooooooooooooooooooooooooooooooooooooooooooooooooooooooooooooooooooooooooooooooooooooooooooooooooooooooooooooooooooooooooooooooooooooooooooooooooooooooooooooooooooooooooooooooooooooooooooooooooooooooooooooooooooooooooooooooooooooooo",
"oooooooooooooooooooooooooooooooooooooooooooooooooooooooooooooooooooooooooooooooooooooooooooooooooooooooooooooooooooooooooooooooooooooooooooooooooooooooooooooooooooooooooooooooooooooooooooooooooooooooooooooooooooooooooooooooooooooooooooooooooooooooooooooooooooooooooooooooooooooooooooooooooooooooooooooooooooooooooooooooooooooooooooooooooooooooooooooooooooooooooooooooooooooooooooooooo",
"++++++++++++++++++++++++++++++++++++++++++++++++@@@@@@@@@@@@+++++++++++++++++++++++++++ooo++++++++++++++++++++++++++++++++++++++++++++++++++++++++++++++++++++++++++++++++++++ooo+++++++++++++++++++++++++++++++++@@@@@@@@@@@@@@@@@@@@@@@@@@@@@@@@@@@@@@@@@@@@@@@@+++++++++++++++++++++++++++++++++++++++++++++++++++++++++ooo++++++++++++++++++++++++++++++++++++++++++@@@@@@@@@@@@@@@@@@@@@@@@",
"++++++++++++++++++++++++++++++++++++++++++++++++@@@@@@@@@@@@+++++++++++++++++++++++++++ooo++++++++++++++++++++++++++++++++++++++++++++++++++++++++++++++++++++++++++++++++++++ooo+++++++++++++++++++++++++++++++++@@@@@@@@@@@@@@@@@@@@@@@@@@@@@@@@@@@@@@@@@@@@@@@@+++++++++++++++++++++++++++++++++++++++++++++++++++++++++ooo++++++++++++++++++++++++++++++++++++++++++@@@@@@@@@@@@@@@@@@@@@@@@",
"++++++++++++++++++++++++++++++++++++++++++++++++@@@@@@@@@@@@+++++++++++++++++++++++++++ooo++++++++++++++++++++++++++++++++++++++++++++++++++++++++++++++++++++++++++++++++++++ooo+++++++++++++++++++++++++++++++++@@@@@@@@@@@@@@@@@@@@@@@@@@@@@@@@@@@@@@@@@@@@@@@@+++++++++++++++++++++++++++++++++++++++++++++++++++++++++ooo++++++++++++++++++++++++++++++++++++++++++@@@@@@@@@@@@@@@@@@@@@@@@",
"++++++++++++++++++++++++++++++++++++++++++++++++@@@@@@@@@@@@@@@@@@@@@@@@@@@@@@+++++++++ooo++++++++++++++++++++++++++++++++++++++++++++++++++++++++++++++++++++++++++++++++++++ooo+++++++++++++++++++++++++++++++++@@@@@@@@@@@@@@@@@@@@@@@@@@@@@@@@@@@@@@@@@@@@@@@@+++++++++++++++++++++++++++++++++++++++++++++++++++++++++ooo@@@@@@@@@@@@@@@@@@@@@@@@++++++++++++++++++@@@@@@@@@@@@@@@@@@@@@@@@",
"++++++++++++++++++++++++++++++++++++++++++++++++@@@@@@@@@@@@@@@@@@@@@@@@@@@@@@+++++++++ooo++++++++++++++++++++++++++++++++++++++++++++++++++++++++++++++++++++++++++++++++++++ooo+++++++++++++++++++++++++++++++++@@@@@@@@@@@@@@@@@@@@@@@@@@@@@@@@@@@@@@@@@@@@@@@@+++++++++++++++++++++++++++++++++++++++++++++++++++++++++ooo@@@@@@@@@@@@@@@@@@@@@@@@++++++++++++++++++@@@@@@@@@@@@@@@@@@@@@@@@",
"++++++++++++++++++++++++++++++++++++++++++++++++@@@@@@@@@@@@@@@@@@@@@@@@@@@@@@+++++++++ooo++++++++++++++++++++++++++++++++++++++++++++++++++++++++++++++++++++++++++++++++++++ooo+++++++++++++++++++++++++++++++++@@@@@@@@@@@@@@@@@@@@@@@@@@@@@@@@@@@@@@@@@@@@@@@@+++++++++++++++++++++++++++++++++++++++++++++++++++++++++ooo@@@@@@@@@@@@@@@@@@@@@@@@++++++++++++++++++@@@@@@@@@@@@@@@@@@@@@@@@",
"+++++++++++++++@@@@@@@@@@@@@@@@@@++++++++++++++++++++++++@@@@@@@@@@@@@@@@@@@@@@@@@@@@@@ooo++++++++++++++++++++++++++++++++++++++++++++++++++++++@@@@@@@@@@@@@@@@@@@@@@@@@@@@@@ooo@@@@@@@@@++++++++++++++++++++++++++++++++++++@@@@@@@@@@@@@@@@@@@@@@@@@@@++++++++++++++++++++++++++++++++++++@@@@@@@@@@@@++++++++++++++++++ooo@@@@@@@@@@@@@@@@@@@@@@@@++++++++++++++++++++++++++++++++++++++++++",
"+++++++++++++++@@@@@@@@@@@@@@@@@@++++++++++++++++++++++++@@@@@@@@@@@@@@@@@@@@@@@@@@@@@@ooo++++++++++++++++++++++++++++++++++++++++++++++++++++++@@@@@@@@@@@@@@@@@@@@@@@@@@@@@@ooo@@@@@@@@@++++++++++++++++++++++++++++++++++++@@@@@@@@@@@@@@@@@@@@@@@@@@@++++++++++++++++++++++++++++++++++++@@@@@@@@@@@@++++++++++++++++++ooo@@@@@@@@@@@@@@@@@@@@@@@@++++++++++++++++++++++++++++++++++++++++++",
"+++++++++++++++@@@@@@@@@@@@@@@@@@++++++++++++++++++++++++@@@@@@@@@@@@@@@@@@@@@@@@@@@@@@ooo++++++++++++++++++++++++++++++++++++++++++++++++++++++@@@@@@@@@@@@@@@@@@@@@@@@@@@@@@ooo@@@@@@@@@++++++++++++++++++++++++++++++++++++@@@@@@@@@@@@@@@@@@@@@@@@@@@++++++++++++++++++++++++++++++++++++@@@@@@@@@@@@++++++++++++++++++ooo@@@@@@@@@@@@@@@@@@@@@@@@++++++++++++++++++++++++++++++++++++++++++",
"+++@@@@@@@@@@@@@@@@@@@@@@@@@@@@@@++++++++++++++++++++++++++++++++++++++++++@@@@@@@@@@@@ooo++++++++++++++++++++++++++++++++++++++++++++++++++++++@@@@@@@@@@@@@@@@@@@@@@@@@@@@@@ooo@@@@@@@@@++++++++++++++++++++++++++++++++++++@@@@@@@@@@@@@@@@@@@@@@@@@@@++++++++++++++++++++++++++++++++++++@@@@@@@@@@@@++++++++++++++++++ooo++++++++++++@@@@@@@@@@@@@@@@@@@@@+++++++++++++++++++++++++++++++++",
"+++@@@@@@@@@@@@@@@@@@@@@@@@@@@@@@++++++++++++++++++++++++++++++++++++++++++@@@@@@@@@@@@ooo++++++++++++++++++++++++++++++++++++++++++++++++++++++@@@@@@@@@@@@@@@@@@@@@@@@@@@@@@ooo@@@@@@@@@++++++++++++++++++++++++++++++++++++@@@@@@@@@@@@@@@@@@@@@@@@@@@++++++++++++++++++++++++++++++++++++@@@@@@@@@@@@++++++++++++++++++ooo++++++++++++@@@@@@@@@@@@@@@@@@@@@+++++++++++++++++++++++++++++++++",
"+++@@@@@@@@@@@@@@@@@@@@@@@@@@@@@@++++++++++++++++++++++++++++++++++++++++++@@@@@@@@@@@@ooo++++++++++++++++++++++++++++++++++++++++++++++++++++++@@@@@@@@@@@@@@@@@@@@@@@@@@@@@@ooo@@@@@@@@@++++++++++++++++++++++++++++++++++++@@@@@@@@@@@@@@@@@@@@@@@@@@@++++++++++++++++++++++++++++++++++++@@@@@@@@@@@@++++++++++++++++++ooo++++++++++++@@@@@@@@@@@@@@@@@@@@@+++++++++++++++++++++++++++++++++",
"+++@@@@@@@@@@@@@@@+++++++++++++++++++++++++++++++++++++++++++++++++++++++++++++++++++++ooo+++++++++++++++++++++++++++@@@@@@@@@@@@@@@@@@@@@@@@@@@@@@@@@@@@@@@++++++++++++++++++ooo+++++++++++++++++++++++++++++++++++++++++++++++++++++++++++++++++++++++++++++++++++++++++++++++++++@@@@@@@@@@@@@@@@@@@@@@@@+++++++++++++++ooo++++++++++++@@@@@@@@@@@@@@@@@@@@@+++++++++++++++++++++++++++++++++",
"+++@@@@@@@@@@@@@@@+++++++++++++++++++++++++++++++++++++++++++++++++++++++++++++++++++++ooo+++++++++++++++++++++++++++@@@@@@@@@@@@@@@@@@@@@@@@@@@@@@@@@@@@@@@++++++++++++++++++ooo+++++++++++++++++++++++++++++++++++++++++++++++++++++++++++++++++++++++++++++++++++++++++++++++++++@@@@@@@@@@@@@@@@@@@@@@@@+++++++++++++++ooo++++++++++++@@@@@@@@@@@@@@@@@@@@@+++++++++++++++++++++++++++++++++",
"+++@@@@@@@@@@@@@@@+++++++++++++++++++++++++++++++++++++++++++++++++++++++++++++++++++++ooo+++++++++++++++++++++++++++@@@@@@@@@@@@@@@@@@@@@@@@@@@@@@@@@@@@@@@++++++++++++++++++ooo+++++++++++++++++++++++++++++++++++++++++++++++++++++++++++++++++++++++++++++++++++++++++++++++++++@@@@@@@@@@@@@@@@@@@@@@@@+++++++++++++++ooo++++++++++++@@@@@@@@@@@@@@@@@@@@@+++++++++++++++++++++++++++++++++",
"+++++++++++++++++++++++++++++++++++++++++++++++++++++++++++++++++++++++++++++++++++++++ooo+++++++++++++++++++++++++++@@@@@@@@@@@@@@@@@@@@@@@@@@@@@@@@@@@@@@@++++++++++++++++++ooo+++++++++++++++++++++++++++++++++++++++++++++++++++++++++++++++++++++++++++++++++++++++++++++++++++@@@@@@@@@@@@@@@@@@@@@@@@+++++++++++++++ooo++++++++++++++++++++++++++++++++++++++++++++++++++++++++++++++++++",
"+++++++++++++++++++++++++++++++++++++++++++++++++++++++++++++++++++++++++++++++++++++++ooo+++++++++++++++++++++++++++@@@@@@@@@@@@@@@@@@@@@@@@@@@@@@@@@@@@@@@++++++++++++++++++ooo+++++++++++++++++++++++++++++++++++++++++++++++++++++++++++++++++++++++++++++++++++++++++++++++++++@@@@@@@@@@@@@@@@@@@@@@@@+++++++++++++++ooo++++++++++++++++++++++++++++++++++++++++++++++++++++++++++++++++++",
"+++++++++++++++++++++++++++++++++++++++++++++++++++++++++++++++++++++++++++++++++++++++ooo+++++++++++++++++++++++++++@@@@@@@@@@@@@@@@@@@@@@@@@@@@@@@@@@@@@@@++++++++++++++++++ooo+++++++++++++++++++++++++++++++++++++++++++++++++++++++++++++++++++++++++++++++++++++++++++++++++++@@@@@@@@@@@@@@@@@@@@@@@@+++++++++++++++ooo++++++++++++++++++++++++++++++++++++++++++++++++++++++++++++++++++",
"XXXXXXXXXXXXXXXXXXXXXXXXXXXXXXXXXXXXXXXXXXXXXXXXXXXXXXXXXXXXXXXXXXXXXXXXXXXXXXXXXXXXXXXXXXXXXXXXXXXXXXXXXXXXXXXXXXXXXXXXXXXXXXXXXXXXXXXXXXXXXXXXXXXXXXXXXXXXXXXXXXXXXXXXXXXXXXXXXXXXXXXXXXXXXXXXXXXXXXXXXXXXXXXXXXXXXXXXXXXXXXXXXXXXXXXXXXXXXXXXXXXXXXXXXXXXXXXXXXXXXXXXXXXXXXXXXXXXXXXXXXXXXXXXXXXXXXXXXXXXXXXXXXXXXXXXXXXXXXXXXXXXXXXXXXXXXXXXXXXXXXXXXXXXXXXXXXXXXXXXXXXXXXXXXXXXXXXXXXXXXXXX",
"XXXXXXXXXXXXXXXXXXXXXXXXXXXXXXXXXXXXXXXXXXXXXXXXXXXXXXXXXXXXXXXXXXXXXXXXXXXXXXXXXXXXXXXXXXXXXXXXXXXXXXXXXXXXXXXXXXXXXXXXXXXXXXXXXXXXXXXXXXXXXXXXXXXXXXXXXXXXXXXXXXXXXXXXXXXXXXXXXXXXXXXXXXXXXXXXXXXXXXXXXXXXXXXXXXXXXXXXXXXXXXXXXXXXXXXXXXXXXXXXXXXXXXXXXXXXXXXXXXXXXXXXXXXXXXXXXXXXXXXXXXXXXXXXXXXXXXXXXXXXXXXXXXXXXXXXXXXXXXXXXXXXXXXXXXXXXXXXXXXXXXXXXXXXXXXXXXXXXXXXXXXXXXXXXXXXXXXXXXXXXXXX",
"XXXXXXXXXXXXXXXXXXXXXXXXXXXXXXXXXXXXXXXXXXXXXXXXXXXXXXXXXXXXXXXXXXXXXXXXXXXXXXXXXXXXXXXXXXXXXXXXXXXXXXXXXXXXXXXXXXXXXXXXXXXXXXXXXXXXXXXXXXXXXXXXXXXXXXXXXXXXXXXXXXXXXXXXXXXXXXXXXXXXXXXXXXXXXXXXXXXXXXXXXXXXXXXXXXXXXXXXXXXXXXXXXXXXXXXXXXXXXXXXXXXXXXXXXXXXXXXXXXXXXXXXXXXXXXXXXXXXXXXXXXXXXXXXXXXXXXXXXXXXXXXXXXXXXXXXXXXXXXXXXXXXXXXXXXXXXXXXXXXXXXXXXXXXXXXXXXXXXXXXXXXXXXXXXXXXXXXXXXXXXXXX",
"XXXXXXXXXXXXXXXXXXXXXXXXXXXXXXXXXXXXXXXXXXXXXXXXXXXXXXXXXXXXXXXXXXXXXXXXXXXXXXXXXXXXXXXXXXXXXXXXXXXXXXXXXXXXXXXXXXXXXXXXXXXXXXXXXXXXXXXXXXXXXXXXXXXXXXXXXXXXXXXXXXXXXXXXXXXXXXXXXXXXXXXXXXXXXXXXXXXXXXXXXXXXXXXXXXXXXXXXXXXXXXXXXXXXXXXXXXXXXXXXXXXXXXXXXXXXXXXXXXXXXXXXXXXXXXXXXXXXXXXXXXXXXXXXXXXXXXXXXXXXXXXXXXXXXXXXXXXXXXXXXXXXXXXXXXXXXXXXXXXXXXXXXXXXXXXXXXXXXXXXXXXXXXXXXXXXXXXXXXXXXXXX",
"XXXXXXXXXXXXXXXXXXXXXXXXXXXXXXXXXXXXXXXXXXXXXXXXXXXXXXXXXXXXXXXXXXXXXXXXXXXXXXXXXXXXXXXXXXXXXXXXXXXXXXXXXXXXXXXXXXXXXXXXXXXXXXXXXXXXXXXXXXXXXXXXXXXXXXXXXXXXXXXXXXXXXXXXXXXXXXXXXXXXXXXXXXXXXXXXXXXXXXXXXXXXXXXXXXXXXXXXXXXXXXXXXXXXXXXXXXXXXXXXXXXXXXXXXXXXXXXXXXXXXXXXXXXXXXXXXXXXXXXXXXXXXXXXXXXXXXXXXXXXXXXXXXXXXXXXXXXXXXXXXXXXXXXXXXXXXXXXXXXXXXXXXXXXXXXXXXXXXXXXXXXXXXXXXXXXXXXXXXXXXXXX",
"XXXXXXXXXXXXXXXXXXXXXXXXXXXXXXXXXXXXXXXXXXXXXXXXXXXXXXXXXXXXXXXXXXXXXXXXXXXXXXXXXXXXXXXXXXXXXXXXXXXXXXXXXXXXXXXXXXXXXXXXXXXXXXXXXXXXXXXXXXXXXXXXXXXXXXXXXXXXXXXXXXXXXXXXXXXXXXXXXXXXXXXXXXXXXXXXXXXXXXXXXXXXXXXXXXXXXXXXXXXXXXXXXXXXXXXXXXXXXXXXXXXXXXXXXXXXXXXXXXXXXXXXXXXXXXXXXXXXXXXXXXXXXXXXXXXXXXXXXXXXXXXXXXXXXXXXXXXXXXXXXXXXXXXXXXXXXXXXXXXXXXXXXXXXXXXXXXXXXXXXXXXXXXXXXXXXXXXXXXXXXXXX",
"+++++++++ooo++++++++++++++++++++++++++++++++++++++++++++++++++++++++++++++++++++++++++++++++++++++++++++++++++++++++++++@@@@@@@@@@@@@@@@@@@@@+++++++++++++++++++++++++++++++++++++++@@@@@@@@@@@@@@@@@@@@@+++++++++ooo+++++++++++++++++++++++++++++++++++++++++++++++++++++++++++++++@@@@@@++++++++++++++++++++++++++++++++++++++++++++++++++++++++++++++++++@@@@@@@@@@@@@@@@@@ooo+++++++++++++++",
"+++++++++ooo++++++++++++++++++++++++++++++++++++++++++++++++++++++++++++++++++++++++++++++++++++++++++++++++++++++++++++@@@@@@@@@@@@@@@@@@@@@+++++++++++++++++++++++++++++++++++++++@@@@@@@@@@@@@@@@@@@@@+++++++++ooo+++++++++++++++++++++++++++++++++++++++++++++++++++++++++++++++@@@@@@++++++++++++++++++++++++++++++++++++++++++++++++++++++++++++++++++@@@@@@@@@@@@@@@@@@ooo+++++++++++++++",
"+++++++++ooo++++++++++++++++++++++++++++++++++++++++++++++++++++++++++++++++++++++++++++++++++++++++++++++++++++++++++++@@@@@@@@@@@@@@@@@@@@@+++++++++++++++++++++++++++++++++++++++@@@@@@@@@@@@@@@@@@@@@+++++++++ooo+++++++++++++++++++++++++++++++++++++++++++++++++++++++++++++++@@@@@@++++++++++++++++++++++++++++++++++++++++++++++++++++++++++++++++++@@@@@@@@@@@@@@@@@@ooo+++++++++++++++",
"+++++++++ooo@@@@@@@@@+++++++++++++++++++++++++++++++++++++++++++++++++++++++++++++++++++++++++++++++++++++++++++++++++++@@@@@@@@@@@@@@@@@@@@@+++++++++++++++++++++++++++++++++++++++@@@@@@@@@@@@@@@@@@@@@+++++++++ooo+++++++++++++++++++++++++++++++++++++++++++++++++++++++++++++++@@@@@@++++++++++++++++++++++++++++++++++++++++++++++++@@@@@@@@@@@@@@@@@@@@@@@@@@@@@@@@@@@@ooo+++++++++++++++",
"+++++++++ooo@@@@@@@@@+++++++++++++++++++++++++++++++++++++++++++++++++++++++++++++++++++++++++++++++++++++++++++++++++++@@@@@@@@@@@@@@@@@@@@@+++++++++++++++++++++++++++++++++++++++@@@@@@@@@@@@@@@@@@@@@+++++++++ooo+++++++++++++++++++++++++++++++++++++++++++++++++++++++++++++++@@@@@@++++++++++++++++++++++++++++++++++++++++++++++++@@@@@@@@@@@@@@@@@@@@@@@@@@@@@@@@@@@@ooo+++++++++++++++",
"+++++++++ooo@@@@@@@@@+++++++++++++++++++++++++++++++++++++++++++++++++++++++++++++++++++++++++++++++++++++++++++++++++++@@@@@@@@@@@@@@@@@@@@@+++++++++++++++++++++++++++++++++++++++@@@@@@@@@@@@@@@@@@@@@+++++++++ooo+++++++++++++++++++++++++++++++++++++++++++++++++++++++++++++++@@@@@@++++++++++++++++++++++++++++++++++++++++++++++++@@@@@@@@@@@@@@@@@@@@@@@@@@@@@@@@@@@@ooo+++++++++++++++",
"+++++++++ooo@@@@@@@@@@@@@@@@@@+++++++++++++++++++++++++++++++++++++++++++++++++++@@@@@@@@@@@@@@@++++++++++++++++++++++++++++++++++++++++++++++++++++++++++++++++++++++++++++++++++++++++++++++++@@@@@@@@@@@@@@@@@@ooo+++++++++++++++++++++++++++++++++++++++++++++++++++++++++@@@@@@++++++++++++++++++++++++++++++++++++++++++++++++++++++@@@@@@@@@@@@@@@@@@++++++++++++++++++ooo+++++++++++++++",
"+++++++++ooo@@@@@@@@@@@@@@@@@@+++++++++++++++++++++++++++++++++++++++++++++++++++@@@@@@@@@@@@@@@++++++++++++++++++++++++++++++++++++++++++++++++++++++++++++++++++++++++++++++++++++++++++++++++@@@@@@@@@@@@@@@@@@ooo+++++++++++++++++++++++++++++++++++++++++++++++++++++++++@@@@@@++++++++++++++++++++++++++++++++++++++++++++++++++++++@@@@@@@@@@@@@@@@@@++++++++++++++++++ooo+++++++++++++++",
"+++++++++ooo@@@@@@@@@@@@@@@@@@+++++++++++++++++++++++++++++++++++++++++++++++++++@@@@@@@@@@@@@@@++++++++++++++++++++++++++++++++++++++++++++++++++++++++++++++++++++++++++++++++++++++++++++++++@@@@@@@@@@@@@@@@@@ooo+++++++++++++++++++++++++++++++++++++++++++++++++++++++++@@@@@@++++++++++++++++++++++++++++++++++++++++++++++++++++++@@@@@@@@@@@@@@@@@@++++++++++++++++++ooo+++++++++++++++",
"+++++++++ooo++++++@@@@@@@@@@@@@@@@@@+++++++++++++++++++++++++++++++++++++++++++++@@@@@@@@@@@@@@@+++++++++++++++++++++++++++++++++++++++++++++++++++@@@@@@@@@@@@@@@++++++++++++++++++++++++++++++@@@@@@@@@@@@@@@@@@ooo+++++++++@@@@@@@@@@@@@@@@@@@@@+++++++++++++++++++++++++++@@@@@@+++++++++++++++@@@@@@@@@@@@@@@@@@+++++++++++++++++++++++++++++++++++++++++++++++++++++++++ooo+++++++++++++++",
"+++++++++ooo++++++@@@@@@@@@@@@@@@@@@+++++++++++++++++++++++++++++++++++++++++++++@@@@@@@@@@@@@@@+++++++++++++++++++++++++++++++++++++++++++++++++++@@@@@@@@@@@@@@@++++++++++++++++++++++++++++++@@@@@@@@@@@@@@@@@@ooo+++++++++@@@@@@@@@@@@@@@@@@@@@+++++++++++++++++++++++++++@@@@@@+++++++++++++++@@@@@@@@@@@@@@@@@@+++++++++++++++++++++++++++++++++++++++++++++++++++++++++ooo+++++++++++++++",
"+++++++++ooo++++++@@@@@@@@@@@@@@@@@@+++++++++++++++++++++++++++++++++++++++++++++@@@@@@@@@@@@@@@+++++++++++++++++++++++++++++++++++++++++++++++++++@@@@@@@@@@@@@@@++++++++++++++++++++++++++++++@@@@@@@@@@@@@@@@@@ooo+++++++++@@@@@@@@@@@@@@@@@@@@@+++++++++++++++++++++++++++@@@@@@+++++++++++++++@@@@@@@@@@@@@@@@@@+++++++++++++++++++++++++++++++++++++++++++++++++++++++++ooo+++++++++++++++",
"+++++++++ooo+++++++++++++++@@@@@@@@@++++++++++++++++++@@@@@@@@@@@@@@@@@@@@@@@@@@@@@@@@@@@@+++++++++++++++++++++++++++++++++++++++++++++++++++++++++@@@@@@@@@@@@@@@++++++++++++++++++++++++++++++++++++++++++++++++ooo+++++++++@@@@@@@@@@@@@@@@@@@@@@@@@@@@@@@@@@@@@@@++++++++++++++++++++++++++++++@@@@@@@@@@@@@@@@@@@@@@@@@@@@@@@@@@@@++++++++++++++++++++++++++++++++++++@@@ooo@@@@@@@@@@@@@@@",
"+++++++++ooo+++++++++++++++@@@@@@@@@++++++++++++++++++@@@@@@@@@@@@@@@@@@@@@@@@@@@@@@@@@@@@+++++++++++++++++++++++++++++++++++++++++++++++++++++++++@@@@@@@@@@@@@@@++++++++++++++++++++++++++++++++++++++++++++++++ooo+++++++++@@@@@@@@@@@@@@@@@@@@@@@@@@@@@@@@@@@@@@@++++++++++++++++++++++++++++++@@@@@@@@@@@@@@@@@@@@@@@@@@@@@@@@@@@@++++++++++++++++++++++++++++++++++++@@@ooo@@@@@@@@@@@@@@@",
"+++++++++ooo+++++++++++++++@@@@@@@@@++++++++++++++++++@@@@@@@@@@@@@@@@@@@@@@@@@@@@@@@@@@@@+++++++++++++++++++++++++++++++++++++++++++++++++++++++++@@@@@@@@@@@@@@@++++++++++++++++++++++++++++++++++++++++++++++++ooo+++++++++@@@@@@@@@@@@@@@@@@@@@@@@@@@@@@@@@@@@@@@++++++++++++++++++++++++++++++@@@@@@@@@@@@@@@@@@@@@@@@@@@@@@@@@@@@++++++++++++++++++++++++++++++++++++@@@ooo@@@@@@@@@@@@@@@",
"+++++++++ooo++++++++++++++++++++++++++++++++++++++++++@@@@@@@@@@@@@@@@@@@@@@@@@@@@@@@@@@@@++++++++++++++++++++++++++++++++++++++++++++++++++++++++++++++++++++++++++++++++++++++++++++++++++++++++++++++++++++++++ooo+++++++++++++++++++++++++++@@@@@@@@@@@@@@@@@@@@@+++++++++++++++++++++++++++++++++++++++++++++@@@@@@@@@@@@@@@@@@@@@++++++++++++++++++++++++++++++++++++@@@ooo@@@@@@@@@@@@@@@",
"+++++++++ooo++++++++++++++++++++++++++++++++++++++++++@@@@@@@@@@@@@@@@@@@@@@@@@@@@@@@@@@@@++++++++++++++++++++++++++++++++++++++++++++++++++++++++++++++++++++++++++++++++++++++++++++++++++++++++++++++++++++++++ooo+++++++++++++++++++++++++++@@@@@@@@@@@@@@@@@@@@@+++++++++++++++++++++++++++++++++++++++++++++@@@@@@@@@@@@@@@@@@@@@++++++++++++++++++++++++++++++++++++@@@ooo@@@@@@@@@@@@@@@",
"+++++++++ooo++++++++++++++++++++++++++++++++++++++++++@@@@@@@@@@@@@@@@@@@@@@@@@@@@@@@@@@@@++++++++++++++++++++++++++++++++++++++++++++++++++++++++++++++++++++++++++++++++++++++++++++++++++++++++++++++++++++++++ooo+++++++++++++++++++++++++++@@@@@@@@@@@@@@@@@@@@@+++++++++++++++++++++++++++++++++++++++++++++@@@@@@@@@@@@@@@@@@@@@++++++++++++++++++++++++++++++++++++@@@ooo@@@@@@@@@@@@@@@",
"XXXXXXXXXXXXXXXXXXXXXXXXXXXXXXXXXXXXXXXXXXXXXXXXXXXXXXXXXXXXXXXXXXXXXXXXXXXXXXXXXXXXXXXXXXXXXXXXXXXXXXXXXXXXXXXXXXXXXXXXXXXXXXXXXXXXXXXXXXXXXXXXXXXXXXXXXXXXXXXXXXXXXXXXXXXXXXXXXXXXXXXXXXXXXXXXXXXXXXXXXXXXXXXXXXXXXXXXXXXXXXXXXXXXXXXXXXXXXXXXXXXXXXXXXXXXXXXXXXXXXXXXXXXXXXXXXXXXXXXXXXXXXXXXXXXXXXXXXXXXXXXXXXXXXXXXXXXXXXXXXXXXXXXXXXXXXXXXXXXXXXXXXXXXXXXXXXXXXXXXXXXXXXXXXXXXXXXXXXXXXXXX",
"XXXXXXXXXXXXXXXXXXXXXXXXXXXXXXXXXXXXXXXXXXXXXXXXXXXXXXXXXXXXXXXXXXXXXXXXXXXXXXXXXXXXXXXXXXXXXXXXXXXXXXXXXXXXXXXXXXXXXXXXXXXXXXXXXXXXXXXXXXXXXXXXXXXXXXXXXXXXXXXXXXXXXXXXXXXXXXXXXXXXXXXXXXXXXXXXXXXXXXXXXXXXXXXXXXXXXXXXXXXXXXXXXXXXXXXXXXXXXXXXXXXXXXXXXXXXXXXXXXXXXXXXXXXXXXXXXXXXXXXXXXXXXXXXXXXXXXXXXXXXXXXXXXXXXXXXXXXXXXXXXXXXXXXXXXXXXXXXXXXXXXXXXXXXXXXXXXXXXXXXXXXXXXXXXXXXXXXXXXXXXXXX",
"XXXXXXXXXXXXXXXXXXXXXXXXXXXXXXXXXXXXXXXXXXXXXXXXXXXXXXXXXXXXXXXXXXXXXXXXXXXXXXXXXXXXXXXXXXXXXXXXXXXXXXXXXXXXXXXXXXXXXXXXXXXXXXXXXXXXXXXXXXXXXXXXXXXXXXXXXXXXXXXXXXXXXXXXXXXXXXXXXXXXXXXXXXXXXXXXXXXXXXXXXXXXXXXXXXXXXXXXXXXXXXXXXXXXXXXXXXXXXXXXXXXXXXXXXXXXXXXXXXXXXXXXXXXXXXXXXXXXXXXXXXXXXXXXXXXXXXXXXXXXXXXXXXXXXXXXXXXXXXXXXXXXXXXXXXXXXXXXXXXXXXXXXXXXXXXXXXXXXXXXXXXXXXXXXXXXXXXXXXXXXXXX",
"XXXXXXXXXXXXXXXXXXXXXXXXXXXXXXXXXXXXXXXXXXXXXXXXXXXXXXXXXXXXXXXXXXXXXXXXXXXXXXXXXXXXXXXXXXXXXXXXXXXXXXXXXXXXXXXXXXXXXXXXXXXXXXXXXXXXXXXXXXXXXXXXXXXXXXXXXXXXXXXXXXXXXXXXXXXXXXXXXXXXXXXXXXXXXXXXXXXXXXXXXXXXXXXXXXXXXXXXXXXXXXXXXXXXXXXXXXXXXXXXXXXXXXXXXXXXXXXXXXXXXXXXXXXXXXXXXXXXXXXXXXXXXXXXXXXXXXXXXXXXXXXXXXXXXXXXXXXXXXXXXXXXXXXXXXXXXXXXXXXXXXXXXXXXXXXXXXXXXXXXXXXXXXXXXXXXXXXXXXXXXXXX",
"XXXXXXXXXXXXXXXXXXXXXXXXXXXXXXXXXXXXXXXXXXXXXXXXXXXXXXXXXXXXXXXXXXXXXXXXXXXXXXXXXXXXXXXXXXXXXXXXXXXXXXXXXXXXXXXXXXXXXXXXXXXXXXXXXXXXXXXXXXXXXXXXXXXXXXXXXXXXXXXXXXXXXXXXXXXXXXXXXXXXXXXXXXXXXXXXXXXXXXXXXXXXXXXXXXXXXXXXXXXXXXXXXXXXXXXXXXXXXXXXXXXXXXXXXXXXXXXXXXXXXXXXXXXXXXXXXXXXXXXXXXXXXXXXXXXXXXXXXXXXXXXXXXXXXXXXXXXXXXXXXXXXXXXXXXXXXXXXXXXXXXXXXXXXXXXXXXXXXXXXXXXXXXXXXXXXXXXXXXXXXXXX",
"XXXXXXXXXXXXXXXXXXXXXXXXXXXXXXXXXXXXXXXXXXXXXXXXXXXXXXXXXXXXXXXXXXXXXXXXXXXXXXXXXXXXXXXXXXXXXXXXXXXXXXXXXXXXXXXXXXXXXXXXXXXXXXXXXXXXXXXXXXXXXXXXXXXXXXXXXXXXXXXXXXXXXXXXXXXXXXXXXXXXXXXXXXXXXXXXXXXXXXXXXXXXXXXXXXXXXXXXXXXXXXXXXXXXXXXXXXXXXXXXXXXXXXXXXXXXXXXXXXXXXXXXXXXXXXXXXXXXXXXXXXXXXXXXXXXXXXXXXXXXXXXXXXXXXXXXXXXXXXXXXXXXXXXXXXXXXXXXXXXXXXXXXXXXXXXXXXXXXXXXXXXXXXXXXXXXXXXXXXXXXXXX",
"++++++++++++++++++++++++++++++++++++++++++++++++++++++++++++++++++++++++++++++++++++++++++@@@@@@++++++++++++++++++++++++ooo+++++++++++++++++++++++++++++++++++++++@@@@@@@@@@@@@@@@@@@@@@@@@@@++++++++++++++++++++++++++++++++++++++++++@@@@@@@@@ooo+++++++++++++++++++++++++++++++++++++++++++++++++++++++++++++++++++++++++++++++++@@@@@@@@@@@@@@@@@@++++++++++++++++++++++++++++++@@@@@@@@@@@@",
"++++++++++++++++++++++++++++++++++++++++++++++++++++++++++++++++++++++++++++++++++++++++++@@@@@@++++++++++++++++++++++++ooo+++++++++++++++++++++++++++++++++++++++@@@@@@@@@@@@@@@@@@@@@@@@@@@++++++++++++++++++++++++++++++++++++++++++@@@@@@@@@ooo+++++++++++++++++++++++++++++++++++++++++++++++++++++++++++++++++++++++++++++++++@@@@@@@@@@@@@@@@@@++++++++++++++++++++++++++++++@@@@@@@@@@@@",
"++++++++++++++++++++++++++++++++++++++++++++++++++++++++++++++++++++++++++++++++++++++++++@@@@@@++++++++++++++++++++++++ooo+++++++++++++++++++++++++++++++++++++++@@@@@@@@@@@@@@@@@@@@@@@@@@@++++++++++++++++++++++++++++++++++++++++++@@@@@@@@@ooo+++++++++++++++++++++++++++++++++++++++++++++++++++++++++++++++++++++++++++++++++@@@@@@@@@@@@@@@@@@++++++++++++++++++++++++++++++@@@@@@@@@@@@",
"++++++++++++++++++++++++++++++++++++++++++++++++++++++++++++++++++++++++++++++++++++@@@@@@@@@@@@++++++++++++++++++++++++ooo++++++@@@@@@@@@@@@@@@@@@@@@@@@+++++++++@@@@@@@@@@@@@@@@@@@@@@@@@@@++++++++++++++++++++++++++++++++++++++++++@@@@@@@@@ooo@@@@@@@@@@@@+++++++++++++++++++++++++++++++++++++++++++++++++++@@@@@@@@@@@@@@@@@@@@@@@@@@@@@@@@@@@@++++++++++++++++++++++++++++++@@@@@@@@@@@@",
"++++++++++++++++++++++++++++++++++++++++++++++++++++++++++++++++++++++++++++++++++++@@@@@@@@@@@@++++++++++++++++++++++++ooo++++++@@@@@@@@@@@@@@@@@@@@@@@@+++++++++@@@@@@@@@@@@@@@@@@@@@@@@@@@++++++++++++++++++++++++++++++++++++++++++@@@@@@@@@ooo@@@@@@@@@@@@+++++++++++++++++++++++++++++++++++++++++++++++++++@@@@@@@@@@@@@@@@@@@@@@@@@@@@@@@@@@@@++++++++++++++++++++++++++++++@@@@@@@@@@@@",
"++++++++++++++++++++++++++++++++++++++++++++++++++++++++++++++++++++++++++++++++++++@@@@@@@@@@@@++++++++++++++++++++++++ooo++++++@@@@@@@@@@@@@@@@@@@@@@@@+++++++++@@@@@@@@@@@@@@@@@@@@@@@@@@@++++++++++++++++++++++++++++++++++++++++++@@@@@@@@@ooo@@@@@@@@@@@@+++++++++++++++++++++++++++++++++++++++++++++++++++@@@@@@@@@@@@@@@@@@@@@@@@@@@@@@@@@@@@++++++++++++++++++++++++++++++@@@@@@@@@@@@",
"++++++++++++++++++++++++@@@@@@@@@@@@@@@@@@@@@@@@@@@+++++++++++++++++++++++++++++++++@@@@@@++++++++++++++++++++++++++++++ooo++++++@@@@@@@@@@@@@@@@@@@@@@@@++++++++++++++++++++++++++++++@@@@@@@@@@@@@@@++++++++++++++++++++++++++++++++++++++++++ooo@@@@@@@@@@@@+++++++++++++++++++++++++++++++++++++++++++++++++++@@@@@@@@@@@@@@@@@@@@@@@@+++++++++++++++++++++++++++@@@@@@+++++++++++++++++++++",
"++++++++++++++++++++++++@@@@@@@@@@@@@@@@@@@@@@@@@@@+++++++++++++++++++++++++++++++++@@@@@@++++++++++++++++++++++++++++++ooo++++++@@@@@@@@@@@@@@@@@@@@@@@@++++++++++++++++++++++++++++++@@@@@@@@@@@@@@@++++++++++++++++++++++++++++++++++++++++++ooo@@@@@@@@@@@@+++++++++++++++++++++++++++++++++++++++++++++++++++@@@@@@@@@@@@@@@@@@@@@@@@+++++++++++++++++++++++++++@@@@@@+++++++++++++++++++++",
"++++++++++++++++++++++++@@@@@@@@@@@@@@@@@@@@@@@@@@@+++++++++++++++++++++++++++++++++@@@@@@++++++++++++++++++++++++++++++ooo++++++@@@@@@@@@@@@@@@@@@@@@@@@++++++++++++++++++++++++++++++@@@@@@@@@@@@@@@++++++++++++++++++++++++++++++++++++++++++ooo@@@@@@@@@@@@+++++++++++++++++++++++++++++++++++++++++++++++++++@@@@@@@@@@@@@@@@@@@@@@@@+++++++++++++++++++++++++++@@@@@@+++++++++++++++++++++",
"++++++++++++++++++++++++@@@@@@@@@@@@@@@@@@@@@@@@@@@++++++++++++++++++++++++++++++++++++++++++++++++++++++@@@@@@@@@@@@@@@ooo@@@@@@@@@+++++++++++++++++++++++++++++++++++++++++++++++++++@@@@@@@@@@@@@@@++++++++++++++++++++++++++++++++++++++++++ooo+++++++++++++++++++++@@@@@@@@@@@@@@@@@@+++++++++++++++++++++++++++++++++++++++++++++++++++++++++++++++++++++++++++@@@@@@+++++++++++++++++++++",
"++++++++++++++++++++++++@@@@@@@@@@@@@@@@@@@@@@@@@@@++++++++++++++++++++++++++++++++++++++++++++++++++++++@@@@@@@@@@@@@@@ooo@@@@@@@@@+++++++++++++++++++++++++++++++++++++++++++++++++++@@@@@@@@@@@@@@@++++++++++++++++++++++++++++++++++++++++++ooo+++++++++++++++++++++@@@@@@@@@@@@@@@@@@+++++++++++++++++++++++++++++++++++++++++++++++++++++++++++++++++++++++++++@@@@@@+++++++++++++++++++++",
"++++++++++++++++++++++++@@@@@@@@@@@@@@@@@@@@@@@@@@@++++++++++++++++++++++++++++++++++++++++++++++++++++++@@@@@@@@@@@@@@@ooo@@@@@@@@@+++++++++++++++++++++++++++++++++++++++++++++++++++@@@@@@@@@@@@@@@++++++++++++++++++++++++++++++++++++++++++ooo+++++++++++++++++++++@@@@@@@@@@@@@@@@@@+++++++++++++++++++++++++++++++++++++++++++++++++++++++++++++++++++++++++++@@@@@@+++++++++++++++++++++",
"+++@@@@@@@@@@@@@@@@@@@@@@@@@@@+++++++++++++++++++++++++++++++++++++++@@@@@@@@@@@@@@@@@@++++++++++++++++++@@@@@@@@@@@@@@@ooo@@@@@@@@@++++++++++++++++++++++++++++++++++++++++++++++++++++++++++++++++++++++++++++++@@@@@@@@@@@@@@@+++++++++++++++ooo+++++++++++++++++++++@@@@@@@@@@@@@@@@@@@@@@@@@@@@@@@@@++++++++++++++++++++++++++++++++++++@@@@@@@@@@@@@@@@@@+++++++++++++++++++++++++++++++++",
"+++@@@@@@@@@@@@@@@@@@@@@@@@@@@+++++++++++++++++++++++++++++++++++++++@@@@@@@@@@@@@@@@@@++++++++++++++++++@@@@@@@@@@@@@@@ooo@@@@@@@@@++++++++++++++++++++++++++++++++++++++++++++++++++++++++++++++++++++++++++++++@@@@@@@@@@@@@@@+++++++++++++++ooo+++++++++++++++++++++@@@@@@@@@@@@@@@@@@@@@@@@@@@@@@@@@++++++++++++++++++++++++++++++++++++@@@@@@@@@@@@@@@@@@+++++++++++++++++++++++++++++++++",
"+++@@@@@@@@@@@@@@@@@@@@@@@@@@@+++++++++++++++++++++++++++++++++++++++@@@@@@@@@@@@@@@@@@++++++++++++++++++@@@@@@@@@@@@@@@ooo@@@@@@@@@++++++++++++++++++++++++++++++++++++++++++++++++++++++++++++++++++++++++++++++@@@@@@@@@@@@@@@+++++++++++++++ooo+++++++++++++++++++++@@@@@@@@@@@@@@@@@@@@@@@@@@@@@@@@@++++++++++++++++++++++++++++++++++++@@@@@@@@@@@@@@@@@@+++++++++++++++++++++++++++++++++",
"+++@@@@@@@@@@@@@@@@@@@@@@@@@@@+++++++++++++++++++++++++++++++++++++++@@@@@@@@@@@@@@@@@@+++++++++++++++++++++++++++++++++ooo+++++++++++++++++++++++++++++++++++++++++++++++++++++++++++++++++++++++++++++++++++++++@@@@@@@@@@@@@@@+++++++++++++++ooo+++++++++++++++++++++++++++++++++++++++@@@@@@@@@@@@@@@++++++++++++++++++++++++++++++++++++@@@@@@@@@@@@@@@@@@+++++++++++++++++++++++++++++++++",
"+++@@@@@@@@@@@@@@@@@@@@@@@@@@@+++++++++++++++++++++++++++++++++++++++@@@@@@@@@@@@@@@@@@+++++++++++++++++++++++++++++++++ooo+++++++++++++++++++++++++++++++++++++++++++++++++++++++++++++++++++++++++++++++++++++++@@@@@@@@@@@@@@@+++++++++++++++ooo+++++++++++++++++++++++++++++++++++++++@@@@@@@@@@@@@@@++++++++++++++++++++++++++++++++++++@@@@@@@@@@@@@@@@@@+++++++++++++++++++++++++++++++++",
"+++@@@@@@@@@@@@@@@@@@@@@@@@@@@+++++++++++++++++++++++++++++++++++++++@@@@@@@@@@@@@@@@@@+++++++++++++++++++++++++++++++++ooo+++++++++++++++++++++++++++++++++++++++++++++++++++++++++++++++++++++++++++++++++++++++@@@@@@@@@@@@@@@+++++++++++++++ooo+++++++++++++++++++++++++++++++++++++++@@@@@@@@@@@@@@@++++++++++++++++++++++++++++++++++++@@@@@@@@@@@@@@@@@@+++++++++++++++++++++++++++++++++",
"XXXXXXXXXXXXXXXXXXXXXXXXXXXXXXXXXXXXXXXXXXXXXXXXXXXXXXXXXXXXXXXXXXXXXXXXXXXXXXXXXXXXXXXXXXXXXXXXXXXXXXXXXXXXXXXXXXXXXXXXXXXXXXXXXXXXXXXXXXXXXXXXXXXXXXXXXXXXXXXXXXXXXXXXXXXXXXXXXXXXXXXXXXXXXXXXXXXXXXXXXXXXXXXXXXXXXXXXXXXXXXXXXXXXXXXXXXXXXXXXXXXXXXXXXXXXXXXXXXXXXXXXXXXXXXXXXXXXXXXXXXXXXXXXXXXXXXXXXXXXXXXXXXXXXXXXXXXXXXXXXXXXXXXXXXXXXXXXXXXXXXXXXXXXXXXXXXXXXXXXXXXXXXXXXXXXXXXXXXXXXXXX",
"XXXXXXXXXXXXXXXXXXXXXXXXXXXXXXXXXXXXXXXXXXXXXXXXXXXXXXXXXXXXXXXXXXXXXXXXXXXXXXXXXXXXXXXXXXXXXXXXXXXXXXXXXXXXXXXXXXXXXXXXXXXXXXXXXXXXXXXXXXXXXXXXXXXXXXXXXXXXXXXXXXXXXXXXXXXXXXXXXXXXXXXXXXXXXXXXXXXXXXXXXXXXXXXXXXXXXXXXXXXXXXXXXXXXXXXXXXXXXXXXXXXXXXXXXXXXXXXXXXXXXXXXXXXXXXXXXXXXXXXXXXXXXXXXXXXXXXXXXXXXXXXXXXXXXXXXXXXXXXXXXXXXXXXXXXXXXXXXXXXXXXXXXXXXXXXXXXXXXXXXXXXXXXXXXXXXXXXXXXXXXXXX",
"XXXXXXXXXXXXXXXXXXXXXXXXXXXXXXXXXXXXXXXXXXXXXXXXXXXXXXXXXXXXXXXXXXXXXXXXXXXXXXXXXXXXXXXXXXXXXXXXXXXXXXXXXXXXXXXXXXXXXXXXXXXXXXXXXXXXXXXXXXXXXXXXXXXXXXXXXXXXXXXXXXXXXXXXXXXXXXXXXXXXXXXXXXXXXXXXXXXXXXXXXXXXXXXXXXXXXXXXXXXXXXXXXXXXXXXXXXXXXXXXXXXXXXXXXXXXXXXXXXXXXXXXXXXXXXXXXXXXXXXXXXXXXXXXXXXXXXXXXXXXXXXXXXXXXXXXXXXXXXXXXXXXXXXXXXXXXXXXXXXXXXXXXXXXXXXXXXXXXXXXXXXXXXXXXXXXXXXXXXXXXXXX",
"XXXXXXXXXXXXXXXXXXXXXXXXXXXXXXXXXXXXXXXXXXXXXXXXXXXXXXXXXXXXXXXXXXXXXXXXXXXXXXXXXXXXXXXXXXXXXXXXXXXXXXXXXXXXXXXXXXXXXXXXXXXXXXXXXXXXXXXXXXXXXXXXXXXXXXXXXXXXXXXXXXXXXXXXXXXXXXXXXXXXXXXXXXXXXXXXXXXXXXXXXXXXXXXXXXXXXXXXXXXXXXXXXXXXXXXXXXXXXXXXXXXXXXXXXXXXXXXXXXXXXXXXXXXXXXXXXXXXXXXXXXXXXXXXXXXXXXXXXXXXXXXXXXXXXXXXXXXXXXXXXXXXXXXXXXXXXXXXXXXXXXXXXXXXXXXXXXXXXXXXXXXXXXXXXXXXXXXXXXXXXXXX",
"XXXXXXXXXXXXXXXXXXXXXXXXXXXXXXXXXXXXXXXXXXXXXXXXXXXXXXXXXXXXXXXXXXXXXXXXXXXXXXXXXXXXXXXXXXXXXXXXXXXXXXXXXXXXXXXXXXXXXXXXXXXXXXXXXXXXXXXXXXXXXXXXXXXXXXXXXXXXXXXXXXXXXXXXXXXXXXXXXXXXXXXXXXXXXXXXXXXXXXXXXXXXXXXXXXXXXXXXXXXXXXXXXXXXXXXXXXXXXXXXXXXXXXXXXXXXXXXXXXXXXXXXXXXXXXXXXXXXXXXXXXXXXXXXXXXXXXXXXXXXXXXXXXXXXXXXXXXXXXXXXXXXXXXXXXXXXXXXXXXXXXXXXXXXXXXXXXXXXXXXXXXXXXXXXXXXXXXXXXXXXXXX",
"XXXXXXXXXXXXXXXXXXXXXXXXXXXXXXXXXXXXXXXXXXXXXXXXXXXXXXXXXXXXXXXXXXXXXXXXXXXXXXXXXXXXXXXXXXXXXXXXXXXXXXXXXXXXXXXXXXXXXXXXXXXXXXXXXXXXXXXXXXXXXXXXXXXXXXXXXXXXXXXXXXXXXXXXXXXXXXXXXXXXXXXXXXXXXXXXXXXXXXXXXXXXXXXXXXXXXXXXXXXXXXXXXXXXXXXXXXXXXXXXXXXXXXXXXXXXXXXXXXXXXXXXXXXXXXXXXXXXXXXXXXXXXXXXXXXXXXXXXXXXXXXXXXXXXXXXXXXXXXXXXXXXXXXXXXXXXXXXXXXXXXXXXXXXXXXXXXXXXXXXXXXXXXXXXXXXXXXXXXXXXXXX",
"++++++++++++++++++++++++++++++++++++++++++++++++oooooo+++++++++++++++++++++@@@@@@@@@@@@@@@@@@@@@@@@++++++++++++++++++++++++++++++++++++++++++++++++++++++++++++++++++++++++++++++ooo@@@@@@@@@@@@@@@@@@@@@++++++++++++++++++++++++++++++++++++++++++++++++++++++++++++++++++++++++++++++++++++++++++ooo++++++@@@@@@@@@@@@@@@@@@@@@@@@+++++++++++++++++++++++++++++++++ooo++++++++++++++++++@@@@@@",
"++++++++++++++++++++++++++++++++++++++++++++++++oooooo+++++++++++++++++++++@@@@@@@@@@@@@@@@@@@@@@@@++++++++++++++++++++++++++++++++++++++++++++++++++++++++++++++++++++++++++++++ooo@@@@@@@@@@@@@@@@@@@@@++++++++++++++++++++++++++++++++++++++++++++++++++++++++++++++++++++++++++++++++++++++++++ooo++++++@@@@@@@@@@@@@@@@@@@@@@@@+++++++++++++++++++++++++++++++++ooo++++++++++++++++++@@@@@@",
"++++++++++++++++++++++++++++++++++++++++++++++++oooooo+++++++++++++++++++++@@@@@@@@@@@@@@@@@@@@@@@@++++++++++++++++++++++++++++++++++++++++++++++++++++++++++++++++++++++++++++++ooo@@@@@@@@@@@@@@@@@@@@@++++++++++++++++++++++++++++++++++++++++++++++++++++++++++++++++++++++++++++++++++++++++++ooo++++++@@@@@@@@@@@@@@@@@@@@@@@@+++++++++++++++++++++++++++++++++ooo++++++++++++++++++@@@@@@",
"++++++++++++++++++++++++++++++++++++++++++++++++oooooo++++++@@@@@@@@@@@@@@@@@@@@@@@@@@@@@@@@@@@@@@@++++++++++++++++++++++++++++++++++++++++++++++++++++++@@@@@@@@@+++++++++++++++ooo@@@@@@@@@@@@@@@@@@@@@@@@++++++++++++++++++++++++++++++++++++++++++++++++++++++++++++++++++++++++++++++@@@@@@@@@ooo@@@@@@@@@@@@@@@@@@@@@@@@@@@@@@++++++++++++++++++++++++@@@@@@@@@ooo++++++++++++++++++@@@@@@",
"++++++++++++++++++++++++++++++++++++++++++++++++oooooo++++++@@@@@@@@@@@@@@@@@@@@@@@@@@@@@@@@@@@@@@@++++++++++++++++++++++++++++++++++++++++++++++++++++++@@@@@@@@@+++++++++++++++ooo@@@@@@@@@@@@@@@@@@@@@@@@++++++++++++++++++++++++++++++++++++++++++++++++++++++++++++++++++++++++++++++@@@@@@@@@ooo@@@@@@@@@@@@@@@@@@@@@@@@@@@@@@++++++++++++++++++++++++@@@@@@@@@ooo++++++++++++++++++@@@@@@",
"++++++++++++++++++++++++++++++++++++++++++++++++oooooo++++++@@@@@@@@@@@@@@@@@@@@@@@@@@@@@@@@@@@@@@@++++++++++++++++++++++++++++++++++++++++++++++++++++++@@@@@@@@@+++++++++++++++ooo@@@@@@@@@@@@@@@@@@@@@@@@++++++++++++++++++++++++++++++++++++++++++++++++++++++++++++++++++++++++++++++@@@@@@@@@ooo@@@@@@@@@@@@@@@@@@@@@@@@@@@@@@++++++++++++++++++++++++@@@@@@@@@ooo++++++++++++++++++@@@@@@",
"++++++@@@@@@@@@@@@++++++++++++++++++++++++++++++oooooo++++++@@@@@@@@@@@@@@@@@@@@@+++++++++++++++++++++++++++++++++@@@@@@+++++++++++++++++++++++++++@@@@@@@@@@@@@@@+++++++++++++++ooo+++++++++++++++@@@@@@@@@@@@@@@@@@+++++++++++++++@@@@@@@@@@@@@@@@@@++++++++++++++++++++++++++++++++++++@@@@@@@@@ooo@@@@@@@@@++++++++++++++++++++++++++++++++++++@@@@@@@@@@@@@@@@@@ooo++++++++++++++++++++++++",
"++++++@@@@@@@@@@@@++++++++++++++++++++++++++++++oooooo++++++@@@@@@@@@@@@@@@@@@@@@+++++++++++++++++++++++++++++++++@@@@@@+++++++++++++++++++++++++++@@@@@@@@@@@@@@@+++++++++++++++ooo+++++++++++++++@@@@@@@@@@@@@@@@@@+++++++++++++++@@@@@@@@@@@@@@@@@@++++++++++++++++++++++++++++++++++++@@@@@@@@@ooo@@@@@@@@@++++++++++++++++++++++++++++++++++++@@@@@@@@@@@@@@@@@@ooo++++++++++++++++++++++++",
"++++++@@@@@@@@@@@@++++++++++++++++++++++++++++++oooooo++++++@@@@@@@@@@@@@@@@@@@@@+++++++++++++++++++++++++++++++++@@@@@@+++++++++++++++++++++++++++@@@@@@@@@@@@@@@+++++++++++++++ooo+++++++++++++++@@@@@@@@@@@@@@@@@@+++++++++++++++@@@@@@@@@@@@@@@@@@++++++++++++++++++++++++++++++++++++@@@@@@@@@ooo@@@@@@@@@++++++++++++++++++++++++++++++++++++@@@@@@@@@@@@@@@@@@ooo++++++++++++++++++++++++",
"++++++@@@@@@@@@@@@@@@@@@@@@@@@@@@@@@++++++++++++oooooo++++++++++++++++++++++++++++++++++++++++++++++++++++++++++++@@@@@@++++++++++++@@@@@@@@@@@@@@@@@@@@@@@@++++++++++++++++++++++++ooo++++++++++++++++++@@@@@@@@@@@@+++++++++++++++@@@@@@@@@@@@@@@@@@@@@@@@@@@@@@@@@@@@@@@@@@+++++++++++++++++++++ooo+++++++++++++++++++++++++++++++++++++++@@@@@@@@@@@@@@@@@@++++++ooo+++@@@@@@@@@@@@@@@++++++",
"++++++@@@@@@@@@@@@@@@@@@@@@@@@@@@@@@++++++++++++oooooo++++++++++++++++++++++++++++++++++++++++++++++++++++++++++++@@@@@@++++++++++++@@@@@@@@@@@@@@@@@@@@@@@@++++++++++++++++++++++++ooo++++++++++++++++++@@@@@@@@@@@@+++++++++++++++@@@@@@@@@@@@@@@@@@@@@@@@@@@@@@@@@@@@@@@@@@+++++++++++++++++++++ooo+++++++++++++++++++++++++++++++++++++++@@@@@@@@@@@@@@@@@@++++++ooo+++@@@@@@@@@@@@@@@++++++",
"++++++@@@@@@@@@@@@@@@@@@@@@@@@@@@@@@++++++++++++oooooo++++++++++++++++++++++++++++++++++++++++++++++++++++++++++++@@@@@@++++++++++++@@@@@@@@@@@@@@@@@@@@@@@@++++++++++++++++++++++++ooo++++++++++++++++++@@@@@@@@@@@@+++++++++++++++@@@@@@@@@@@@@@@@@@@@@@@@@@@@@@@@@@@@@@@@@@+++++++++++++++++++++ooo+++++++++++++++++++++++++++++++++++++++@@@@@@@@@@@@@@@@@@++++++ooo+++@@@@@@@@@@@@@@@++++++",
"+++++++++++++++@@@@@@@@@@@@@@@@@@@@@@@@@@@@@@@@@ooo++++++++++++++++++++++++++++++++++++++++++@@@@@@@@@@@@@@@++++++++++++++++++++++++@@@@@@@@@@@@@@@@@@++++++++++++++++++@@@@@@@@@@@@ooo++++++++++++++++++++++++++++++++++++++++++++++++++++++++++++@@@@@@@@@@@@@@@@@@@@@@@@@@@@@@@@@@@@@@@@@@++++++ooo+++++++++++++++++++++++++++++++++@@@@@@@@@@@@@@@+++++++++++++++ooo+++@@@@@@@@@@@@@@@++++++",
"+++++++++++++++@@@@@@@@@@@@@@@@@@@@@@@@@@@@@@@@@ooo++++++++++++++++++++++++++++++++++++++++++@@@@@@@@@@@@@@@++++++++++++++++++++++++@@@@@@@@@@@@@@@@@@++++++++++++++++++@@@@@@@@@@@@ooo++++++++++++++++++++++++++++++++++++++++++++++++++++++++++++@@@@@@@@@@@@@@@@@@@@@@@@@@@@@@@@@@@@@@@@@@++++++ooo+++++++++++++++++++++++++++++++++@@@@@@@@@@@@@@@+++++++++++++++ooo+++@@@@@@@@@@@@@@@++++++",
"+++++++++++++++@@@@@@@@@@@@@@@@@@@@@@@@@@@@@@@@@ooo++++++++++++++++++++++++++++++++++++++++++@@@@@@@@@@@@@@@++++++++++++++++++++++++@@@@@@@@@@@@@@@@@@++++++++++++++++++@@@@@@@@@@@@ooo++++++++++++++++++++++++++++++++++++++++++++++++++++++++++++@@@@@@@@@@@@@@@@@@@@@@@@@@@@@@@@@@@@@@@@@@++++++ooo+++++++++++++++++++++++++++++++++@@@@@@@@@@@@@@@+++++++++++++++ooo+++@@@@@@@@@@@@@@@++++++",
"+++++++++++++++++++++++++++++++++@@@@@@@@@@@@@@@ooo++++++++++++++++++++++++++++++++++++++++++@@@@@@@@@@@@@@@++++++++++++++++++++++++++++++++++++++++++++++++++++++++++++@@@@@@@@@@@@ooo++++++++++++++++++++++++++++++++++++++++++++++++++++++++++++++++++++++++++++++++++++@@@@@@@@@@@@@@@@@@++++++ooo+++++++++++++++++++++++++++++++++@@@@@@@@@+++++++++++++++++++++ooo++++++++++++++++++++++++",
"+++++++++++++++++++++++++++++++++@@@@@@@@@@@@@@@ooo++++++++++++++++++++++++++++++++++++++++++@@@@@@@@@@@@@@@++++++++++++++++++++++++++++++++++++++++++++++++++++++++++++@@@@@@@@@@@@ooo++++++++++++++++++++++++++++++++++++++++++++++++++++++++++++++++++++++++++++++++++++@@@@@@@@@@@@@@@@@@++++++ooo+++++++++++++++++++++++++++++++++@@@@@@@@@+++++++++++++++++++++ooo++++++++++++++++++++++++",
"+++++++++++++++++++++++++++++++++@@@@@@@@@@@@@@@ooo++++++++++++++++++++++++++++++++++++++++++@@@@@@@@@@@@@@@++++++++++++++++++++++++++++++++++++++++++++++++++++++++++++@@@@@@@@@@@@ooo++++++++++++++++++++++++++++++++++++++++++++++++++++++++++++++++++++++++++++++++++++@@@@@@@@@@@@@@@@@@++++++ooo+++++++++++++++++++++++++++++++++@@@@@@@@@+++++++++++++++++++++ooo++++++++++++++++++++++++",
"XXXXXXXXXXXXXXXXXXXXXXXXXXXXXXXXXXXXXXXXXXXXXXXXXXXXXXXXXXXXXXXXXXXXXXXXXXXXXXXXXXXXXXXXXXXXXXXXXXXXXXXXXXXXXXXXXXXXXXXXXXXXXXXXXXXXXXXXXXXXXXXXXXXXXXXXXXXXXXXXXXXXXXXXXXXXXXXXXXXXXXXXXXXXXXXXXXXXXXXXXXXXXXXXXXXXXXXXXXXXXXXXXXXXXXXXXXXXXXXXXXXXXXXXXXXXXXXXXXXXXXXXXXXXXXXXXXXXXXXXXXXXXXXXXXXXXXXXXXXXXXXXXXXXXXXXXXXXXXXXXXXXXXXXXXXXXXXXXXXXXXXXXXXXXXXXXXXXXXXXXXXXXXXXXXXXXXXXXXXXXXXX",
"XXXXXXXXXXXXXXXXXXXXXXXXXXXXXXXXXXXXXXXXXXXXXXXXXXXXXXXXXXXXXXXXXXXXXXXXXXXXXXXXXXXXXXXXXXXXXXXXXXXXXXXXXXXXXXXXXXXXXXXXXXXXXXXXXXXXXXXXXXXXXXXXXXXXXXXXXXXXXXXXXXXXXXXXXXXXXXXXXXXXXXXXXXXXXXXXXXXXXXXXXXXXXXXXXXXXXXXXXXXXXXXXXXXXXXXXXXXXXXXXXXXXXXXXXXXXXXXXXXXXXXXXXXXXXXXXXXXXXXXXXXXXXXXXXXXXXXXXXXXXXXXXXXXXXXXXXXXXXXXXXXXXXXXXXXXXXXXXXXXXXXXXXXXXXXXXXXXXXXXXXXXXXXXXXXXXXXXXXXXXXXXX",
"XXXXXXXXXXXXXXXXXXXXXXXXXXXXXXXXXXXXXXXXXXXXXXXXXXXXXXXXXXXXXXXXXXXXXXXXXXXXXXXXXXXXXXXXXXXXXXXXXXXXXXXXXXXXXXXXXXXXXXXXXXXXXXXXXXXXXXXXXXXXXXXXXXXXXXXXXXXXXXXXXXXXXXXXXXXXXXXXXXXXXXXXXXXXXXXXXXXXXXXXXXXXXXXXXXXXXXXXXXXXXXXXXXXXXXXXXXXXXXXXXXXXXXXXXXXXXXXXXXXXXXXXXXXXXXXXXXXXXXXXXXXXXXXXXXXXXXXXXXXXXXXXXXXXXXXXXXXXXXXXXXXXXXXXXXXXXXXXXXXXXXXXXXXXXXXXXXXXXXXXXXXXXXXXXXXXXXXXXXXXXXXX",
"XXXXXXXXXXXXXXXXXXXXXXXXXXXXXXXXXXXXXXXXXXXXXXXXXXXXXXXXXXXXXXXXXXXXXXXXXXXXXXXXXXXXXXXXXXXXXXXXXXXXXXXXXXXXXXXXXXXXXXXXXXXXXXXXXXXXXXXXXXXXXXXXXXXXXXXXXXXXXXXXXXXXXXXXXXXXXXXXXXXXXXXXXXXXXXXXXXXXXXXXXXXXXXXXXXXXXXXXXXXXXXXXXXXXXXXXXXXXXXXXXXXXXXXXXXXXXXXXXXXXXXXXXXXXXXXXXXXXXXXXXXXXXXXXXXXXXXXXXXXXXXXXXXXXXXXXXXXXXXXXXXXXXXXXXXXXXXXXXXXXXXXXXXXXXXXXXXXXXXXXXXXXXXXXXXXXXXXXXXXXXXXX",
"XXXXXXXXXXXXXXXXXXXXXXXXXXXXXXXXXXXXXXXXXXXXXXXXXXXXXXXXXXXXXXXXXXXXXXXXXXXXXXXXXXXXXXXXXXXXXXXXXXXXXXXXXXXXXXXXXXXXXXXXXXXXXXXXXXXXXXXXXXXXXXXXXXXXXXXXXXXXXXXXXXXXXXXXXXXXXXXXXXXXXXXXXXXXXXXXXXXXXXXXXXXXXXXXXXXXXXXXXXXXXXXXXXXXXXXXXXXXXXXXXXXXXXXXXXXXXXXXXXXXXXXXXXXXXXXXXXXXXXXXXXXXXXXXXXXXXXXXXXXXXXXXXXXXXXXXXXXXXXXXXXXXXXXXXXXXXXXXXXXXXXXXXXXXXXXXXXXXXXXXXXXXXXXXXXXXXXXXXXXXXXXX",
"XXXXXXXXXXXXXXXXXXXXXXXXXXXXXXXXXXXXXXXXXXXXXXXXXXXXXXXXXXXXXXXXXXXXXXXXXXXXXXXXXXXXXXXXXXXXXXXXXXXXXXXXXXXXXXXXXXXXXXXXXXXXXXXXXXXXXXXXXXXXXXXXXXXXXXXXXXXXXXXXXXXXXXXXXXXXXXXXXXXXXXXXXXXXXXXXXXXXXXXXXXXXXXXXXXXXXXXXXXXXXXXXXXXXXXXXXXXXXXXXXXXXXXXXXXXXXXXXXXXXXXXXXXXXXXXXXXXXXXXXXXXXXXXXXXXXXXXXXXXXXXXXXXXXXXXXXXXXXXXXXXXXXXXXXXXXXXXXXXXXXXXXXXXXXXXXXXXXXXXXXXXXXXXXXXXXXXXXXXXXXXXX",
"+++@@@@@@@@@+++++++++++++++++++++++++++++++++++++++++++++++++++++++++@@@@@@@@@@@@@@@++++++++++++ooo++++++++++++++++++++++++++++++++++++++++++++++++@@@@@@++++++++++++++++++++++++++++++++++++++++++++++++++++++++++++++++++++++++++++++ooo++++++++++++++++++++++++++++++++++++++++++++++++++++++++++++@@@@@@@@@+++++++++++++++++++++++++++++++++++++++++++++++++++++++++++++++++++++++++++++++++",
"+++@@@@@@@@@+++++++++++++++++++++++++++++++++++++++++++++++++++++++++@@@@@@@@@@@@@@@++++++++++++ooo++++++++++++++++++++++++++++++++++++++++++++++++@@@@@@++++++++++++++++++++++++++++++++++++++++++++++++++++++++++++++++++++++++++++++ooo++++++++++++++++++++++++++++++++++++++++++++++++++++++++++++@@@@@@@@@+++++++++++++++++++++++++++++++++++++++++++++++++++++++++++++++++++++++++++++++++",
"+++@@@@@@@@@+++++++++++++++++++++++++++++++++++++++++++++++++++++++++@@@@@@@@@@@@@@@++++++++++++ooo++++++++++++++++++++++++++++++++++++++++++++++++@@@@@@++++++++++++++++++++++++++++++++++++++++++++++++++++++++++++++++++++++++++++++ooo++++++++++++++++++++++++++++++++++++++++++++++++++++++++++++@@@@@@@@@+++++++++++++++++++++++++++++++++++++++++++++++++++++++++++++++++++++++++++++++++",
"+++@@@@@@@@@@@@++++++++++++++++++++++++++++++++++++++++++++++++++++++@@@@@@@@@@@@@@@@@@@@@@@@@@@ooo++++++++++++++++++++++++++++++++++++++++++++++++@@@@@@@@@@@@@@@@@@+++++++++++++++++++++++++++++++++++++++++++++@@@@@@@@@@@@@@@@@@+++ooo++++++++++++++++++++++++++++++@@@@@@++++++++++++++++++++++++@@@@@@@@@@@@@@@+++++++++++++++++++++++++++++++++++++++@@@@@@@@@@@@@@@+++++++++++++++++++++",
"+++@@@@@@@@@@@@++++++++++++++++++++++++++++++++++++++++++++++++++++++@@@@@@@@@@@@@@@@@@@@@@@@@@@ooo++++++++++++++++++++++++++++++++++++++++++++++++@@@@@@@@@@@@@@@@@@+++++++++++++++++++++++++++++++++++++++++++++@@@@@@@@@@@@@@@@@@+++ooo++++++++++++++++++++++++++++++@@@@@@++++++++++++++++++++++++@@@@@@@@@@@@@@@+++++++++++++++++++++++++++++++++++++++@@@@@@@@@@@@@@@+++++++++++++++++++++",
"+++@@@@@@@@@@@@++++++++++++++++++++++++++++++++++++++++++++++++++++++@@@@@@@@@@@@@@@@@@@@@@@@@@@ooo++++++++++++++++++++++++++++++++++++++++++++++++@@@@@@@@@@@@@@@@@@+++++++++++++++++++++++++++++++++++++++++++++@@@@@@@@@@@@@@@@@@+++ooo++++++++++++++++++++++++++++++@@@@@@++++++++++++++++++++++++@@@@@@@@@@@@@@@+++++++++++++++++++++++++++++++++++++++@@@@@@@@@@@@@@@+++++++++++++++++++++",
"++++++@@@@@@@@@@@@@@@++++++++++++++++++++++++++++++++++++++++++++++++@@@@@@++++++@@@@@@@@@@@@@@@ooo+++++++++++++++++++++++++++++++++++++++++++++++++++@@@@@@@@@@@@@@@@@@@@@@@@++++++++++++++++++++++++++++++++++++@@@@@@@@@@@@@@@@@@+++ooo++++++++++++++++++++++++@@@@@@@@@@@@+++++++++++++++++++++++++++@@@@@@@@@@@@@@@@@@@@@++++++++++++++++++++++++++++++@@@@@@@@@@@@@@@@@@@@@@@@@@@@@@++++++",
"++++++@@@@@@@@@@@@@@@++++++++++++++++++++++++++++++++++++++++++++++++@@@@@@++++++@@@@@@@@@@@@@@@ooo+++++++++++++++++++++++++++++++++++++++++++++++++++@@@@@@@@@@@@@@@@@@@@@@@@++++++++++++++++++++++++++++++++++++@@@@@@@@@@@@@@@@@@+++ooo++++++++++++++++++++++++@@@@@@@@@@@@+++++++++++++++++++++++++++@@@@@@@@@@@@@@@@@@@@@++++++++++++++++++++++++++++++@@@@@@@@@@@@@@@@@@@@@@@@@@@@@@++++++",
"++++++@@@@@@@@@@@@@@@++++++++++++++++++++++++++++++++++++++++++++++++@@@@@@++++++@@@@@@@@@@@@@@@ooo+++++++++++++++++++++++++++++++++++++++++++++++++++@@@@@@@@@@@@@@@@@@@@@@@@++++++++++++++++++++++++++++++++++++@@@@@@@@@@@@@@@@@@+++ooo++++++++++++++++++++++++@@@@@@@@@@@@+++++++++++++++++++++++++++@@@@@@@@@@@@@@@@@@@@@++++++++++++++++++++++++++++++@@@@@@@@@@@@@@@@@@@@@@@@@@@@@@++++++",
"+++++++++@@@@@@@@@@@@@@@@@@@@@+++++++++++++++++++++@@@@@@@@@@@@@@@@@@@@@@@@+++++++++++++++++++++ooo+++++++++++++++@@@@@@@@@@@@@@@@@@@@@@@@+++++++++++++++++++++@@@@@@@@@@@@@@@+++++++++++++++++++++@@@@@@@@@@@@@@@@@@@@@+++++++++++++++ooo++++++++++++@@@@@@@@@@@@@@@@@@@@@@@@+++++++++++++++++++++++++++++++++@@@@@@@@@@@@@@@+++++++++++++++++++++++++++++++++++++++@@@@@@@@@@@@@@@@@@@@@++++++",
"+++++++++@@@@@@@@@@@@@@@@@@@@@+++++++++++++++++++++@@@@@@@@@@@@@@@@@@@@@@@@+++++++++++++++++++++ooo+++++++++++++++@@@@@@@@@@@@@@@@@@@@@@@@+++++++++++++++++++++@@@@@@@@@@@@@@@+++++++++++++++++++++@@@@@@@@@@@@@@@@@@@@@+++++++++++++++ooo++++++++++++@@@@@@@@@@@@@@@@@@@@@@@@+++++++++++++++++++++++++++++++++@@@@@@@@@@@@@@@+++++++++++++++++++++++++++++++++++++++@@@@@@@@@@@@@@@@@@@@@++++++",
"+++++++++@@@@@@@@@@@@@@@@@@@@@+++++++++++++++++++++@@@@@@@@@@@@@@@@@@@@@@@@+++++++++++++++++++++ooo+++++++++++++++@@@@@@@@@@@@@@@@@@@@@@@@+++++++++++++++++++++@@@@@@@@@@@@@@@+++++++++++++++++++++@@@@@@@@@@@@@@@@@@@@@+++++++++++++++ooo++++++++++++@@@@@@@@@@@@@@@@@@@@@@@@+++++++++++++++++++++++++++++++++@@@@@@@@@@@@@@@+++++++++++++++++++++++++++++++++++++++@@@@@@@@@@@@@@@@@@@@@++++++",
"+++++++++++++++@@@@@@@@@@@@@@@+++++++++++++++++++++@@@@@@@@@@@@@@@@@@@@@@@@+++++++++++++++++++++ooo+++++++++++++++@@@@@@@@@@@@@@@@@@@@@@@@+++++++++++++++++++++++++++++++++++++++++++++++++++++++++@@@@@@@@@@@@@@@@@@@@@+++++++++++++++ooo++++++++++++@@@@@@@@@@@@@@@@@@++++++++++++++++++++++++++++++++++++++++++++++++++++++++++++++++++++++++++++++++++++++++++++++++++++++++++++++++++++++++",
"+++++++++++++++@@@@@@@@@@@@@@@+++++++++++++++++++++@@@@@@@@@@@@@@@@@@@@@@@@+++++++++++++++++++++ooo+++++++++++++++@@@@@@@@@@@@@@@@@@@@@@@@+++++++++++++++++++++++++++++++++++++++++++++++++++++++++@@@@@@@@@@@@@@@@@@@@@+++++++++++++++ooo++++++++++++@@@@@@@@@@@@@@@@@@++++++++++++++++++++++++++++++++++++++++++++++++++++++++++++++++++++++++++++++++++++++++++++++++++++++++++++++++++++++++",
"+++++++++++++++@@@@@@@@@@@@@@@+++++++++++++++++++++@@@@@@@@@@@@@@@@@@@@@@@@+++++++++++++++++++++ooo+++++++++++++++@@@@@@@@@@@@@@@@@@@@@@@@+++++++++++++++++++++++++++++++++++++++++++++++++++++++++@@@@@@@@@@@@@@@@@@@@@+++++++++++++++ooo++++++++++++@@@@@@@@@@@@@@@@@@++++++++++++++++++++++++++++++++++++++++++++++++++++++++++++++++++++++++++++++++++++++++++++++++++++++++++++++++++++++++",
"XXXXXXXXXXXXXXXXXXXXXXXXXXXXXXXXXXXXXXXXXXXXXXXXXXXXXXXXXXXXXXXXXXXXXXXXXXXXXXXXXXXXXXXXXXXXXXXXXXXXXXXXXXXXXXXXXXXXXXXXXXXXXXXXXXXXXXXXXXXXXXXXXXXXXXXXXXXXXXXXXXXXXXXXXXXXXXXXXXXXXXXXXXXXXXXXXXXXXXXXXXXXXXXXXXXXXXXXXXXXXXXXXXXXXXXXXXXXXXXXXXXXXXXXXXXXXXXXXXXXXXXXXXXXXXXXXXXXXXXXXXXXXXXXXXXXXXXXXXXXXXXXXXXXXXXXXXXXXXXXXXXXXXXXXXXXXXXXXXXXXXXXXXXXXXXXXXXXXXXXXXXXXXXXXXXXXXXXXXXXXXXX",
"XXXXXXXXXXXXXXXXXXXXXXXXXXXXXXXXXXXXXXXXXXXXXXXXXXXXXXXXXXXXXXXXXXXXXXXXXXXXXXXXXXXXXXXXXXXXXXXXXXXXXXXXXXXXXXXXXXXXXXXXXXXXXXXXXXXXXXXXXXXXXXXXXXXXXXXXXXXXXXXXXXXXXXXXXXXXXXXXXXXXXXXXXXXXXXXXXXXXXXXXXXXXXXXXXXXXXXXXXXXXXXXXXXXXXXXXXXXXXXXXXXXXXXXXXXXXXXXXXXXXXXXXXXXXXXXXXXXXXXXXXXXXXXXXXXXXXXXXXXXXXXXXXXXXXXXXXXXXXXXXXXXXXXXXXXXXXXXXXXXXXXXXXXXXXXXXXXXXXXXXXXXXXXXXXXXXXXXXXXXXXXXX",
"XXXXXXXXXXXXXXXXXXXXXXXXXXXXXXXXXXXXXXXXXXXXXXXXXXXXXXXXXXXXXXXXXXXXXXXXXXXXXXXXXXXXXXXXXXXXXXXXXXXXXXXXXXXXXXXXXXXXXXXXXXXXXXXXXXXXXXXXXXXXXXXXXXXXXXXXXXXXXXXXXXXXXXXXXXXXXXXXXXXXXXXXXXXXXXXXXXXXXXXXXXXXXXXXXXXXXXXXXXXXXXXXXXXXXXXXXXXXXXXXXXXXXXXXXXXXXXXXXXXXXXXXXXXXXXXXXXXXXXXXXXXXXXXXXXXXXXXXXXXXXXXXXXXXXXXXXXXXXXXXXXXXXXXXXXXXXXXXXXXXXXXXXXXXXXXXXXXXXXXXXXXXXXXXXXXXXXXXXXXXXXXX",
"XXXXXXXXXXXXXXXXXXXXXXXXXXXXXXXXXXXXXXXXXXXXXXXXXXXXXXXXXXXXXXXXXXXXXXXXXXXXXXXXXXXXXXXXXXXXXXXXXXXXXXXXXXXXXXXXXXXXXXXXXXXXXXXXXXXXXXXXXXXXXXXXXXXXXXXXXXXXXXXXXXXXXXXXXXXXXXXXXXXXXXXXXXXXXXXXXXXXXXXXXXXXXXXXXXXXXXXXXXXXXXXXXXXXXXXXXXXXXXXXXXXXXXXXXXXXXXXXXXXXXXXXXXXXXXXXXXXXXXXXXXXXXXXXXXXXXXXXXXXXXXXXXXXXXXXXXXXXXXXXXXXXXXXXXXXXXXXXXXXXXXXXXXXXXXXXXXXXXXXXXXXXXXXXXXXXXXXXXXXXXXXX",
"XXXXXXXXXXXXXXXXXXXXXXXXXXXXXXXXXXXXXXXXXXXXXXXXXXXXXXXXXXXXXXXXXXXXXXXXXXXXXXXXXXXXXXXXXXXXXXXXXXXXXXXXXXXXXXXXXXXXXXXXXXXXXXXXXXXXXXXXXXXXXXXXXXXXXXXXXXXXXXXXXXXXXXXXXXXXXXXXXXXXXXXXXXXXXXXXXXXXXXXXXXXXXXXXXXXXXXXXXXXXXXXXXXXXXXXXXXXXXXXXXXXXXXXXXXXXXXXXXXXXXXXXXXXXXXXXXXXXXXXXXXXXXXXXXXXXXXXXXXXXXXXXXXXXXXXXXXXXXXXXXXXXXXXXXXXXXXXXXXXXXXXXXXXXXXXXXXXXXXXXXXXXXXXXXXXXXXXXXXXXXXXX",
"XXXXXXXXXXXXXXXXXXXXXXXXXXXXXXXXXXXXXXXXXXXXXXXXXXXXXXXXXXXXXXXXXXXXXXXXXXXXXXXXXXXXXXXXXXXXXXXXXXXXXXXXXXXXXXXXXXXXXXXXXXXXXXXXXXXXXXXXXXXXXXXXXXXXXXXXXXXXXXXXXXXXXXXXXXXXXXXXXXXXXXXXXXXXXXXXXXXXXXXXXXXXXXXXXXXXXXXXXXXXXXXXXXXXXXXXXXXXXXXXXXXXXXXXXXXXXXXXXXXXXXXXXXXXXXXXXXXXXXXXXXXXXXXXXXXXXXXXXXXXXXXXXXXXXXXXXXXXXXXXXXXXXXXXXXXXXXXXXXXXXXXXXXXXXXXXXXXXXXXXXXXXXXXXXXXXXXXXXXXXXXXX",
"@@@@@@@@@@@@++++++ooo++++++++++++++++++++++++++++++++++++++++++++++++++++++@@@@@@@@@@@@@@@@@@@@@@@@@@@@@@@@@++++++++++++++++++++++++++++++++++++++++++++++++ooo++++++++++++++++++++++++++++++++++++++++++@@@@@@@@@++++++++++++++++++++++++++++++++++++++++++++++++++++++++++++++++++++++++++++++++++++++++++ooo@@@@@@@@@++++++++++++++++++++++++++++++++++++++++++++++++@@@@@@++++++++++++++++++",
"@@@@@@@@@@@@++++++ooo++++++++++++++++++++++++++++++++++++++++++++++++++++++@@@@@@@@@@@@@@@@@@@@@@@@@@@@@@@@@++++++++++++++++++++++++++++++++++++++++++++++++ooo++++++++++++++++++++++++++++++++++++++++++@@@@@@@@@++++++++++++++++++++++++++++++++++++++++++++++++++++++++++++++++++++++++++++++++++++++++++ooo@@@@@@@@@++++++++++++++++++++++++++++++++++++++++++++++++@@@@@@++++++++++++++++++",
"@@@@@@@@@@@@++++++ooo++++++++++++++++++++++++++++++++++++++++++++++++++++++@@@@@@@@@@@@@@@@@@@@@@@@@@@@@@@@@++++++++++++++++++++++++++++++++++++++++++++++++ooo++++++++++++++++++++++++++++++++++++++++++@@@@@@@@@++++++++++++++++++++++++++++++++++++++++++++++++++++++++++++++++++++++++++++++++++++++++++ooo@@@@@@@@@++++++++++++++++++++++++++++++++++++++++++++++++@@@@@@++++++++++++++++++",
"@@@@@@@@@@@@@@@@@@ooo++++++++++++++++++++++++@@@@@@@@@@@@@@@@@@@@@+++++++++@@@@@@@@@@@@@@@@@@@@@@@@@@@@@@@@@+++++++++@@@@@@@@@@@@@@@@@@@@@@@@+++++++++++++++ooo++++++@@@@@@@@@@@@@@@@@@@@@+++++++++++++++@@@@@@@@@@@@+++++++++++++++++++++++++++++++++++++++++++++++++++++++++@@@@@@@@@+++++++++++++++++++++ooo@@@@@@@@@@@@@@@@@@@@@++++++++++++++++++++++++++++++++++++@@@@@@@@@@@@++++++++++++",
"@@@@@@@@@@@@@@@@@@ooo++++++++++++++++++++++++@@@@@@@@@@@@@@@@@@@@@+++++++++@@@@@@@@@@@@@@@@@@@@@@@@@@@@@@@@@+++++++++@@@@@@@@@@@@@@@@@@@@@@@@+++++++++++++++ooo++++++@@@@@@@@@@@@@@@@@@@@@+++++++++++++++@@@@@@@@@@@@+++++++++++++++++++++++++++++++++++++++++++++++++++++++++@@@@@@@@@+++++++++++++++++++++ooo@@@@@@@@@@@@@@@@@@@@@++++++++++++++++++++++++++++++++++++@@@@@@@@@@@@++++++++++++",
"@@@@@@@@@@@@@@@@@@ooo++++++++++++++++++++++++@@@@@@@@@@@@@@@@@@@@@+++++++++@@@@@@@@@@@@@@@@@@@@@@@@@@@@@@@@@+++++++++@@@@@@@@@@@@@@@@@@@@@@@@+++++++++++++++ooo++++++@@@@@@@@@@@@@@@@@@@@@+++++++++++++++@@@@@@@@@@@@+++++++++++++++++++++++++++++++++++++++++++++++++++++++++@@@@@@@@@+++++++++++++++++++++ooo@@@@@@@@@@@@@@@@@@@@@++++++++++++++++++++++++++++++++++++@@@@@@@@@@@@++++++++++++",
"++++++@@@@@@@@@@@@ooo++++++++++++++++++++++++@@@@@@@@@@@@@@@@@@@@@+++++++++++++++@@@@@@@@@@@@@@@@@@++++++++++++++++++@@@@@@@@@@@@@@@@@@@@@@@@+++++++++++++++ooo++++++@@@@@@@@@@@@@@@@@@@@@++++++++++++++++++@@@@@@@@@@@@@@@@@@+++++++++++++++++++++++++++++++++++++++@@@@@@@@@@@@@@@@@@+++++++++++++++++++++ooo++++++@@@@@@@@@@@@@@@@@@@@@+++++++++++++++++++++++++++++++++@@@@@@@@@@@@@@@@@@+++",
"++++++@@@@@@@@@@@@ooo++++++++++++++++++++++++@@@@@@@@@@@@@@@@@@@@@+++++++++++++++@@@@@@@@@@@@@@@@@@++++++++++++++++++@@@@@@@@@@@@@@@@@@@@@@@@+++++++++++++++ooo++++++@@@@@@@@@@@@@@@@@@@@@++++++++++++++++++@@@@@@@@@@@@@@@@@@+++++++++++++++++++++++++++++++++++++++@@@@@@@@@@@@@@@@@@+++++++++++++++++++++ooo++++++@@@@@@@@@@@@@@@@@@@@@+++++++++++++++++++++++++++++++++@@@@@@@@@@@@@@@@@@+++",
"++++++@@@@@@@@@@@@ooo++++++++++++++++++++++++@@@@@@@@@@@@@@@@@@@@@+++++++++++++++@@@@@@@@@@@@@@@@@@++++++++++++++++++@@@@@@@@@@@@@@@@@@@@@@@@+++++++++++++++ooo++++++@@@@@@@@@@@@@@@@@@@@@++++++++++++++++++@@@@@@@@@@@@@@@@@@+++++++++++++++++++++++++++++++++++++++@@@@@@@@@@@@@@@@@@+++++++++++++++++++++ooo++++++@@@@@@@@@@@@@@@@@@@@@+++++++++++++++++++++++++++++++++@@@@@@@@@@@@@@@@@@+++",
"++++++++++++@@@@@@ooo++++++++++++@@@@@@@@@@@@@@@@@@@@@++++++++++++++++++++++++++++++++++++++++++++++++++++++++++++++++++++++++++++++@@@@@@@@@@@@@@@@@@@@@@@@ooo+++++++++++++++@@@@@@+++++++++++++++++++++++++++@@@@@@@@@@@@@@@@@@@@@@@@@@@+++++++++++++++++++++@@@@@@@@@@@@@@@@@@+++++++++++++++++++++++++++ooo++++++++++++++++++@@@@@@@@@+++++++++@@@@@@@@@@@@+++++++++++++++@@@@@@@@@@@@@@@@@@",
"++++++++++++@@@@@@ooo++++++++++++@@@@@@@@@@@@@@@@@@@@@++++++++++++++++++++++++++++++++++++++++++++++++++++++++++++++++++++++++++++++@@@@@@@@@@@@@@@@@@@@@@@@ooo+++++++++++++++@@@@@@+++++++++++++++++++++++++++@@@@@@@@@@@@@@@@@@@@@@@@@@@+++++++++++++++++++++@@@@@@@@@@@@@@@@@@+++++++++++++++++++++++++++ooo++++++++++++++++++@@@@@@@@@+++++++++@@@@@@@@@@@@+++++++++++++++@@@@@@@@@@@@@@@@@@",
"++++++++++++@@@@@@ooo++++++++++++@@@@@@@@@@@@@@@@@@@@@++++++++++++++++++++++++++++++++++++++++++++++++++++++++++++++++++++++++++++++@@@@@@@@@@@@@@@@@@@@@@@@ooo+++++++++++++++@@@@@@+++++++++++++++++++++++++++@@@@@@@@@@@@@@@@@@@@@@@@@@@+++++++++++++++++++++@@@@@@@@@@@@@@@@@@+++++++++++++++++++++++++++ooo++++++++++++++++++@@@@@@@@@+++++++++@@@@@@@@@@@@+++++++++++++++@@@@@@@@@@@@@@@@@@",
"++++++++++++++++++ooo++++++++++++@@@@@@@@@@@@@@@@@@@@@++++++++++++++++++++++++++++++++++++++++++++++++++++++++++++++++++++++++++++++@@@@@@@@@@@@@@@@@@@@@@@@ooo+++++++++++++++@@@@@@++++++++++++++++++++++++++++++++++++@@@@@@@@@@@@@@@@@@+++++++++++++++++++++@@@@@@@@@++++++++++++++++++++++++++++++++++++ooo++++++++++++++++++++++++++++++++++++@@@@@@@@@@@@++++++++++++++++++++++++@@@@@@@@@",
"++++++++++++++++++ooo++++++++++++@@@@@@@@@@@@@@@@@@@@@++++++++++++++++++++++++++++++++++++++++++++++++++++++++++++++++++++++++++++++@@@@@@@@@@@@@@@@@@@@@@@@ooo+++++++++++++++@@@@@@++++++++++++++++++++++++++++++++++++@@@@@@@@@@@@@@@@@@+++++++++++++++++++++@@@@@@@@@++++++++++++++++++++++++++++++++++++ooo++++++++++++++++++++++++++++++++++++@@@@@@@@@@@@++++++++++++++++++++++++@@@@@@@@@",
"++++++++++++++++++ooo++++++++++++@@@@@@@@@@@@@@@@@@@@@++++++++++++++++++++++++++++++++++++++++++++++++++++++++++++++++++++++++++++++@@@@@@@@@@@@@@@@@@@@@@@@ooo+++++++++++++++@@@@@@++++++++++++++++++++++++++++++++++++@@@@@@@@@@@@@@@@@@+++++++++++++++++++++@@@@@@@@@++++++++++++++++++++++++++++++++++++ooo++++++++++++++++++++++++++++++++++++@@@@@@@@@@@@++++++++++++++++++++++++@@@@@@@@@",
"XXXXXXXXXXXXXXXXXXXXXXXXXXXXXXXXXXXXXXXXXXXXXXXXXXXXXXXXXXXXXXXXXXXXXXXXXXXXXXXXXXXXXXXXXXXXXXXXXXXXXXXXXXXXXXXXXXXXXXXXXXXXXXXXXXXXXXXXXXXXXXXXXXXXXXXXXXXXXXXXXXXXXXXXXXXXXXXXXXXXXXXXXXXXXXXXXXXXXXXXXXXXXXXXXXXXXXXXXXXXXXXXXXXXXXXXXXXXXXXXXXXXXXXXXXXXXXXXXXXXXXXXXXXXXXXXXXXXXXXXXXXXXXXXXXXXXXXXXXXXXXXXXXXXXXXXXXXXXXXXXXXXXXXXXXXXXXXXXXXXXXXXXXXXXXXXXXXXXXXXXXXXXXXXXXXXXXXXXXXXXXXX",
"XXXXXXXXXXXXXXXXXXXXXXXXXXXXXXXXXXXXXXXXXXXXXXXXXXXXXXXXXXXXXXXXXXXXXXXXXXXXXXXXXXXXXXXXXXXXXXXXXXXXXXXXXXXXXXXXXXXXXXXXXXXXXXXXXXXXXXXXXXXXXXXXXXXXXXXXXXXXXXXXXXXXXXXXXXXXXXXXXXXXXXXXXXXXXXXXXXXXXXXXXXXXXXXXXXXXXXXXXXXXXXXXXXXXXXXXXXXXXXXXXXXXXXXXXXXXXXXXXXXXXXXXXXXXXXXXXXXXXXXXXXXXXXXXXXXXXXXXXXXXXXXXXXXXXXXXXXXXXXXXXXXXXXXXXXXXXXXXXXXXXXXXXXXXXXXXXXXXXXXXXXXXXXXXXXXXXXXXXXXXXXXX",
"XXXXXXXXXXXXXXXXXXXXXXXXXXXXXXXXXXXXXXXXXXXXXXXXXXXXXXXXXXXXXXXXXXXXXXXXXXXXXXXXXXXXXXXXXXXXXXXXXXXXXXXXXXXXXXXXXXXXXXXXXXXXXXXXXXXXXXXXXXXXXXXXXXXXXXXXXXXXXXXXXXXXXXXXXXXXXXXXXXXXXXXXXXXXXXXXXXXXXXXXXXXXXXXXXXXXXXXXXXXXXXXXXXXXXXXXXXXXXXXXXXXXXXXXXXXXXXXXXXXXXXXXXXXXXXXXXXXXXXXXXXXXXXXXXXXXXXXXXXXXXXXXXXXXXXXXXXXXXXXXXXXXXXXXXXXXXXXXXXXXXXXXXXXXXXXXXXXXXXXXXXXXXXXXXXXXXXXXXXXXXXXX"
};
