/* XPM */
static char * pirate_boat_mousse_xpm[] = {
"128 128 15 1",
" 	c #94C1EC",
".	c #F4FAFF",
"+	c #E4E8EC",
"@	c #90703D",
"#	c #805C24",
"$	c #694714",
"%	c #4F3309",
"&	c #5C3C0C",
"*	c #745019",
"=	c #294EA5",
"-	c #315BBD",
";	c #83612A",
">	c #AEAEAE",
",	c #BDBDBD",
"'	c #FFDBFC",
"                                                                                                                                ",
"                                                                                                                                ",
"                                                                                                                                ",
"                                                                                                                                ",
"                                                                                                                                ",
"                                                                                                                                ",
"                                                                                                                                ",
"                                ....                                                                                            ",
"                             ........                                                                                           ",
"                            ..........                                                                                          ",
"                   ...................                                                                                          ",
"                  ..........................                                                                                    ",
"                 .............................                                                                                  ",
"                 ..............................                                                                                 ",
"              ......+.....++...................                                                                                 ",
"            .........++..++..............+......                                                                                ",
"            ..........+++.......+.......++......                                                                                ",
"            ....................++...+++........                                                                                ",
"           ......................+++++..........                                                                                ",
"           ....................................+                                                                                ",
"           ..............................+....++                                                                                ",
"           +.............................++++++                                                                                 ",
"           ++.............++.............+++                                                                                    ",
"            ++...........+++.............+                                                                                      ",
"             ++++......+++++++++........++                                                                                      ",
"                ++++++++       ++++++++++                                                                                       ",
"                                                                                                                                ",
"                                                                                                                                ",
"                                                                                                                                ",
"                                                                                                                                ",
"                                                                                                                                ",
"                                                                                                                                ",
"                                                                                                                                ",
"                                                                                                                                ",
"                                                                                                                                ",
"                                                                                                                                ",
"                                                                                                                                ",
"                                                                                                                                ",
"                                                                                                                                ",
"                                                                                                                                ",
"                                                                                                                                ",
"                                                                                                                                ",
"                                                                                                                                ",
"                                                                                                                                ",
"                                                                                                                                ",
"                                                                                                                                ",
"                                                                                                                                ",
"                                                                                                                                ",
"                                                                                                                                ",
"                                                                                                                                ",
"                                                                                                                                ",
"                                                                                                                                ",
"                                                                                                                                ",
"                                                                                                                                ",
"                                                                                                                                ",
"                                                                                                                                ",
"                                                                                                                                ",
"                                                                                                                                ",
"                                                                                                                                ",
"                                                                                                                                ",
"                                                                                                                                ",
"                                                                                                                                ",
"                                                                                                                                ",
"                                                                                                                                ",
"@@@@@@@@@@@@@@@@@@@@@@@@@@@@@@@@@@@@@@@@@@@@@@@@@@@@@@@@@@@@@@@@@@@@@@@@@@@@@@@@@@@@@@@@@@@@@@@@@@@@@@@@@@@@@@@@@@@@@@@@@@@@@@@@",
"################################################################################################################################",
"################################################################################################################################",
"$$$$$$$$$$$$$$$$$$$$$$$$$$$$$$$$$$$$$$$$$$$$$$$$$$$$$$$$$$$$$$$$$$$$$$$$$$$$$$$$$$$$$$$$$$$$$$$$$$$$$$$$$$$$$$$$$$$$$$$$$$$$$$$$",
"             %&&#                         %&&#                                    %&&*                         %&&#             ",
"             *##@                         *##@                                    *##@                         *##@             ",
"             *##@                         *##@                                    *##@                         *##@             ",
"             *##@                         *##@                                    *##@                         *##@             ",
"             *##@                         *##@                                    *##@                         *##@             ",
"             *##@                         *##@                                    *##@                         *##@             ",
"             *##@                         *##@                                    *##@                         *##@             ",
"             *##@                         *##@                                    *##@                         *##@             ",
"             *##@                         *##@                                    *##@                         *##@             ",
"             *##@                         *##@                                    *##@                         *##@             ",
"             *##@                         *##@                                    *##@                         *##@             ",
"==--========-*##@=============--=======-==*##@===========-=======-=====-==========*##@=======--============-===*##@-==========-=",
"---=====--===*##@-====---===---=====--====*##@=-======---====--=====----====---==-*##@=-====--=====--=====-====*##@====-==--====",
"======---====*##@===---============--=====*##@-======-======--=====--======--=====*##@-====-======--==========-*##@===-==--=====",
"********************************************************************************************************************************",
"################;;;;#########*############################*###########;;;;;;;;;;;;;;;;###################*##############;;;;;;;;",
"################;;;;;;;;;;###*############################*###########;;;;;;;;;;;;;;;;###################*;;;;;;;;######;;;;;;;;",
"#####;;;;;;########;;;;;;;;;;*##################;;;;;;;;;;*;;;############;;;;;;;;;############;;;;######*;;;;;;;;##############",
"#;;;;;;;;;;##############;;;;*##################;;;;;;;;;;*;;;############;;;;;;;;;############;;;;######*####;;;;;;;###########",
"#;;;;;#######################*#########;;;;;;;;;;;;;######*#################################;;;;;;;;#####*####;;;;;;;###########",
"#############################*#########;;;;;;;;;;;;;######*#################################;;;;;;;;#####*######################",
"$$$$$$$$$$$$$$$$$$$$$$$$$$$$$$$$$$$$$$$$$$$$$$$$$$$$$$$$$$$$$$$$$$$$$$$$$$$$$$$$$$$$$$$$$$$$$$$$$$$$$$$$$$$$$$$$$$$$$$$$$$$$$$$$",
"$$$$$$$$$$$$$$$$$$$$$$$$$$$$$$$$$$$$$$$$$$$$$$$$$$$$$$$$$$$$$$$$$$$$$$$$$$$$$$$$$$$$$$$$$$$$$$$$$$$$$$$$$$$$$$$$$$$$$$$$$$$$$$$$",
"###*####################################;;;;;;;#############;;;;;;;###*#####################;;######################;;;;;;*#####",
"###*;;;#################################;;;;;;;#############;;;;;;;###*#####################;;################;;;;;;;;;;;;*#####",
"###*;;;;;;#################;;;;;################################;;;;;;*###################;;##################;;;;;;######*#####",
"###*##;;;;;;###############;;;;;#################;;;;;##########;;;;;;*###;;;;;;;#########;;#####;;;;;;###################*#####",
"###*#####;;;######;;;;;;;;;;;;###################;;;;;################*###;;;;;;;;;;;;;##########;;;;;;;;;;;;############;*;;;;;",
"###*##############;;;;;;;;;;;;########################################*#########;;;;;;;###############;;;;;;;############;*;;;;;",
"$$$$$$$$$$$$$$$$$$$$$$$$$$$$$$$$$$$$$$$$$$$$$$$$$$$$$$$$$$$$$$$$$$$$$$$$$$$$$$$$$$$$$$$$$$$$$$$$$$$$$$$$$$$$$$$$$$$$$$$$$$$$$$$$",
"$$$$$$$$$$$$$$$$$$$$$$$$$$$$$$$$$$$$$$$$$$$$$$$$$$$$$$$$$$$$$$$$$$$$$$$$$$$$$$$$$$$$$$$$$$$$$$$$$$$$$$$$$$$$$$$$$$$$$$$$$$$$$$$$",
"##############################;;########*#############;;;;;;;;;##############;;;*###########################;;;;;;##########;;;;",
"############################;;;;########*##;;;;;;;;###;;;;;;;;;##############;;;*;;;;#################;;;;;;;;;;;;##########;;;;",
"########;;;;;;;;;###########;;##########*##;;;;;;;;##########;;;;;##############*;;;;#################;;;;;;;;#########;;#######",
"########;;;;;;;;;##################;;;;;*;;;#################;;;;;##############*#######;;;;;;#########################;;#######",
"#;;;;;;;;;#############;;;;;;######;;;;;*;;;##########################;;;;;#####*#######;;;;;;;;;;;############;;;;;;###########",
"#;;;;;;;;;#############;;;;;;###########*#############################;;;;;#####*#############;;;;;############;;;;;;###########",
"$$$$$$$$$$$$$$$$$$$$$$$$$$$$$$$$$$$$$$$$$$$$$$$$$$$$$$$$$$$$$$$$$$$$$$$$$$$$$$$$$$$$$$$$$$$$$$$$$$$$$$$$$$$$$$$$$$$$$$$$$$$$$$$$",
"$$$$$$$$$$$$$$$$$$$$$$$$$$$$$$$$$$$$$$$$$$$$$$$$$$$$$$$$$$$$$$$$$$$$$$$$$$$$$$$$$$$$$$$$$$$$$$$$$$$$$$$$$$$$$$$$$$$$$$$$$$$$$$$$",
"################**#######;;;;;;;;##########################*;;;;;;;##############################*##;;;;;;;;###########*######;;",
"################**##;;;;;;;;;;;;;##################;;;#####*;;;;;;;;##########################;;;*;;;;;;;;;;########;;;*######;;",
"##;;;;##########**##;;;;;;;###########;;#########;;;;;#####*#####;;;;;;#####;;;;;;############;;;*;;;############;;;;;;*########",
"##;;;;;;;;;;####**####################;;####;;;;;;;;########*######;;;;#####;;;;;;;;;;;;;;#######*#############;;;;;;##*#;;;;;##",
"#####;;;;;;;;;;;*##############;;;;;########;;;;;;######;;;;*####################;;;;;;;;;;;;;;##*###########;;;;;#####*#;;;;;##",
"###########;;;;;*##############;;;;;####################;;;;*############################;;;;;;##*###########;;;#######*########",
"$$$$$$$$$$$$$$$$$$$$$$$$$$$$$$$$$$$$$$$$$$$$$$$$$$$$$$$$$$$$$$$$$$$$$$$$$$$$$$$$$$$$$$$$$$$$$$$$$$$$$$$$$$$$$$$$$$$$$$$$$$$$$$$$",
"$$$$$$$$$$$$$$$$$$$$$$$$$$$$$$$$$$$$$$$$$$$$$$$$$$$$$$$$$$$$$$$$$$$$$$$$$$$$$$$$$$$$$$$$$$$$$$$$$$$$$$$$$$$$$$$$$$$$$$$$$$$$$$$$",
"#;;;###################;;;;;####*################;;##########################*####################;;;###########################",
"#;;;;##################;;;;;;;;;*################;;;;;;###############;;;;;;#*##########;;########;;;;;#############;;;;;#######",
"##;;;;;################;;##;;;;;*#################;;;;;;;;############;;;;;;#*########;;;;#########;;;;;;;#####$####;;;;;;;;;;##",
"###;;;;;;;#######;;;;;;;;#######*#####;;;;;;;;#######;;;;;#######;;;;;;;#####*####;;;;;;;;###########;;;;;#$#;;#$######;;;;;;;##",
"#####;;;;;#######;;;;;;;;#######*#####;;;;;;;;###################;;;;;;;#####*####;;;;;;##################$##;;$################",
"$$$$$$$$$$$$$$$$$$$$$$$$$$$$$$$$$$$$$$$$$$$$$$$$$$$$$$$$$$$$$$$$$$$$$$$$$$$$$$$$$$$$$$$$$$$$$$$$$$$$$$$$$$$$$$$$$$$$$$$$$$$$$$$$",
"$$$$$$$$$$$$$$$$$$$$$$$$$$$$$$$$$$$$$$$$$$$$$$$$$$$$$$$$$$$$$$$$$$$$$$$$$$$$$$$$$$$$$$$$$$$$$$$$$$$$$$$$$$$$-=$$$$$$$$$$$$$$$$$$",
";;;;##*##################;;;;;;;;;;;################*##############;;;##########################*#####;;###$==$#$#######;;######",
";;;;;;*########;;;;;;;###;;;;;;;;;;;###;;;;;;;;#####*##;;;;;;;#####;;;;###################>>>###*#####;;$##$==$#########;;;;####",
"##;;;;*########;;;;;;;#####;;;;;;######;;;;;;;;#####*##;;;;;;;######;;;;;;############;;;;,,>,,,*########$$$==$#$####$###;;;;;;#",
"####;;*####;;;;;;;##########################;;;;;;;;*#####;;#########;;;;;;;;;#######;;;;;,,>,,,*##';;#$#$===-$$###$$#####;;;;;;",
"######*####;;;;;;;##########################;;;;;;;;*#####;;############;;;;;;#######;;;',,>,,,,,#'';;##$$=-===$$$$$#$#######;;;",
"$$$$$$$$$$$$$$$$$$$$$$$$$$$$$$$$$$$$$$$$$$$$$$$$$$$$$$$$$$$$$$$$$$$$$$$$$$$$$$$$$$$$$$$$,,,,,,,,,''$$$$&===-=====-=&$&$$$$$$$$$$"};
