/* XPM */
static char * pirate_door_xpm[] = {
"128 128 15 1",
" 	c #94C1EC",
".	c #F4FAFF",
"+	c #294EA5",
"@	c #E4E8EC",
"#	c #878787",
"$	c #AEAEAE",
"%	c #5C5C5C",
"&	c #90703D",
"*	c #805C24",
"=	c #694714",
"-	c #4F3309",
";	c #5C3C0C",
">	c #745019",
",	c #315BBD",
"'	c #83612A",
"                                                                                                                                ",
"                                                                                                                                ",
"                                                                                                                                ",
"                                                                                                                                ",
"                                                                                                                                ",
"                ........                                                                                                        ",
"               ...............                                                                                                  ",
"               .................                                                                                                ",
"         .......................                               +                                                                ",
"       .........................                               +                                                                ",
"       .........................                               +   +                                                            ",
"       .........................                                + ++                                                            ",
"      .............@..@@........                           ++++ + +      ##########                                             ",
"      .............@@@@........@                              ++  +   ####$$$$$$$$####                                          ",
"      ..............@@.........@                               ++   ###$$$$$$$$$$$$$$##                                         ",
"      ........................@@                ##########        #%#$$$$$$$$$$$$$$$$$###                                       ",
"      @....................@@@@                 #$$$$$$$$$###    #%#$$$$$$$$$$$$$$###$$$##                                      ",
"      @.....................@                   #$$$$$$$$$$$#####%#$$$$$$$$$$$$$$$###$$$$#######                                ",
"      @@....................@                   #$$$$$$$$$$$$$##$$$$$$$$$$$$$$$$$$###$$$$$$$$$$###                              ",
"       @@@.@..........@....@@                   ##$$$$$$$$$$$##$$$$$$$$$$$$$$$$$$$$$$$$$$$$#$$$$$#                              ",
"         @@@.........@@...@@                     ##$$$$$$$$$$#$$$$$$$$$$$$$$$$$$$$$$$$$$$$$$######                              ",
"           @.........@@@@@@                       ##$$$$$$$$$$$$$$$$$$$$$$$$$$$$$$$$$$$$$$$$$$$###                              ",
"           @@........@@                            ##$$$$$$$$$$$$$$$$$$$$$$$$$$$$$$$$$$$$$$$####                                ",
"            @@.....@@@                              ##$$$$$$$$$$$$$$$$$$$$$$$$$$$$$$$$$$$$###                                   ",
"              @@@@@                                   ##$#$$$$$$$$$$$$$$$$$$$$$$$$$$$$$####                                     ",
"                                                       ###$$$$$$$$$$$$$$$$$$$$$$$$$$$###                                        ",
"                                                      #$$$$$$$$$$$$$$$$$$$$$$$$$$$$$##                                          ",
"                                                      #$$$$$$$$$$#$$$$$#$$$$$$$$$$$##                                           ",
"                                                     ##$$$$$$$$$$#$$$$$#$$$$$$$$$$##                                            ",
"                                                     ##$$$$$$$$$##$$$$$#$$$$$$$$##                                              ",
"                                                     #$$$$$$$$$$#$$$$$##$$$$$$$##                                               ",
"                                                    ##$$$$$$$$$$#$$$$$#$$$$$$###                                                ",
"                                                    #$$$$$$$$$$$#$$$$##$$$$###                                                  ",
"                                                   #$$$$$$$$$$$$#$$$$#$$$$##                                                    ",
"                                                   #$$$$$$$$$$$$#$$$$#$####                                                     ",
"                                                   #$$$$$$$$$$$$#$$$####%                                                       ",
"                                                   #$$$$$$$$$$$$##$$#%%%                                                        ",
"                                                   #$$$$$$$$$$$$$#$$#%%                                                         ",
"                                                  #$$$$$$$$$$$####$##%                                                          ",
"                                                  #$$$$$$$$$$##  ###%%                                                          ",
"                                                  #$$$$$$$$###   ##%%                                                           ",
"                                           ########$$$$$$###                                                                    ",
"                                        ####$$$$$$#$$$$$##                                                                      ",
"                                       ##$$$$$$$$$$$$$$##                                                                       ",
"                                      #$$$$$$$$$$$$$$$$$#                                                                       ",
"                                    ##$$$$$$$$$$$$$$$$$$##                                                                      ",
"                                   ##$$$$$$$$$$$$$$$$$$$$#                                                                      ",
"                                   #$$$$$$$$$$$$$$$$$$$$$##                                                                     ",
"                                  ##$$$$$$$$$$$$$$$$$$$$$$#                                                                     ",
"                                 ##$$$$$$$$$$$$$$$$$$$$$$$#                                                                     ",
"                                 #$$$$$$$$$$$$$$$$$$$$$$$$#                                                                     ",
"                                ##$$$$$$$$$$$#####$$$$$$$$#                                                                     ",
"                                #$$$$$$$$$$###  #$$$$$$$$#                                                                      ",
"                                #$$$$$$$$$##    #$$$$$$$$#                                                                      ",
"                               ##$$$$$$$##      ##$$$$$$$#                                                                      ",
"                               #$$$$$####        #$$$$$$$#                                                                      ",
"                               #######           ##$$$$$##                                                                      ",
"                                                  ##$$$$#                                                                       ",
"                                                   #$$$$#                                                                       ",
"                                                   #$$$##                                                                       ",
"                                                   ###$#                                                                        ",
"                                                     ###                                                                        ",
"                                                                                                                                ",
"                                                                                                                                ",
"&&&&&&&&&&&&&&&&&&&&&&&&&&&&&&&&&&&&&&&&&&&&&&&&&&&&&&&&&&&&&&&&&&&&&&&&&&&&&&&&&&&&&&&&&&&&&&&&&&&&&&&&&&&&&&&&&&&&&&&&&&&&&&&&",
"********************************************************************************************************************************",
"********************************************************************************************************************************",
"================================================================================================================================",
"             -;;*                         -;;*                                    -;;>                         -;;*             ",
"             >**&                         >**&                                    >**&                         >**&             ",
"             >**&                         >**&                                    >**&                         >**&             ",
"             >**&                         >**&                                    >**&                         >**&             ",
"             >**&                         >**&                                    >**&                         >**&             ",
"             >**&                         >**&                                    >**&                         >**&             ",
"             >**&                         >**&                                    >**&                         >**&             ",
"             >**&                         >**&                                    >**&                         >**&             ",
"             >**&                         >**&                                    >**&                         >**&             ",
"             >**&                         >**&                                    >**&                         >**&             ",
"             >**&                         >**&                                    >**&                         >**&             ",
"++,,++++++++,>**&+++++++++++++,,+++++++,++>**&+++++++++++,+++++++,+++++,++++++++++>**&+++++++,,++++++++++++,+++>**&,++++++++++,+",
",,,+++++,,+++>**&,++++,,,+++,,,+++++,,++++>**&+,++++++,,,++++,,+++++,,,,++++,,,++,>**&+,++++,,+++++,,+++++,++++>**&++++,++,,++++",
"++++++,,,++++>**&+++,,,++++++++++++,,+++++>**&,++++++,++++++,,+++++,,++++++,,+++++>**&,++++,++++++,,++++++++++,>**&+++,++,,+++++",
">>>>>>>>>>>>>>>>>>>>>>>>>>>>>>>>>>>>>>>>>>>>>>>>>>>>>>>>>>>>>>>>>>>>>>>>>>>>>>>>>>>>>>>>>>>>>>>>>>>>>>>>>>>>>>>>>>>>>>>>>>>>>>>>",
"****************''''*********>****************************>***********''''''''''''''''*******************>**************''''''''",
"****************''''''''''***>****************************>***********''''''''''''''''*******************>''''''''******''''''''",
"*****''''''********''''''''''>******************''''''''''>'''************'''''''''************''''******>''''''''**************",
"*''''''''''**************''''>******************''''''''''>'''************'''''''''************''''******>****'''''''***********",
"*'''''***********************>*********'''''''''''''******>*********************************''''''''*****>****'''''''***********",
"*****************************>*********'''''''''''''******>*********************************''''''''*****>**********************",
"================================================================================================================================",
"================================================================================================================================",
"***>************************************'''''''*************'''''''***>*********************''**********************''''''>*****",
"***>'''*********************************'''''''*************'''''''***>*********************''****************''''''''''''>*****",
"***>''''''*****************'''''********************************''''''>*******************''******************''''''******>*****",
"***>**''''''***************'''''*****************'''''**********''''''>***'''''''*********''*****''''''*******************>*****",
"***>*****'''******''''''''''''*******************'''''****************>***'''''''''''''**********''''''''''''************'>'''''",
"***>**************''''''''''''****************************************>*********'''''''***************'''''''************'>'''''",
"================================================================================================================================",
"================================================================================================================================",
"******************************''********>*************'''''''''**************'''>***************************''''''**********''''",
"****************************''''********>**''''''''***'''''''''**************'''>''''*****************''''''''''''**********''''",
"********'''''''''***********''**********>**''''''''**********'''''**************>''''*****************''''''''*********''*******",
"********'''''''''******************'''''>'''*****************'''''**************>*******''''''*************************''*******",
"*'''''''''*************''''''******'''''>'''**************************'''''*****>*******'''''''''''************''''''***********",
"*'''''''''*************''''''***********>*****************************'''''*****>*************'''''************''''''***********",
"================================================================================================================================",
"================================================================================================================================",
"****************>>*******''''''''**************************>'''''''******************************>**''''''''***********>******''",
"****************>>**'''''''''''''******************'''*****>''''''''**************************'''>''''''''''********'''>******''",
"**''''**********>>**'''''''***********''*********'''''*****>*****''''''*****''''''************'''>'''************''''''>********",
"**''''''''''****>>********************''****''''''''********>******''''*****''''''''''''''*******>*************''''''**>*'''''**",
"*****'''''''''''>**************'''''********''''''******''''>********************''''''''''''''**>***********'''''*****>*'''''**",
"***********'''''>**************'''''********************''''>****************************''''''**>***********'''*******>********",
"================================================================================================================================",
"================================================================================================================================",
"*'''*******************'''''****>****************''**************************>********************'''***************************",
"*''''******************'''''''''>****************''''''***************''''''*>**********''********'''''*************'''''*******",
"**'''''****************''**'''''>*****************''''''''************''''''*>********''''*********'''''''**********''''''''''**",
"***'''''''*******''''''''*******>*****''''''''*******'''''*******'''''''*****>****''''''''***********'''''*************'''''''**",
"*****'''''*******''''''''*******>*****''''''''*******************'''''''*****>****''''''****************************************",
"================================================================================================================================",
"================================================================================================================================",
"''''**>******************'''''''''''****************>**************'''******************************>'''****************''******",
"''''''>********'''''''***'''''''''''***''''''''*****>**'''''''*****''''*******************'''*******>'''''''************''''****",
"**''''>********'''''''*****''''''******''''''''*****>**'''''''******''''''*************''''''*******>**'''''''***********''''''*",
"****''>****'''''''**************************''''''''>*****''*********'''''''''*******''''''*********>******'''***''''*****''''''",
"******>****'''''''**************************''''''''>*****''************''''''*******'''************>************''''********'''",
"================================================================================================================================"};
