/* XPM */
static char * W_hold_xpm[] = {
"384 384 13 1",
" 	c #0000FF",
".	c #45330C",
"+	c #402F0B",
"@	c #A38F40",
"#	c #8E7B2F",
"$	c #2F8E50",
"%	c #2B854A",
"&	c #BDB9AE",
"*	c #B4AFA4",
"=	c #E1C8AC",
"-	c #A9A49B",
";	c #C76619",
">	c #23703E",
"                                                                                                                                                                                                                                                                                                                                                                                                ",
"                                                                                                                                                                                                                                                                                                                                                                                                ",
"                                                                                                                                                                                                                                                                                                                                                                                                ",
"                                                                                                                                                                                                                                                                                                                                                                                                ",
"                                                                                                                                                                                                                                                                                                                                                                                                ",
"                                                                                                                                                                                                                                                                                                                                                                                                ",
"                                                                                                                                                                                                                                                                                                                                                                                                ",
"                                                                                                                                                                                                                                                                                                                                                                                                ",
"                                                                                                                                                                                                                                                                                                                                                                                                ",
"                                                                                                                                                                                                                                                                                                                                                                                                ",
"                                                                                                                                                                                                                                                                                                                                                                                                ",
"                                                                                                                                                                                                                                                                                                                                                                                                ",
"                                                                                                                                                                                                                                                                                                                                                                                                ",
"                                                                                                                                                                                                                                                                                                                                                                                                ",
"                                                                                                                                                                                                                                                                                                                                                                                                ",
"                                                                                                                                                                                                                                                                                                                                                                                                ",
"                                                                                                                                                                                                                                                                                                                                                                                                ",
"                                                                                                                                                                                                                                                                                                                                                                                                ",
"                                                                                                                                                                                                                                                                                                                                                                                                ",
"                                                                                                                                                                                                                                                                                                                                                                                                ",
"                                                                                                                                                                                                                                                                                                                                                                                                ",
"                                                                                                                                                                                                                                                                                                                                                                                                ",
"                                                                                                                                                                                                                                                                                                                                                                                                ",
"                                                                                                                                                                                                                                                                                                                                                                                                ",
"                                                                                                                                                                                                                                                                                                                                                                                                ",
"                                                                                                                                                                                                                                                                                                                                                                                                ",
"                                                                                                                                                                                                                                                                                                                                                                                                ",
"                                                                                                                                                                                                                                                                                                                                                                                                ",
"                                                                                                                                                                                                                                                                                                                                                                                                ",
"                                                                                                                                                                                                                                                                                                                                                                                                ",
"                                                                                                                                                                                                                                                                                                                                                                                                ",
"                                                                                                                                                                                                                                                                                                                                                                                                ",
"                                                                                                                                                                                                                                                                                                                                                                                                ",
"                                                                                                                                                                                                                                                                                                                                                                                                ",
"                                                                                                                                                                                                                                                                                                                                                                                                ",
"                                                                                                                                                                                                                                                                                                                                                                                                ",
"                                                                                                                                                                                                                                                                                                                                                                                                ",
"                                                                                                                                                                                                                                                                                                                                                                                                ",
"                                                                                                                                                                                                                                                                                                                                                                                                ",
"                                                                                                                                                                                                                                                                                                                                                                                                ",
"                                                                                                                                                                                                                                                                                                                                                                                                ",
"                                                                                                                                                                                                                                                                                                                                                                                                ",
"                                                                                                                                                                                                                                                                                                                                                                                                ",
"                                                                                                                                                                                                                                                                                                                                                                                                ",
"                                                                                                                                                                                                                                                                                                                                                                                                ",
"                                                                                                                                                                                                                                                                                                                                                                                                ",
"                                                                                                                                                                                                                                                                                                                                                                                                ",
"                                                                                                                                                                                                                                                                                                                                                                                                ",
"                                                                                                                                                                                                                                                                                                                                                                                                ",
"                                                                                                                                                                                                                                                                                                                                                                                                ",
"                                                                                                                                                                                                                                                                                                                                                                                                ",
"                                                                                                                                                                                                                                                                                                                                                                                                ",
"                                                                                                                                                                                                                                                                                                                                                                                                ",
"                                                                                                                                                                                                                                                                                                                                                                                                ",
"                                                                                                                                                                                                                                                                                                                                                                                                ",
"                                                                                                                                                                                                                                                                                                                                                                                                ",
"                                                                                                                                                                                                                                                                                                                                                                                                ",
"                                                                                                                                                                                                                                                                                                                                                                                                ",
"                                                                                                                                                                                                                                                                                                                                                                                                ",
"                                                                                                                                                                                                                                                                                                                                                                                                ",
"                                                                                                                                                                                                                                                                                                                                                                                                ",
"                                                                                                                                                                                                                                                                                                                                                                                                ",
"                                                                                                                                                                                                                                                                                                                                                                                                ",
"                                                                                                                                                                                                                                                                                                                                                                                                ",
"                                                                                                                                                                                                                                                                                                                                                                                                ",
"                                                                                                                                                                                                                                                                                                                                                                                                ",
"                                                                                                                                                                                                                                                                                                                                                                                                ",
"                                                                                                                                                                                                                                                                                                                                                                                                ",
"                                                                                                                                                                                                                                                                                                                                                                                                ",
"                                                                                                                                                                                                                                                                                                                                                                                                ",
"                                                                                                                                                                                                                                                                                                                                                                                                ",
"                                                                                                                                                                                                                                                                                                                                                                                                ",
"                                                                                                                                                                                                                                                                                                                                                                                                ",
"                                                                                                                                                                                                                                                                                                                                                                                                ",
"                                                                                                                                                                                                                                                                                                                                                                                                ",
"                                                                                                                                                                                                                                                                                                                                                                                                ",
"                                                                                                                                                                                                                                                                                                                                                                                                ",
"                                                                                                                                                                                                                                                                                                                                                                                                ",
"                                                                                                                                                                                                                                                                                                                                                                                                ",
"                                                                                                                                                                                                                                                                                                                                                                                                ",
"                                                                                                                                                                                                                                                                                                                                                                                                ",
"                                                                                                                                                                                                                                                                                                                                                                                                ",
"                                                                                                                                                                                                                                                                                                                                                                                                ",
"                                                                                                                                                                                                                                                                                                                                                                                                ",
"                                                                                                                                                                                                                                                                                                                                                                                                ",
"                                                                                                                                                                                                                                                                                                                                                                                                ",
"                                                                                                                                                                                                                                                                                                                                                                                                ",
"                                                                                                                                                                                                                                                                                                                                                                                                ",
"                                                                                                                                                                                                                                                                                                                                                                                                ",
"                                                                                                                                                                                                                                                                                                                                                                                                ",
"                                                                                                                                                                                                                                                                                                                                                                                                ",
"                                                                                                                                                                                                                                                                                                                                                                                                ",
"                                                                                                                                                                                                                                                                                                                                                                                                ",
"                                                                                                                                                                                                                                                                                                                                                                                                ",
"                                                                                                                                                                                                                                                                                                                                                                                                ",
"                                                                                                                                                                                                                                                                                                                                                                                                ",
"                                                                                                                                                                                                                                                                                                                                                                                                ",
"                                                                                                                                                                                                                                                                                                                                                                                                ",
"                                                                                                                                                                                                                                                                                                                                                                                                ",
"                                                                                                                                                                                                                                                                                                                                                                                                ",
"                                                                                                                                                                                                                                                                                                                                                                                                ",
"                                                                                                                                                                                                                                                                                                                                                                                                ",
"                                                                                                                                                                                                                                                                                                                                                                                                ",
"                                                                                                                                                                                                                                                                                                                                                                                                ",
"                                                                                                                                                                                                                                                                                                                                                                                                ",
"                                                                                                                                                                                                                                                                                                                                                                                                ",
"                                                                                                                                                                                                                                                                                                                                                                                                ",
"                                                                                                                                                                                                                                                                                                                                                                                                ",
"                                                                                                                                                                                                                                                                                                                                                                                                ",
"                                                                                                                                                                                                                                                                                                                                                                                                ",
"                                                                                                                                                                                                                                                                                                                                                                                                ",
"                                                                                                                                                                                                                                                                                                                                                                                                ",
"                                                                                                                                                                                                                                                                                                                                                                                                ",
"                                                                                                                                                                                                                                                                                                                                                                                                ",
"                                                                                                                                                                                                                                                                                                                                                                                                ",
"                                                                                                                                                                                                                                                                                                                                                                                                ",
"                                                                                                                                                                                                                                                                                                                                                                                                ",
"                                                                                                                                                                                                                                                                                                                                                                                                ",
"                                                                                                                                                                                                                                                                                                                                                                                                ",
"                                                                                                                                                                                                                                                                                                                                                                                                ",
"                                                                                                                                                                                                                                                                                                                                                                                                ",
"                                                                                                                                                                                                                                                                                                                                                                                                ",
"                                                                                                                                                                                                                                                                                                                                                                                                ",
"                                                                                                                                                                                                                                                                                                                                                                                                ",
"                                                                                                                                                                                                                                                                                                                                                                                                ",
"                                                                                                                                                                                                                                                                                                                                                                                                ",
"                                                                                                                                                                                                                                                                                                                                                                                                ",
"                                                                                                                                                                                                                                                                                                                                                                                                ",
"                                                                                                                                                                                                                                                                                                                                                                                                ",
"                                                                                                                                                                                                                                                                                                                                                                                                ",
"                                                                                                                                                                                                                                                                                                                                                                                                ",
"                                                                                                                                                                                                                                                                                                                                                                                                ",
"                                                                                                                                                                                                                                                                                                                                                                                                ",
"                                                                                                                                                                                                                                                                                                                                                                                                ",
"                                                                                                                                                                                                                                                                                                                                                                                                ",
"                                                                                                                                                                                                                                                                                                                                                                                                ",
"                                                                                                                                                                                                                                                                                                                                                                                                ",
"                                                                                                                                                                                                                                                                                                                                                                                                ",
"                                                                                                                                                                                                                                                                                                                                                                                                ",
"                                                                                                                                                                                                                                                                                                                                                                                                ",
"                                                                                                                                                                                                                                                                                                                                                                                                ",
"                                                                                                                                                                                                                                                                                                                                                                                                ",
"                                                                                                                                                                                                                                                                                                                                                                                                ",
"                                                                                                                                                                                                                                                                                                                                                                                                ",
"                                                                                                                                                                                                                                                                                                                                                                                                ",
"                                                                                                                                                                                                                                                                                                                                                                                                ",
"                                                                                                                                                                                                                                                                                                                                                                                                ",
"                                                                                                                                                                                                                                                                                                                                                                                                ",
"                                                                                                                                                                                                                                                                                                                                                                                                ",
"                                                                                                                                                                                                                                                                                                                                                                                                ",
"                                                                                                                                                                                                                                                                                                                                                                                                ",
"                                                                                                                                                                                                                                                                                                                                                                                                ",
"                                                                                                                                                                                                                                                                                                                                                                                                ",
"                                                                                                                                                                                                                                                                                                                                                                                                ",
"                                                                                                                                                                                                                                                                                                                                                                                                ",
"                                                                                                                                                                                                                                                                                                                                                                                                ",
"                                                                                                                                                                                                                                                                                                                                                                                                ",
"                                                                                                                                                                                                                                                                                                                                                                                                ",
"                                                                                                                                                                                                                                                                                                                                                                                                ",
"                                                                                                                                                                                                                                                                                                                                                                                                ",
"                                                                                                                                                                                                                                                                                                                                                                                                ",
"                                                                                                                                                                                                                                                                                                                                                                                                ",
"                                                                                                                                                                                                                                                                                                                                                                                                ",
"                                                                                                                                                                                                                                                                                                                                                                                                ",
"                                                                                                                                                                                                                                                                                                                                                                                                ",
"                                                                                                                                                                                                                                                                                                                                                                                                ",
"                                                                                                                                                                                                                                                                                                                                                                                                ",
"                                                                                                                                                                                                                                                                                                                                                                                                ",
"                                                                                                                                                                                                                                                                                                                                                                                                ",
"                                                                                                                                                                                                                                                                                                                                                                                                ",
"                                                                                                                                                                                                                                                                                                                                                                                                ",
"                                                                                                                                                                                                                                                                                                                                                                                                ",
"                                                                                                                                                                                                                                                                                                                                                                                                ",
"                                                                                                                                                                                                                                                                                                                                                                                                ",
"                                                                                                                                                                                                                                                                                                                                                                                                ",
"                                                                                                                                                                                                                                                                                                                                                                                                ",
"                                                                                                                                                                                                                                                                                                                                                                                                ",
"                                                                                                                                                                                                                                                                                                                                                                                                ",
"                                                                                                                                                                                                                                                                                                                                                                                                ",
"                                                                                                                                                                                                                                                                                                                                                                                                ",
"                                                                                                                                                                                                                                                                                                                                                                                                ",
"                                                                                                                                                                                                                                                                                                                                                                                                ",
"                                                                                                                                                                                                                                                                                                                                                                                                ",
"                                                                                                                                                                                                                                                                                                                                                                                                ",
"                                                                                                                                                                                                                                                                                                                                                                                                ",
"                                                                                                                                                                                                                                                                                                                                                                                                ",
"                                                                                                                                                                                                                                                                                                                                                                                                ",
"                                                                                                                                                                                                                                                                                                                                                                                                ",
"                                                                                                                                                                                                                                                                                                                                                                                                ",
"                                                                                                                                                                                                                                                                                                                                                                                                ",
"                                                                                                                                                                                                                                                                                                                                                                                                ",
"                                                                                                                                                                                                                                                                                                                                                                                                ",
"                                                                                                                                                                                                                                                                                                                                                                                                ",
"                                                                                                                                                                                                                                                                                                                                                                                                ",
"                                                                                                                                                                                                                                                                                                                                                                                                ",
"                                                                                                                                                                                                                                                                                                                                                                                                ",
"                                                                                                                                                                                                                                                                                                                                                                                                ",
"                                                                                                                                                                                                                                                                                                                                                                                                ",
"                                                                                                                                                                                                                                                                                                                                                                                                ",
"                                                                                                                                                                                                                                                                                                                                                                                                ",
"                                                                                                                                                                                                                                                                                                                                                                                                ",
"                                                                                                                                                                                                                                                                                                                                                                                                ",
"                                                                                                                                                                                                                                                                                                                                                                                                ",
"                                                                                                                                                                                                                                                                                                                                                                                                ",
"                                                                                                                                                                                                                                                                                                                                                                                                ",
"                                                                                                                                                                                                                                                                                                                                                                                                ",
"                                                                                                                                                                                                                                                                                                                                                                                                ",
"                                                                                                                                                                                                                                                                                                                                                                                                ",
"                                                                                                                                                                                                                                                                                                                                                                                                ",
"                                                                                                                                                                                                                                                                                                                                                                                                ",
"                                                                                                                                                                                                                                                                                                                                                                                                ",
"                                                                                                                                                                                                                                                                                                                                                                                                ",
"                                                                                                                                                                                                                                                                                                                                                                                                ",
"                                                                                                                                                                                                                                                                                                                                                                                                ",
"                                                                                                                                                                                                                                                                                                                                                                                                ",
"                                                                                                                                                                                                                                                                                                                                                                                                ",
"                                                                                                                                                                                                                                                                                                                                                                                                ",
"                                                                                                                                                                                                                                                                                                                                                                                                ",
"                                                                                                                                                                                                                                                                                                                                                                                                ",
"                                                                                                                                                                                                                                                                                                                                                                                                ",
"                                                                                                                                                                                                                                                                                                                                                                                                ",
"                                                                                                                                                                                                                                                                                                                                                                                                ",
"                                                                                                                                                                                                                                                                                                                                                                                                ",
"                                                                                                                                                                                                                                                                                                                                                                                                ",
"                                                                                                                                                                                                                                                                                                                                                                                                ",
"                                                                                                                                                                                                                                                                                                                                                                                                ",
"                                                                                                                                                                                                                                                                                                                                                                                                ",
"                                                                                                                                                                                                                                                                                                                                                                                                ",
"                                                                                                                                                                                                                                                                                                                                                                                                ",
"                                                                                                                                                                                                                                                                                                                                                                                                ",
"                                                                                                                                                                                                                                                                                                                                                                                                ",
"                                                                                                                                                                                                                                                                                                                                                                                                ",
"                                                                                                                                                                                                                                                                                                                                                                                                ",
"                                                                                                                                                                                                                                                                                                                                                                                                ",
"                                                                                                                                                                                                                                                                                                                                                                                                ",
"                                                                                                                                                                                                                                                                                                                                                                                                ",
"                                                                                                                                                                                                                                                                                                                                                                                                ",
"                                                                                                                                                                                                                                                                                                                                                                                                ",
"                                                                                                                                                                                                                                                                                                                                                                                                ",
"                                                                                                                                                                                                                                                                                                                                                                                                ",
"                                                                                                                                                                                                                                                                                                                                                                                                ",
"                                                                                                                                                                                                                                                                                                                                                                                                ",
"                                                                                                                                                                                                                                                                                                                                                                                                ",
"                                                                                                                                                                                                                                                                                                                                                                                                ",
"                                                                                                                                                                                                                                                                                                                                                                                                ",
"                                                                                                                                                                                                                                                                                                                                                                                                ",
"                                                                                                                                                                                                                                                                                                                                                                                                ",
"                                                                                                                                                                                                                                                                                                                                                                                                ",
"                                                                                                                                                                                                                                                                                                                                                                                                ",
"                                                                                                                                                                                                                                          ............                                                                                                                                          ",
"                                                                                                                                                                                                                                          ............                                                                                                                                          ",
"                                                                                                                                                                                                                                          ............                                                                                                                                          ",
"                                                                                                                                                      ...............                                                                     ...............                                                                                                                                       ",
"                                                                                                                                                      ...............                                                                     ...............                                                                                                                                       ",
"                                                                                                                                                      ...............                                                                     ...............                                                                                                                                       ",
"                                                                                                                                                   ..................                                                                  ++++++++++++++++++                                                                                                                                       ",
"                                                                                                                                                   ..................                                                                  ++++++++++++++++++                                                                                                                                       ",
"                                                                                                                                                   ..................                                                                  ++++++++++++++++++                                                                                                                                       ",
"                                                                                                                                                   +++++++++++++++++++++                                                            @@@@@@@@@@@@@@@@@@@@@                                                                                                                                       ",
"                                                                                                                                                   +++++++++++++++++++++                                                            @@@@@@@@@@@@@@@@@@@@@                                                                                                                                       ",
"                                                                                                                                                   +++++++++++++++++++++                                                            @@@@@@@@@@@@@@@@@@@@@                                                                                                                                       ",
"                                                                                                                                                   @@@@@@@@@@@@@@@@@@@@@                                                            ###@@@@@@@@@@@@@@@@@@                                                                                                                                       ",
"                                                                                                                                                   @@@@@@@@@@@@@@@@@@@@@                                                            ###@@@@@@@@@@@@@@@@@@                                                                                                                                       ",
"                                                                                                                                                   @@@@@@@@@@@@@@@@@@@@@                                                            ###@@@@@@@@@@@@@@@@@@                                                                                                                                       ",
"                                                                                                                                                   ###@@@@@@@@@@@@@@@###                                                            +++@@@@@@@@@@@@@@@@@@                                                                                                                                       ",
"                                                                                                                                                   ###@@@@@@@@@@@@@@@###                                                            +++@@@@@@@@@@@@@@@@@@                                                                                                                                       ",
"                                                                                                                                                   ###@@@@@@@@@@@@@@@###                                                            +++@@@@@@@@@@@@@@@@@@                                                                                                                                       ",
"                                                                                                                                                   +++@@@@@@@@@@@@@@@+++...                                                      ...++++++@@@@@@@@@@@@@@@                                                                                                                                       ",
"                                                                                                                                                   +++@@@@@@@@@@@@@@@+++...                                                      ...++++++@@@@@@@@@@@@@@@                                                                                                                                       ",
"                                                                                                                                                   +++@@@@@@@@@@@@@@@+++...                                                      ...++++++@@@@@@@@@@@@@@@                                                                                                                                       ",
"                                                                                                                                                   +++@@@@@@@@@@@@@@@@@@+++                                                      ......+++@@@@@@@@@@@@@@@@@@                                                                                                                                    ",
"                                                                                                                                                   +++@@@@@@@@@@@@@@@@@@+++                                                      ......+++@@@@@@@@@@@@@@@@@@                                                                                                                                    ",
"                                                                                                                                                   +++@@@@@@@@@@@@@@@@@@+++                                                      ......+++@@@@@@@@@@@@@@@@@@                                                                                                                                    ",
"                                                                                                                                                   +++@@@@@@@@@@@@@@@@@@+++...                                                .........++++++@@@@@@@@@@@@@@@                                                                                                                                    ",
"                                                                                                                                                   +++@@@@@@@@@@@@@@@@@@+++...                                                .........++++++@@@@@@@@@@@@@@@                                                                                                                                    ",
"                                                                                                                                                   +++@@@@@@@@@@@@@@@@@@+++...                                                .........++++++@@@@@@@@@@@@@@@                                                                                                                                    ",
"                                                                                                                                                      +++@@@@@@@@@@@@@@@@@@+++                                                ............+++@@@@@@@@@@@@@@@                                                                                                                                    ",
"                                                                                                                                                      +++@@@@@@@@@@@@@@@@@@+++                                                ............+++@@@@@@@@@@@@@@@                                                                                                                                    ",
"                                                                                                                                                      +++@@@@@@@@@@@@@@@@@@+++                                                ............+++@@@@@@@@@@@@@@@                                                                                                                                    ",
"                                                                                                                                                      +++@@@@@@@@@@@@@@@@@@+++...                                          ...............+++@@@@@@@@@@@@@@@                                                                                                                                    ",
"                                                                                                                                                      +++@@@@@@@@@@@@@@@@@@+++...                                          ...............+++@@@@@@@@@@@@@@@                                                                                                                                    ",
"                                                                                                                                                      +++@@@@@@@@@@@@@@@@@@+++...                                          ...............+++@@@@@@@@@@@@@@@                                                                                                                                    ",
"                                                                                                                                                         +++@@@@@@@@@@@@@@@@@@+++                                          ...............++++++@@@@@@@@@@@@                                                                                                                                    ",
"                                                                                                                                                         +++@@@@@@@@@@@@@@@@@@+++                                          ...............++++++@@@@@@@@@@@@                                                                                                                                    ",
"                                                                                                                                                         +++@@@@@@@@@@@@@@@@@@+++                                          ...............++++++@@@@@@@@@@@@                                                                                                                                    ",
"                                                                                                                                                         ...+++@@@@@@@@@@@@@@@+++...                                    .....................+++@@@@@@@@@@@@                                                                                                                                    ",
"                                                                                                                                                         ...+++@@@@@@@@@@@@@@@+++...                                    .....................+++@@@@@@@@@@@@                                                                                                                                    ",
"                                                                                                                                                         ...+++@@@@@@@@@@@@@@@+++...                                    .....................+++@@@@@@@@@@@@                                                                                                                                    ",
"                                                                                                                                                            +++@@@@@@@@@@@@@@@@@@+++                                    .....................+++@@@@@@@@@@@@                                                                                                                                    ",
"                                                                                                                                                            +++@@@@@@@@@@@@@@@@@@+++                                    .....................+++@@@@@@@@@@@@                                                                                                                                    ",
"                                                                                                                                                            +++@@@@@@@@@@@@@@@@@@+++                                    .....................+++@@@@@@@@@@@@                                                                                                                                    ",
"                                                                                                                                                            ...+++@@@@@@@@@@@@@@@+++...                              ........................+++@@@@@@@@@@@@@@@                                                                                                                                 ",
"                                                                                                                                                            ...+++@@@@@@@@@@@@@@@+++...                              ........................+++@@@@@@@@@@@@@@@                                                                                                                                 ",
"                                                                                                                                                            ...+++@@@@@@@@@@@@@@@+++...                              ........................+++@@@@@@@@@@@@@@@                                                                                                                                 ",
"                                                                                                                                                               ...+++@@@@@@@@@@@@@@@+++...                        ...........................      @@@@@@@@@@@@                                                                                                                                 ",
"                                                                                                                                                               ...+++@@@@@@@@@@@@@@@+++...                        ...........................      @@@@@@@@@@@@                                                                                                                                 ",
"                                                                                                                                                               ...+++@@@@@@@@@@@@@@@+++...                        ...........................      @@@@@@@@@@@@                                                                                                                                 ",
"                                                                                                                                                                  ...+++@@@@@@@@@@@@@@@++++++...            ..............................         @@@@@@@@@@@@                                                                                                                                 ",
"                                                                                                                                                                  ...+++@@@@@@@@@@@@@@@++++++...            ..............................         @@@@@@@@@@@@                                                                                                                                 ",
"                                                                                                                                                                  ...+++@@@@@@@@@@@@@@@++++++...            ..............................         @@@@@@@@@@@@                                                                                                                                 ",
"                                                                                                                                                                     ...+++@@@@@@@@@@@@@@@@@@+++            ...........................            @@@@@@@@@@@@                                                                                                                                 ",
"                                                                                                                                                                     ...+++@@@@@@@@@@@@@@@@@@+++            ...........................            @@@@@@@@@@@@                                                                                                                                 ",
"                                                                                                                                                                     ...+++@@@@@@@@@@@@@@@@@@+++            ...........................            @@@@@@@@@@@@                                                                                                                                 ",
"                                                                                                                                                                        ...+++@@@@@@@@@@@@@@@@@@+++      ...........................               @@@@@@@@@@@@                                                                                                                                 ",
"                                                                                                                                                                        ...+++@@@@@@@@@@@@@@@@@@+++      ...........................               @@@@@@@@@@@@                                                                                                                                 ",
"                                                                                                                                                                        ...+++@@@@@@@@@@@@@@@@@@+++      ...........................               @@@@@@@@@@@@                                                                                                                                 ",
"                                                                                                                                                                           ...+++@@@@@@@@@@@@@@@@@@+++...........................                  @@@@@@@@@@@@                                                                                                                                 ",
"                                                                                                                                                                           ...+++@@@@@@@@@@@@@@@@@@+++...........................                  @@@@@@@@@@@@                                                                                                                                 ",
"                                                                                                                                                                           ...+++@@@@@@@@@@@@@@@@@@+++...........................                  @@@@@@@@@@@@                                                                                                                                 ",
"                                                                                                                                                                              ...+++@@@@@@@@@@@@@@@@@@+++.....................                     @@@@@@@@@@@@@@@                                                                                                                              ",
"                                                                                                                                                                              ...+++@@@@@@@@@@@@@@@@@@+++.....................                     @@@@@@@@@@@@@@@                                                                                                                              ",
"                                                                                                                                                                              ...+++@@@@@@@@@@@@@@@@@@+++.....................                     @@@@@@@@@@@@@@@                                                                                                                              ",
"                                                                                                                                                                                 ...+++@@@@@@@@@@@@@@@@@@+++...............                           @@@@@@@@@###                                                                                                                              ",
"                                                                                                                                                                                 ...+++@@@@@@@@@@@@@@@@@@+++...............                           @@@@@@@@@###                                                                                                                              ",
"                                                                                                                                                                                 ...+++@@@@@@@@@@@@@@@@@@+++...............                           @@@@@@@@@###                                                                                                                              ",
"                                                                                                                                                                                    ...+++@@@@@@@@@@@@@@@+++............                              @@@@@@###$$$                                                                                                                              ",
"                                                                                                                                                                                    ...+++@@@@@@@@@@@@@@@+++............                              @@@@@@###$$$                                                                                                                              ",
"                                                                                                                                                                                    ...+++@@@@@@@@@@@@@@@+++............                              @@@@@@###$$$                                                                                                                              ",
"                                                                                                                                                                                       ...+++@@@@@@@@@@@@@@@+++......                                 @@@@@@###$$$$$$                                                                                                                           ",
"                                                                                                                                                                                       ...+++@@@@@@@@@@@@@@@+++......                                 @@@@@@###$$$$$$                                                                                                                           ",
"                                                                                                                                                                                       ...+++@@@@@@@@@@@@@@@+++......                                 @@@@@@###$$$$$$                                                                                                                           ",
"                                                                                                                                                                                          ...+++@@@@@@@@@@@@@@@+++                                    ######$$$$$$%%%%%%                                                                                                                        ",
"                                                                                                                                                                                          ...+++@@@@@@@@@@@@@@@+++                                    ######$$$$$$%%%%%%                                                                                                                        ",
"                                                                                                                                                                                          ...+++@@@@@@@@@@@@@@@+++                                    ######$$$$$$%%%%%%                                                                                                                        ",
"                                                                                                                                                                                          ......+++@@@@@@@@@@@@@@@                                    $$$$$$%%%%%%%%%%%%%%%                                                                                                                     ",
"                                                                                                                                                                                          ......+++@@@@@@@@@@@@@@@                                    $$$$$$%%%%%%%%%%%%%%%                                                                                                                     ",
"                                                                                                                                                                                          ......+++@@@@@@@@@@@@@@@                                    $$$$$$%%%%%%%%%%%%%%%                                                                                                                     ",
"                                                                                                                                                                                          .........+++@@@@@@@@@@@@@@@                     $$$$$$$$$$$$%%%%%%%%%%%%%%%%%%%%%%%%                                                                                                                  ",
"                                                                                                                                                                                          .........+++@@@@@@@@@@@@@@@                     $$$$$$$$$$$$%%%%%%%%%%%%%%%%%%%%%%%%                                                                                                                  ",
"                                                                                                                                                                                          .........+++@@@@@@@@@@@@@@@                     $$$$$$$$$$$$%%%%%%%%%%%%%%%%%%%%%%%%                                                                                                                  ",
"                                                                                                                                                                                          ............+++@@@@@@@@@@@@@@@               $$$%%%%%%%%%%%%%%%%%%%%%%%%%%%###                                                                                                                        ",
"                                                                                                                                                                                          ............+++@@@@@@@@@@@@@@@               $$$%%%%%%%%%%%%%%%%%%%%%%%%%%%###                                                                                                                        ",
"                                                                                                                                                                                          ............+++@@@@@@@@@@@@@@@               $$$%%%%%%%%%%%%%%%%%%%%%%%%%%%###                                                                                                                        ",
"                                                                                                                                                                                          ...............+++@@@@@@@@@@@@@@@         &&&%%%%%%%%%%%%%%%%%%%%%%%%%%%######                                                                                                                        ",
"                                                                                                                                                                                          ...............+++@@@@@@@@@@@@@@@         &&&%%%%%%%%%%%%%%%%%%%%%%%%%%%######                                                                                                                        ",
"                                                                                                                                                                                          ...............+++@@@@@@@@@@@@@@@         &&&%%%%%%%%%%%%%%%%%%%%%%%%%%%######                                                                                                                        ",
"                                                                                                                                                                                          ..................+++@@@@@@@@@@@@@@@   &&&******%%%%%%%%%%%%%%%%%%%%%%%%======                                                                                                                        ",
"                                                                                                                                                                                          ..................+++@@@@@@@@@@@@@@@   &&&******%%%%%%%%%%%%%%%%%%%%%%%%======                                                                                                                        ",
"                                                                                                                                                                                          ..................+++@@@@@@@@@@@@@@@   &&&******%%%%%%%%%%%%%%%%%%%%%%%%======                                                                                                                        ",
"                                                                                                                                                                                          .....................+++@@@@@@@@@@@@###---;;;******%%%%%%%%%%%%%%%%%%>>>=========                                                                                                                     ",
"                                                                                                                                                                                          .....................+++@@@@@@@@@@@@###---;;;******%%%%%%%%%%%%%%%%%%>>>=========                                                                                                                     ",
"                                                                                                                                                                                          .....................+++@@@@@@@@@@@@###---;;;******%%%%%%%%%%%%%%%%%%>>>=========                                                                                                                     ",
"                                                                                                                                                                                          ........................   @@@@@@###=========---******%%%%%%%%%%%%>>>>>>=========                                                                                                                     ",
"                                                                                                                                                                                          ........................   @@@@@@###=========---******%%%%%%%%%%%%>>>>>>=========                                                                                                                     ",
"                                                                                                                                                                                          ........................   @@@@@@###=========---******%%%%%%%%%%%%>>>>>>=========                                                                                                                     ",
"                                                                                                                                                                                       ==================.........   @@@@@@###============------***%%%%%%>>>>>>============                                                                                                                     ",
"                                                                                                                                                                                       ==================.........   @@@@@@###============------***%%%%%%>>>>>>============                                                                                                                     ",
"                                                                                                                                                                                       ==================.........   @@@@@@###============------***%%%%%%>>>>>>============                                                                                                                     ",
"                                                                                                                                                                                    ========================......   >>>@@@###==================;;;---%%%>>>===============                                                                                                                     ",
"                                                                                                                                                                                    ========================......   >>>@@@###==================;;;---%%%>>>===============                                                                                                                     ",
"                                                                                                                                                                                    ========================......   >>>@@@###==================;;;---%%%>>>===============                                                                                                                     ",
"                                                                                                                                                                                 ===========================......$$$>>>@@@###========================######===============                                                                                                                     ",
"                                                                                                                                                                                 ===========================......$$$>>>@@@###========================######===============                                                                                                                     ",
"                                                                                                                                                                                 ===========================......$$$>>>@@@###========================######===============                                                                                                                     ",
"                                                                                                                                                                              =====================............$$$%%%%%%>>>@@@###==========================================                                                                                                                     ",
"                                                                                                                                                                              =====================............$$$%%%%%%>>>@@@###==========================================                                                                                                                     ",
"                                                                                                                                                                              =====================............$$$%%%%%%>>>@@@###==========================================                                                                                                                     ",
"                                                                                                                                                                           ========================.........$$$%%%%%%%%%%%%>>>@@@###=======================================                                                                                                                     ",
"                                                                                                                                                                           ========================.........$$$%%%%%%%%%%%%>>>@@@###=======================================                                                                                                                     ",
"                                                                                                                                                                           ========================.........$$$%%%%%%%%%%%%>>>@@@###=======================================                                                                                                                     ",
"                                                                                                                                                                        ===========================......$$$%%%%%%%%%%%%%%%%%%>>>###=======================================                                                                                                                     ",
"                                                                                                                                                                        ===========================......$$$%%%%%%%%%%%%%%%%%%>>>###=======================================                                                                                                                     ",
"                                                                                                                                                                        ===========================......$$$%%%%%%%%%%%%%%%%%%>>>###=======================================                                                                                                                     ",
"                                                                                                                                                                     ==============================......%%%%%%%%%%%%%%%%%%%%%%%%>>>>>>=======================================                                                                                                                  ",
"                                                                                                                                                                     ==============================......%%%%%%%%%%%%%%%%%%%%%%%%>>>>>>=======================================                                                                                                                  ",
"                                                                                                                                                                     ==============================......%%%%%%%%%%%%%%%%%%%%%%%%>>>>>>=======================================                                                                                                                  ",
"                                                                                                                                                                  =================================.........%%%%%%%%%%%%%%%%%%%%%%%%%%%>>>=======================================                                                                                                               ",
"                                                                                                                                                                  =================================.........%%%%%%%%%%%%%%%%%%%%%%%%%%%>>>=======================================                                                                                                               ",
"                                                                                                                                                                  =================================.........%%%%%%%%%%%%%%%%%%%%%%%%%%%>>>=======================================                                                                                                               ",
"                                                                                                                                                                  =================================............%%%%%%%%%%%%%%%%%%%%%%%%   ==========================================                                                                                                            ",
"                                                                                                                                                                  =================================............%%%%%%%%%%%%%%%%%%%%%%%%   ==========================================                                                                                                            ",
"                                                                                                                                                                  =================================............%%%%%%%%%%%%%%%%%%%%%%%%   ==========================================                                                                                                            ",
"                                                                                                                                                               =================================..................%%%%%%%%%%%%%%%%%%            =======================================                                                                                                         ",
"                                                                                                                                                               =================================..................%%%%%%%%%%%%%%%%%%            =======================================                                                                                                         ",
"                                                                                                                                                               =================================..................%%%%%%%%%%%%%%%%%%            =======================================                                                                                                         ",
"                                                                                                                                                            ==============================........................   %%%%%%%%%%%%                     ====================================                                                                                                      ",
"                                                                                                                                                            ==============================........................   %%%%%%%%%%%%                     ====================================                                                                                                      ",
"                                                                                                                                                            ==============================........................   %%%%%%%%%%%%                     ====================================                                                                                                      ",
"                                                                                                                                                            ===========================   ........................                                       ====================================                                                                                                   ",
"                                                                                                                                                            ===========================   ........................                                       ====================================                                                                                                   ",
"                                                                                                                                                            ===========================   ........................                                       ====================================                                                                                                   ",
"                                                                                                                                                         ==============================   ........................                                          ====================================                                                                                                ",
"                                                                                                                                                         ==============================   ........................                                          ====================================                                                                                                ",
"                                                                                                                                                         ==============================   ........................                                          ====================================                                                                                                "};
