/* XPM */
static char *_28b071a890648668c7c5b166b913ca4arXLVBpmC0P1MPvj[] = {
/* columns rows colors chars-per-pixel */
"37 51 7 1 ",
"  c black",
". c #426B39",
"X c #786A5E",
"o c #9C9188",
"O c #C3B9B0",
"+ c #BCD2B6",
"@ c #E6E6E6",
/* pixels */
"@@@@@@@@@@@@@@@@@@@@@@@@@@@@@@@@@@@@@",
"@@@@@@@@@@@@@@@@@@@@@@@@@@@@@@@@@@@@@",
"@@@@@@@@@@@@@@@@@@@@@@@@@@@@@@@@@@@@@",
"@@@@@@@@@@@@@@@@@@@@@@@@@@@@@@@@@@@@@",
"@@@@@@@@@@@@@@@@@@@@@@@@@@@@@@@@@@@@@",
"@@@@@@@@   @@@@@@@@@@@@@@@@@@@@@@@@@@",
"@@@@@@@@ oo @@@@@@@@@@@@@@@@@@@@@@@@@",
"@@@@@@@@ oXo @@@@@@@@@@   @@@@@@@@@@@",
"@@@@@@@@ oXXo @@@@@@@@ oo @@@@@@@@@@@",
"@@@@@@@@ oXXo         oXo @@@@@@@@@@@",
"@@@@@@@@ oXo  ooooooo  Xo @@@@@@@@@@@",
"@@@@@@@@ oooooooooooooooo @@@@@@@@@@@",
"@@@@@@@@  oooOOOOoOOOOOO  @@@@@@@@@@@",
"@@@@@@@@ OOOO   OOO    OO @@@@@@@@@@@",
"@@@@@@@ OO       O      OO @@@@@@@@@@",
"@@@@@@ OO    +.  O  +.   OO @@@@@@@@@",
"@@@@@ OO     ..  O  ..    OO @@@@@@@@",
"@@@@ O                     O @@@@@@@@",
"@@@@ O         O   O        @@@@@@@@@",
"@@@@@ O       OOO OOO      @@@@@@@@@@",
"@@@@@@  oooooooOOOOOoooo  @@@@@@@@@@@",
"@@@@@@@@  ooooooooooooo @@@@@@@@@@@@@",
"@@@@@@@@@@  ooooooooo  @@@@@@@@@@@@@@",
"@@@@@@@@@@@@         @@@@@@@@@@@@@@@@",
"@@@@@@@@@@@@@@@@@ @@@@@@@@@@@@@@@@@@@",
"@@@@@@@@@@@@@@@     @@@@@@@@@@@@@@@@@",
"@@@@@@@@@@@@@@  @ @   @@@@@@@@@@@@@@@",
"@@@@@@@@@@@@@  @@ @@@  @@@@@@@@@@@@@@",
"@@@@@@@@@@@@@ @@@ @@@@  @@@@@@@@@@@@@",
"@@@@@@@@@@@@  @@@ @@@@@ @@@@@@@@@@@@@",
"@@@@@@@@@@@@ @@@@ @@@@@ @@@@@@@@@@@@@",
"@@@@@@@@@@@@ @@@@ @@@@@@ @@@@@@@@@@@@",
"@@@@@@@@@@@@ @@@@ @@@@@@ @@@@@@@@@@@@",
"@@@@@@@@@@@@ @@@@ @@@@@@ @@@@@@@@@@@@",
"@@@@@@@@@@@@ @@@@ @@@@@@ @@@@@@@@@@@@",
"@@@@@@@@@@@@@@@@@ @@@@@@@@@@@@@@@@@@@",
"@@@@@@@@@@@@@@@@@ @@@@@@@@@@@@@@@@@@@",
"@@@@@@@@@@@@@@@@@  @@@@@@@@@@@@@@@@@@",
"@@@@@@@@@@@@@@@    @@@@@@@@@@@@@@@@@@",
"@@@@@@@@@@@@@@@     @@@@@@@@@@@@@@@@@",
"@@@@@@@@@@@@@    @   @@@@@@@@@@@@@@@@",
"@@@@@@@@@@@@@  @@@@@  @@@@@@@@@@@@@@@",
"@@@@@@@@@@@@  @@@@@@@  @@@@@@@@@@@@@@",
"@@@@@@@@@@@@ @@@@@@@@@ @@@@@@@@@@@@@@",
"@@@@@@@@@@@ @@@@@@@@@@  @@@@@@@@@@@@@",
"@@@@@@@@@@@ @@@@@@@@@@@ @@@@@@@@@@@@@",
"@@@@@@@@@@ @@@@@@@@@@@@ @@@@@@@@@@@@@",
"@@@@@@@@@@ @@@@@@@@@@@@ @@@@@@@@@@@@@",
"@@@@@@@@@@@@@@@@@@@@@@@@@@@@@@@@@@@@@",
"@@@@@@@@@@@@@@@@@@@@@@@@@@@@@@@@@@@@@",
"@@@@@@@@@@@@@@@@@@@@@@@@@@@@@@@@@@@@@"
};
