/* XPM */
static char * slingshot3_xpm[] = {
"384 384 9 1",
" 	c #0000FF",
".	c #2B854A",
"+	c #B4AFA4",
"@	c #C76619",
"#	c #45330C",
"$	c #402F0B",
"%	c #A38F40",
"&	c #8E7B2F",
"*	c #E1C8AC",
"                                                                                                                                                                                                                                                                                                                                                                                                ",
"                                                                                                                                                                                                                                                                                                                                                                                                ",
"                                                                                                                                                                                                                                                                                                                                                                                                ",
"                                                                                                                                                                                                                                                                                                                                                                                                ",
"                                                                                                                                                                                                                                                                                                                                                                                                ",
"                                                                                                                                                                                                                                                                                                                                                                                                ",
"                                                                                                                                                                                                                                                                                                                                                                                                ",
"                                                                                                                                                                                                                                                                                                                                                                                                ",
"                                                                                                                                                                                                                                                                                                                                                                                                ",
"                                                                                                                                                                                                                                                                                                                                                                                                ",
"                                                                                                                                                                                                                                                                                                                                                                                                ",
"                                                                                                                                                                                                                                                                                                                                                                                                ",
"                                                                                                                                                                                                                                                                                                                                                                                                ",
"                                                                                                                                                                                                                                                                                                                                                                                                ",
"                                                                                                                                                                                                                                                                                                                                                                                                ",
"                                                                                                                                                                                                                                                                                                                                                                                                ",
"                                                                                                                                                                                                                                                                                                                                                                                                ",
"                                                                                                                                                                                                                                                                                                                                                                                                ",
"                                                                                                                                                                                                                                                                                                                                                                                                ",
"                                                                                                                                                                                                                                                                                                                                                                                                ",
"                                                                                                                                                                                                                                                                                                                                                                                                ",
"                                                                                                                                                                                                                                                                                                                                                                                                ",
"                                                                                                                                                                                                                                                                                                                                                                                                ",
"                                                                                                                                                                                                                                                                                                                                                                                                ",
"                                                                                                                                                                                                                                                                                                                                                                                                ",
"                                                                                                                                                                                                                                                                                                                                                                                                ",
"                                                                                                                                                                                                                                                                                                                                                                                                ",
"                                                                                                                                                                                                                                                                                                                                                                                                ",
"                                                                                                                                                                                                                                                                                                                                                                                                ",
"                                                                                                                                                                                                                                                                                                                                                                                                ",
"                                                                                                                                                                                                                                                                                                                                                                                                ",
"                                                                                                                                                                                                                                                                                                                                                                                                ",
"                                                                                                                                                                                                                                                                                                                                                                                                ",
"                                                                                                                                                                                                                                                                                                                                                                                                ",
"                                                                                                                                                                                                                                                                                                                                                                                                ",
"                                                                                                                                                                                                                                                                                                                                                                                                ",
"                                                                                                                                                                                                                                                                                                                                                                                                ",
"                                                                                                                                                                                                                                                                                                                                                                                                ",
"                                                                                                                                                                                                                                                                                                                                                                                                ",
"                                                                                                                                                                                                                                                                                                                                                                                                ",
"                                                                                                                                                                                                                                                                                                                                                                                                ",
"                                                                                                                                                                                                                                                                                                                                                                                                ",
"                                                                                                                                                                                                                                                                                                                                                                                                ",
"                                                                                                                                                                                                                                                                                                                                                                                                ",
"                                                                                                                                                                                                                                                                                                                                                                                                ",
"                                                                                                                                                                                                                                                                                                                                                                                                ",
"                                                                                                                                                                                                                                                                                                                                                                                                ",
"                                                                                                                                                                                                                                                                                                                                                                                                ",
"                                                                                                                                                                                                                                                                                                                                                                                                ",
"                                                                                                                                                                                                                                                                                                                                                                                                ",
"                                                                                                                                                                                                                                                                                                                                                                                                ",
"                                                                                                                                                                                                                                                                                                                                                                                                ",
"                                                                                                                                                                                                                                                                                                                                                                                                ",
"                                                                                                                                                                                                                                                                                                                                                                                                ",
"                                                                                                                                                                                                                                                                                                                                                                                                ",
"                                                                                                                                                                                                                                                                                                                                                                                                ",
"                                                                                                                                                                                                                                                                                                                                                                                                ",
"                                                                                                                                                                                                                                                                                                                                                                                                ",
"                                                                                                                                                                                                                                                                                                                                                                                                ",
"                                                                                                                                                                                                                                                                                                                                                                                                ",
"                                                                                                                                                                                                                                                                                                                                                                                                ",
"                                                                                                                                                                                                                                                                                                                                                                                                ",
"                                                                                                                                                                                                                                                                                                                                                                                                ",
"                                                                                                                                                                                                                                                                                                                                                                                                ",
"                                                                                                                                                                                                                                                                                                                                                                                                ",
"                                                                                                                                                                                                                                                                                                                                                                                                ",
"                                                                                                                                                                                                                                                                                                                                                                                                ",
"                                                                                                                                                                                                                                                                                                                                                                                                ",
"                                                                                                                                                                                                                                                                                                                                                                                                ",
"                                                                                                                                                                                                                                                                                                                                                                                                ",
"                                                                                                                                                                                                                                                                                                                                                                                                ",
"                                                                                                                                                                                                                                                                                                                                                                                                ",
"                                                                                                                                                                                                                                                                                                                                                                                                ",
"                                                                                                                                                                                                                                                                                                                                                                                                ",
"                                                                                                                                                                                                                                                                                                                                                                                                ",
"                                                                                                                                                                                                                                                                                                                                                                                                ",
"                                                                                                                                                                                                                                                                                                                                                                                                ",
"                                                                                                                                                                                                                                                                                                                                                                                                ",
"                                                                                                                                                                                                                                                                                                                                                                                                ",
"                                                                                                                                                                                                                                                                                                                                                                                                ",
"                                                                                                                                                                                                                                                                                                                                                                                                ",
"                                                                                                                                                                                                                                                                                                                                                                                                ",
"                                                                                                                                                                                                                                                                                                                                                                                                ",
"                                                                                                                                                                                                                                                                                                                                                                                                ",
"                                                                                                                                                                                                                                                                                                                                                                                                ",
"                                                                                                                                                                                                                                                                                                                                                                                                ",
"                                                                                                                                                                                                                                                                                                                                                                                                ",
"                                                                                                                                                                                                                                                                                                                                                                                                ",
"                                                                                                                                                                                                                                                                                                                                                                                                ",
"                                                                                                                                                                                                                                                                                                                                                                                                ",
"                                                                                                                                                                                                                                                                                                                                                                                                ",
"                                                                                                                                                                                                                                                                                                                                                                                                ",
"                                                                                                                                                                                                                                                                                                                                                                                                ",
"                                                                                                                                                                                                                                                                                                                                                                                                ",
"                                                                                                                                                                                                                                                                                                                                                                                                ",
"                                                                                                                                                                                                                                                                                                                                                                                                ",
"                                                                                                                                                                                                                                                                                                                                                                                                ",
"                                                                                                                                                                                                                                                                                                                                                                                                ",
"                                                                                                                                                                                                                                                                                                                                                                                                ",
"                                                                                                                                                                                                                                                                                                                                                                                                ",
"                                                                                                                                                                                                                                                                                                                                                                                                ",
"                                                                                                                                                                                                                                                                                                                                                                                                ",
"                                                                                                                                                                                                                                                                                                                                                                                                ",
"                                                                                                                                                                                                                                                                                                                                                                                                ",
"                                                                                                                                                                                                                                                                                                                                                                                                ",
"                                                                                                                                                                                                                                                                                                                                                                                                ",
"                                                                                                                                                                                                                                                                                                                                                                                                ",
"                                                                                                                                                                                                                                                                                                                                                                                                ",
"                                                                                                                                                                                                                                                                                                                                                                                                ",
"                                                                                                                                                                                                                                                                                                                                                                                                ",
"                                                                                                                                                                                                                                                                                                                                                                                                ",
"                                                                                                                                                                                                                                                                                                                                                                                                ",
"                                                                                                                                                                                                                                                                                                                                                                                                ",
"                                                                                                                                                                                                                                                                                                                                                                                                ",
"                                                                                                                                                                                                                                                                                                                                                                                                ",
"                                                                                                                                                                                                                                                                                                                                                                                                ",
"                                                                                                                                                                                                                                                                                                                                                                                                ",
"                                                                                                                                                                                                                                                                                                                                                                                                ",
"                                                                                                                                                                                                                                                                                                                                                                                                ",
"                                                                                                                                                                                                                                                                                                                                                                                                ",
"                                                                                                                                                                                                                                                                                                                                                                                                ",
"                                                                                                                                                                                                                                                                                                                                                                                                ",
"                                                                                                                                                                                                                                                                                                                                                                                                ",
"                                                                                                                                                                                                                                                                                                                                                                                                ",
"                                                                                                                                                                                                                                                                                                                                                                                                ",
"                                                                                                                                                                                                                                                                                                                                                                                                ",
"                                                                                                                                                                                                                                                                                                                                                                                                ",
"                                                                                                                                                                                                                                                                                                                                                                                                ",
"                                                                                                                                                                                                                                                                                                                                                                                                ",
"                                                                                                                                                                                                                                                                                                                                                                                                ",
"                                                                                                                                                                                                                                                                                                                                                                                                ",
"                                                                                                                                                                                                                                                                                                                                                                                                ",
"                                                                                                                                                                                                                                                                                                                                                                                                ",
"                                                                                                                                                                                                                                                                                                                                                                                                ",
"                                                                                                                                                                                                                                                                                                                                                                                                ",
"                                                                                                                                                                                                                                                                                                                                                                                                ",
"                                                                                                                                                                                                                                                                                                                                                                                                ",
"                                                                                                                                                                                                                                                                                                                                                                                                ",
"                                                                                                                                                                                                                                                                                                                                                                                                ",
"                                                                                                                                                                                                                                                                                                                                                                                                ",
"                                                                                                                                                                                                                                                                                                                                                                                                ",
"                                                                                                                                                                                                                                                                                                                                                                                                ",
"                                                                                                                                                                                                                                                                                                                                                                                                ",
"                                                                                                                                                                                                                                                                                                                                                                                                ",
"                                                                                                                                                                                                                                                                                                                                                                                                ",
"                                                                                                                                                                                                                                                                                                                                                                                                ",
"                                                                                                                                                                                                                                                                                                                                                                                                ",
"                                                                                                                                                                                                                                                                                                                                                                                                ",
"                                                                                                                                                                                                                                                                                                                                                                                                ",
"                                                                                                                                                                                                                                                                                                                                                                                                ",
"                                                                                                                                                                                                                                                                                                                                                                                                ",
"                                                                                                                                                                                                                                                                                                                                                                                                ",
"                                                                                                                                                                                                                                                                                                                                                                                                ",
"                                                                                                                                                                                                                                                                                                                                                                                                ",
"                                                                                                                                                                                                                                                                                                                                                                                                ",
"                                                                                                                                                                                                                                                                                                                                                                                                ",
"                                                                                                                                                                                                                                                                                                                                                                                                ",
"                                                                                                                                                                                                                                                                                                                                                                                                ",
"                                                                                                                                                                                                                                                                                                                                                                                                ",
"                                                                                                                                                                                                                                                                                                                                                                                                ",
"                                                                                                                                                                                                                                                                                                                                                                                                ",
"                                                                                                                                                                                                                                                                                                                                                                                                ",
"                                                                                                                                                                                                                                                                                                                                                                                                ",
"                                                                                                                                                                                                                                                                                                                                                                                                ",
"                                                                                                                                                                                                                                                                                                                                                                                                ",
"                                                                                                                                                                                                                                                                                                                                                                                                ",
"                                                                                                                                                                                                                                                                                                                                                                                                ",
"                                                                                                                                                                                                                                                                                                                                                                                                ",
"                                                                                                                                                                                                                                                                                                                                                                                                ",
"                                                                                                                                                                                                                                                                                                                                                                                                ",
"                                                                                                                                                                                                                                                                                                                                                                                                ",
"                                                                                                                                                                                                                                                                                                                                                                                                ",
"                                                                                                                                                                                                                                                                                                                                                                                                ",
"                                                                                                                                                                                                                                                                                                                                                                                                ",
"                                                                                                                     ...                                                                                                                                                                                                                                                                        ",
"                                                                                                                     ...                                                                                                                                                                                                                                                                        ",
"                                                                                                                     ...                                                                                                                                                                                                                                                                        ",
"                                                                                                                  ......                                                                                                                                                                                                                                                                        ",
"                                                                                                                  ......                                                                                                                                                                                                                                                                        ",
"                                                                                                                  ......                                                                                                                                                                                                                                                                        ",
"                                                                                                               ............   ......                                                                                                                                                                                                                                                            ",
"                                                                                                               ............   ......                                                                                                                                                                                                                                                            ",
"                                                                                                               ............   ......                                                                                                                                                                                                                                                            ",
"                                                                                                                     ..................                                                                                                                                                                                                                                                         ",
"                                                                                                                     ..................                                                                                                                                                                                                                                                         ",
"                                                                                                                     ..................                                                                                                                                                                                                                                                         ",
"                                                                                                                        ...............+++                                                                                                                                                                                                                                                      ",
"                                                                                                                        ...............+++                                                                                                                                                                                                                                                      ",
"                                                                                                                        ...............+++                                                                                                                                                                                                                                                      ",
"                                                                                                                     ...............+++++++++                                                                                                                                                                                                                                                   ",
"                                                                                                                     ...............+++++++++                                                                                                                                                                                                                                                   ",
"                                                                                                                     ...............+++++++++                                                                                                                                                                                                                                                   ",
"                                                                                                                     ............+++++++++++++++                                                                                                                                                                                                                                                ",
"                                                                                                                     ............+++++++++++++++                                                                                                                                                                                                                                                ",
"                                                                                                                     ............+++++++++++++++                                                                                                                                                                                                                                                ",
"                                                                                                                     .........+++@@@+++++++++......                                                                                                                                                                                                                                             ",
"                                                                                                                     .........+++@@@+++++++++......                                                                                                                                                                                                                                             ",
"                                                                                                                     .........+++@@@+++++++++......                                                                                                                                                                                                                                             ",
"                                                                                                                        ...@@@@@@@@@@@@@@@............                                                                                                                                                                                                                                          ",
"                                                                                                                        ...@@@@@@@@@@@@@@@............                                                                                                                                                                                                                                          ",
"                                                                                                                        ...@@@@@@@@@@@@@@@............                                                                                                                                                                                                                                          ",
"                                                                                                                           ++++++@@@+++...............                                                                                                                                                                                                                                          ",
"                                                                                                                           ++++++@@@+++...............                                                                                                                                                                                                                                          ",
"                                                                                                                           ++++++@@@+++...............                                                                                                                                                                                                                                          ",
"                                                                                                                              +++..................                                                                                                                                                                                                                                             ",
"                                                                                                                              +++..................                                                                                                                                                                                                                                             ",
"                                                                                                                              +++..................                                                                                                                                                                                                                                             ",
"                                                                                                                                 ...............                                                                                                                                                                                                                                                ",
"                                                                                                                                 ...............                                                                                                                                                                                                                                                ",
"                                                                                                                                 ...............                                                                                                                                                                                                                                                ",
"                                                                                                                                    .........                                                                                                                                                                                                                                                   ",
"                                                                                                                                    .........                                                                                                                                                                                                                                                   ",
"                                                                                                                                    .........                                                                                                                                                                                                                                                   ",
"                                                                                                                                       ...                                                                                                                                                                                                                                                      ",
"                                                                                                                                       ...                                                                                                                                                                                                                                                      ",
"                                                                                                                                       ...                                                                                                                                                                                                                                                      ",
"                                                                                                                                                                                                                                                                                                                                                                                                ",
"                                                                                                                                                                                                                                                                                                                                                                                                ",
"                                                                                                                                                                                                                                                                                                                                                                                                ",
"                                                                                                                                                                                                                                                                                                                                                                                                ",
"                                                                                                                                                                                                                                                                                                                                                                                                ",
"                                                                                                                                                                                                                                                                                                                                                                                                ",
"                                                                                                                                                                                                                                                                                                                                                                                                ",
"                                                                                                                                                                                                                                                                                                                                                                                                ",
"                                                                                                                                                                                                                                                                                                                                                                                                ",
"                                                                                                                                                                                                                                                                                                                                                                                                ",
"                                                                                                                                                                                                                                                                                                                                                                                                ",
"                                                                                                                                                                                                                                                                                                                                                                                                ",
"                                                                                                                                                                                                                                                                                                                                                                                                ",
"                                                                                                                                                                                                                                                                                                                                                                                                ",
"                                                                                                                                                                                                                                                                                                                                                                                                ",
"                                                                                                                                                                                                                                                                                                                                                                                                ",
"                                                                                                                                                                                                                                                                                                                                                                                                ",
"                                                                                                                                                                                                                                                                                                                                                                                                ",
"                                                                                                                                                                                                                                                                                                                                                                                                ",
"                                                                                                                                                                                                                                                                                                                                                                                                ",
"                                                                                                                                                                                                                                                                                                                                                                                                ",
"                                                                                                                                                                                                                                                                                                                                                                                                ",
"                                                                                                                                                                                                                                                                                                                                                                                                ",
"                                                                                                                                                                                                                                                                                                                                                                                                ",
"                                                                                                                                                                                                                                                                                                                                                                                                ",
"                                                                                                                                                                                                                                                                                                                                                                                                ",
"                                                                                                                                                                                                                                                                                                                                                                                                ",
"                                                                                                                                                                                                                                                                                                                                                                                                ",
"                                                                                                                                                                                                                                                                                                                                                                                                ",
"                                                                                                                                                                                                                                                                                                                                                                                                ",
"                                                                                                                                                                                                                                                                                                                                                                                                ",
"                                                                                                                                                                                                                                                                                                                                                                                                ",
"                                                                                                                                                                                                                                                                                                                                                                                                ",
"                                                                                                                                                                                                                                          ############                                                                                                                                          ",
"                                                                                                                                                                                                                                          ############                                                                                                                                          ",
"                                                                                                                                                                                                                                          ############                                                                                                                                          ",
"                                                                                                                                                      ###############                                                                     ###############                                                                                                                                       ",
"                                                                                                                                                      ###############                                                                     ###############                                                                                                                                       ",
"                                                                                                                                                      ###############                                                                     ###############                                                                                                                                       ",
"                                                                                                                                                   ##################                                                                  $$$$$$$$$$$$$$$$$$                                                                                                                                       ",
"                                                                                                                                                   ##################                                                                  $$$$$$$$$$$$$$$$$$                                                                                                                                       ",
"                                                                                                                                                   ##################                                                                  $$$$$$$$$$$$$$$$$$                                                                                                                                       ",
"                                                                                                                                                   $$$$$$$$$$$$$$$$$$$$$                                                            %%%%%%%%%%%%%%%%%%%%%                                                                                                                                       ",
"                                                                                                                                                   $$$$$$$$$$$$$$$$$$$$$                                                            %%%%%%%%%%%%%%%%%%%%%                                                                                                                                       ",
"                                                                                                                                                   $$$$$$$$$$$$$$$$$$$$$                                                            %%%%%%%%%%%%%%%%%%%%%                                                                                                                                       ",
"                                                                                                                                                   %%%%%%%%%%%%%%%%%%%%%                                                            &&&%%%%%%%%%%%%%%%&&&                                                                                                                                       ",
"                                                                                                                                                   %%%%%%%%%%%%%%%%%%%%%                                                            &&&%%%%%%%%%%%%%%%&&&                                                                                                                                       ",
"                                                                                                                                                   %%%%%%%%%%%%%%%%%%%%%                                                            &&&%%%%%%%%%%%%%%%&&&                                                                                                                                       ",
"                                                                                                                                                   &&&%%%%%%%%%%%%&&&&&&                                                            $$$%%%%%%%%%%%%%%%$$$                                                                                                                                       ",
"                                                                                                                                                   &&&%%%%%%%%%%%%&&&&&&                                                            $$$%%%%%%%%%%%%%%%$$$                                                                                                                                       ",
"                                                                                                                                                   &&&%%%%%%%%%%%%&&&&&&                                                            $$$%%%%%%%%%%%%%%%$$$                                                                                                                                       ",
"                                                                                                                                                   $$$%%%%%%%%%%%%$$$$$$###                                                      ###$$$%%%%%%%%%%%%$$$###                                                                                                                                       ",
"                                                                                                                                                   $$$%%%%%%%%%%%%$$$$$$###                                                      ###$$$%%%%%%%%%%%%$$$###                                                                                                                                       ",
"                                                                                                                                                   $$$%%%%%%%%%%%%$$$$$$###                                                      ###$$$%%%%%%%%%%%%$$$###                                                                                                                                       ",
"                                                                                                                                                   $$$%%%%%%%%%%%%%%%$$$###                                                      ###$$$%%%%%%%%%%%%$$$###                                                                                                                                       ",
"                                                                                                                                                   $$$%%%%%%%%%%%%%%%$$$###                                                      ###$$$%%%%%%%%%%%%$$$###                                                                                                                                       ",
"                                                                                                                                                   $$$%%%%%%%%%%%%%%%$$$###                                                      ###$$$%%%%%%%%%%%%$$$###                                                                                                                                       ",
"                                                                                                                                                   ###$$$%%%%%%%%%%%%$$$######                                                ######$$$%%%%%%%%%%%%$$$###                                                                                                                                       ",
"                                                                                                                                                   ###$$$%%%%%%%%%%%%$$$######                                                ######$$$%%%%%%%%%%%%$$$###                                                                                                                                       ",
"                                                                                                                                                   ###$$$%%%%%%%%%%%%$$$######                                                ######$$$%%%%%%%%%%%%$$$###                                                                                                                                       ",
"                                                                                                                                                      ###$$$%%%%%%%%%%%%$$$###                                                ###$$$%%%%%%%%%%%%$$$###                                                                                                                                          ",
"                                                                                                                                                      ###$$$%%%%%%%%%%%%$$$###                                                ###$$$%%%%%%%%%%%%$$$###                                                                                                                                          ",
"                                                                                                                                                      ###$$$%%%%%%%%%%%%$$$###                                                ###$$$%%%%%%%%%%%%$$$###                                                                                                                                          ",
"                                                                                                                                                      ######$$$%%%%%%%%%$$$######                                          ######$$$%%%%%%%%%%%%$$$###                                                                                                                                          ",
"                                                                                                                                                      ######$$$%%%%%%%%%$$$######                                          ######$$$%%%%%%%%%%%%$$$###                                                                                                                                          ",
"                                                                                                                                                      ######$$$%%%%%%%%%$$$######                                          ######$$$%%%%%%%%%%%%$$$###                                                                                                                                          ",
"                                                                                                                                                         ######$$$%%%%%%%%%$$$###                                          ###$$$%%%%%%%%%%%%$$$######                                                                                                                                          ",
"                                                                                                                                                         ######$$$%%%%%%%%%$$$###                                          ###$$$%%%%%%%%%%%%$$$######                                                                                                                                          ",
"                                                                                                                                                         ######$$$%%%%%%%%%$$$###                                          ###$$$%%%%%%%%%%%%$$$######                                                                                                                                          ",
"                                                                                                                                                         ######$$$%%%%%%%%%%%%$$$###                                    ######$$$%%%%%%%%%%%%$$$###                                                                                                                                             ",
"                                                                                                                                                         ######$$$%%%%%%%%%%%%$$$###                                    ######$$$%%%%%%%%%%%%$$$###                                                                                                                                             ",
"                                                                                                                                                         ######$$$%%%%%%%%%%%%$$$###                                    ######$$$%%%%%%%%%%%%$$$###                                                                                                                                             ",
"                                                                                                                                                            ######$$$%%%%%%%%%%%%$$$                                    ###$$$%%%%%%%%%%%%$$$######                                                                                                                                             ",
"                                                                                                                                                            ######$$$%%%%%%%%%%%%$$$                                    ###$$$%%%%%%%%%%%%$$$######                                                                                                                                             ",
"                                                                                                                                                            ######$$$%%%%%%%%%%%%$$$                                    ###$$$%%%%%%%%%%%%$$$######                                                                                                                                             ",
"                                                                                                                                                            #########$$$%%%%%%%%%%%%$$$                              ###$$$%%%%%%%%%%%%%%%$$$###                                                                                                                                                ",
"                                                                                                                                                            #########$$$%%%%%%%%%%%%$$$                              ###$$$%%%%%%%%%%%%%%%$$$###                                                                                                                                                ",
"                                                                                                                                                            #########$$$%%%%%%%%%%%%$$$                              ###$$$%%%%%%%%%%%%%%%$$$###                                                                                                                                                ",
"                                                                                                                                                               ######$$$%%%%%%%%%%%%%%%$$$                        ###$$$%%%%%%%%%%%%%%%$$$###                                                                                                                                                   ",
"                                                                                                                                                               ######$$$%%%%%%%%%%%%%%%$$$                        ###$$$%%%%%%%%%%%%%%%$$$###                                                                                                                                                   ",
"                                                                                                                                                               ######$$$%%%%%%%%%%%%%%%$$$                        ###$$$%%%%%%%%%%%%%%%$$$###                                                                                                                                                   ",
"                                                                                                                                                                  ######$$$%%%%%%%%%%%%%%%$$$###            ######$$$%%%%%%%%%%%%%%%$$$###                                                                                                                                                      ",
"                                                                                                                                                                  ######$$$%%%%%%%%%%%%%%%$$$###            ######$$$%%%%%%%%%%%%%%%$$$###                                                                                                                                                      ",
"                                                                                                                                                                  ######$$$%%%%%%%%%%%%%%%$$$###            ######$$$%%%%%%%%%%%%%%%$$$###                                                                                                                                                      ",
"                                                                                                                                                                     ######$$$%%%%%%%%%%%%$$$###            ###$$$%%%%%%%%%%%%%%%%%%$$$                                                                                                                                                         ",
"                                                                                                                                                                     ######$$$%%%%%%%%%%%%$$$###            ###$$$%%%%%%%%%%%%%%%%%%$$$                                                                                                                                                         ",
"                                                                                                                                                                     ######$$$%%%%%%%%%%%%$$$###            ###$$$%%%%%%%%%%%%%%%%%%$$$                                                                                                                                                         ",
"                                                                                                                                                                        ######$$$%%%%%%%%%%%%$$$###      ######$$$%%%%%%%%%%%%%%%$$$                                                                                                                                                            ",
"                                                                                                                                                                        ######$$$%%%%%%%%%%%%$$$###      ######$$$%%%%%%%%%%%%%%%$$$                                                                                                                                                            ",
"                                                                                                                                                                        ######$$$%%%%%%%%%%%%$$$###      ######$$$%%%%%%%%%%%%%%%$$$                                                                                                                                                            ",
"                                                                                                                                                                              ###$$$%%%%%%%%%%%%$$$######$$$$$$%%%%%%%%%%%%%%%$$$                                                                                                                                                               ",
"                                                                                                                                                                              ###$$$%%%%%%%%%%%%$$$######$$$$$$%%%%%%%%%%%%%%%$$$                                                                                                                                                               ",
"                                                                                                                                                                              ###$$$%%%%%%%%%%%%$$$######$$$$$$%%%%%%%%%%%%%%%$$$                                                                                                                                                               ",
"                                                                                                                                                                                 ###$$$%%%%%%%%%%%%$$$$$$%%%%%%%%%%%%%%%%%%$$$                                                                                                                                                                  ",
"                                                                                                                                                                                 ###$$$%%%%%%%%%%%%$$$$$$%%%%%%%%%%%%%%%%%%$$$                                                                                                                                                                  ",
"                                                                                                                                                                                 ###$$$%%%%%%%%%%%%$$$$$$%%%%%%%%%%%%%%%%%%$$$                                                                                                                                                                  ",
"                                                                                                                                                                                 ###$$$%%%%%%%%%%%%%%%%%%%%%%%%%%%%%%%%%$$$                           *********                                                                                                                                 ",
"                                                                                                                                                                                 ###$$$%%%%%%%%%%%%%%%%%%%%%%%%%%%%%%%%%$$$                           *********                                                                                                                                 ",
"                                                                                                                                                                                 ###$$$%%%%%%%%%%%%%%%%%%%%%%%%%%%%%%%%%$$$                           *********                                                                                                                                 ",
"                                                                                                                                                                                    ###$$$%%%%%%%%%%%%%%%%%%%%%%%%%%%$$$                              *********                                                                                                                                 ",
"                                                                                                                                                                                    ###$$$%%%%%%%%%%%%%%%%%%%%%%%%%%%$$$                              *********                                                                                                                                 ",
"                                                                                                                                                                                    ###$$$%%%%%%%%%%%%%%%%%%%%%%%%%%%$$$                              *********                                                                                                                                 ",
"                                                                                                                                                                                       ###$$$%%%%%%%%%%%%%%%%%%%%%$$$                                 *********   ******                                                                                                                        ",
"                                                                                                                                                                                       ###$$$%%%%%%%%%%%%%%%%%%%%%$$$                                 *********   ******                                                                                                                        ",
"                                                                                                                                                                                       ###$$$%%%%%%%%%%%%%%%%%%%%%$$$                                 *********   ******                                                                                                                        ",
"                                                                                                                                                                                          ###$$$%%%%%%%%%%%%%%%$$$                     *********      *********   *********                                                                                                                     ",
"                                                                                                                                                                                          ###$$$%%%%%%%%%%%%%%%$$$                     *********      *********   *********                                                                                                                     ",
"                                                                                                                                                                                          ###$$$%%%%%%%%%%%%%%%$$$                     *********      *********   *********                                                                                                                     ",
"                                                                                                                                                                                          ######$$$$$$$$$$$$$$$###                     *********      *********   *********                                                                                                                     ",
"                                                                                                                                                                                          ######$$$$$$$$$$$$$$$###                     *********      *********   *********                                                                                                                     ",
"                                                                                                                                                                                          ######$$$$$$$$$$$$$$$###                     *********      *********   *********                                                                                                                     ",
"                                                                                                                                                                                          ########################                     ************   *********   *********   ******                                                                                                            ",
"                                                                                                                                                                                          ########################                     ************   *********   *********   ******                                                                                                            ",
"                                                                                                                                                                                          ########################                     ************   *********   *********   ******                                                                                                            ",
"                                                                                                                                                                                          ########################                     ************   *********   *********   *********                                                                                                         ",
"                                                                                                                                                                                          ########################                     ************   *********   *********   *********                                                                                                         ",
"                                                                                                                                                                                          ########################                     ************   *********   *********   *********                                                                                                         ",
"                                                                                                                                                                                          ########################                     ************************************   *********                                                                                                         ",
"                                                                                                                                                                                          ########################                     ************************************   *********                                                                                                         ",
"                                                                                                                                                                                          ########################                     ************************************   *********                                                                                                         ",
"                                                                                                                                                                                          ########################                        *********************************************                                                                                                         ",
"                                                                                                                                                                                          ########################                        *********************************************                                                                                                         ",
"                                                                                                                                                                                          ########################                        *********************************************                                                                                                         ",
"                                                                                                                                                                                          ########################                        *********************************************                                                                                                         ",
"                                                                                                                                                                                          ########################                        *********************************************                                                                                                         ",
"                                                                                                                                                                                          ########################                        *********************************************                                                                                                         ",
"                                                                                                                                                                                          ########################            *********      ******************************************                                                                                                         ",
"                                                                                                                                                                                          ########################            *********      ******************************************                                                                                                         ",
"                                                                                                                                                                                          ########################            *********      ******************************************                                                                                                         ",
"                                                                                                                                                                                       ******************#########            ************   ******************************************                                                                                                         ",
"                                                                                                                                                                                       ******************#########            ************   ******************************************                                                                                                         ",
"                                                                                                                                                                                       ******************#########            ************   ******************************************                                                                                                         ",
"                                                                                                                                                                                    ************************######            *********************************************************                                                                                                         ",
"                                                                                                                                                                                    ************************######            *********************************************************                                                                                                         ",
"                                                                                                                                                                                    ************************######            *********************************************************                                                                                                         ",
"                                                                                                                                                                                 ***************************######            *********************************************************                                                                                                         ",
"                                                                                                                                                                                 ***************************######            *********************************************************                                                                                                         ",
"                                                                                                                                                                                 ***************************######            *********************************************************                                                                                                         ",
"                                                                                                                                                                              *********************###############               ***************************************************                                                                                                            ",
"                                                                                                                                                                              *********************###############               ***************************************************                                                                                                            ",
"                                                                                                                                                                              *********************###############               ***************************************************                                                                                                            ",
"                                                                                                                                                                           ************************###############                  ************************************************                                                                                                            ",
"                                                                                                                                                                           ************************###############                  ************************************************                                                                                                            ",
"                                                                                                                                                                           ************************###############                  ************************************************                                                                                                            ",
"                                                                                                                                                                        ***************************###############                  *********************************************                                                                                                               ",
"                                                                                                                                                                        ***************************###############                  *********************************************                                                                                                               ",
"                                                                                                                                                                        ***************************###############                  *********************************************                                                                                                               ",
"                                                                                                                                                                     ******************************###############                     ******************************************                                                                                                               ",
"                                                                                                                                                                     ******************************###############                     ******************************************                                                                                                               ",
"                                                                                                                                                                     ******************************###############                     ******************************************                                                                                                               ",
"                                                                                                                                                                  *********************************###############                        ******************************************                                                                                                            ",
"                                                                                                                                                                  *********************************###############                        ******************************************                                                                                                            ",
"                                                                                                                                                                  *********************************###############                        ******************************************                                                                                                            ",
"                                                                                                                                                                  *********************************###############                        *********************************************                                                                                                         ",
"                                                                                                                                                                  *********************************###############                        *********************************************                                                                                                         ",
"                                                                                                                                                                  *********************************###############                        *********************************************                                                                                                         ",
"                                                                                                                                                               *********************************##################                              ******************************************                                                                                                      ",
"                                                                                                                                                               *********************************##################                              ******************************************                                                                                                      ",
"                                                                                                                                                               *********************************##################                              ******************************************                                                                                                      ",
"                                                                                                                                                            ******************************########################                                    ***************************************                                                                                                   ",
"                                                                                                                                                            ******************************########################                                    ***************************************                                                                                                   ",
"                                                                                                                                                            ******************************########################                                    ***************************************                                                                                                   ",
"                                                                                                                                                            ***************************   ########################                                       ***************************************                                                                                                ",
"                                                                                                                                                            ***************************   ########################                                       ***************************************                                                                                                ",
"                                                                                                                                                            ***************************   ########################                                       ***************************************                                                                                                ",
"                                                                                                                                                         ******************************   ########################                                          ***************************************                                                                                             ",
"                                                                                                                                                         ******************************   ########################                                          ***************************************                                                                                             ",
"                                                                                                                                                         ******************************   ########################                                          ***************************************                                                                                             "};
