/* XPM */
static char * pirate2_xpm[] = {
"128 128 20 1",
" 	c None",
".	c #0000FF",
"+	c #191106",
"@	c #568260",
"#	c #120C04",
"$	c #537D5C",
"%	c #DAD6BA",
"&	c #CABE8D",
"*	c #46734F",
"=	c #2D1584",
"-	c #5B2911",
";	c #886140",
">	c #B3A773",
",	c #684629",
"'	c #EDEAD5",
")	c #CBB519",
"!	c #9586BE",
"~	c #C3B6E6",
"{	c #735F33",
"]	c #866F3D",
"................................................................................................................................",
"................................................................................................................................",
"................................................................................................................................",
"................................................................................................................................",
"................................................................................................................................",
"...........................................................+++++++++............................................................",
"................................@@@.................+++++++++++++##++++.........................................................",
"...............................@$$$@................++++++#+++++++#+++++++......................................................",
"..............................@$$$$$@............+++++++++#+++#+++#+++#++++.....................................................",
"............................$$$$$$$$$@...........++#+#++++#++#++++#+++#++#++....................................................",
"...........................$$$$$$$$$$$%.........+++#++#+++#++#+++++#++#++#+++...................................................",
"..........................$$$$$$$$$$$&&%........++++#++++++#++##++++++#+++##+++.................................................",
".........................*$$$$$$$$$$&&&&%.....==#++++++#+++++++##++++++#+++#+#++................................................",
"........................*$$$$$$$$$$&&&&&&%....==#+##+++#++++++++#++++++++++#+#+++...............................................",
"........................*$$$$$$$$$&&&&&&&&%..++=++#+++++#++++++++#+++++++++#+#+#++..............................................",
"........................*$$$$$$$$&&&-&&&&&&%.+==+++++#++++++++#++++#++++++++##+#++..............................................",
"........................*$$$$$$$&&&&-&&&&&&&%+=++#+++#+++++#++#+++++#+;+#+++++##+#+.............................................",
".........................*$$$$$&&&&&-&---&&&$@+=+##++++;#+;#++;#+#+++;;++#+++++#+##.............................................",
"..........................*$$$&&&&----&&&&&$$$@+++#++;+;#+;#++;;+###+;;+++++#++#+##+............................................",
"...........................*$&&&--&&-&&&&&$$$$$@+#+++#++;#+#++;;+#+;#;;+++++##++###+............................................",
"............................>&&&&&&&-&&&&$$$$$$$@+#++##+###;#++;;++;;####++++#+++##+............................................",
".............................>&&&&&&&&&&$$$$$$$$@+#;;#######;#+;;;+;#####++++#+++###+...........................................",
"..............................>&&&&-&&&$$$$$$$$$@++;;;%%#####;;;;;####%%+++;++++#++#+...........................................",
"...............................>&&&&&&$$$$$$$$$$,,,;;,%%%%###;;;;####%%%+++;++++##++#...........................................",
"................................>&&&&$$$$$$$$$$$,;;;;,+++%%##;;;;###%%%%%,;++++++#+++...........................................",
".................................>&&$$$$$$$$$;;;;,;;;,+++%%,;;;;;;+++%%%,;;;+#+#++#+++..........................................",
"..................................>&$$$$$$$;;;;;;;,;;;,,,,,;;;;;;;,,,,,,;;;;+#+#++#+++..........................................",
"...................................>$$$$$;;;;;;;;;;,;;;;;;;;;;;;;;;;;;;;;;;;;#+#+++#++..........................................",
"....................................*%%%%%;;;;;;;;;;,;;;;;;;;,,;;;;;;;;;;;;;;#+#++++++..........................................",
"....................................%%''%%%;;;;;;;;;;,;;;;;;;,;;;;;;;;;;;;;;;;++++++++..........................................",
"...................................%%''''%%%;;;;;;;;;,;;;;;;;,,;;;;;;;;;;;;;;;+###++.+..........................................",
"..................................%%'''''''%%;;;;;;;;,;;;;;;;;;;;;;;;;;;;;;;;;###;#.............................................",
"..................................%'''''''''%%;;;;;;$$$;;;;;######;;;;;;;;;;;;;#);#.............................................",
".................................%'''''''''''%;;;;$$$$$$;####;;;;###;;;;;;;;;###) ).............................................",
"................................%'''''''''''''%;;$$$$$$$;#;;;;;;;;;#;;;;;;;;####) ).............................................",
"...............................%%'''''''''''''%;;$$$$$##;;;;;;;;;;;;;;#;;;;####..)..............................................",
"...............................%''''''''''''%%%..$$$###;;;;;;;;;;;;;;;;#;######.................................................",
"..............................%%''''''''''%%%%....#######;;;;;;;;;;;;;########..................................................",
".............................%%''''''''''%%%.......#######;;;;;;;;;;;########...................................................",
".............................%''''''''''%%.........########;;;;;;;;########,....................................................",
"............................%%''''''''''%...........,######################,....................................................",
"............................%'''''''''''%...........,,####################,,....................................................",
"............................%'''''''''''%...........,,,,,###############,,,;....................................................",
"............................%''''''''''%............;,,,,##############,,;;;....................................................",
"............................%''''''''''%.....%%%%%%%;;;;,,,,,,#######,,,;;;;%%%%%%..............................................",
"...........................%%''''''''''%....%%%%%%%%;;;;;,,,,,,,,,,,,,,;;;;;%%%%%%%.............................................",
"...........................%''''''''''%%....%''''''%%;;;;;;;;;,,,,,,,;;;;;;%%'''%%%%%%%.........................................",
"...........................%''''''''''%....%%''''''%%;;;;;;;;;;;;;;;;;;;;;;%%'''%%%%%%%.........................................",
"...........................%'''''''''%%%...%'''''''%%%;;;;;;;;;;;;;;;;;;;;;%%''''''''''%%.......................................",
"...........................%''''''''''%%%.%%'''''''%%%%%;;;;;;;;;;;;;;;;;%%%'''''''''''%%.......................................",
"...........................%''''''''''%'%%%'''''''''%%%%%;;;;;;;;;;;;;;%%%%''''''''''''''%%.....................................",
"...........................%''''''''''''''''''''''''''%%%%;;;;;;;;;;;;%%%%'''''''''''''''%%.....................................",
"...........................%'''''''''''''''''''''''''''%%%%;;;;;;;;;;%%%%''''''''''''''''''%%...................................",
"...........................%''''''''''''''''''''''''''''%%%;;;;;;;;;%%%''''''''''''''''''''%%...................................",
"...........................%'''''''''''''''''''''''''''''%%%%;;;;;;%%%'''''''''''''''''''''''%%.................................",
"...........................%%'''''''''''''''''''''''''''''%%%%;;;;%%%''''''''''''''''''''''''%%.................................",
"............................%''''''''''''''''''''''''''''''%%%%;;%%%''''''''''''''''''''''''''%%%...............................",
"............................%''''''''''''''''''''''''''''''''%%%%%%'''''''''''''''''''''''''''%%%...............................",
"............................%''''''''''''''''''''''''''''''%%'%%%%'%'''''''''''''''''''''''''''%%...............................",
".............................%'''''''''''''''''''''''''''''%'''%%''%%''''''''''''''''''''''''''%%...............................",
".............................%%'''''''''''''''''''''''''''%''''%%'''%%'''''''''''''''''''''''''%%...............................",
"..............................%%''''''''''''''''''''''''''%''''''''''%'''''''''''''''''''''''''%%...............................",
"...............................%%%''''''''%'''''''''''''''%%''%%%%%''%'''''''''''''''%%''''''''%%...............................",
".................................%%%%%%%%%%''''''''''''''''%'''''''''%'''''''''''''''%%''''''''%%...............................",
".........................................%%''''''''''''''''%'''''''''''''''''''''''''%%''''''''%%...............................",
".........................................%%''''''''''''''''%''%%%%%%'''''''''''''''''%%''''''''%%...............................",
".........................................%%''''''''''''''''''''''''''''''''''''''''''%%''''''''%%...............................",
".........................................%%''''''''''''''''''''''''''''''''''''''''''%%''''''''%%...............................",
".........................................%%''''''''''''''''''''''''''''''''''''''''''%%''''''''%%...............................",
".........................................%%''''''''''''''''''''''''''''''''''''''''''%%''''''''%%...............................",
".........................................%%''''''''''''''''''''''''''''''''''''''''''%%''''''''%%...............................",
".........................................%%''''''''''''''''''''''''''''''''''''''''''%%''''''''%%...............................",
".........................................%%''''''''''''''''''''''''''''''''''''''''''%%''''''''%%...............................",
".........................................%%''''''''''''''''''''''''''''''''''''''''''%%''''''''%%...............................",
".........................................%%''''''''''''''''''''''''''''''''''''''''''%%''''''''%%...............................",
".........................................%%''''''''''''''''''''''''''''''''''''''''''%%''''''''%%...............................",
".........................................%%''''''''''''''''''''''''''''''''''''''''''%%''''''''%%...............................",
".........................................%%''''''''''''''''''''''''''''''''''''''''''%%''''''''%%...............................",
".........................................!!!~~~~~~~~~~~~~~~~~~~~~~~~~~~~~~~!!!!!!!~~~!!''''''''%%...............................",
".........................................!!~~~~~~~~~~~!!!!!!!!!!!!!!!!!!~~~!!~~~!~~~!~!''''''''%%...............................",
".........................................!~~~~!!!!!!!!!!!!!!~~~~~~~~~~~~~~!!~~~~~~~~~~!''''''''%%...............................",
".........................................!!~~~~~~~~~~~~~~~~~~~~~~~~~~~~~~~~~~~~~~!!!~~!''''''''%%...............................",
".........................................!!!!~~~~~~~~~~~~~~~~~~~~~~~~~~~~~~~~~!!!~~~~!!''''''''%%...............................",
".........................................!!!~~~~~!!!~~~~~~~~~~~~~~~~~~~~~~~~~!~~~~~~!!!''''''''%%...............................",
".........................................!!~~~!!!~~~~~~~~~~~~!!!!!!!!!!~~~~~~~~~~~~~~!!''''''''%%...............................",
".........................................!~~~~~~~~~~~~~!!!!!!~~~~~~~~~~~~~~~~~~~~~~~~~!''''''''%%...............................",
".........................................!~~~~~~~~~~~~~~~~~~~~~~~~~~~~~~~~~~~~~~~~~!~~!,,,,,,,,,,...............................",
".........................................!~~~~!~~~~~~~~~~~~~~~~~~~~~~~~~~~~!!!!!!!!!~~!;;;;;;;;;;...............................",
".........................................!!~~!~~~~~~~~~!!!!!!~~~~~~~~~!!!!!~~~~~~~~~~!!;;;;;;;;;;...............................",
".........................................!!!~~~~~~!!!!!~~~~~~~~~~~~!~~~~~~~~~~~~~~~!!!!;;;;;;;;;;...............................",
".........................................!!~~~~~~~~~~~~~~~~~~~~~~!!!!~~~~~~~~~~~~~~!!!!;;;;;;;;;;...............................",
".........................................!!!!!~~~~~~~~~~~~~~~~!!!!!!~~~~~~~~~~~~~!!!!!!;;;;;;;;;;...............................",
".........................................{{{]]]]]]]]]]]]]]]]]]]]]]]]]]]]]]]]]]]]]]]]]]{;;;;;;;;;;...............................",
".........................................{{{]]]]]]]]]]]]]]]]]]]]]]]]]]]]]]]]]]]]]]]]]]{;;;;;;;;;;...............................",
".........................................{{{]]]]]]]]]]]]]]]]]]]]]]]]]]]]]]]]]]]]]]]]]]{{{.......................................",
".........................................{{{]]]]]]]]]]]]]]]]]......]]]]]]]]]]]]]]]]]]]{{{.......................................",
".........................................{{{]]]]]]]]]]]]]]]]]......]]]]]]]]]]]]]]]]]]]{{{.......................................",
".........................................{{{]]]]]]]]]]]]]]]]]......]]]]]]]]]]]]]]]]]]]{{{.......................................",
".........................................{{{]]]]]]]]]]]]]]]]]......]]]]]]]]]]]]]]]]]]]{{{.......................................",
".........................................{{{]]]]]]]]]]]]]]]]]......]]]]]]]]]]]]]]]]]]]{{{.......................................",
".........................................{{{]]]]]]]]]]]]]]]]]......]]]]]]]]]]]]]]]]]]]{{{.......................................",
".........................................{{{]]]]]]]]]]]]]]]]]......]]]]]]]]]]]]]]]]]]]{{{.......................................",
".........................................{{{]]]]]]]]]]]]]]]]]......]]]]]]]]]]]]]]]]]]]{{{.......................................",
".........................................{{{]]]]]]]]]]]]]]]]]......]]]]]]]]]]]]]]]]]]]{{{.......................................",
".........................................{{{]]]]]]]]]]]]]]]]]......]]]]]]]]]]]]]]]]]]]{{{.......................................",
".........................................{{{]]]]]]]]]]]]]]]]]......]]]]]]]]]]]]]]]]]]]{{{.......................................",
".........................................{{{]]]]]]]]]]]]]]]]]......]]]]]]]]]]]]]]]]]]]{{{.......................................",
".........................................{{{]]]]]]]]]]]]]]]]]......]]]]]]]]]]]]]]]]]]]{{{.......................................",
".........................................{{{]]]]]]]]]]]]]]]]]......]]]]]]]]]]]]]]]]]]]{{{.......................................",
".........................................{{{]]]]]]]]]]]]]]]]]......]]]]]]]]]]]]]]]]]]]{{{.......................................",
".........................................{{{]]]]]]]]]]]]]]]]]......]]]]]]]]]]]]]]]]]]]{{{.......................................",
".........................................{{{]]]]]]]]]]]]]]]]]......]]]]]]]]]]]]]]]]]]]{{{.......................................",
".........................................{{{]]]]]]]]]]]]]]]]]......{]]]]]]]]]]]]]]]]]{{{{.......................................",
".........................................{{{]]]]]]]]]]]]]]]]]......{{{]{{{{{{{{{{{{{{{{{{.......................................",
".........................................{{{]]]]]]]]]]]]]]]]]......{{{{{]]]]{{{{{]]]]]{{{.......................................",
".........................................{{{]]]]]]]]]]]]]]]]]......{{]]{{{{]]]]]]{{]{{]{{.......................................",
".........................................{{{]]]]]]]]]]]]]]]]]......{{{{]]]{{{]{{]]]]]{{]{.......................................",
".........................................{{{]]]]]]]]]]]]]]]]]......{{{{{{{{{{{{{{{{{{{{{{.......................................",
".........................................{{{]]]]]]]]]]]]]]]]]............,,,,,,,,,,,,...........................................",
".........................................{{{]]]]]]]]]]]]]]]]]............;;;;;;;;;;;;...........................................",
".........................................{{{]]]]]]]]]]]]]]]]]............;;;;;;;;;;;;...........................................",
".........................................{{{]]]]]]]]]]]]]]]]]............;;;;;;;;;;;;...........................................",
".........................................{{{{{{{{{{{{{{{{{{{{............;;;;;;;;;;;;...........................................",
"......................................;;;;;;;;;;;;;;;;;;;................;;;;;;;;;;;;;;;;;;;....................................",
"......................................;;;;;;;;;;;;;;;;;;;................;;;;;;;;;;;;;;;;;;;....................................",
"......................................;;;;;;;;;;;;;;;;;;;................;;;;;;;;;;;;;;;;;;;....................................",
"......................................;;;;;;;;;;;;;;;;;;;................;;;;;;;;;;;;;;;;;;;....................................",
"......................................;;;;;;;;;;;;;;;;;;;................;;;;;;;;;;;;;;;;;;;...................................."};
