/* XPM */
static char * pirate1_xpm[] = {
"128 128 22 1",
" 	c None",
".	c #0000FF",
"+	c #120C04",
"@	c #191106",
"#	c #2D1584",
"$	c #886140",
"%	c #DAD6BA",
"&	c #684629",
"*	c #CBB519",
"=	c #EDEAD5",
"-	c #9586BE",
";	c #C3B6E6",
">	c #568260",
",	c #537D5C",
"'	c #CABE8D",
")	c #46734F",
"!	c #5B2911",
"~	c #7B6948",
"{	c #88785C",
"]	c #735F33",
"^	c #866F3D",
"/	c #B3A773",
"................................................................................................................................",
"................................................................................................................................",
"................................................................................................................................",
"................................................................................................................................",
"................................................................................................................................",
"...........................................................++@@@@@++............................................................",
"....................................................++++@@@+@@@@@@@+@@@+........................................................",
"....................................................+@+@@@@+@@@+@@@+@@@+@@+.....................................................",
".................................................++@+@+@@@@+@@+@@@@+@@@+@@+@+...................................................",
".................................................+@@+@@@@@@+@@+@@@@@@@@+@@+@+...................................................",
"................................................@+@@@@@@@@@@@@@@+@@@@@@+@@@@+@+.................................................",
"................................................@+@@@@@@+@@@@@@@++@@@@@@@@@@+@+@+...............................................",
"..............................................##@+@++@@@+@@@@@@@@+@@@@@@@@@@+@+@+...............................................",
"..............................................##@+@+@@@@@@@@@@@@@@@@@@@@@@@@+@+@+@+.............................................",
".............................................@+#@+@+@@+@@@@@@@@@@@@@@@@@@@@@@@+@+@+.............................................",
".............................................@##@@@+@@+@@@@@+@@@@@@@@@@+@@@@@@@@+@++............................................",
".............................................@#@@@@@@@+@+@@$+@@$@@+@@@++@@@@@@@@+@++............................................",
"............................................+@+#+@@@@@+@+@@$+@$$$@++@@++@@@@@+@@+@+++...........................................",
"............................................+@#@+@@@@$$@+@@$+@$$$@+$$@+$@+@@@++@@@+++...........................................",
"...........................................@+@##+@@++++++@@$+@$$$@@+$@+$@++++@+@@@+++...........................................",
"...........................................@#@##@@@+++++++$$+@$$$$@++++++++++@+@@@+++...........................................",
"...........................................##@##@+@$$+++++++$$$$$$$+++++++@$$@@@@+@@+...........................................",
"...........................................#@@@#@+@$$$%%+++++$$$$+++++%%@+@$$@@@@++@+...........................................",
"...........................................##@@@@+@$$$%%%%+++$$$$++++%%%@++$$@@@@@+@@...........................................",
"...........................................@#@#+@+@$$$%%%%%%$$$$$$%%%%%%%$$$$@+@+@@@@...........................................",
"...........................................#+@##@+@$$$@@@%%%$$$$$$@@@%%%%$$$$@+@+@@+@...........................................",
"...........................................##@@#@$$$$$@@@%%%$$$$$$@@@%%%%$$$$@+@+@@+@...........................................",
"...........................................##@@+@$$$$$@@@%%%$$$$$$@@@%%%%$$$$@+@+$$+@...........................................",
"...........................................@#$$+@$$$$$$$$$$$$$&$$$$$$$$$$$$$$$+@+$$+@...........................................",
"...........................................@#$$+@$$$$$$$$$$$$&&$$$$$$$$$$$$$$$$$+$$$............................................",
".............................................$$+$$$$$$$$$$$$$&$$$$$$$$$$$$$$$$$++*$$............................................",
".............................................$$+$$$$$$$$$$$$$&&&$$$$$$$$$$$$$$$++* *............................................",
"...............................................++$$$$$$$$$$$$$$$$$$$$$$$$$$$$$$++* *............................................",
"...............................................+++$$$$$$$$$$+++++++$$$$$$$$$$$+++.*.............................................",
"...............................................+++++$$$$$++++$$$$$++++$+$$$$$+++................................................",
"................................................+++++$++$+$$$$$$$$$$$+$$+$++++++................................................",
".................................................++++++$$$$$$$$$$$$$$$$$+++++++.................................................",
".................................................++++++++$$$$$$$$$$$$$++++++++..................................................",
"...................................................+++++++$$$$$$$$$$$++++++++...................................................",
"...................................................+++++++++$$$$$$$$+++++++&....................................................",
"....................................................&++++++++++++++++++++&&&....................................................",
"....................................................&++++++++++++++++++++&&&....................................................",
"....................................................&&&&&++++++++++++++&&&&$....................................................",
"....................................................$&&&&++++++++++++++&&&$$....................................................",
"...............................................%%%%%$$$$&&&&&&&&&&&&&&&&&$$$%%%%%%..............................................",
"..............................................%%%%%%$$$$$&&&&&&&&&&&&&&&$$$$%%%%%%%.............................................",
".........................................%%%%%%%%==%%$$$$$$$$$$$$$$$$$$$$$$%%===%%%%%%%.........................................",
".........................................%%%%%%%%==%%$$$$$$$$$$$$$$$$$$$$$$%%===%%%%%%%.........................................",
".......................................%%==========%%%$$$$$$$$$$$$$$$$$$$$$%%==========%%.......................................",
".......................................%%==========%%%%%$$$$$$$$$$$$$$$$$%%%===========%%.......................................",
"...................................%%%%=============%%%%%$$$$$$$$$$$$$$%%%%==============%%.....................................",
"...................................%%%%===============%%%%$$$$$$$$$$$$%%%%===============%%.....................................",
".................................%%%%==================%%%%$$$$$$$$$$%%%%==================%%...................................",
".................................%%%%===================%%%$$$$$$$$$%%%====================%%...................................",
".................................%%======================%%%%$$$$$$%%%=======================%%.................................",
".................................%%=======================%%%%$$$$%%%========================%%.................................",
"...............................%%%=========================%%%%$$%%%==========================%%%...............................",
"...............................%%%===========================%%%%%%===========================%%%...............................",
"...............................%%==========================%%=%%%%=%===========================%%...............................",
"...............................%%==========================%===%%==%%==========================%%...............................",
"...............................%%=========================%====%%===%%=========================%%...............................",
"...............................%%=========================%==========%=========================%%...............................",
"...............................%%========%%===============%%==%%%%%==%===============%%========%%...............................",
"...............................%%========%%================%=========%===============%%========%%...............................",
"...............................%%========%%================%=========================%%========%%...............................",
"...............................%%========%%================%==%%%%%%=================%%========%%...............................",
"...............................%%========%%==========================================%%========%%...............................",
"...............................%%========%%==========================================%%========%%...............................",
"...............................%%========%%==========================================%%========%%...............................",
"...............................%%========%%==========================================%%========%%...............................",
"...............................%%========%%==========================================%%========%%...............................",
"...............................%%========%%==========================================%%========%%...............................",
"...............................%%========%%==========================================%%========%%...............................",
"...............................%%========%%==========================================%%========%%...............................",
"...............................%%========%%==========================================%%========%%...............................",
"...............................%%========%%==========================================%%========%%...............................",
"...............................%%========%%==========================================%%========%%...............................",
"...............................%%========%%==========================================%%========%%...............................",
"...............................%%========---;;;;;;;;;;;;;;;;;;;;;;;;;;;;;;;-------;;;--========%%...............................",
"...............................%%========--;;;;;;;;;;;------------------;;;--;;;-;;;-;-========%%...............................",
"...............................%%========-;;;;--------------;;;;;;;;;;;;;;--;;;;;;;;;;-========%%...............................",
"...............................%%========--;;;;;;;;;;;;;;;;;;;;;;;;;;;;;;;;;;;;;;---;;-========%%...............................",
"...............................%%========----;;;;;;;;;;;;;;;;;;;;;;;;;;;;;;;;;---;;;;--========%%...............................",
"...............................%%========---;;;;;---;;;;;;;;;;;;;;;;;;;;;;;;;-;;;;;;---========%%...............................",
"...............................%%========--;;;---;;;;;;;;;;;;----------;;;;;;;;;;;;;;--========%%...............................",
"..............>>>>%%%%%%%>>>>..%%========-;;;;;;;;;;;;;------;;;;;;;;;;;;;;;;;;;;;;;;;-========%%...............................",
".............>>,,,''''''',,,>>)&&&&&&&&&&----;;;;;;;;;;;;;;;;;;;;;;;;;;;;;;;;;;;;;;-;;-&&&&&&&&&&...............................",
".............>,,,,'!'''!',,,,,)$$$$$$$$$$-->---;;;;;;;;;;;;;;;;;;;;;;;;;;;;---------;;-$$$$$$$$$$...............................",
".............,,,,,''!'!'',,,,,)$$$$$$$$$$),,~{-;;;;;;;;------;;;;;;;;;-----;;;;;;;;;;--$$$$$$$$$$...............................",
".............,,,,,'''!''',,,,,)$$$$$$$$$$),,~{-;;;-----;;;;;;;;;;;;-;;;;;;;;;;;;;;;----$$$$$$$$$$...............................",
".............,,,,,''!'!'',,,,,)$$$$$$$$$$),,~{-;;;;;;;;;;;;;;;;;;----;;;;;;;;;;;;;;----$$$$$$$$$$...............................",
".............,,,,,'!''''',,,,,)$$$$$$$$$$)))~~-;;;;;;;;;;;;;;;------;;;;;;;;;;;;;------$$$$$$$$$$...............................",
".............),,,,'''''!',,,,,)$$$$$$$$$$]])]]]^^^^^^^^^^^^^^^^^^^^^^^^^^^^^^^^^^^^^^^]$$$$$$$$$$...............................",
".............)),,,''''''',,,)))$$$$$$$$$$]]]]^^^^^^^^^^^^^^^^^^^^^^^^^^^^^^^^^^^^^^^^^]$$$$$$$$$$...............................",
"..............))))///////))))............]]]^^^^^^^^^^^^^^^^^^^^^^^^^^^^^^^^^^^^^^^^^^]]].......................................",
".........................................]]]^^^^^^^^^^^^^^^^^......^^^^^^^^^^^^^^^^^^^]]].......................................",
".........................................]]]^^^^^^^^^^^^^^^^^......^^^^^^^^^^^^^^^^^^^]]].......................................",
".........................................]]]^^^^^^^^^^^^^^^^^......^^^^^^^^^^^^^^^^^^^]]].......................................",
".........................................]]]^^^^^^^^^^^^^^^^^......^^^^^^^^^^^^^^^^^^^]]].......................................",
".........................................]]]^^^^^^^^^^^^^^^^^......^^^^^^^^^^^^^^^^^^^]]].......................................",
".........................................]]]^^^^^^^^^^^^^^^^^......^^^^^^^^^^^^^^^^^^^]]].......................................",
".........................................]]]^^^^^^^^^^^^^^^^^......^^^^^^^^^^^^^^^^^^^]]].......................................",
".........................................]]]^^^^^^^^^^^^^^^^^......^^^^^^^^^^^^^^^^^^^]]].......................................",
".........................................]]]^^^^^^^^^^^^^^^^^......^^^^^^^^^^^^^^^^^^^]]].......................................",
".........................................]]]^^^^^^^^^^^^^^^^^......^^^^^^^^^^^^^^^^^^^]]].......................................",
".........................................]]]^^^^^^^^^^^^^^^^^......^^^^^^^^^^^^^^^^^^^]]].......................................",
".........................................]]]^^^^^^^^^^^^^^^^^......^^^^^^^^^^^^^^^^^^^]]].......................................",
".........................................]]]^^^^^^^^^^^^^^^^^......^^^^^^^^^^^^^^^^^^^]]].......................................",
".........................................]]]^^^^^^^^^^^^^^^^^......^^^^^^^^^^^^^^^^^^^]]].......................................",
".........................................]]]^^^^^^^^^^^^^^^^^......^^^^^^^^^^^^^^^^^^^]]].......................................",
".........................................]]]^^^^^^^^^^^^^^^^^......^^^^^^^^^^^^^^^^^^^]]].......................................",
".........................................]]]^^^^^^^^^^^^^^^^^......^^^^^^^^^^^^^^^^^^^]]].......................................",
".........................................]]]^^^^^^^^^^^^^^^^^......]^^^^^^^^^^^^^^^^^]]]].......................................",
".........................................]]]^^^^^^^^^^^^^^^^^......]]]^]]]]]]]]]]]]]]]]]].......................................",
".........................................]]]^^^^^^^^^^^^^^^^^......]]]]]^^^^]]]]]^^^^^]]].......................................",
".........................................]]]^^^^^^^^^^^^^^^^^......]]^^]]]]^^^^^^]]^]]^]].......................................",
".........................................]]]^^^^^^^^^^^^^^^^^......]]]]^^^]]]^]]^^^^^]]^].......................................",
".........................................]]]^^^^^^^^^^^^^^^^^......]]]]]]]]]]]]]]]]]]]]]].......................................",
".........................................]]]^^^^^^^^^^^^^^^^^............&&&&&&&&&&&&...........................................",
".........................................]]]^^^^^^^^^^^^^^^^^............$$$$$$$$$$$$...........................................",
".........................................]]]^^^^^^^^^^^^^^^^^............$$$$$$$$$$$$...........................................",
".........................................]]]^^^^^^^^^^^^^^^^^............$$$$$$$$$$$$...........................................",
".........................................]]]]]]]]]]]]]]]]]]]]............$$$$$$$$$$$$...........................................",
"......................................$$$$$$$$$$$$$$$$$$$................$$$$$$$$$$$$$$$$$$$....................................",
"......................................$$$$$$$$$$$$$$$$$$$................$$$$$$$$$$$$$$$$$$$....................................",
"......................................$$$$$$$$$$$$$$$$$$$................$$$$$$$$$$$$$$$$$$$....................................",
"......................................$$$$$$$$$$$$$$$$$$$................$$$$$$$$$$$$$$$$$$$....................................",
"......................................$$$$$$$$$$$$$$$$$$$................$$$$$$$$$$$$$$$$$$$...................................."};
